; generated by Slic3r 1.3.0 on 2023-03-08 at 23:37:09

; external perimeters extrusion width = 0.44mm (2.78mm^3/s)
; perimeters extrusion width = 0.40mm (7.14mm^3/s)
; infill extrusion width = 0.50mm (10.97mm^3/s)
; solid infill extrusion width = 0.60mm (6.68mm^3/s)
; top infill extrusion width = 0.40mm (2.14mm^3/s)

M107
M190 S80 ; set bed temperature and wait for it to be reached
M104 S210 ; set temperature
G28 ; home all axes
G1 Z5 F5000 ; lift nozzle

; Filament gcode

M109 S210 ; set temperature and wait for it to be reached
G21 ; set units to millimeters
G90 ; use absolute coordinates
M82 ; use absolute distances for extrusion
G92 E0
G1 Z0.300 F30000.000
G1 E-2.00000 F2400.00000
G92 E0
G1 X40.823 Y53.533 F30000.000
G1 E2.00000 F2400.00000
G1 F2100
G1 X41.693 Y52.901 E2.07182
G1 X43.404 Y51.914 E2.20380
G1 X44.386 Y51.476 E2.27562
G1 X46.265 Y50.866 E2.40759
G1 X47.316 Y50.642 E2.47941
G1 X49.281 Y50.436 E2.61139
G1 X50.356 Y50.436 E2.68321
G1 X52.532 Y50.669 E2.82944
G1 X87.287 Y55.787 E5.17629
G1 X89.187 Y56.468 E5.31113
G1 X90.174 Y57.239 E5.39478
G1 X92.949 Y60.014 E5.65696
G1 X94.068 Y61.693 E5.79180
G1 X94.455 Y63.674 E5.92664
G1 X93.760 Y66.232 E6.10371
G1 X92.831 Y67.832 E6.22731
G1 X92.020 Y68.886 E6.31616
G1 X89.566 Y71.341 E6.54804
G1 X87.886 Y72.460 E6.68288
G1 X86.897 Y72.755 E6.75186
G1 X52.750 Y79.294 E9.07448
G1 X52.321 Y79.358 E9.10350
G1 X50.356 Y79.564 E9.23547
G1 X49.281 Y79.564 E9.30729
G1 X47.316 Y79.358 E9.43927
G1 X46.265 Y79.134 E9.51109
G1 X46.121 Y79.087 E9.52114
G1 X44.386 Y78.524 E9.64306
G1 X43.404 Y78.086 E9.71488
G1 X41.693 Y77.099 E9.84686
G1 X40.823 Y76.467 E9.91868
G1 X39.355 Y75.145 E10.05066
G1 X38.636 Y74.346 E10.12248
G1 X37.474 Y72.748 E10.25446
G1 X36.937 Y71.816 E10.32628
G1 X36.133 Y70.012 E10.45825
G1 X35.801 Y68.989 E10.53007
G1 X35.390 Y67.057 E10.66205
G1 X35.278 Y65.988 E10.73387
G1 X35.278 Y64.012 E10.86584
G1 X35.390 Y62.943 E10.93767
G1 X35.801 Y61.011 E11.06964
G1 X36.133 Y59.988 E11.14146
G1 X36.937 Y58.184 E11.27343
G1 X37.474 Y57.252 E11.34526
G1 X38.636 Y55.654 E11.47723
G1 X39.355 Y54.855 E11.54905
G1 X40.778 Y53.574 E11.67702
G1 X41.181 Y53.931 F30000.000
G1 F2100
G1 X41.961 Y53.365 E11.74136
G1 X43.671 Y52.378 E11.87334
G1 X44.551 Y51.986 E11.93768
G1 X46.430 Y51.375 E12.06965
G1 X47.372 Y51.175 E12.13399
G1 X49.337 Y50.969 E12.26597
G1 X50.300 Y50.969 E12.33031
G1 X52.454 Y51.199 E12.47505
G1 X87.209 Y56.317 E14.82190
G1 X88.999 Y56.981 E14.94945
G1 X89.795 Y57.617 E15.01754
G1 X92.570 Y60.392 E15.27972
G1 X93.611 Y61.993 E15.40727
G1 X93.914 Y63.878 E15.53482
G1 X93.297 Y65.963 E15.68008
G1 X92.368 Y67.563 E15.80368
G1 X91.641 Y68.508 E15.88328
G1 X89.187 Y70.962 E16.11515
G1 X86.796 Y72.229 E16.29594
G1 X52.650 Y78.768 E18.61856
G1 X52.265 Y78.825 E18.64455
G1 X50.300 Y79.031 E18.77653
G1 X49.337 Y79.031 E18.84087
G1 X47.372 Y78.825 E18.97284
G1 X46.430 Y78.625 E19.03718
G1 X46.287 Y78.578 E19.04723
G1 X44.551 Y78.014 E19.16916
G1 X43.671 Y77.622 E19.23350
G1 X41.961 Y76.635 E19.36547
G1 X41.181 Y76.069 E19.42981
G1 X39.713 Y74.747 E19.56179
G1 X39.069 Y74.031 E19.62613
G1 X37.908 Y72.433 E19.75811
G1 X37.426 Y71.599 E19.82245
G1 X36.623 Y69.794 E19.95442
G1 X36.325 Y68.878 E20.01876
G1 X35.914 Y66.946 E20.15074
G1 X35.814 Y65.988 E20.21508
G1 X35.814 Y64.012 E20.34705
G1 X35.914 Y63.054 E20.41140
G1 X36.325 Y61.122 E20.54337
G1 X36.623 Y60.206 E20.60771
G1 X37.426 Y58.401 E20.73968
G1 X37.908 Y57.567 E20.80403
G1 X39.069 Y55.969 E20.93600
G1 X39.713 Y55.253 E21.00034
G1 X41.137 Y53.972 E21.12831
G1 X41.540 Y54.329 F30000.000
G1 F2100
G1 X42.228 Y53.829 E21.18517
G1 X43.939 Y52.841 E21.31715
G1 X44.717 Y52.495 E21.37401
G1 X46.596 Y51.885 E21.50598
G1 X47.428 Y51.708 E21.56284
G1 X49.393 Y51.501 E21.69482
G1 X50.244 Y51.501 E21.75167
G1 X52.376 Y51.729 E21.89493
G1 X87.131 Y56.847 E24.24178
G1 X89.417 Y57.996 E24.41268
G1 X92.192 Y60.771 E24.67486
G1 X93.149 Y62.288 E24.79468
G1 X93.362 Y64.069 E24.91450
G1 X92.834 Y65.694 E25.02870
G1 X91.905 Y67.294 E25.15230
G1 X91.263 Y68.129 E25.22264
G1 X88.808 Y70.583 E25.45452
G1 X86.695 Y71.703 E25.61428
G1 X52.549 Y78.242 E27.93690
G1 X50.244 Y78.499 E28.09183
G1 X49.393 Y78.499 E28.14869
G1 X47.428 Y78.292 E28.28067
G1 X46.596 Y78.115 E28.33752
G1 X46.452 Y78.069 E28.34758
G1 X44.717 Y77.505 E28.46950
G1 X43.939 Y77.159 E28.52636
G1 X42.228 Y76.171 E28.65834
G1 X41.540 Y75.670 E28.71520
G1 X40.072 Y74.349 E28.84717
G1 X39.502 Y73.716 E28.90403
G1 X38.341 Y72.118 E29.03601
G1 X37.915 Y71.381 E29.09287
G1 X37.112 Y69.576 E29.22485
G1 X36.849 Y68.767 E29.28170
G1 X36.438 Y66.834 E29.41368
G1 X36.349 Y65.988 E29.47054
G1 X36.349 Y64.012 E29.60251
G1 X36.438 Y63.166 E29.65938
G1 X36.849 Y61.233 E29.79135
G1 X37.112 Y60.424 E29.84821
G1 X37.915 Y58.619 E29.98018
G1 X38.341 Y57.882 E30.03704
G1 X39.502 Y56.284 E30.16902
G1 X40.072 Y55.651 E30.22588
G1 X41.495 Y54.370 E30.35385
G1 X41.898 Y54.728 F30000.000
G1 F2100
G1 X42.496 Y54.293 E30.40323
G1 X44.207 Y53.305 E30.53521
G1 X44.882 Y53.005 E30.58458
G1 X46.761 Y52.394 E30.71656
G1 X47.484 Y52.241 E30.76594
G1 X49.449 Y52.034 E30.89791
G1 X50.188 Y52.034 E30.94729
G1 X52.298 Y52.259 E31.08907
G1 X87.053 Y57.377 E33.43591
G1 X89.038 Y58.375 E33.58433
G1 X91.813 Y61.150 E33.84650
G1 X92.681 Y62.576 E33.95806
G1 X92.799 Y64.242 E34.06962
G1 X92.370 Y65.425 E34.15368
G1 X91.441 Y67.025 E34.27728
G1 X90.884 Y67.750 E34.33837
G1 X88.430 Y70.204 E34.57025
G1 X86.595 Y71.177 E34.70899
G1 X52.448 Y77.716 E37.03161
G1 X50.188 Y77.966 E37.18352
G1 X49.449 Y77.966 E37.23290
G1 X47.484 Y77.759 E37.36487
G1 X46.761 Y77.606 E37.41425
G1 X46.618 Y77.559 E37.42431
G1 X44.882 Y76.995 E37.54623
G1 X44.207 Y76.695 E37.59561
G1 X42.496 Y75.707 E37.72758
G1 X41.898 Y75.272 E37.77696
G1 X40.430 Y73.951 E37.90894
G1 X39.935 Y73.401 E37.95832
G1 X38.774 Y71.803 E38.09030
G1 X38.405 Y71.163 E38.13968
G1 X37.601 Y69.358 E38.27165
G1 X37.373 Y68.655 E38.32103
G1 X36.962 Y66.723 E38.45300
G1 X36.885 Y65.988 E38.50238
G1 X36.885 Y64.012 E38.63436
G1 X36.962 Y63.277 E38.68374
G1 X37.373 Y61.345 E38.81572
G1 X37.601 Y60.642 E38.86509
G1 X38.405 Y58.837 E38.99707
G1 X38.774 Y58.197 E39.04645
G1 X39.935 Y56.599 E39.17842
G1 X40.430 Y56.049 E39.22780
G1 X41.854 Y54.768 E39.35577
G1 E37.35577 F2400.00000
G92 E0
G1 X46.016 Y61.570 F30000.000
G1 E2.00000 F2400.00000
G1 F2100
G1 X46.016 Y61.909 E2.02263
G1 X46.272 Y61.932 E2.03979
G1 X46.854 Y62.136 E2.08097
G1 X47.414 Y62.459 E2.12418
G1 X47.902 Y62.899 E2.16805
G1 X48.288 Y63.430 E2.21191
G1 X48.555 Y64.030 E2.25577
G1 X48.692 Y64.672 E2.29963
G1 X48.692 Y65.328 E2.34349
G1 X48.555 Y65.970 E2.38735
G1 X48.288 Y66.570 E2.43121
G1 X47.902 Y67.101 E2.47507
G1 X47.414 Y67.541 E2.51893
G1 X46.846 Y67.869 E2.56279
G1 X46.221 Y68.072 E2.60665
G1 X45.568 Y68.140 E2.65051
G1 X44.915 Y68.072 E2.69437
G1 X44.291 Y67.869 E2.73823
G1 X43.722 Y67.541 E2.78209
G1 X43.235 Y67.101 E2.82595
G1 X42.849 Y66.570 E2.86982
G1 X42.582 Y65.970 E2.91368
G1 X42.445 Y65.328 E2.95754
G1 X42.445 Y64.672 E3.00139
G1 X42.582 Y64.030 E3.04526
G1 X42.849 Y63.430 E3.08911
G1 X43.235 Y62.899 E3.13298
G1 X43.722 Y62.459 E3.17684
G1 X44.291 Y62.131 E3.22070
G1 X45.959 Y61.589 E3.33789
G1 X45.939 Y62.440 F30000.000
G1 F2100
G1 X46.158 Y62.460 E3.35262
G1 X46.630 Y62.625 E3.38600
G1 X47.098 Y62.895 E3.42210
G1 X47.502 Y63.259 E3.45844
G1 X47.822 Y63.699 E3.49478
G1 X48.043 Y64.196 E3.53112
G1 X48.156 Y64.728 E3.56746
G1 X48.156 Y65.272 E3.60380
G1 X48.043 Y65.804 E3.64013
G1 X47.822 Y66.301 E3.67647
G1 X47.502 Y66.741 E3.71281
G1 X47.098 Y67.105 E3.74915
G1 X46.627 Y67.377 E3.78549
G1 X46.109 Y67.545 E3.82183
G1 X45.568 Y67.602 E3.85817
G1 X45.027 Y67.545 E3.89451
G1 X44.510 Y67.377 E3.93085
G1 X44.039 Y67.105 E3.96718
G1 X43.635 Y66.741 E4.00352
G1 X43.315 Y66.301 E4.03986
G1 X43.094 Y65.804 E4.07620
G1 X42.981 Y65.272 E4.11254
G1 X42.981 Y64.728 E4.14888
G1 X43.094 Y64.196 E4.18522
G1 X43.315 Y63.699 E4.22155
G1 X43.635 Y63.259 E4.25789
G1 X44.039 Y62.895 E4.29423
G1 X44.510 Y62.623 E4.33057
G1 X45.481 Y62.308 E4.39876
G1 X45.481 Y62.399 E4.40485
G1 X45.879 Y62.435 E4.43155
G1 X46.077 Y62.268 F30000.000
G1 E2.43155 F2400.00000
G92 E0
G1 X57.496 Y62.814 F30000.000
G1 E2.00000 F2400.00000
G1 F2100
G1 X57.496 Y66.086 E2.21854
G1 X66.692 Y66.086 E2.83282
G1 X64.613 Y68.164 E3.02921
G1 X57.782 Y68.164 E3.48554
G1 X57.274 Y69.305 E3.56893
G1 X56.216 Y70.761 E3.68917
G1 X54.879 Y71.965 E3.80941
G1 X53.320 Y72.865 E3.92965
G1 X51.608 Y73.421 E4.04989
G1 X49.818 Y73.609 E4.17013
G1 X48.028 Y73.421 E4.29038
G1 X46.317 Y72.865 E4.41062
G1 X44.758 Y71.965 E4.53086
G1 X43.420 Y70.761 E4.65110
G1 X42.362 Y69.305 E4.77134
G1 X41.630 Y67.660 E4.89158
G1 X41.256 Y65.900 E5.01182
G1 X41.256 Y64.100 E5.13206
G1 X41.630 Y62.340 E5.25231
G1 X42.362 Y60.695 E5.37255
G1 X43.420 Y59.239 E5.49279
G1 X44.758 Y58.035 E5.61303
G1 X46.317 Y57.135 E5.73327
G1 X48.028 Y56.579 E5.85351
G1 X49.818 Y56.391 E5.97375
G1 X51.608 Y56.579 E6.09399
G1 X53.320 Y57.135 E6.21424
G1 X54.879 Y58.035 E6.33448
G1 X56.216 Y59.239 E6.45472
G1 X57.274 Y60.695 E6.57496
G1 X57.726 Y61.711 E6.64921
G1 X86.192 Y61.711 E8.55084
G1 X87.295 Y62.814 E8.65512
G1 X57.556 Y62.814 E10.64185
G1 E8.64185 F2400.00000
G92 E0
G1 X57.332 Y62.650 F30000.000
G1 X70.314 Y66.250 F30000.000
G1 X69.918 Y66.086 F30000.000
G1 E2.00000 F2400.00000
G1 F2100
G1 X73.617 Y66.086 E2.24711
G1 X72.663 Y67.039 E2.33721
G1 X70.871 Y67.039 E2.45689
G1 X69.960 Y66.128 E2.54299
G1 E0.54299 F2400.00000
G92 E0
G1 X58.032 Y65.550 F30000.000
G1 E2.00000 F2400.00000
G1 F2100
G1 X74.910 Y65.550 E3.12751
G1 X72.885 Y67.575 E3.31883
G1 X70.860 Y67.575 E3.45411
G1 X70.755 Y67.680 E3.46403
G1 X69.500 Y66.425 E3.58260
G1 X67.110 Y66.425 E3.74226
G1 X64.835 Y68.700 E3.95720
G1 X58.130 Y68.700 E4.40511
G1 X57.741 Y69.574 E4.46902
G1 X56.617 Y71.121 E4.59679
G1 X55.195 Y72.401 E4.72455
G1 X53.539 Y73.357 E4.85231
G1 X51.720 Y73.948 E4.98008
G1 X49.818 Y74.148 E5.10784
G1 X47.916 Y73.948 E5.23560
G1 X46.098 Y73.357 E5.36336
G1 X44.441 Y72.401 E5.49113
G1 X43.020 Y71.121 E5.61889
G1 X41.896 Y69.574 E5.74665
G1 X41.118 Y67.827 E5.87442
G1 X40.720 Y65.956 E6.00218
G1 X40.720 Y64.044 E6.12994
G1 X41.118 Y62.173 E6.25771
G1 X41.896 Y60.426 E6.38547
G1 X43.020 Y58.879 E6.51323
G1 X44.441 Y57.599 E6.64100
G1 X46.098 Y56.643 E6.76876
G1 X47.916 Y56.052 E6.89652
G1 X49.818 Y55.852 E7.02428
G1 X51.720 Y56.052 E7.15205
G1 X53.539 Y56.643 E7.27981
G1 X55.195 Y57.599 E7.40757
G1 X56.617 Y58.879 E7.53534
G1 X57.741 Y60.426 E7.66310
G1 X58.074 Y61.175 E7.71787
G1 X86.414 Y61.175 E9.61109
G1 X88.589 Y63.350 E9.81658
G1 X58.032 Y63.350 E11.85791
G1 X58.032 Y65.490 E12.00088
G1 X57.840 Y65.901 F30000.000
G1 E10.00088 F2400.00000
G92 E0
G1 X77.993 Y66.086 F30000.000
G1 E2.00000 F2400.00000
G1 F2100
G1 X81.117 Y66.086 E2.20869
G1 X79.555 Y67.648 E2.35626
G1 X78.035 Y66.128 E2.49982
G1 X76.700 Y65.550 F30000.000
G1 F2100
G1 X82.410 Y65.550 E2.88128
G1 X79.810 Y68.150 E3.12692
G1 X79.300 Y68.150 E3.16100
G1 X76.742 Y65.592 E3.40263
G1 X77.089 Y65.642 F30000.000
G1 E1.40263 F2400.00000
G92 E0
G1 X85.493 Y66.086 F30000.000
G1 E2.00000 F2400.00000
G1 F2100
G1 X86.367 Y66.086 E2.05838
G1 X85.930 Y66.523 E2.09966
G1 X85.535 Y66.128 E2.13693
G1 X85.930 Y67.280 F30000.000
G1 F2100
G1 X84.200 Y65.550 E2.30038
G1 X87.660 Y65.550 E2.53153
G1 X85.972 Y67.238 E2.69097
G1 X86.316 Y67.176 F30000.000
G1 E0.69097 F2400.00000
G92 E0
G1 X85.963 Y62.262 F30000.000
G1 X86.365 Y62.262 F30000.000
G1 E2.00000 F2400.00000
G1 F2100
G1 X57.679 Y62.262 E3.80239
G1 E1.80239 F2400.00000
G92 E0
G1 X55.082 Y61.961 F30000.000
G1 X52.870 Y62.508 F30000.000
G1 X53.091 Y65.096 F30000.000
G1 X53.030 Y66.250 F30000.000
G1 X57.332 Y66.250 F30000.000
G1 X57.332 Y67.159 F30000.000
G1 X64.182 Y67.125 F30000.000
G1 X64.545 Y68.000 F30000.000
G1 X64.334 Y67.686 F30000.000
G1 E2.00000 F2400.00000
G1 F2100
G1 X65.455 Y66.564 E2.10809
G1 X64.682 Y66.564 E2.16078
G1 X63.561 Y67.686 E2.26887
G1 X62.788 Y67.686 E2.32157
G1 X63.909 Y66.564 E2.42966
G1 X63.136 Y66.564 E2.48235
G1 X62.015 Y67.686 E2.59044
G1 X61.242 Y67.686 E2.64314
G1 X62.363 Y66.564 E2.75123
G1 X61.590 Y66.564 E2.80392
G1 X60.469 Y67.686 E2.91201
G1 X59.696 Y67.686 E2.96470
G1 X60.817 Y66.564 E3.07279
G1 X60.044 Y66.564 E3.12549
G1 X58.923 Y67.686 E3.23358
G1 X58.150 Y67.686 E3.28627
G1 X59.271 Y66.564 E3.39436
G1 X58.499 Y66.564 E3.44705
G1 X52.435 Y72.628 E4.03163
G1 X51.440 Y72.951 E4.10297
G1 X51.327 Y72.963 E4.11071
G1 X57.726 Y66.564 E4.72761
G1 X57.018 Y66.564 E4.77587
G1 X57.018 Y66.499 E4.78030
G1 X50.463 Y73.054 E5.41222
G1 X49.762 Y73.128 E5.46030
G1 X49.630 Y73.114 E5.46931
G1 X57.018 Y65.726 E6.18152
G1 X57.018 Y64.953 E6.23422
G1 X48.931 Y73.040 E7.01386
G1 X48.231 Y72.967 E7.06181
G1 X57.018 Y64.180 E7.90888
G1 X57.018 Y63.408 E7.96158
G1 X47.623 Y72.802 E8.86726
G1 X47.040 Y72.612 E8.90908
G1 X57.018 Y62.635 E9.87101
G1 X57.018 Y62.222 E9.89913
G1 X57.200 Y62.222 E9.91158
G1 X57.200 Y61.679 E9.94859
G1 X46.460 Y72.419 E10.98402
G1 X45.970 Y72.136 E11.02259
G1 X56.968 Y61.139 E12.08284
G1 X56.865 Y60.908 E12.10008
G1 X56.680 Y60.653 E12.12151
G1 X45.480 Y71.853 E13.20127
G1 X44.995 Y71.566 E13.23973
G1 X56.355 Y60.206 E14.33493
G1 X56.029 Y59.758 E14.37265
G1 X44.588 Y71.200 E15.47570
G1 X44.181 Y70.833 E15.51301
G1 X46.512 Y68.502 E15.73775
G1 X46.390 Y68.542 E15.74652
G1 X45.620 Y68.622 E15.79931
G1 X43.774 Y70.467 E15.97722
G1 X43.447 Y70.022 E16.01491
G1 X44.920 Y68.548 E16.15695
G1 X44.327 Y68.369 E16.19922
G1 X43.122 Y69.574 E16.31541
G1 X42.797 Y69.126 E16.35314
G1 X43.805 Y68.117 E16.45039
G1 X43.463 Y67.920 E16.47736
G1 X43.340 Y67.809 E16.48858
G1 X42.552 Y68.598 E16.56460
G1 X42.314 Y68.063 E16.60451
G1 X42.934 Y67.443 E16.66427
G1 X42.600 Y67.004 E16.70188
G1 X42.080 Y67.524 E16.75200
G1 X41.944 Y66.886 E16.79643
G1 X42.078 Y66.753 E16.80929
G1 E14.80929 F2400.00000
G92 E0
G1 X43.346 Y68.672 F30000.000
G1 X45.023 Y69.845 F30000.000
G1 X46.015 Y70.235 F30000.000
G1 X47.391 Y70.452 F30000.000
G1 X48.628 Y70.387 F30000.000
G1 X50.805 Y69.643 F30000.000
G1 X52.441 Y68.170 F30000.000
G1 X48.728 Y66.027 F30000.000
G1 X49.062 Y65.953 F30000.000
G1 E2.00000 F2400.00000
G1 F2100
G1 X55.662 Y59.353 E2.63630
G1 X55.255 Y58.986 E2.67361
G1 X49.170 Y65.071 E3.26023
G1 X49.170 Y64.672 E3.28741
G1 X49.105 Y64.364 E3.30892
G1 X54.848 Y58.620 E3.86265
G1 X54.619 Y58.414 E3.88368
G1 X54.405 Y58.290 E3.90051
G1 X48.938 Y63.757 E4.42758
G1 X48.700 Y63.223 E4.46749
G1 X53.915 Y58.007 E4.97029
G1 X53.425 Y57.724 E5.00886
G1 X48.376 Y62.774 E5.49568
G1 X48.246 Y62.595 E5.51076
G1 X48.002 Y62.375 E5.53316
G1 X52.893 Y57.484 E6.00472
G1 X52.309 Y57.294 E6.04654
G1 X47.579 Y62.025 E6.50264
G1 X47.088 Y61.742 E6.54121
G1 X51.726 Y57.105 E6.98831
G1 X51.553 Y57.049 E7.00070
G1 X51.061 Y56.997 E7.03444
G1 X46.527 Y61.531 E7.47151
G1 X46.495 Y61.519 E7.47383
G1 X46.495 Y60.890 E7.51673
G1 X46.347 Y60.938 E7.52738
G1 X50.362 Y56.923 E7.91445
G1 X49.875 Y56.872 E7.94779
G1 X49.612 Y56.900 E7.96583
G1 X45.202 Y61.310 E8.39102
G1 X44.057 Y61.682 E8.47310
G1 X48.748 Y56.991 E8.92541
G1 X48.197 Y57.049 E8.96319
G1 X47.783 Y57.183 E8.99289
G1 X42.000 Y62.966 E9.55041
G1 X42.086 Y62.563 E9.57852
G1 X42.451 Y61.742 E9.63976
G1 X46.638 Y57.555 E10.04340
G1 X45.131 Y58.414 E10.16161
G1 X43.765 Y59.655 E10.28741
G1 E8.28741 F2400.00000
G92 E0
G1 X43.543 Y59.350 F30000.000
G1 X44.654 Y60.350 F30000.000
G1 X46.547 Y59.652 F30000.000
G1 X47.389 Y59.544 F30000.000
G1 X48.771 Y59.642 F30000.000
G1 X49.936 Y59.959 F30000.000
G1 X50.797 Y60.396 F30000.000
G1 X52.289 Y61.600 F30000.000
G1 X52.870 Y62.508 F30000.000
G1 X53.091 Y65.096 F30000.000
G1 X53.000 Y67.318 F30000.000
G1 X52.273 Y68.378 F30000.000
G1 X54.782 Y71.832 F30000.000
G1 X54.013 Y71.822 F30000.000
G1 E2.00000 F2400.00000
G1 F2100
G1 X54.619 Y71.473 E2.04768
G1 X55.873 Y70.344 E2.16270
G1 X56.871 Y68.965 E2.27872
G1 X53.900 Y71.936 E2.56515
G1 E0.56515 F2400.00000
G92 E0
G1 X54.782 Y71.832 F30000.000
G1 X52.273 Y68.378 F30000.000
G1 X50.805 Y69.643 F30000.000
G1 X48.675 Y70.380 F30000.000
G1 X47.391 Y70.452 F30000.000
