; generated by Slic3r 1.3.0 on 2020-08-02 at 00:22:48

; external perimeters extrusion width = 0.44mm (2.78mm^3/s)
; perimeters extrusion width = 0.40mm (7.14mm^3/s)
; infill extrusion width = 0.50mm (10.97mm^3/s)
; solid infill extrusion width = 0.60mm (6.68mm^3/s)
; top infill extrusion width = 0.40mm (2.14mm^3/s)

M107
M190 S80 ; set bed temperature and wait for it to be reached
M104 S200 ; set temperature
G28 ; home all axes
G1 Z5 F5000 ; lift nozzle

; Filament gcode

M109 S200 ; set temperature and wait for it to be reached
G21 ; set units to millimeters
G90 ; use absolute coordinates
M82 ; use absolute distances for extrusion
G92 E0
G1 Z0.300 F30000.000
G1 E-2.00000 F2400.00000
G92 E0
G1 X34.823 Y48.589 F30000.000
G1 E2.00000 F2400.00000
G1 F2100
G1 X45.287 Y42.547 E2.80723
G1 X47.103 Y41.956 E2.93479
G1 X49.853 Y42.524 E3.12241
G1 X50.183 Y42.720 E3.14805
G1 X50.787 Y43.123 E3.19656
G1 X51.364 Y43.563 E3.24501
G1 X51.913 Y44.038 E3.29354
G1 X52.228 Y44.341 E3.32271
G1 X52.726 Y44.869 E3.37120
G1 X53.365 Y45.658 E3.43903
G1 X53.618 Y46.014 E3.46820
G1 X54.008 Y46.625 E3.51666
G1 X69.154 Y72.858 E5.54025
G1 X69.467 Y73.458 E5.58551
G1 X69.764 Y74.121 E5.63400
G1 X70.107 Y75.076 E5.70183
G1 X70.301 Y75.776 E5.75032
G1 X70.451 Y76.486 E5.79882
G1 X70.519 Y76.917 E5.82799
G1 X70.596 Y77.639 E5.87647
G1 X70.627 Y78.314 E5.92164
G1 X70.616 Y78.808 E5.95465
G1 X68.308 Y109.150 E7.98751
G1 X68.191 Y110.101 E8.05152
G1 X68.073 Y110.670 E8.09035
G1 X67.920 Y111.231 E8.12917
G1 X67.732 Y111.781 E8.16803
G1 X67.509 Y112.318 E8.20686
G1 X67.253 Y112.841 E8.24577
G1 X66.965 Y113.345 E8.28453
G1 X66.646 Y113.832 E8.32341
G1 X66.297 Y114.297 E8.36226
G1 X65.919 Y114.739 E8.40108
G1 X65.515 Y115.156 E8.43993
G1 X65.084 Y115.548 E8.47883
G1 X64.631 Y115.911 E8.51760
G1 X64.154 Y116.246 E8.55652
G1 X63.659 Y116.549 E8.59532
G1 X63.146 Y116.821 E8.63411
G1 X62.614 Y117.061 E8.67306
G1 X61.795 Y117.356 E8.73124
G1 X60.950 Y117.573 E8.78952
G1 X60.091 Y117.709 E8.84764
G1 X59.219 Y117.764 E8.90600
G1 X58.348 Y117.736 E8.96421
G1 X57.482 Y117.627 E9.02255
G1 X56.912 Y117.509 E9.06137
G1 X56.353 Y117.356 E9.10014
G1 X55.533 Y117.061 E9.15832
G1 X54.741 Y116.688 E9.21679
G1 X53.993 Y116.246 E9.27485
G1 X53.286 Y115.732 E9.33327
G1 X52.633 Y115.156 E9.39142
G1 X52.035 Y114.519 E9.44977
G1 X51.672 Y114.066 E9.48858
G1 X51.351 Y113.611 E9.52577
G1 X50.894 Y112.841 E9.58556
G1 X50.522 Y112.050 E9.64397
G1 X50.252 Y111.314 E9.69636
G1 X32.906 Y55.496 E13.60119
G1 X32.742 Y54.789 E13.64967
G1 X32.622 Y54.073 E13.69821
G1 X32.548 Y53.352 E13.74662
G1 X32.519 Y52.624 E13.79532
G1 X32.520 Y52.528 E13.80170
G1 X32.936 Y50.664 E13.92925
G1 X34.782 Y48.633 E14.11267
G1 X35.091 Y49.052 F30000.000
G1 F2100
G1 X45.555 Y43.011 E14.91990
G1 X47.268 Y42.478 E15.03972
G1 X49.590 Y42.990 E15.19860
G1 X50.468 Y43.553 E15.26824
G1 X50.818 Y43.813 E15.29741
G1 X51.352 Y44.254 E15.34361
G1 X52.036 Y44.910 E15.40696
G1 X52.499 Y45.425 E15.45319
G1 X52.773 Y45.764 E15.48237
G1 X53.181 Y46.324 E15.52864
G1 X53.553 Y46.908 E15.57486
G1 X68.690 Y73.125 E17.59732
G1 X68.990 Y73.702 E17.64071
G1 X69.272 Y74.334 E17.68695
G1 X69.593 Y75.226 E17.75028
G1 X69.779 Y75.892 E17.79653
G1 X69.922 Y76.570 E17.84278
G1 X69.990 Y77.001 E17.87195
G1 X70.063 Y77.689 E17.91819
G1 X70.091 Y78.331 E17.96111
G1 X70.082 Y78.768 E17.99028
G1 X67.774 Y109.110 E20.02314
G1 X67.662 Y110.018 E20.08424
G1 X67.551 Y110.554 E20.12082
G1 X67.406 Y111.082 E20.15740
G1 X67.228 Y111.600 E20.19401
G1 X67.018 Y112.106 E20.23060
G1 X66.776 Y112.598 E20.26725
G1 X66.504 Y113.073 E20.30377
G1 X66.203 Y113.531 E20.34040
G1 X65.873 Y113.968 E20.37700
G1 X65.517 Y114.384 E20.41358
G1 X65.136 Y114.777 E20.45018
G1 X64.730 Y115.146 E20.48683
G1 X64.302 Y115.488 E20.52336
G1 X63.853 Y115.803 E20.56002
G1 X63.386 Y116.088 E20.59658
G1 X62.903 Y116.344 E20.63313
G1 X62.402 Y116.569 E20.66982
G1 X61.646 Y116.841 E20.72351
G1 X60.833 Y117.050 E20.77955
G1 X60.040 Y117.175 E20.83318
G1 X59.202 Y117.228 E20.88929
G1 X58.398 Y117.203 E20.94299
G1 X57.565 Y117.098 E20.99909
G1 X57.029 Y116.986 E21.03566
G1 X56.502 Y116.841 E21.07219
G1 X55.746 Y116.569 E21.12588
G1 X54.985 Y116.211 E21.18208
G1 X54.294 Y115.803 E21.23567
G1 X53.614 Y115.309 E21.29183
G1 X53.012 Y114.777 E21.34548
G1 X52.437 Y114.165 E21.40159
G1 X52.095 Y113.738 E21.43816
G1 X51.794 Y113.310 E21.47309
G1 X51.372 Y112.598 E21.52840
G1 X51.014 Y111.837 E21.58455
G1 X50.764 Y111.155 E21.63312
G1 X33.426 Y55.368 E25.53578
G1 X33.269 Y54.694 E25.58202
G1 X33.154 Y54.011 E25.62831
G1 X33.083 Y53.324 E25.67448
G1 X33.054 Y52.629 E25.72090
G1 X33.055 Y52.534 E25.72728
G1 X33.469 Y50.789 E25.84711
G1 X35.050 Y49.096 E26.00179
G1 X35.358 Y49.516 F30000.000
G1 F2100
G1 X45.823 Y43.475 E26.80903
G1 X47.425 Y43.005 E26.92058
G1 X49.327 Y43.457 E27.05117
G1 X49.966 Y43.856 E27.10149
G1 X50.499 Y44.243 E27.14550
G1 X51.171 Y44.812 E27.20432
G1 X51.487 Y45.114 E27.23349
G1 X51.937 Y45.594 E27.27749
G1 X52.492 Y46.278 E27.33633
G1 X52.745 Y46.634 E27.36550
G1 X53.097 Y47.190 E27.40947
G1 X68.226 Y73.393 E29.43080
G1 X68.513 Y73.945 E29.47233
G1 X68.780 Y74.546 E29.51632
G1 X69.079 Y75.375 E29.57516
G1 X69.256 Y76.009 E29.61915
G1 X69.393 Y76.654 E29.66316
G1 X69.461 Y77.085 E29.69233
G1 X69.530 Y77.740 E29.73632
G1 X69.556 Y78.348 E29.77699
G1 X69.548 Y78.727 E29.80232
G1 X67.240 Y109.069 E31.83518
G1 X67.133 Y109.934 E31.89338
G1 X67.028 Y110.437 E31.92772
G1 X66.891 Y110.932 E31.96205
G1 X66.724 Y111.418 E31.99641
G1 X66.526 Y111.893 E32.03075
G1 X66.299 Y112.355 E32.06515
G1 X66.043 Y112.800 E32.09943
G1 X65.760 Y113.230 E32.13381
G1 X65.450 Y113.640 E32.16816
G1 X65.116 Y114.030 E32.20250
G1 X64.757 Y114.399 E32.23685
G1 X64.375 Y114.744 E32.27124
G1 X63.974 Y115.064 E32.30553
G1 X63.552 Y115.360 E32.33994
G1 X63.114 Y115.627 E32.37426
G1 X62.659 Y115.866 E32.40856
G1 X62.189 Y116.077 E32.44299
G1 X61.496 Y116.327 E32.49218
G1 X60.716 Y116.527 E32.54598
G1 X59.990 Y116.642 E32.59513
G1 X59.185 Y116.693 E32.64899
G1 X58.449 Y116.670 E32.69819
G1 X57.649 Y116.569 E32.75204
G1 X57.146 Y116.463 E32.78637
G1 X56.651 Y116.327 E32.82066
G1 X55.958 Y116.078 E32.86986
G1 X55.228 Y115.734 E32.92380
G1 X54.595 Y115.360 E32.97290
G1 X53.942 Y114.885 E33.02680
G1 X53.390 Y114.399 E33.07597
G1 X52.839 Y113.811 E33.12982
G1 X52.518 Y113.409 E33.16415
G1 X52.237 Y113.009 E33.19683
G1 X51.849 Y112.355 E33.24765
G1 X51.505 Y111.625 E33.30154
G1 X51.275 Y110.996 E33.34629
G1 X33.946 Y55.241 E37.24679
G1 X33.796 Y54.600 E37.29078
G1 X33.686 Y53.950 E37.33482
G1 X33.617 Y53.296 E37.37875
G1 X33.591 Y52.540 E37.42928
G1 X34.003 Y50.921 E37.54084
G1 X35.317 Y49.559 E37.66726
G1 X35.830 Y49.993 F30000.000
G1 F2100
G1 X35.996 Y49.829 E37.68474
G1 X40.173 Y49.829 E37.99729
G1 X41.787 Y51.460 E38.16900
G1 X41.775 Y52.582 E38.25295
G1 X41.826 Y53.011 E38.28530
G1 X41.904 Y53.289 E38.30693
G1 X42.017 Y53.555 E38.32853
G1 X42.161 Y53.805 E38.35014
G1 X42.428 Y54.134 E38.38181
G1 X42.649 Y54.333 E38.40412
G1 X43.004 Y54.564 E38.43579
G1 X43.267 Y54.681 E38.45737
G1 X43.553 Y54.768 E38.47973
G1 X43.972 Y54.825 E38.51138
G1 X44.261 Y54.820 E38.53300
G1 X44.557 Y54.776 E38.55535
G1 X44.834 Y54.698 E38.57694
G1 X45.219 Y54.522 E38.60858
G1 X45.572 Y54.272 E38.64096
G1 X45.872 Y53.960 E38.67334
G1 X46.043 Y53.715 E38.69571
G1 X46.227 Y53.334 E38.72736
G1 X46.340 Y52.917 E38.75973
G1 X46.371 Y52.620 E38.78208
G1 X46.348 Y52.188 E38.81444
G1 X46.247 Y51.777 E38.84610
G1 X46.135 Y51.510 E38.86772
G1 X45.986 Y51.252 E38.89006
G1 X45.720 Y50.923 E38.92171
G1 X45.506 Y50.730 E38.94331
G1 X45.269 Y50.564 E38.96493
G1 X44.292 Y50.013 E39.04887
G1 X43.687 Y47.800 E39.22057
G1 X45.775 Y44.183 E39.53316
G1 X47.956 Y43.586 E39.70238
G1 X49.135 Y44.254 E39.80380
G1 X49.645 Y44.588 E39.84938
G1 X50.065 Y44.900 E39.88852
G1 X50.596 Y45.349 E39.94058
G1 X50.973 Y45.711 E39.97971
G1 X51.388 Y46.158 E40.02530
G1 X51.826 Y46.698 E40.07738
G1 X52.176 Y47.197 E40.12297
G1 X52.452 Y47.641 E40.16210
G1 X52.742 Y48.177 E40.20772
G1 X53.032 Y48.809 E40.25977
G1 X53.248 Y49.379 E40.30537
G1 X53.404 Y49.878 E40.34451
G1 X53.570 Y50.554 E40.39657
G1 X53.675 Y51.154 E40.44217
G1 X53.735 Y51.674 E40.48132
G1 X53.770 Y52.282 E40.52690
G1 X53.763 Y52.978 E40.57897
G1 X53.715 Y53.585 E40.62456
G1 X53.644 Y54.103 E40.66370
G1 X53.507 Y54.785 E40.71576
G1 X53.372 Y55.290 E40.75491
G1 X53.180 Y55.869 E40.80050
G1 X52.917 Y56.513 E40.85256
G1 X52.689 Y56.984 E40.89172
G1 X52.433 Y57.443 E40.93108
G1 X52.434 Y57.610 E40.94358
G1 X58.851 Y68.725 E41.90404
G1 X58.998 Y68.810 E41.91667
G1 X59.726 Y68.832 E41.97120
G1 X60.332 Y68.892 E42.01679
G1 X60.849 Y68.973 E42.05593
G1 X61.444 Y69.104 E42.10152
G1 X62.030 Y69.271 E42.14712
G1 X62.604 Y69.475 E42.19273
G1 X63.164 Y69.714 E42.23833
G1 X63.709 Y69.989 E42.28393
G1 X64.307 Y70.343 E42.33599
G1 X64.810 Y70.687 E42.38158
G1 X65.290 Y71.063 E42.42720
G1 X65.682 Y71.409 E42.46633
G1 X66.076 Y71.799 E42.50782
G1 X66.520 Y72.293 E42.55752
G1 X66.946 Y72.843 E42.60958
G1 X67.286 Y73.348 E42.65517
G1 X67.594 Y73.874 E42.70078
G1 X67.868 Y74.418 E42.74637
G1 X68.076 Y74.898 E42.78551
G1 X68.285 Y75.471 E42.83111
G1 X68.458 Y76.055 E42.87671
G1 X68.593 Y76.649 E42.92232
G1 X68.691 Y77.250 E42.96789
G1 X68.757 Y77.943 E43.01997
G1 X68.807 Y79.536 E43.13926
G1 X67.186 Y81.208 E43.31351
G1 X66.078 Y81.208 E43.39643
G1 X65.921 Y81.312 E43.41053
G1 X65.750 Y81.699 E43.44216
G1 X65.537 Y82.112 E43.47694
G1 X65.085 Y82.823 E43.54004
G1 X64.802 Y83.192 E43.57482
G1 X64.497 Y83.543 E43.60962
G1 X64.170 Y83.873 E43.64439
G1 X63.829 Y84.178 E43.67864
G1 X63.773 Y84.302 E43.68879
G1 X63.773 Y102.716 E45.06686
G1 X63.829 Y102.840 E45.07702
G1 X64.170 Y103.145 E45.11126
G1 X64.497 Y103.475 E45.14606
G1 X64.803 Y103.826 E45.18084
G1 X65.085 Y104.195 E45.21562
G1 X65.344 Y104.581 E45.25042
G1 X65.579 Y104.982 E45.28519
G1 X65.787 Y105.398 E45.31998
G1 X65.969 Y105.825 E45.35477
G1 X66.124 Y106.264 E45.38957
G1 X66.251 Y106.711 E45.42435
G1 X66.350 Y107.165 E45.45913
G1 X66.420 Y107.624 E45.49392
G1 X66.461 Y108.088 E45.52871
G1 X66.473 Y108.552 E45.56349
G1 X66.456 Y109.017 E45.59827
G1 X66.409 Y109.479 E45.63308
G1 X66.334 Y109.938 E45.66786
G1 X66.230 Y110.391 E45.70263
G1 X66.098 Y110.837 E45.73742
G1 X65.938 Y111.273 E45.77221
G1 X65.750 Y111.699 E45.80702
G1 X65.537 Y112.111 E45.84178
G1 X65.298 Y112.510 E45.87657
G1 X65.035 Y112.893 E45.91137
G1 X64.497 Y113.543 E45.97444
G1 X64.170 Y113.873 E46.00924
G1 X63.823 Y114.183 E46.04405
G1 X63.458 Y114.470 E46.07880
G1 X63.075 Y114.733 E46.11362
G1 X62.676 Y114.972 E46.14838
G1 X62.263 Y115.186 E46.18316
G1 X61.838 Y115.373 E46.21797
G1 X61.319 Y115.560 E46.25923
G1 X60.503 Y115.769 E46.32229
G1 X59.959 Y115.855 E46.36352
G1 X59.117 Y115.908 E46.42662
G1 X58.566 Y115.891 E46.46790
G1 X57.730 Y115.785 E46.53097
G1 X57.276 Y115.687 E46.56573
G1 X56.829 Y115.560 E46.60051
G1 X56.310 Y115.373 E46.64176
G1 X55.547 Y115.014 E46.70490
G1 X55.073 Y114.733 E46.74610
G1 X54.390 Y114.238 E46.80921
G1 X53.977 Y113.873 E46.85045
G1 X53.400 Y113.259 E46.91355
G1 X53.113 Y112.893 E46.94832
G1 X52.888 Y112.567 E46.97801
G1 X52.569 Y112.036 E47.02434
G1 X52.210 Y111.273 E47.08745
G1 X52.023 Y110.754 E47.12869
G1 X51.896 Y110.307 E47.16347
G1 X51.738 Y109.479 E47.22654
G1 X51.692 Y109.017 E47.26134
G1 X51.674 Y108.552 E47.29614
G1 X51.692 Y108.001 E47.33737
G1 X51.738 Y107.539 E47.37217
G1 X51.896 Y106.711 E47.43525
G1 X52.050 Y106.181 E47.47650
G1 X52.210 Y105.745 E47.51128
G1 X52.397 Y105.319 E47.54609
G1 X52.803 Y104.581 E47.60914
G1 X53.062 Y104.195 E47.64395
G1 X53.400 Y103.759 E47.68519
G1 X53.709 Y103.412 E47.71997
G1 X54.318 Y102.840 E47.78253
G1 X54.374 Y102.716 E47.79268
G1 X54.374 Y87.091 E48.96204
G1 X54.292 Y86.945 E48.97454
G1 X53.840 Y86.675 E49.01393
G1 X53.338 Y86.331 E49.05950
G1 X52.924 Y86.010 E49.09866
G1 X52.466 Y85.609 E49.14426
G1 X51.974 Y85.117 E49.19632
G1 X51.628 Y84.725 E49.23547
G1 X51.252 Y84.245 E49.28105
G1 X50.861 Y83.670 E49.33311
G1 X50.595 Y83.219 E49.37226
G1 X50.316 Y82.678 E49.41787
G1 X50.040 Y82.039 E49.46992
G1 X49.862 Y81.547 E49.50905
G1 X49.690 Y80.963 E49.55465
G1 X49.554 Y80.369 E49.60024
G1 X49.456 Y79.768 E49.64583
G1 X49.391 Y79.075 E49.69791
G1 X49.374 Y78.552 E49.73706
G1 X49.391 Y77.943 E49.78265
G1 X49.456 Y77.250 E49.83471
G1 X49.538 Y76.734 E49.87386
G1 X49.668 Y76.139 E49.91944
G1 X49.862 Y75.471 E49.97151
G1 X50.071 Y74.898 E50.01711
G1 X50.279 Y74.418 E50.05623
G1 X50.713 Y73.599 E50.12564
G1 X50.714 Y73.428 E50.13841
G1 X44.295 Y62.310 E51.09918
G1 X44.150 Y62.226 E51.11168
G1 X43.624 Y62.217 E51.15104
G1 X43.017 Y62.170 E51.19665
G1 X42.414 Y62.085 E51.24224
G1 X41.817 Y61.962 E51.28785
G1 X41.229 Y61.801 E51.33346
G1 X40.653 Y61.604 E51.37901
G1 X40.089 Y61.372 E51.42465
G1 X39.542 Y61.104 E51.47026
G1 X39.012 Y60.802 E51.51584
G1 X38.503 Y60.468 E51.56146
G1 X38.015 Y60.103 E51.60703
G1 X37.552 Y59.707 E51.65264
G1 X37.114 Y59.284 E51.69824
G1 X36.703 Y58.833 E51.74387
G1 X36.322 Y58.358 E51.78946
G1 X35.971 Y57.860 E51.83503
G1 X35.652 Y57.341 E51.88064
G1 X35.367 Y56.802 E51.92627
G1 X35.149 Y56.326 E51.96542
G1 X34.928 Y55.759 E52.01097
G1 X34.743 Y55.178 E52.05657
G1 X34.595 Y54.587 E52.10217
G1 X34.485 Y53.988 E52.14778
G1 X34.412 Y53.383 E52.19339
G1 X34.377 Y52.774 E52.23900
G1 X34.389 Y51.418 E52.34049
G1 X35.787 Y50.035 E52.48765
G1 X36.243 Y50.429 F30000.000
G1 F2100
G1 X39.922 Y50.429 E52.76300
G1 X41.184 Y51.704 E52.89724
G1 X41.185 Y52.776 E52.97747
G1 X41.237 Y53.126 E53.00396
G1 X41.334 Y53.477 E53.03122
G1 X41.474 Y53.813 E53.05846
G1 X41.656 Y54.129 E53.08571
G1 X41.876 Y54.419 E53.11299
G1 X42.130 Y54.679 E53.14019
G1 X42.423 Y54.912 E53.16821
G1 X42.735 Y55.100 E53.19546
G1 X43.067 Y55.247 E53.22268
G1 X43.416 Y55.352 E53.24995
G1 X43.947 Y55.425 E53.29005
G1 X44.312 Y55.418 E53.31731
G1 X44.682 Y55.363 E53.34530
G1 X45.032 Y55.265 E53.37253
G1 X45.519 Y55.042 E53.41263
G1 X45.831 Y54.835 E53.44063
G1 X46.232 Y54.465 E53.48147
G1 X46.551 Y54.034 E53.52157
G1 X46.790 Y53.543 E53.56241
G1 X46.898 Y53.185 E53.59040
G1 X46.970 Y52.655 E53.63050
G1 X46.963 Y52.281 E53.65850
G1 X46.868 Y51.753 E53.69860
G1 X46.748 Y51.409 E53.72583
G1 X46.587 Y51.083 E53.75307
G1 X46.380 Y50.771 E53.78109
G1 X46.018 Y50.377 E53.82115
G1 X45.732 Y50.150 E53.84843
G1 X44.805 Y49.613 E53.92864
G1 X44.331 Y47.883 E54.06287
G1 X46.171 Y44.696 E54.33826
G1 X47.876 Y44.230 E54.47055
G1 X48.816 Y44.763 E54.55140
G1 X49.239 Y45.037 E54.58911
G1 X49.699 Y45.376 E54.63189
G1 X50.187 Y45.789 E54.67972
G1 X50.551 Y46.138 E54.71745
G1 X50.940 Y46.557 E54.76022
G1 X51.342 Y47.054 E54.80806
G1 X51.634 Y47.465 E54.84578
G1 X51.937 Y47.949 E54.88855
G1 X52.239 Y48.513 E54.93639
G1 X52.449 Y48.971 E54.97411
G1 X52.656 Y49.504 E55.01690
G1 X52.847 Y50.114 E55.06473
G1 X52.981 Y50.669 E55.10751
G1 X53.071 Y51.166 E55.14524
G1 X53.144 Y51.801 E55.19307
G1 X53.170 Y52.304 E55.23079
G1 X53.167 Y52.876 E55.27356
G1 X53.120 Y53.513 E55.32139
G1 X53.040 Y54.079 E55.36417
G1 X52.940 Y54.573 E55.40191
G1 X52.794 Y55.126 E55.44469
G1 X52.591 Y55.732 E55.49250
G1 X52.400 Y56.198 E55.53024
G1 X52.153 Y56.714 E55.57303
G1 X51.741 Y57.423 E55.63442
G1 X51.736 Y57.601 E55.64772
G1 X58.512 Y69.337 E56.66185
G1 X58.664 Y69.421 E56.67488
G1 X59.107 Y69.410 E56.70809
G1 X59.611 Y69.425 E56.74582
G1 X60.248 Y69.486 E56.79365
G1 X60.812 Y69.577 E56.83643
G1 X61.369 Y69.704 E56.87920
G1 X61.960 Y69.881 E56.92537
G1 X62.455 Y70.061 E56.96477
G1 X62.918 Y70.261 E57.00249
G1 X63.428 Y70.519 E57.04527
G1 X63.978 Y70.844 E57.09310
G1 X64.485 Y71.195 E57.13927
G1 X64.900 Y71.519 E57.17866
G1 X65.278 Y71.853 E57.21638
G1 X65.730 Y72.305 E57.26421
G1 X66.106 Y72.735 E57.30699
G1 X66.455 Y73.188 E57.34976
G1 X66.775 Y73.662 E57.39254
G1 X67.031 Y74.096 E57.43027
G1 X67.321 Y74.665 E57.47810
G1 X67.547 Y75.191 E57.52088
G1 X67.738 Y75.729 E57.56366
G1 X67.879 Y76.213 E57.60138
G1 X68.018 Y76.837 E57.64922
G1 X68.106 Y77.402 E57.69199
G1 X68.153 Y77.904 E57.72971
G1 X68.199 Y79.301 E57.83434
G1 X66.932 Y80.608 E57.97056
