; generated by Slic3r 1.3.0 on 2020-08-02 at 00:37:00

; external perimeters extrusion width = 0.44mm (2.78mm^3/s)
; perimeters extrusion width = 0.40mm (7.14mm^3/s)
; infill extrusion width = 0.50mm (10.97mm^3/s)
; solid infill extrusion width = 0.60mm (6.68mm^3/s)
; top infill extrusion width = 0.40mm (2.14mm^3/s)

M107
M190 S80 ; set bed temperature and wait for it to be reached
M104 S200 ; set temperature
G28 ; home all axes
G1 Z5 F5000 ; lift nozzle

; Filament gcode

M109 S200 ; set temperature and wait for it to be reached
G21 ; set units to millimeters
G90 ; use absolute coordinates
M82 ; use absolute distances for extrusion
G92 E0
G1 Z0.300 F30000.000
G1 E-2.00000 F2400.00000
G92 E0
G1 X25.218 Y42.197 F30000.000
G1 E2.00000 F2400.00000
G1 F2100
G1 X35.682 Y36.155 E2.80723
G1 X37.497 Y35.564 E2.93479
G1 X40.248 Y36.132 E3.12241
G1 X40.578 Y36.328 E3.14805
G1 X41.182 Y36.731 E3.19656
G1 X41.758 Y37.171 E3.24501
G1 X42.308 Y37.647 E3.29354
G1 X42.623 Y37.949 E3.32271
G1 X43.121 Y38.477 E3.37120
G1 X43.760 Y39.266 E3.43903
G1 X44.013 Y39.622 E3.46820
G1 X44.402 Y40.234 E3.51666
G1 X59.548 Y66.466 E5.54025
G1 X59.862 Y67.067 E5.58551
G1 X60.158 Y67.729 E5.63400
G1 X60.502 Y68.684 E5.70183
G1 X60.696 Y69.384 E5.75032
G1 X60.845 Y70.094 E5.79882
G1 X60.914 Y70.525 E5.82799
G1 X60.991 Y71.247 E5.87647
G1 X61.021 Y71.923 E5.92164
G1 X61.010 Y72.417 E5.95465
G1 X58.703 Y102.758 E7.98751
G1 X58.586 Y103.710 E8.05152
G1 X58.468 Y104.279 E8.09035
G1 X58.315 Y104.839 E8.12917
G1 X58.126 Y105.389 E8.16803
G1 X57.904 Y105.926 E8.20686
G1 X57.648 Y106.449 E8.24577
G1 X57.360 Y106.953 E8.28453
G1 X57.041 Y107.440 E8.32341
G1 X56.691 Y107.905 E8.36226
G1 X56.314 Y108.347 E8.40108
G1 X55.909 Y108.764 E8.43993
G1 X55.478 Y109.156 E8.47883
G1 X55.026 Y109.519 E8.51760
G1 X54.549 Y109.854 E8.55652
G1 X54.054 Y110.157 E8.59532
G1 X53.540 Y110.429 E8.63411
G1 X53.009 Y110.669 E8.67306
G1 X52.190 Y110.964 E8.73124
G1 X51.345 Y111.181 E8.78952
G1 X50.485 Y111.317 E8.84764
G1 X49.613 Y111.372 E8.90600
G1 X48.743 Y111.344 E8.96421
G1 X47.876 Y111.235 E9.02255
G1 X47.307 Y111.117 E9.06137
G1 X46.747 Y110.964 E9.10014
G1 X45.928 Y110.669 E9.15832
G1 X45.136 Y110.296 E9.21679
G1 X44.388 Y109.854 E9.27485
G1 X43.680 Y109.340 E9.33327
G1 X43.028 Y108.764 E9.39142
G1 X42.430 Y108.127 E9.44977
G1 X42.066 Y107.674 E9.48858
G1 X41.746 Y107.219 E9.52577
G1 X41.289 Y106.449 E9.58556
G1 X40.917 Y105.658 E9.64397
G1 X40.647 Y104.922 E9.69636
G1 X23.301 Y49.104 E13.60119
G1 X23.136 Y48.397 E13.64967
G1 X23.017 Y47.681 E13.69821
G1 X22.942 Y46.960 E13.74662
G1 X22.913 Y46.232 E13.79532
G1 X22.914 Y46.136 E13.80170
G1 X23.330 Y44.273 E13.92925
G1 X25.177 Y42.241 E14.11267
G1 X25.485 Y42.661 F30000.000
G1 F2100
G1 X35.950 Y36.619 E14.91990
G1 X37.663 Y36.086 E15.03972
G1 X39.985 Y36.598 E15.19860
G1 X40.862 Y37.161 E15.26824
G1 X41.213 Y37.421 E15.29741
G1 X41.746 Y37.862 E15.34361
G1 X42.431 Y38.518 E15.40696
G1 X42.893 Y39.033 E15.45319
G1 X43.168 Y39.372 E15.48237
G1 X43.576 Y39.932 E15.52864
G1 X43.947 Y40.516 E15.57486
G1 X59.085 Y66.734 E17.59732
G1 X59.384 Y67.310 E17.64071
G1 X59.667 Y67.942 E17.68695
G1 X59.988 Y68.834 E17.75028
G1 X60.173 Y69.501 E17.79653
G1 X60.316 Y70.178 E17.84278
G1 X60.385 Y70.609 E17.87195
G1 X60.458 Y71.298 E17.91819
G1 X60.486 Y71.939 E17.96111
G1 X60.476 Y72.376 E17.99028
G1 X58.169 Y102.718 E20.02314
G1 X58.057 Y103.626 E20.08424
G1 X57.945 Y104.162 E20.12082
G1 X57.800 Y104.690 E20.15740
G1 X57.622 Y105.208 E20.19401
G1 X57.412 Y105.714 E20.23060
G1 X57.170 Y106.206 E20.26725
G1 X56.899 Y106.681 E20.30377
G1 X56.598 Y107.139 E20.34040
G1 X56.268 Y107.577 E20.37700
G1 X55.912 Y107.993 E20.41358
G1 X55.530 Y108.386 E20.45018
G1 X55.124 Y108.754 E20.48683
G1 X54.697 Y109.096 E20.52336
G1 X54.248 Y109.411 E20.56002
G1 X53.781 Y109.696 E20.59658
G1 X53.297 Y109.952 E20.63313
G1 X52.796 Y110.177 E20.66982
G1 X52.040 Y110.449 E20.72351
G1 X51.228 Y110.658 E20.77955
G1 X50.435 Y110.784 E20.83318
G1 X49.597 Y110.836 E20.88929
G1 X48.793 Y110.811 E20.94299
G1 X47.960 Y110.706 E20.99909
G1 X47.424 Y110.594 E21.03566
G1 X46.897 Y110.449 E21.07219
G1 X46.141 Y110.177 E21.12588
G1 X45.379 Y109.819 E21.18208
G1 X44.689 Y109.411 E21.23567
G1 X44.009 Y108.917 E21.29183
G1 X43.406 Y108.386 E21.34548
G1 X42.831 Y107.773 E21.40159
G1 X42.490 Y107.346 E21.43816
G1 X42.189 Y106.918 E21.47309
G1 X41.766 Y106.206 E21.52840
G1 X41.408 Y105.446 E21.58455
G1 X41.158 Y104.763 E21.63312
G1 X23.821 Y48.976 E25.53578
G1 X23.663 Y48.303 E25.58202
G1 X23.549 Y47.619 E25.62831
G1 X23.477 Y46.932 E25.67448
G1 X23.449 Y46.237 E25.72090
G1 X23.450 Y46.142 E25.72728
G1 X23.864 Y44.397 E25.84711
G1 X25.444 Y42.704 E26.00179
G1 X25.753 Y43.124 F30000.000
G1 F2100
G1 X36.218 Y37.083 E26.80903
G1 X37.820 Y36.613 E26.92058
G1 X39.722 Y37.065 E27.05117
G1 X40.360 Y37.464 E27.10149
G1 X40.894 Y37.851 E27.14550
G1 X41.566 Y38.420 E27.20432
G1 X41.881 Y38.722 E27.23349
G1 X42.332 Y39.202 E27.27749
G1 X42.886 Y39.886 E27.33633
G1 X43.139 Y40.242 E27.36550
G1 X43.492 Y40.798 E27.40947
G1 X58.621 Y67.001 E29.43080
G1 X58.907 Y67.553 E29.47233
G1 X59.175 Y68.155 E29.51632
G1 X59.473 Y68.983 E29.57516
G1 X59.650 Y69.617 E29.61915
G1 X59.787 Y70.262 E29.66316
G1 X59.856 Y70.693 E29.69233
G1 X59.925 Y71.348 E29.73632
G1 X59.951 Y71.956 E29.77699
G1 X59.942 Y72.335 E29.80232
G1 X57.635 Y102.677 E31.83518
G1 X57.528 Y103.542 E31.89338
G1 X57.423 Y104.045 E31.92772
G1 X57.286 Y104.540 E31.96205
G1 X57.118 Y105.027 E31.99641
G1 X56.921 Y105.501 E32.03075
G1 X56.693 Y105.963 E32.06515
G1 X56.438 Y106.408 E32.09943
G1 X56.155 Y106.838 E32.13381
G1 X55.845 Y107.248 E32.16816
G1 X55.510 Y107.638 E32.20250
G1 X55.152 Y108.007 E32.23685
G1 X54.770 Y108.352 E32.27124
G1 X54.369 Y108.673 E32.30553
G1 X53.947 Y108.968 E32.33994
G1 X53.508 Y109.235 E32.37426
G1 X53.054 Y109.475 E32.40856
G1 X52.584 Y109.686 E32.44299
G1 X51.891 Y109.935 E32.49218
G1 X51.111 Y110.135 E32.54598
G1 X50.384 Y110.250 E32.59513
G1 X49.580 Y110.301 E32.64899
G1 X48.843 Y110.278 E32.69819
G1 X48.044 Y110.177 E32.75204
G1 X47.541 Y110.071 E32.78637
G1 X47.046 Y109.935 E32.82066
G1 X46.353 Y109.686 E32.86986
G1 X45.623 Y109.342 E32.92380
G1 X44.990 Y108.968 E32.97290
G1 X44.337 Y108.493 E33.02680
G1 X43.785 Y108.007 E33.07597
G1 X43.233 Y107.419 E33.12982
G1 X42.913 Y107.017 E33.16415
G1 X42.632 Y106.617 E33.19683
G1 X42.244 Y105.963 E33.24765
G1 X41.900 Y105.233 E33.30154
G1 X41.670 Y104.604 E33.34629
G1 X24.341 Y48.849 E37.24679
G1 X24.191 Y48.208 E37.29078
G1 X24.081 Y47.558 E37.33482
G1 X24.012 Y46.904 E37.37875
G1 X23.986 Y46.148 E37.42928
G1 X24.398 Y44.530 E37.54084
G1 X25.711 Y43.168 E37.66726
G1 X26.225 Y43.601 F30000.000
G1 F2100
G1 X26.391 Y43.437 E37.68474
G1 X30.567 Y43.437 E37.99729
G1 X32.181 Y45.068 E38.16900
G1 X32.170 Y46.190 E38.25295
G1 X32.220 Y46.619 E38.28530
G1 X32.299 Y46.897 E38.30693
G1 X32.411 Y47.163 E38.32853
G1 X32.556 Y47.413 E38.35014
G1 X32.822 Y47.742 E38.38181
G1 X33.044 Y47.941 E38.40412
G1 X33.282 Y48.106 E38.42575
G1 X33.537 Y48.239 E38.44733
G1 X33.939 Y48.374 E38.47899
G1 X34.233 Y48.423 E38.50136
G1 X34.656 Y48.428 E38.53300
G1 X34.952 Y48.384 E38.55535
G1 X35.229 Y48.306 E38.57694
G1 X35.614 Y48.130 E38.60858
G1 X35.967 Y47.880 E38.64096
G1 X36.267 Y47.569 E38.67334
G1 X36.438 Y47.323 E38.69571
G1 X36.622 Y46.942 E38.72736
G1 X36.735 Y46.525 E38.75973
G1 X36.766 Y46.228 E38.78208
G1 X36.742 Y45.796 E38.81444
G1 X36.641 Y45.385 E38.84610
G1 X36.530 Y45.119 E38.86772
G1 X36.381 Y44.860 E38.89006
G1 X36.115 Y44.531 E38.92171
G1 X35.900 Y44.338 E38.94331
G1 X35.664 Y44.172 E38.96493
G1 X34.687 Y43.621 E39.04887
G1 X34.081 Y41.408 E39.22057
G1 X36.170 Y37.791 E39.53316
G1 X38.351 Y37.195 E39.70237
G1 X39.530 Y37.862 E39.80379
G1 X40.040 Y38.197 E39.84938
G1 X40.459 Y38.508 E39.88851
G1 X40.991 Y38.957 E39.94057
G1 X41.368 Y39.319 E39.97971
G1 X41.782 Y39.766 E40.02530
G1 X42.220 Y40.307 E40.07737
G1 X42.571 Y40.805 E40.12296
G1 X42.847 Y41.249 E40.16210
G1 X43.137 Y41.785 E40.20771
G1 X43.427 Y42.418 E40.25977
G1 X43.642 Y42.987 E40.30537
G1 X43.799 Y43.487 E40.34451
G1 X43.965 Y44.162 E40.39657
G1 X44.070 Y44.762 E40.44217
G1 X44.130 Y45.282 E40.48132
G1 X44.165 Y45.890 E40.52690
G1 X44.157 Y46.586 E40.57897
G1 X44.110 Y47.193 E40.62456
G1 X44.039 Y47.711 E40.66370
G1 X43.902 Y48.393 E40.71576
G1 X43.766 Y48.899 E40.75490
G1 X43.574 Y49.477 E40.80050
G1 X43.312 Y50.121 E40.85256
G1 X43.084 Y50.592 E40.89172
G1 X42.828 Y51.052 E40.93107
G1 X42.829 Y51.219 E40.94357
G1 X49.246 Y62.333 E41.90403
G1 X49.392 Y62.418 E41.91667
G1 X50.121 Y62.440 E41.97119
G1 X50.727 Y62.500 E42.01679
G1 X51.243 Y62.582 E42.05593
G1 X51.839 Y62.712 E42.10152
G1 X52.424 Y62.879 E42.14712
G1 X52.999 Y63.083 E42.19273
G1 X53.559 Y63.323 E42.23833
G1 X54.103 Y63.597 E42.28392
G1 X54.702 Y63.951 E42.33598
G1 X55.204 Y64.296 E42.38158
G1 X55.684 Y64.671 E42.42720
G1 X56.077 Y65.017 E42.46632
G1 X56.471 Y65.407 E42.50782
G1 X56.914 Y65.901 E42.55752
G1 X57.341 Y66.451 E42.60957
G1 X57.681 Y66.956 E42.65517
G1 X57.989 Y67.482 E42.70078
G1 X58.263 Y68.026 E42.74637
G1 X58.471 Y68.506 E42.78550
G1 X58.680 Y69.079 E42.83111
G1 X58.852 Y69.663 E42.87671
G1 X58.988 Y70.257 E42.92231
G1 X59.086 Y70.858 E42.96789
G1 X59.151 Y71.551 E43.01997
G1 X59.201 Y73.144 E43.13926
G1 X57.581 Y74.817 E43.31351
G1 X56.473 Y74.817 E43.39643
G1 X56.315 Y74.920 E43.41053
G1 X56.145 Y75.307 E43.44216
G1 X55.932 Y75.720 E43.47694
G1 X55.480 Y76.432 E43.54004
G1 X55.197 Y76.800 E43.57482
G1 X54.892 Y77.151 E43.60961
G1 X54.565 Y77.481 E43.64438
G1 X54.224 Y77.786 E43.67864
G1 X54.168 Y77.910 E43.68879
G1 X54.168 Y96.325 E45.06686
G1 X54.224 Y96.448 E45.07702
G1 X54.565 Y96.753 E45.11126
G1 X54.892 Y97.083 E45.14606
G1 X55.197 Y97.434 E45.18084
G1 X55.480 Y97.803 E45.21562
G1 X55.739 Y98.189 E45.25042
G1 X55.973 Y98.590 E45.28519
G1 X56.182 Y99.006 E45.31998
G1 X56.364 Y99.433 E45.35477
G1 X56.519 Y99.872 E45.38957
G1 X56.646 Y100.319 E45.42434
G1 X56.745 Y100.773 E45.45913
G1 X56.815 Y101.233 E45.49391
G1 X56.856 Y101.696 E45.52871
G1 X56.868 Y102.160 E45.56349
G1 X56.850 Y102.625 E45.59827
G1 X56.804 Y103.088 E45.63308
G1 X56.729 Y103.546 E45.66786
G1 X56.625 Y103.999 E45.70263
G1 X56.492 Y104.445 E45.73742
G1 X56.332 Y104.881 E45.77221
G1 X56.145 Y105.307 E45.80702
G1 X55.932 Y105.720 E45.84178
G1 X55.693 Y106.118 E45.87657
G1 X55.429 Y106.501 E45.91136
G1 X54.892 Y107.151 E45.97444
G1 X54.565 Y107.482 E46.00924
G1 X54.218 Y107.791 E46.04404
G1 X53.853 Y108.078 E46.07880
G1 X53.469 Y108.342 E46.11362
G1 X53.071 Y108.580 E46.14838
G1 X52.658 Y108.794 E46.18315
G1 X52.232 Y108.981 E46.21797
G1 X51.714 Y109.168 E46.25923
G1 X50.897 Y109.377 E46.32229
G1 X50.353 Y109.464 E46.36352
G1 X49.512 Y109.517 E46.42662
G1 X48.960 Y109.499 E46.46789
G1 X48.124 Y109.393 E46.53096
G1 X47.670 Y109.295 E46.56573
G1 X47.223 Y109.168 E46.60050
G1 X46.705 Y108.981 E46.64176
G1 X45.941 Y108.622 E46.70489
G1 X45.467 Y108.342 E46.74610
G1 X44.785 Y107.846 E46.80921
G1 X44.372 Y107.482 E46.85044
G1 X43.795 Y106.867 E46.91354
G1 X43.508 Y106.501 E46.94831
G1 X43.282 Y106.175 E46.97801
G1 X42.964 Y105.644 E47.02434
G1 X42.604 Y104.881 E47.08744
G1 X42.418 Y104.363 E47.12868
G1 X42.291 Y103.915 E47.16347
G1 X42.133 Y103.088 E47.22654
G1 X42.086 Y102.625 E47.26134
G1 X42.069 Y102.160 E47.29614
G1 X42.086 Y101.609 E47.33737
G1 X42.133 Y101.147 E47.37217
G1 X42.291 Y100.319 E47.43525
G1 X42.445 Y99.790 E47.47649
G1 X42.605 Y99.353 E47.51128
G1 X42.792 Y98.927 E47.54609
G1 X43.198 Y98.189 E47.60914
G1 X43.457 Y97.803 E47.64395
G1 X43.795 Y97.367 E47.68519
G1 X44.104 Y97.021 E47.71997
G1 X44.713 Y96.448 E47.78253
G1 X44.769 Y96.325 E47.79268
G1 X44.769 Y80.699 E48.96204
G1 X44.686 Y80.554 E48.97454
G1 X44.235 Y80.283 E49.01393
G1 X43.733 Y79.939 E49.05949
G1 X43.319 Y79.618 E49.09866
G1 X42.860 Y79.217 E49.14425
G1 X42.368 Y78.725 E49.19632
G1 X42.022 Y78.333 E49.23546
G1 X41.647 Y77.853 E49.28105
G1 X41.256 Y77.278 E49.33311
G1 X40.990 Y76.828 E49.37226
G1 X40.710 Y76.286 E49.41787
G1 X40.434 Y75.648 E49.46991
G1 X40.257 Y75.155 E49.50905
G1 X40.085 Y74.571 E49.55464
G1 X39.949 Y73.977 E49.60024
G1 X39.851 Y73.376 E49.64583
G1 X39.785 Y72.683 E49.69791
G1 X39.769 Y72.160 E49.73706
G1 X39.785 Y71.551 E49.78265
G1 X39.851 Y70.859 E49.83471
G1 X39.933 Y70.342 E49.87386
G1 X40.063 Y69.747 E49.91943
G1 X40.257 Y69.079 E49.97151
G1 X40.466 Y68.506 E50.01710
G1 X40.674 Y68.027 E50.05623
G1 X41.108 Y67.207 E50.12564
G1 X41.109 Y67.036 E50.13841
G1 X34.689 Y55.918 E51.09918
G1 X34.545 Y55.834 E51.11168
G1 X34.019 Y55.825 E51.15104
G1 X33.412 Y55.778 E51.19665
G1 X32.808 Y55.693 E51.24224
G1 X32.212 Y55.570 E51.28784
G1 X31.624 Y55.409 E51.33345
G1 X31.047 Y55.213 E51.37901
G1 X30.484 Y54.980 E51.42465
G1 X29.936 Y54.712 E51.47026
G1 X29.407 Y54.411 E51.51584
G1 X28.897 Y54.076 E51.56146
G1 X28.410 Y53.711 E51.60703
G1 X27.946 Y53.316 E51.65264
G1 X27.508 Y52.892 E51.69823
G1 X27.098 Y52.441 E51.74386
G1 X26.716 Y51.966 E51.78945
G1 X26.366 Y51.468 E51.83503
G1 X26.047 Y50.949 E51.88064
G1 X25.761 Y50.410 E51.92627
G1 X25.544 Y49.934 E51.96542
G1 X25.323 Y49.367 E52.01097
G1 X25.138 Y48.787 E52.05657
G1 X24.990 Y48.195 E52.10217
G1 X24.879 Y47.596 E52.14778
G1 X24.807 Y46.991 E52.19339
G1 X24.772 Y46.382 E52.23900
G1 X24.784 Y45.026 E52.34048
G1 X26.182 Y43.643 E52.48765
G1 X26.638 Y44.037 F30000.000
G1 F2100
G1 X30.317 Y44.037 E52.76300
G1 X31.579 Y45.312 E52.89724
G1 X31.580 Y46.384 E52.97747
G1 X31.631 Y46.734 E53.00396
G1 X31.729 Y47.085 E53.03122
G1 X31.869 Y47.421 E53.05846
G1 X32.051 Y47.737 E53.08571
G1 X32.271 Y48.027 E53.11299
G1 X32.524 Y48.288 E53.14019
G1 X32.810 Y48.515 E53.16747
G1 X33.121 Y48.704 E53.19471
G1 X33.453 Y48.852 E53.22194
G1 X33.811 Y48.960 E53.24994
G1 X34.342 Y49.033 E53.29005
G1 X34.706 Y49.026 E53.31731
G1 X35.076 Y48.971 E53.34530
G1 X35.427 Y48.873 E53.37253
G1 X35.914 Y48.650 E53.41263
G1 X36.225 Y48.443 E53.44062
G1 X36.627 Y48.073 E53.48147
G1 X36.946 Y47.643 E53.52156
G1 X37.184 Y47.152 E53.56241
G1 X37.292 Y46.794 E53.59039
G1 X37.365 Y46.263 E53.63049
G1 X37.357 Y45.889 E53.65850
G1 X37.262 Y45.361 E53.69860
G1 X37.143 Y45.017 E53.72583
G1 X36.982 Y44.691 E53.75307
G1 X36.775 Y44.379 E53.78108
G1 X36.412 Y43.985 E53.82114
G1 X36.127 Y43.758 E53.84843
G1 X35.199 Y43.222 E53.92864
G1 X34.726 Y41.491 E54.06287
G1 X36.566 Y38.305 E54.33826
G1 X38.271 Y37.838 E54.47055
G1 X39.211 Y38.371 E54.55140
G1 X39.634 Y38.645 E54.58911
G1 X40.094 Y38.984 E54.63189
G1 X40.582 Y39.397 E54.67972
G1 X40.946 Y39.746 E54.71744
G1 X41.334 Y40.165 E54.76022
G1 X41.737 Y40.662 E54.80805
G1 X42.029 Y41.073 E54.84578
G1 X42.332 Y41.557 E54.88855
G1 X42.634 Y42.121 E54.93639
G1 X42.844 Y42.579 E54.97411
G1 X43.051 Y43.112 E55.01690
G1 X43.242 Y43.722 E55.06473
G1 X43.376 Y44.278 E55.10750
G1 X43.465 Y44.774 E55.14524
G1 X43.539 Y45.409 E55.19306
G1 X43.565 Y45.912 E55.23078
G1 X43.561 Y46.484 E55.27356
G1 X43.514 Y47.121 E55.32139
G1 X43.435 Y47.687 E55.36417
G1 X43.335 Y48.181 E55.40190
G1 X43.189 Y48.734 E55.44468
G1 X42.985 Y49.340 E55.49250
G1 X42.795 Y49.807 E55.53023
G1 X42.548 Y50.322 E55.57303
G1 X42.135 Y51.031 E55.63442
G1 X42.131 Y51.209 E55.64771
G1 X48.906 Y62.945 E56.66185
G1 X49.059 Y63.030 E56.67488
G1 X49.502 Y63.018 E56.70808
G1 X50.006 Y63.034 E56.74582
G1 X50.642 Y63.094 E56.79365
G1 X51.207 Y63.185 E56.83643
G1 X51.764 Y63.312 E56.87920
G1 X52.355 Y63.489 E56.92536
G1 X52.850 Y63.669 E56.96476
G1 X53.312 Y63.869 E57.00249
G1 X53.822 Y64.127 E57.04527
G1 X54.373 Y64.452 E57.09309
G1 X54.880 Y64.803 E57.13926
G1 X55.295 Y65.128 E57.17866
G1 X55.673 Y65.461 E57.21637
G1 X56.125 Y65.913 E57.26420
G1 X56.501 Y66.343 E57.30698
G1 X56.850 Y66.796 E57.34976
G1 X57.169 Y67.270 E57.39254
G1 X57.426 Y67.704 E57.43026
G1 X57.716 Y68.273 E57.47809
G1 X57.941 Y68.799 E57.52087
G1 X58.133 Y69.337 E57.56366
G1 X58.273 Y69.821 E57.60138
G1 X58.413 Y70.445 E57.64921
G1 X58.500 Y71.010 E57.69198
G1 X58.548 Y71.512 E57.72971
G1 X58.594 Y72.909 E57.83434
G1 X57.327 Y74.217 E57.97056
G1 X56.058 Y74.217 E58.06549
