; generated by Slic3r 1.3.0 on 2020-08-02 at 11:31:44

; external perimeters extrusion width = 0.44mm (2.78mm^3/s)
; perimeters extrusion width = 0.40mm (7.14mm^3/s)
; infill extrusion width = 0.50mm (10.97mm^3/s)
; solid infill extrusion width = 0.60mm (6.68mm^3/s)
; top infill extrusion width = 0.40mm (2.14mm^3/s)

M107
M190 S80 ; set bed temperature and wait for it to be reached
M104 S200 ; set temperature
G28 ; home all axes
G1 Z5 F5000 ; lift nozzle

; Filament gcode

M109 S200 ; set temperature and wait for it to be reached
G21 ; set units to millimeters
G90 ; use absolute coordinates
M82 ; use absolute distances for extrusion
G92 E0
G1 Z0.300 F30000.000
G1 E-2.00000 F2400.00000
G92 E0
G1 X46.955 Y47.364 F30000.000
G1 E2.00000 F2400.00000
G1 F2100
G1 X57.420 Y41.323 E2.80723
G1 X59.235 Y40.731 E2.93479
G1 X61.986 Y41.299 E3.12241
G1 X62.315 Y41.496 E3.14805
G1 X62.919 Y41.899 E3.19656
G1 X63.495 Y42.338 E3.24496
G1 X63.830 Y42.620 E3.27417
G1 X64.360 Y43.116 E3.32271
G1 X64.855 Y43.641 E3.37086
G1 X65.497 Y44.434 E3.43903
G1 X65.910 Y45.030 E3.48750
G1 X66.140 Y45.402 E3.51669
G1 X81.286 Y71.633 E5.54025
G1 X81.599 Y72.235 E5.58554
G1 X81.896 Y72.897 E5.63400
G1 X82.240 Y73.852 E5.70183
G1 X82.433 Y74.551 E5.75032
G1 X82.583 Y75.262 E5.79882
G1 X82.688 Y75.980 E5.84730
G1 X82.729 Y76.416 E5.87658
G1 X82.759 Y77.090 E5.92164
G1 X82.748 Y77.584 E5.95465
G1 X80.440 Y107.926 E7.98751
G1 X80.324 Y108.877 E8.05150
G1 X80.206 Y109.446 E8.09035
G1 X80.052 Y110.007 E8.12917
G1 X79.864 Y110.557 E8.16803
G1 X79.641 Y111.094 E8.20688
G1 X79.385 Y111.617 E8.24576
G1 X79.098 Y112.121 E8.28453
G1 X78.778 Y112.607 E8.32341
G1 X78.429 Y113.073 E8.36228
G1 X78.051 Y113.514 E8.40108
G1 X77.647 Y113.932 E8.43993
G1 X77.216 Y114.324 E8.47883
G1 X76.763 Y114.687 E8.51760
G1 X76.286 Y115.022 E8.55652
G1 X75.791 Y115.325 E8.59532
G1 X75.278 Y115.597 E8.63411
G1 X74.747 Y115.837 E8.67306
G1 X73.927 Y116.131 E8.73123
G1 X73.368 Y116.284 E8.76996
G1 X72.799 Y116.402 E8.80881
G1 X71.932 Y116.512 E8.86719
G1 X71.061 Y116.539 E8.92539
G1 X70.189 Y116.484 E8.98373
G1 X69.330 Y116.348 E9.04187
G1 X68.485 Y116.132 E9.10014
G1 X67.665 Y115.837 E9.15833
G1 X66.874 Y115.464 E9.21678
G1 X66.126 Y115.022 E9.27480
G1 X65.418 Y114.508 E9.33327
G1 X64.765 Y113.932 E9.39142
G1 X64.167 Y113.295 E9.44980
G1 X63.804 Y112.842 E9.48858
G1 X63.470 Y112.366 E9.52744
G1 X63.027 Y111.617 E9.58556
G1 X62.654 Y110.826 E9.64397
G1 X62.384 Y110.090 E9.69636
G1 X45.038 Y54.272 E13.60120
G1 X44.874 Y53.565 E13.64967
G1 X44.754 Y52.848 E13.69822
G1 X44.680 Y52.128 E13.74663
G1 X44.651 Y51.399 E13.79532
G1 X44.652 Y51.304 E13.80170
G1 X45.068 Y49.440 E13.92925
G1 X46.915 Y47.409 E14.11267
G1 X47.223 Y47.828 F30000.000
G1 F2100
G1 X57.687 Y41.787 E14.91990
G1 X59.400 Y41.254 E15.03972
G1 X61.723 Y41.766 E15.19860
G1 X62.600 Y42.329 E15.26824
G1 X63.150 Y42.747 E15.31440
G1 X63.484 Y43.029 E15.34361
G1 X63.989 Y43.503 E15.38990
G1 X64.461 Y44.004 E15.43582
G1 X65.061 Y44.744 E15.49947
G1 X65.455 Y45.312 E15.54570
G1 X65.685 Y45.684 E15.57489
G1 X80.822 Y71.901 E17.59732
G1 X81.122 Y72.478 E17.64074
G1 X81.404 Y73.109 E17.68696
G1 X81.725 Y74.001 E17.75028
G1 X81.911 Y74.668 E17.79653
G1 X82.054 Y75.346 E17.84278
G1 X82.154 Y76.031 E17.88902
G1 X82.196 Y76.467 E17.91828
G1 X82.224 Y77.107 E17.96111
G1 X82.214 Y77.544 E17.99028
G1 X79.906 Y107.886 E20.02314
G1 X79.795 Y108.793 E20.08423
G1 X79.683 Y109.329 E20.12083
G1 X79.538 Y109.857 E20.15741
G1 X79.360 Y110.376 E20.19401
G1 X79.150 Y110.882 E20.23061
G1 X78.908 Y111.374 E20.26724
G1 X78.637 Y111.849 E20.30378
G1 X78.335 Y112.306 E20.34040
G1 X78.005 Y112.744 E20.37703
G1 X77.650 Y113.160 E20.41358
G1 X77.268 Y113.553 E20.45018
G1 X76.862 Y113.922 E20.48683
G1 X76.435 Y114.263 E20.52336
G1 X75.985 Y114.578 E20.56002
G1 X75.518 Y114.864 E20.59658
G1 X75.035 Y115.119 E20.63313
G1 X74.534 Y115.345 E20.66982
G1 X73.778 Y115.617 E20.72350
G1 X72.965 Y115.826 E20.77955
G1 X72.172 Y115.951 E20.83319
G1 X71.334 Y116.004 E20.88929
G1 X70.531 Y115.979 E20.94299
G1 X69.698 Y115.873 E20.99909
G1 X69.162 Y115.762 E21.03566
G1 X68.634 Y115.617 E21.07220
G1 X67.878 Y115.345 E21.12589
G1 X67.117 Y114.987 E21.18208
G1 X66.427 Y114.579 E21.23562
G1 X65.746 Y114.084 E21.29183
G1 X65.144 Y113.553 E21.34549
G1 X64.569 Y112.941 E21.40161
G1 X64.227 Y112.513 E21.43816
G1 X63.913 Y112.065 E21.47476
G1 X63.504 Y111.374 E21.52840
G1 X63.146 Y110.613 E21.58456
G1 X62.896 Y109.931 E21.63312
G1 X45.558 Y54.144 E25.53579
G1 X45.401 Y53.470 E25.58202
G1 X45.286 Y52.787 E25.62831
G1 X45.215 Y52.099 E25.67448
G1 X45.186 Y51.405 E25.72091
G1 X45.188 Y51.310 E25.72729
G1 X45.602 Y49.564 E25.84711
G1 X47.182 Y47.872 E26.00180
G1 X47.491 Y48.292 F30000.000
G1 F2100
G1 X57.955 Y42.250 E26.80903
G1 X59.558 Y41.781 E26.92059
G1 X61.459 Y42.233 E27.05118
G1 X62.098 Y42.632 E27.10149
G1 X62.631 Y43.019 E27.14551
G1 X63.304 Y43.587 E27.20433
G1 X63.774 Y44.048 E27.24832
G1 X64.070 Y44.370 E27.27751
G1 X64.624 Y45.054 E27.33633
G1 X65.000 Y45.595 E27.38031
G1 X65.230 Y45.966 E27.40950
G1 X80.358 Y72.169 E29.43081
G1 X80.645 Y72.721 E29.47236
G1 X80.913 Y73.322 E29.51633
G1 X81.211 Y74.151 E29.57516
G1 X81.388 Y74.785 E29.61916
G1 X81.525 Y75.429 E29.66316
G1 X81.621 Y76.081 E29.70716
G1 X81.662 Y76.517 E29.73641
G1 X81.688 Y77.124 E29.77699
G1 X81.680 Y77.503 E29.80233
G1 X79.372 Y107.845 E31.83519
G1 X79.266 Y108.709 E31.89337
G1 X79.160 Y109.213 E31.92772
G1 X79.024 Y109.708 E31.96206
G1 X78.856 Y110.194 E31.99641
G1 X78.658 Y110.669 E32.03077
G1 X78.431 Y111.131 E32.06514
G1 X78.175 Y111.576 E32.09944
G1 X77.892 Y112.005 E32.13381
G1 X77.582 Y112.416 E32.16819
G1 X77.248 Y112.806 E32.20250
G1 X76.889 Y113.175 E32.23685
G1 X76.508 Y113.520 E32.27125
G1 X76.106 Y113.840 E32.30554
G1 X75.684 Y114.135 E32.33994
G1 X75.246 Y114.403 E32.37426
G1 X74.791 Y114.642 E32.40857
G1 X74.321 Y114.853 E32.44300
G1 X73.629 Y115.103 E32.49218
G1 X72.848 Y115.303 E32.54599
G1 X72.122 Y115.418 E32.59515
G1 X71.317 Y115.469 E32.64899
G1 X70.581 Y115.446 E32.69820
G1 X69.781 Y115.344 E32.75205
G1 X69.278 Y115.239 E32.78638
G1 X68.784 Y115.103 E32.82067
G1 X68.091 Y114.853 E32.86987
G1 X67.360 Y114.510 E32.92380
G1 X66.728 Y114.136 E32.97286
G1 X66.075 Y113.661 E33.02681
G1 X65.523 Y113.175 E33.07597
G1 X64.971 Y112.587 E33.12985
G1 X64.650 Y112.185 E33.16415
G1 X64.356 Y111.764 E33.19851
G1 X63.981 Y111.131 E33.24766
G1 X63.638 Y110.401 E33.30156
G1 X63.407 Y109.772 E33.34630
G1 X46.078 Y54.016 E37.24680
G1 X45.928 Y53.375 E37.29079
G1 X45.818 Y52.725 E37.33482
G1 X45.750 Y52.071 E37.37876
G1 X45.723 Y51.315 E37.42929
G1 X46.135 Y49.697 E37.54084
G1 X47.449 Y48.335 E37.66727
G1 X47.962 Y48.769 F30000.000
G1 F2100
G1 X48.128 Y48.605 E37.68475
G1 X52.305 Y48.605 E37.99730
G1 X53.919 Y50.236 E38.16901
G1 X53.907 Y51.357 E38.25296
G1 X53.958 Y51.787 E38.28530
G1 X54.036 Y52.065 E38.30694
G1 X54.149 Y52.331 E38.32854
G1 X54.294 Y52.580 E38.35015
G1 X54.560 Y52.909 E38.38182
G1 X54.782 Y53.109 E38.40413
G1 X55.136 Y53.339 E38.43580
G1 X55.400 Y53.457 E38.45738
G1 X55.686 Y53.544 E38.47974
G1 X56.105 Y53.601 E38.51139
G1 X56.394 Y53.596 E38.53301
G1 X56.689 Y53.552 E38.55536
G1 X56.967 Y53.474 E38.57695
G1 X57.351 Y53.298 E38.60858
G1 X57.704 Y53.048 E38.64097
G1 X58.005 Y52.736 E38.67335
G1 X58.175 Y52.491 E38.69572
G1 X58.359 Y52.110 E38.72737
G1 X58.472 Y51.692 E38.75974
G1 X58.503 Y51.395 E38.78209
G1 X58.480 Y50.964 E38.81445
G1 X58.379 Y50.553 E38.84611
G1 X58.267 Y50.286 E38.86773
G1 X58.118 Y50.028 E38.89007
G1 X57.852 Y49.699 E38.92172
G1 X57.638 Y49.505 E38.94332
G1 X57.401 Y49.340 E38.96494
G1 X56.424 Y48.789 E39.04888
G1 X55.819 Y46.576 E39.22059
G1 X57.907 Y42.959 E39.53317
G1 X60.088 Y42.362 E39.70239
G1 X61.268 Y43.030 E39.80380
G1 X61.777 Y43.364 E39.84939
G1 X62.197 Y43.676 E39.88852
G1 X62.728 Y44.125 E39.94059
G1 X63.106 Y44.487 E39.97972
G1 X63.520 Y44.934 E40.02533
G1 X63.958 Y45.474 E40.07739
G1 X64.261 Y45.900 E40.11651
G1 X64.559 Y46.376 E40.15850
G1 X64.875 Y46.953 E40.20772
G1 X65.164 Y47.585 E40.25977
G1 X65.352 Y48.074 E40.29894
G1 X65.536 Y48.654 E40.34448
G1 X65.702 Y49.330 E40.39657
G1 X65.808 Y49.930 E40.44216
G1 X65.868 Y50.449 E40.48130
G1 X65.904 Y51.144 E40.53335
G1 X65.895 Y51.753 E40.57897
G1 X65.857 Y52.275 E40.61811
G1 X65.777 Y52.879 E40.66367
G1 X65.639 Y53.561 E40.71575
G1 X65.504 Y54.066 E40.75492
G1 X65.312 Y54.645 E40.80052
G1 X65.049 Y55.289 E40.85257
G1 X64.822 Y55.759 E40.89168
G1 X64.566 Y56.219 E40.93108
G1 X64.566 Y56.386 E40.94358
G1 X70.984 Y67.501 E41.90404
G1 X71.130 Y67.585 E41.91667
G1 X71.858 Y67.607 E41.97117
G1 X72.464 Y67.667 E42.01678
G1 X72.981 Y67.749 E42.05592
G1 X73.576 Y67.879 E42.10152
G1 X74.162 Y68.047 E42.14713
G1 X74.736 Y68.251 E42.19273
G1 X75.374 Y68.527 E42.24475
G1 X75.916 Y68.806 E42.29037
G1 X76.440 Y69.119 E42.33602
G1 X76.942 Y69.463 E42.38158
G1 X77.355 Y69.784 E42.42074
G1 X77.814 Y70.185 E42.46633
G1 X78.247 Y70.614 E42.51193
G1 X78.707 Y71.135 E42.56398
G1 X79.078 Y71.619 E42.60959
G1 X79.372 Y72.051 E42.64870
G1 X79.660 Y72.533 E42.69072
G1 X79.964 Y73.116 E42.73994
G1 X80.208 Y73.674 E42.78552
G1 X80.417 Y74.247 E42.83113
G1 X80.590 Y74.831 E42.87675
G1 X80.725 Y75.425 E42.92230
G1 X80.823 Y76.026 E42.96790
G1 X80.889 Y76.719 E43.02000
G1 X80.939 Y78.312 E43.13927
G1 X79.319 Y79.984 E43.31352
G1 X78.210 Y79.984 E43.39644
G1 X78.053 Y80.088 E43.41054
G1 X77.883 Y80.474 E43.44216
G1 X77.669 Y80.887 E43.47695
G1 X77.217 Y81.599 E43.54005
G1 X76.935 Y81.968 E43.57482
G1 X76.630 Y82.318 E43.60959
G1 X76.303 Y82.649 E43.64440
G1 X75.961 Y82.954 E43.67865
G1 X75.905 Y83.077 E43.68880
G1 X75.905 Y101.492 E45.06687
G1 X75.961 Y101.616 E45.07702
G1 X76.303 Y101.920 E45.11126
G1 X76.629 Y102.251 E45.14606
G1 X76.935 Y102.602 E45.18085
G1 X77.217 Y102.970 E45.21562
G1 X77.477 Y103.357 E45.25042
G1 X77.711 Y103.758 E45.28519
G1 X77.919 Y104.173 E45.31999
G1 X78.102 Y104.601 E45.35479
G1 X78.257 Y105.039 E45.38957
G1 X78.384 Y105.486 E45.42435
G1 X78.482 Y105.941 E45.45913
G1 X78.552 Y106.400 E45.49392
G1 X78.593 Y106.863 E45.52872
G1 X78.605 Y107.328 E45.56349
G1 X78.588 Y107.793 E45.59829
G1 X78.542 Y108.255 E45.63307
G1 X78.466 Y108.714 E45.66786
G1 X78.362 Y109.167 E45.70264
G1 X78.230 Y109.612 E45.73743
G1 X78.070 Y110.049 E45.77221
G1 X77.883 Y110.475 E45.80703
G1 X77.669 Y110.887 E45.84178
G1 X77.430 Y111.286 E45.87658
G1 X77.167 Y111.669 E45.91137
G1 X76.630 Y112.318 E45.97444
G1 X76.303 Y112.649 E46.00925
G1 X75.955 Y112.959 E46.04405
G1 X75.590 Y113.246 E46.07882
G1 X75.207 Y113.509 E46.11362
G1 X74.809 Y113.748 E46.14838
G1 X74.396 Y113.961 E46.18316
G1 X73.970 Y114.149 E46.21798
G1 X73.451 Y114.336 E46.25923
G1 X72.635 Y114.545 E46.32230
G1 X72.091 Y114.631 E46.36354
G1 X71.249 Y114.684 E46.42664
G1 X70.698 Y114.667 E46.46790
G1 X69.862 Y114.561 E46.53098
G1 X69.408 Y114.462 E46.56574
G1 X68.961 Y114.336 E46.60051
G1 X68.442 Y114.149 E46.64180
G1 X67.679 Y113.790 E46.70490
G1 X67.205 Y113.510 E46.74607
G1 X66.523 Y113.014 E46.80922
G1 X66.109 Y112.649 E46.85045
G1 X65.532 Y112.034 E46.91356
G1 X65.245 Y111.669 E46.94830
G1 X64.982 Y111.286 E46.98312
G1 X64.701 Y110.812 E47.02435
G1 X64.342 Y110.049 E47.08746
G1 X64.182 Y109.612 E47.12225
G1 X64.028 Y109.083 E47.16348
G1 X63.879 Y108.309 E47.22246
G1 X63.824 Y107.792 E47.26138
G1 X63.807 Y107.242 E47.30259
G1 X63.824 Y106.777 E47.33739
G1 X63.930 Y105.941 E47.40047
G1 X64.028 Y105.487 E47.43526
G1 X64.155 Y105.039 E47.47005
G1 X64.342 Y104.521 E47.51129
G1 X64.529 Y104.095 E47.54610
G1 X64.935 Y103.357 E47.60916
G1 X65.194 Y102.970 E47.64396
G1 X65.532 Y102.535 E47.68519
G1 X65.842 Y102.188 E47.71999
G1 X66.451 Y101.616 E47.78254
G1 X66.507 Y101.492 E47.79269
G1 X66.507 Y85.866 E48.96205
G1 X66.424 Y85.721 E48.97455
G1 X65.972 Y85.451 E49.01395
G1 X65.469 Y85.106 E49.05957
G1 X65.056 Y84.786 E49.09868
G1 X64.598 Y84.385 E49.14427
G1 X64.106 Y83.893 E49.19633
G1 X63.705 Y83.434 E49.24192
G1 X63.384 Y83.021 E49.28106
G1 X62.993 Y82.446 E49.33313
G1 X62.686 Y81.920 E49.37873
G1 X62.448 Y81.454 E49.41785
G1 X62.172 Y80.815 E49.46991
G1 X61.994 Y80.323 E49.50911
G1 X61.822 Y79.739 E49.55468
G1 X61.670 Y79.060 E49.60673
G1 X61.578 Y78.458 E49.65232
G1 X61.523 Y77.851 E49.69791
G1 X61.507 Y77.242 E49.74352
G1 X61.523 Y76.719 E49.78267
G1 X61.589 Y76.026 E49.83473
G1 X61.670 Y75.510 E49.87388
G1 X61.801 Y74.914 E49.91948
G1 X61.995 Y74.246 E49.97152
G1 X62.204 Y73.674 E50.01712
G1 X62.411 Y73.194 E50.05625
G1 X62.845 Y72.375 E50.12565
G1 X62.846 Y72.204 E50.13842
G1 X56.427 Y61.086 E51.09919
G1 X56.283 Y61.001 E51.11169
G1 X55.756 Y60.993 E51.15108
G1 X55.149 Y60.946 E51.19669
G1 X54.546 Y60.860 E51.24225
G1 X53.949 Y60.737 E51.28785
G1 X53.361 Y60.577 E51.33347
G1 X52.785 Y60.380 E51.37904
G1 X52.221 Y60.147 E51.42465
G1 X51.674 Y59.880 E51.47029
G1 X51.144 Y59.578 E51.51587
G1 X50.635 Y59.244 E51.56147
G1 X50.148 Y58.879 E51.60704
G1 X49.684 Y58.483 E51.65264
G1 X49.246 Y58.060 E51.69825
G1 X48.835 Y57.609 E51.74387
G1 X48.454 Y57.134 E51.78947
G1 X48.103 Y56.636 E51.83505
G1 X47.785 Y56.117 E51.88064
G1 X47.499 Y55.578 E51.92628
G1 X47.248 Y55.023 E51.97186
G1 X47.060 Y54.535 E52.01099
G1 X46.890 Y54.000 E52.05298
G1 X46.728 Y53.363 E52.10220
G1 X46.617 Y52.764 E52.14779
G1 X46.544 Y52.159 E52.19338
G1 X46.510 Y51.550 E52.23901
G1 X46.522 Y50.194 E52.34049
G1 X47.920 Y48.811 E52.48765
G1 X48.375 Y49.205 F30000.000
G1 F2100
G1 X52.055 Y49.205 E52.76301
G1 X53.316 Y50.480 E52.89725
G1 X53.317 Y51.552 E52.97748
G1 X53.369 Y51.902 E53.00396
G1 X53.466 Y52.253 E53.03123
G1 X53.607 Y52.589 E53.05846
G1 X53.788 Y52.904 E53.08572
G1 X54.008 Y53.195 E53.11300
G1 X54.262 Y53.455 E53.14020
G1 X54.547 Y53.682 E53.16748
G1 X54.858 Y53.871 E53.19472
G1 X55.190 Y54.020 E53.22195
G1 X55.549 Y54.128 E53.24995
G1 X56.080 Y54.201 E53.29005
G1 X56.444 Y54.194 E53.31731
G1 X56.814 Y54.139 E53.34531
G1 X57.164 Y54.041 E53.37254
G1 X57.651 Y53.818 E53.41263
G1 X57.963 Y53.611 E53.44063
G1 X58.364 Y53.240 E53.48148
G1 X58.683 Y52.810 E53.52157
G1 X58.922 Y52.319 E53.56242
G1 X59.030 Y51.961 E53.59040
G1 X59.103 Y51.430 E53.63050
G1 X59.095 Y51.056 E53.65850
G1 X59.000 Y50.529 E53.69861
G1 X58.881 Y50.185 E53.72584
G1 X58.719 Y49.859 E53.75308
G1 X58.512 Y49.547 E53.78109
G1 X58.150 Y49.153 E53.82115
G1 X57.865 Y48.926 E53.84843
G1 X56.937 Y48.389 E53.92866
G1 X56.464 Y46.659 E54.06289
G1 X58.304 Y43.472 E54.33827
G1 X60.009 Y43.006 E54.47056
G1 X60.949 Y43.538 E54.55140
G1 X61.427 Y43.851 E54.59417
G1 X61.831 Y44.152 E54.63189
G1 X62.320 Y44.565 E54.67973
G1 X62.731 Y44.962 E54.72250
G1 X63.072 Y45.333 E54.76024
G1 X63.474 Y45.830 E54.80806
G1 X63.804 Y46.297 E54.85083
G1 X64.069 Y46.725 E54.88857
G1 X64.371 Y47.288 E54.93639
G1 X64.607 Y47.809 E54.97917
G1 X64.788 Y48.280 E55.01692
G1 X64.979 Y48.890 E55.06473
G1 X65.099 Y49.379 E55.10246
G1 X65.203 Y49.941 E55.14522
G1 X65.276 Y50.576 E55.19307
G1 X65.304 Y51.147 E55.23583
G1 X65.299 Y51.651 E55.27356
G1 X65.252 Y52.289 E55.32140
G1 X65.172 Y52.855 E55.36417
G1 X65.073 Y53.349 E55.40188
G1 X64.927 Y53.902 E55.44470
G1 X64.723 Y54.507 E55.49251
G1 X64.532 Y54.974 E55.53024
G1 X64.286 Y55.490 E55.57300
G1 X63.873 Y56.199 E55.63443
G1 X63.868 Y56.377 E55.64772
G1 X70.644 Y68.113 E56.66186
G1 X70.796 Y68.197 E56.67489
G1 X71.240 Y68.185 E56.70811
G1 X71.744 Y68.201 E56.74582
G1 X72.380 Y68.261 E56.79365
G1 X72.944 Y68.353 E56.83641
G1 X73.501 Y68.480 E56.87919
G1 X74.050 Y68.641 E56.92199
G1 X74.524 Y68.812 E56.95972
G1 X75.050 Y69.037 E57.00249
G1 X75.619 Y69.327 E57.05031
G1 X76.110 Y69.620 E57.09313
G1 X76.612 Y69.967 E57.13878
G1 X77.032 Y70.295 E57.17868
G1 X77.410 Y70.629 E57.21639
G1 X77.816 Y71.031 E57.25917
G1 X78.239 Y71.511 E57.30699
G1 X78.587 Y71.964 E57.34978
G1 X78.907 Y72.438 E57.39255
G1 X79.164 Y72.872 E57.43030
G1 X79.425 Y73.380 E57.47308
G1 X79.679 Y73.967 E57.52089
G1 X79.850 Y74.441 E57.55863
G1 X80.011 Y74.990 E57.60142
G1 X80.150 Y75.613 E57.64922
G1 X80.238 Y76.178 E57.69200
G1 X80.285 Y76.680 E57.72977
G1 X80.331 Y78.077 E57.83435
G1 X79.064 Y79.384 E57.97058
