; generated by Slic3r 1.3.0 on 2021-08-01 at 16:13:43

; external perimeters extrusion width = 0.44mm (2.78mm^3/s)
; perimeters extrusion width = 0.40mm (7.14mm^3/s)
; infill extrusion width = 0.50mm (10.97mm^3/s)
; solid infill extrusion width = 0.60mm (6.68mm^3/s)
; top infill extrusion width = 0.40mm (2.14mm^3/s)

M107
M190 S80 ; set bed temperature and wait for it to be reached
M104 S210 ; set temperature
G28 ; home all axes
G1 Z5 F5000 ; lift nozzle

; Filament gcode

M109 S210 ; set temperature and wait for it to be reached
G21 ; set units to millimeters
G90 ; use absolute coordinates
M82 ; use absolute distances for extrusion
G92 E0
G1 Z0.300 F30000.000
G1 E-2.00000 F2400.00000
G92 E0
G1 X27.205 Y51.792 F30000.000
G1 E2.00000 F2400.00000
G1 F2100
G1 X51.792 Y27.205 E4.32294
G1 X53.393 Y26.164 E4.45049
G1 X54.367 Y25.907 E4.51778
G1 X55.597 Y25.725 E4.60087
G1 X56.705 Y25.601 E4.67534
G1 X57.987 Y25.502 E4.76126
G1 X59.268 Y25.452 E4.84691
G1 X60.729 Y25.452 E4.94445
G1 X61.843 Y25.493 E5.01897
G1 X63.125 Y25.585 E5.10485
G1 X64.404 Y25.726 E5.19079
G1 X65.633 Y25.907 E5.27378
G1 X67.422 Y26.575 E5.40133
G1 X68.208 Y27.205 E5.46862
G1 X92.795 Y51.792 E7.79156
G1 X93.836 Y53.393 E7.91912
G1 X94.093 Y54.367 E7.98641
G1 X94.275 Y55.597 E8.06949
G1 X94.399 Y56.708 E8.14415
G1 X94.498 Y57.990 E8.23007
G1 X94.548 Y59.271 E8.31573
G1 X94.548 Y60.729 E8.41308
G1 X94.507 Y61.842 E8.48753
G1 X94.415 Y63.125 E8.57342
G1 X94.275 Y64.403 E8.65932
G1 X94.093 Y65.633 E8.74240
G1 X93.425 Y67.422 E8.86996
G1 X92.795 Y68.208 E8.93725
G1 X68.208 Y92.795 E11.26019
G1 X66.607 Y93.836 E11.38774
G1 X65.633 Y94.093 E11.45503
G1 X64.403 Y94.275 E11.53811
G1 X63.292 Y94.399 E11.61278
G1 X62.010 Y94.498 E11.69870
G1 X60.729 Y94.548 E11.78435
G1 X59.271 Y94.548 E11.88170
G1 X58.158 Y94.507 E11.95615
G1 X56.875 Y94.415 E12.04205
G1 X55.597 Y94.275 E12.12794
G1 X54.367 Y94.093 E12.21103
G1 X52.578 Y93.425 E12.33858
G1 X51.792 Y92.795 E12.40587
G1 X27.205 Y68.208 E14.72881
G1 X26.164 Y66.607 E14.85636
G1 X25.907 Y65.633 E14.92365
G1 X25.725 Y64.403 E15.00673
G1 X25.585 Y63.125 E15.09263
G1 X25.493 Y61.842 E15.17853
G1 X25.448 Y60.557 E15.26442
G1 X25.452 Y59.271 E15.35032
G1 X25.503 Y57.987 E15.43622
G1 X25.601 Y56.705 E15.52212
G1 X25.725 Y55.597 E15.59656
G1 X25.907 Y54.367 E15.67965
G1 X26.575 Y52.578 E15.80720
G1 X27.168 Y51.839 E15.87048
G1 X27.584 Y52.171 F30000.000
G1 F2100
G1 X52.171 Y27.584 E18.19342
G1 X54.446 Y26.436 E18.36365
G1 X55.657 Y26.258 E18.44540
G1 X56.915 Y26.120 E18.52996
G1 X58.027 Y26.037 E18.60445
G1 X59.294 Y25.987 E18.68918
G1 X60.709 Y25.987 E18.78366
G1 X61.823 Y26.028 E18.85817
G1 X63.086 Y26.120 E18.94272
G1 X64.344 Y26.258 E19.02732
G1 X65.554 Y26.436 E19.10899
G1 X67.829 Y27.584 E19.27922
G1 X92.416 Y52.171 E21.60216
G1 X93.564 Y54.446 E21.77238
G1 X93.742 Y55.657 E21.85413
G1 X93.880 Y56.915 E21.93869
G1 X93.964 Y58.030 E22.01336
G1 X94.013 Y59.291 E22.09771
G1 X94.013 Y60.709 E22.19239
G1 X93.972 Y61.822 E22.26684
G1 X93.880 Y63.085 E22.35141
G1 X93.742 Y64.343 E22.43597
G1 X93.564 Y65.554 E22.51773
G1 X92.416 Y67.829 E22.68795
G1 X67.829 Y92.416 E25.01089
G1 X65.554 Y93.564 E25.18111
G1 X64.343 Y93.742 E25.26286
G1 X63.085 Y93.880 E25.34743
G1 X61.970 Y93.964 E25.42209
G1 X60.709 Y94.013 E25.50644
G1 X59.291 Y94.013 E25.60113
G1 X58.026 Y93.963 E25.68570
G1 X56.915 Y93.880 E25.76014
G1 X55.657 Y93.742 E25.84471
G1 X54.446 Y93.564 E25.92646
G1 X52.171 Y92.416 E26.09668
G1 X27.584 Y67.829 E28.41962
G1 X26.436 Y65.554 E28.58984
G1 X26.258 Y64.343 E28.67160
G1 X26.120 Y63.085 E28.75616
G1 X26.028 Y61.822 E28.84073
G1 X25.984 Y60.557 E28.92529
G1 X25.987 Y59.291 E29.00986
G1 X26.037 Y58.026 E29.09443
G1 X26.134 Y56.764 E29.17899
G1 X26.258 Y55.657 E29.25344
G1 X26.436 Y54.446 E29.33519
G1 X27.557 Y52.225 E29.50141
G1 X27.963 Y52.550 F30000.000
G1 F2100
G1 X52.550 Y27.963 E31.82435
G1 X54.526 Y26.966 E31.97217
G1 X55.717 Y26.790 E32.05260
G1 X56.955 Y26.654 E32.13583
G1 X58.067 Y26.571 E32.21031
G1 X59.314 Y26.522 E32.29369
G1 X60.689 Y26.522 E32.38553
G1 X61.803 Y26.564 E32.46004
G1 X63.046 Y26.654 E32.54326
G1 X64.284 Y26.790 E32.62652
G1 X65.474 Y26.966 E32.70687
G1 X67.450 Y27.963 E32.85470
G1 X92.037 Y52.550 E35.17764
G1 X93.034 Y54.526 E35.32547
G1 X93.210 Y55.717 E35.40589
G1 X93.346 Y56.955 E35.48912
G1 X93.429 Y58.069 E35.56376
G1 X93.478 Y59.311 E35.64681
G1 X93.478 Y60.689 E35.73883
G1 X93.437 Y61.802 E35.81328
G1 X93.346 Y63.045 E35.89651
G1 X93.210 Y64.283 E35.97975
G1 X93.034 Y65.474 E36.06017
G1 X92.037 Y67.450 E36.20799
G1 X67.450 Y92.037 E38.53093
G1 X65.474 Y93.034 E38.67876
G1 X64.283 Y93.210 E38.75918
G1 X63.045 Y93.346 E38.84242
G1 X61.931 Y93.429 E38.91705
G1 X60.689 Y93.478 E39.00010
G1 X59.311 Y93.478 E39.09212
G1 X58.198 Y93.437 E39.16657
G1 X56.955 Y93.346 E39.24981
G1 X55.717 Y93.210 E39.33304
G1 X54.526 Y93.034 E39.41346
G1 X52.550 Y92.037 E39.56129
G1 X27.963 Y67.450 E41.88423
G1 X26.966 Y65.474 E42.03206
G1 X26.790 Y64.283 E42.11248
G1 X26.654 Y63.045 E42.19571
G1 X26.563 Y61.802 E42.27895
G1 X26.520 Y60.557 E42.36218
G1 X26.522 Y59.311 E42.44542
G1 X26.571 Y58.066 E42.52865
G1 X26.666 Y56.824 E42.61188
G1 X26.790 Y55.717 E42.68633
G1 X26.966 Y54.526 E42.76675
G1 X27.936 Y52.604 E42.91057
G1 E40.91057 F2400.00000
G92 E0
G1 X38.529 Y52.301 F30000.000
G1 E2.00000 F2400.00000
G1 F2100
G1 X38.692 Y52.187 E2.01484
G1 X39.197 Y50.916 E2.11721
G1 X39.548 Y50.151 E2.18017
G1 X39.953 Y49.352 E2.24721
G1 X40.389 Y48.570 E2.31423
G1 X40.884 Y47.759 E2.38532
G1 X41.382 Y47.015 E2.45235
G1 X41.876 Y46.333 E2.51531
G1 X42.463 Y45.587 E2.58640
G1 X43.046 Y44.906 E2.65343
G1 X43.617 Y44.288 E2.71640
G1 X44.249 Y43.654 E2.78343
G1 X44.947 Y43.010 E2.85452
G1 X45.587 Y42.463 E2.91749
G1 X46.239 Y41.949 E2.97961
G1 X47.014 Y41.382 E3.05154
G1 X47.805 Y40.855 E3.12263
G1 X48.570 Y40.389 E3.18965
G1 X49.304 Y39.978 E3.25262
G1 X50.102 Y39.572 E3.31965
G1 X50.966 Y39.176 E3.39074
G1 X52.187 Y38.692 E3.48905
G1 X52.301 Y38.529 E3.50389
G1 X52.301 Y29.442 E4.18393
G1 X53.633 Y27.895 E4.33671
G1 X55.728 Y27.581 E4.49526
G1 X56.988 Y27.440 E4.59013
G1 X58.151 Y27.353 E4.67738
G1 X59.339 Y27.308 E4.76639
G1 X60.583 Y27.306 E4.85946
G1 X61.799 Y27.350 E4.95054
G1 X63.063 Y27.444 E5.04540
G1 X64.272 Y27.581 E5.13646
G1 X66.367 Y27.895 E5.29499
G1 X67.699 Y29.442 E5.44776
G1 X67.699 Y38.529 E6.12781
G1 X67.813 Y38.692 E6.14264
G1 X69.034 Y39.176 E6.24096
G1 X69.898 Y39.572 E6.31204
G1 X70.696 Y39.978 E6.37907
G1 X71.430 Y40.389 E6.44205
G1 X72.195 Y40.855 E6.50906
G1 X72.941 Y41.351 E6.57610
G1 X73.710 Y41.909 E6.64718
G1 X74.371 Y42.429 E6.71016
G1 X75.053 Y43.010 E6.77718
G1 X75.751 Y43.654 E6.84827
G1 X76.346 Y44.249 E6.91124
G1 X76.954 Y44.906 E6.97826
G1 X77.571 Y45.629 E7.04935
G1 X78.124 Y46.333 E7.11638
G1 X78.618 Y47.014 E7.17935
G1 X79.116 Y47.759 E7.24638
G1 X79.611 Y48.570 E7.31746
G1 X80.047 Y49.352 E7.38449
G1 X80.428 Y50.102 E7.44746
G1 X80.803 Y50.916 E7.51449
G1 X81.308 Y52.187 E7.61686
G1 X81.471 Y52.301 E7.63170
G1 X90.558 Y52.301 E8.31174
G1 X92.105 Y53.633 E8.46452
G1 X92.419 Y55.729 E8.62312
G1 X92.556 Y56.938 E8.71422
G1 X92.647 Y58.152 E8.80528
G1 X92.694 Y59.417 E8.90003
G1 X92.693 Y60.634 E8.99110
G1 X92.647 Y61.849 E9.08213
G1 X92.560 Y63.011 E9.16930
G1 X92.419 Y64.272 E9.26424
G1 X92.105 Y66.367 E9.42280
G1 X90.558 Y67.699 E9.57557
G1 X81.471 Y67.699 E10.25562
G1 X81.308 Y67.813 E10.27045
G1 X80.803 Y69.084 E10.37283
G1 X80.428 Y69.898 E10.43985
G1 X80.047 Y70.648 E10.50283
G1 X79.584 Y71.477 E10.57391
G1 X79.116 Y72.241 E10.64094
G1 X78.649 Y72.941 E10.70391
G1 X78.124 Y73.667 E10.77093
G1 X77.571 Y74.371 E10.83797
G1 X76.954 Y75.094 E10.90905
G1 X76.383 Y75.712 E10.97202
G1 X75.751 Y76.346 E11.03905
G1 X75.053 Y76.990 E11.11013
G1 X74.371 Y77.571 E11.17716
G1 X73.710 Y78.091 E11.24012
G1 X72.986 Y78.618 E11.30716
G1 X72.195 Y79.145 E11.37824
G1 X71.430 Y79.611 E11.44527
G1 X70.696 Y80.022 E11.50825
G1 X69.898 Y80.428 E11.57527
G1 X69.034 Y80.824 E11.64636
G1 X67.813 Y81.308 E11.74467
G1 X67.699 Y81.471 E11.75951
G1 X67.699 Y90.558 E12.43955
G1 X66.367 Y92.105 E12.59233
G1 X64.271 Y92.419 E12.75095
G1 X63.012 Y92.560 E12.84579
G1 X61.848 Y92.647 E12.93310
G1 X60.634 Y92.693 E13.02399
G1 X59.417 Y92.694 E13.11508
G1 X58.151 Y92.647 E13.20994
G1 X56.937 Y92.556 E13.30099
G1 X55.728 Y92.419 E13.39203
G1 X53.633 Y92.105 E13.55061
G1 X52.301 Y90.558 E13.70338
G1 X52.301 Y81.471 E14.38343
G1 X52.187 Y81.308 E14.39827
G1 X50.966 Y80.824 E14.49659
G1 X50.102 Y80.428 E14.56766
G1 X49.352 Y80.047 E14.63064
G1 X48.570 Y79.611 E14.69766
G1 X47.805 Y79.145 E14.76469
G1 X47.014 Y78.618 E14.83578
G1 X46.333 Y78.124 E14.89874
G1 X45.681 Y77.611 E14.96087
G1 X44.947 Y76.990 E15.03280
G1 X44.249 Y76.346 E15.10389
G1 X43.617 Y75.712 E15.17091
G1 X43.046 Y75.094 E15.23388
G1 X42.464 Y74.413 E15.30091
G1 X41.876 Y73.667 E15.37200
G1 X41.382 Y72.986 E15.43497
G1 X40.884 Y72.241 E15.50200
G1 X40.416 Y71.477 E15.56903
G1 X39.953 Y70.648 E15.64011
G1 X39.548 Y69.849 E15.70714
G1 X39.197 Y69.084 E15.77011
G1 X38.692 Y67.813 E15.87248
G1 X38.529 Y67.699 E15.88732
G1 X29.442 Y67.699 E16.56736
G1 X27.895 Y66.367 E16.72014
G1 X27.581 Y64.272 E16.87866
G1 X27.444 Y63.063 E16.96974
G1 X27.353 Y61.849 E17.06081
G1 X27.306 Y60.582 E17.15570
G1 X27.306 Y59.417 E17.24289
G1 X27.349 Y58.230 E17.33182
G1 X27.440 Y56.988 E17.42502
G1 X27.581 Y55.728 E17.51987
G1 X27.895 Y53.633 E17.67841
G1 X29.442 Y52.301 E17.83119
G1 X38.469 Y52.301 E18.50675
G1 X38.948 Y52.901 F30000.000
G1 F2100
G1 X39.111 Y52.787 E18.52158
G1 X39.397 Y52.006 E18.58381
G1 X39.728 Y51.200 E18.64906
G1 X40.110 Y50.369 E18.71749
G1 X40.485 Y49.629 E18.77958
G1 X40.880 Y48.919 E18.84036
G1 X41.364 Y48.123 E18.91009
G1 X41.871 Y47.362 E18.97851
G1 X42.384 Y46.657 E19.04377
G1 X42.897 Y46.005 E19.10585
G1 X43.462 Y45.341 E19.17111
G1 X44.083 Y44.669 E19.23954
G1 X44.669 Y44.083 E19.30162
G1 X45.265 Y43.531 E19.36241
G1 X45.972 Y42.924 E19.43213
G1 X46.690 Y42.358 E19.50056
G1 X47.362 Y41.871 E19.56264
G1 X48.087 Y41.386 E19.62790
G1 X48.867 Y40.910 E19.69633
G1 X49.629 Y40.485 E19.76158
G1 X50.369 Y40.110 E19.82367
G1 X51.200 Y39.728 E19.89210
G1 X52.006 Y39.397 E19.95735
G1 X52.787 Y39.111 E20.01958
G1 X52.901 Y38.948 E20.03441
G1 X52.901 Y29.665 E20.72915
G1 X53.942 Y28.455 E20.84859
G1 X55.812 Y28.175 E20.99005
G1 X57.038 Y28.038 E21.08242
G1 X58.190 Y27.952 E21.16883
G1 X59.360 Y27.907 E21.25650
G1 X60.577 Y27.906 E21.34757
G1 X61.771 Y27.950 E21.43698
G1 X63.002 Y28.041 E21.52933
G1 X64.189 Y28.175 E21.61872
G1 X66.058 Y28.455 E21.76016
G1 X67.099 Y29.665 E21.87959
G1 X67.099 Y38.948 E22.57434
G1 X67.213 Y39.111 E22.58917
G1 X67.994 Y39.397 E22.65140
G1 X68.800 Y39.728 E22.71665
G1 X69.631 Y40.110 E22.78508
G1 X70.371 Y40.485 E22.84717
G1 X71.133 Y40.910 E22.91242
G1 X71.913 Y41.386 E22.98085
G1 X72.638 Y41.871 E23.04611
G1 X73.310 Y42.358 E23.10819
G1 X73.995 Y42.897 E23.17345
G1 X74.691 Y43.490 E23.24187
G1 X75.300 Y44.053 E23.30396
G1 X75.917 Y44.669 E23.36922
G1 X76.538 Y45.341 E23.43764
G1 X77.103 Y46.005 E23.50290
G1 X77.642 Y46.690 E23.56815
G1 X78.129 Y47.362 E23.63024
G1 X78.636 Y48.123 E23.69867
G1 X79.090 Y48.867 E23.76392
G1 X79.495 Y49.592 E23.82601
G1 X79.909 Y50.407 E23.89444
G1 X80.255 Y51.161 E23.95652
G1 X80.588 Y51.967 E24.02177
G1 X80.889 Y52.787 E24.08717
G1 X81.052 Y52.901 E24.10201
G1 X90.335 Y52.901 E24.79675
G1 X91.545 Y53.942 E24.91618
G1 X91.825 Y55.812 E25.05768
G1 X91.962 Y57.038 E25.15004
G1 X92.048 Y58.191 E25.23650
G1 X92.093 Y59.382 E25.32576
G1 X92.094 Y60.577 E25.41517
G1 X92.048 Y61.810 E25.50752
G1 X91.959 Y63.001 E25.59690
G1 X91.825 Y64.188 E25.68629
G1 X91.545 Y66.058 E25.82776
G1 X90.335 Y67.099 E25.94719
G1 X81.052 Y67.099 E26.64193
G1 X80.889 Y67.213 E26.65677
G1 X80.588 Y68.033 E26.72217
G1 X80.272 Y68.800 E26.78425
G1 X79.909 Y69.593 E26.84950
G1 X79.495 Y70.408 E26.91794
G1 X79.090 Y71.133 E26.98001
G1 X78.636 Y71.877 E27.04528
G1 X78.129 Y72.638 E27.11371
G1 X77.642 Y73.310 E27.17579
G1 X77.140 Y73.948 E27.23658
G1 X76.538 Y74.659 E27.30631
G1 X75.917 Y75.331 E27.37473
G1 X75.300 Y75.947 E27.43998
G1 X74.691 Y76.510 E27.50206
G1 X73.995 Y77.103 E27.57049
G1 X73.310 Y77.642 E27.63575
G1 X72.638 Y78.129 E27.69783
G1 X71.913 Y78.613 E27.76308
G1 X71.133 Y79.090 E27.83152
G1 X70.408 Y79.495 E27.89361
G1 X69.631 Y79.890 E27.95886
G1 X68.800 Y80.272 E28.02729
G1 X67.994 Y80.603 E28.09254
G1 X67.213 Y80.889 E28.15477
G1 X67.099 Y81.052 E28.16960
G1 X67.099 Y90.335 E28.86434
G1 X66.058 Y91.545 E28.98378
G1 X64.188 Y91.825 E29.12530
G1 X62.962 Y91.962 E29.21764
G1 X61.809 Y92.048 E29.30409
G1 X60.618 Y92.093 E29.39335
G1 X59.423 Y92.094 E29.48276
G1 X58.190 Y92.048 E29.57512
G1 X56.999 Y91.959 E29.66450
G1 X55.812 Y91.825 E29.75387
G1 X53.942 Y91.545 E29.89535
G1 X52.901 Y90.335 E30.01479
G1 X52.901 Y81.052 E30.70953
G1 X52.787 Y80.889 E30.72436
G1 X52.006 Y80.603 E30.78659
G1 X51.200 Y80.272 E30.85185
G1 X50.369 Y79.890 E30.92027
G1 X49.629 Y79.515 E30.98236
G1 X48.867 Y79.090 E31.04761
G1 X48.123 Y78.636 E31.11287
G1 X47.362 Y78.129 E31.18130
G1 X46.690 Y77.642 E31.24338
G1 X46.052 Y77.140 E31.30417
G1 X45.341 Y76.538 E31.37389
G1 X44.669 Y75.917 E31.44232
G1 X44.083 Y75.331 E31.50440
G1 X43.490 Y74.691 E31.56966
G1 X42.897 Y73.995 E31.63809
G1 X42.358 Y73.310 E31.70334
G1 X41.871 Y72.638 E31.76543
G1 X41.386 Y71.913 E31.83069
G1 X40.910 Y71.133 E31.89911
G1 X40.485 Y70.371 E31.96437
G1 X40.110 Y69.631 E32.02645
G1 X39.728 Y68.800 E32.09488
G1 X39.397 Y67.994 E32.16014
G1 X39.111 Y67.213 E32.22236
G1 X38.948 Y67.099 E32.23720
G1 X29.665 Y67.099 E32.93194
G1 X28.455 Y66.058 E33.05137
G1 X28.175 Y64.189 E33.19281
G1 X28.041 Y63.002 E33.28222
G1 X27.952 Y61.810 E33.37161
G1 X27.906 Y60.577 E33.46400
G1 X27.906 Y59.423 E33.55035
G1 X27.949 Y58.252 E33.63804
G1 X28.038 Y57.038 E33.72914
G1 X28.175 Y55.811 E33.82149
G1 X28.455 Y53.942 E33.96295
G1 X29.665 Y52.901 E34.08238
G1 X38.888 Y52.901 E34.77263
G1 X39.384 Y53.501 F30000.000
G1 F2100
G1 X39.549 Y53.380 E34.78798
G1 X39.958 Y52.218 E34.88013
G1 X40.293 Y51.406 E34.94590
G1 X40.634 Y50.663 E35.00709
G1 X41.018 Y49.906 E35.07058
G1 X41.446 Y49.138 E35.13635
G1 X41.873 Y48.441 E35.19755
G1 X42.343 Y47.735 E35.26103
G1 X42.859 Y47.023 E35.32680
G1 X43.365 Y46.381 E35.38800
G1 X43.915 Y45.735 E35.45149
G1 X44.511 Y45.090 E35.51726
G1 X45.090 Y44.511 E35.57846
G1 X45.712 Y43.935 E35.64194
G1 X46.381 Y43.365 E35.70771
G1 X47.023 Y42.859 E35.76891
G1 X47.710 Y42.360 E35.83239
G1 X48.441 Y41.872 E35.89817
G1 X49.165 Y41.431 E35.96165
G1 X49.879 Y41.032 E36.02285
G1 X50.635 Y40.647 E36.08633
G1 X51.406 Y40.293 E36.14982
G1 X52.190 Y39.969 E36.21330
G1 X53.380 Y39.549 E36.30773
G1 X53.501 Y39.384 E36.32308
G1 X53.501 Y29.887 E37.03372
G1 X54.251 Y29.016 E37.11982
G1 X55.895 Y28.769 E37.24419
G1 X57.060 Y28.638 E37.33190
G1 X58.229 Y28.550 E37.41962
G1 X59.429 Y28.506 E37.50950
G1 X60.572 Y28.506 E37.59503
G1 X61.726 Y28.548 E37.68144
G1 X62.912 Y28.636 E37.77046
G1 X64.105 Y28.769 E37.86032
G1 X65.749 Y29.016 E37.98469
G1 X66.499 Y29.887 E38.07078
G1 X66.499 Y39.384 E38.78142
G1 X66.620 Y39.549 E38.79677
G1 X67.810 Y39.969 E38.89120
G1 X68.594 Y40.293 E38.95469
G1 X69.365 Y40.647 E39.01817
G1 X70.094 Y41.018 E39.07937
G1 X70.788 Y41.404 E39.13883
G1 X71.559 Y41.872 E39.20633
G1 X72.290 Y42.360 E39.27211
G1 X72.952 Y42.840 E39.33330
G1 X73.619 Y43.365 E39.39679
G1 X74.288 Y43.935 E39.46256
G1 X74.888 Y44.490 E39.52376
G1 X75.489 Y45.090 E39.58724
G1 X76.085 Y45.735 E39.65301
G1 X76.635 Y46.381 E39.71650
G1 X77.141 Y47.023 E39.77769
G1 X77.657 Y47.735 E39.84347
G1 X78.111 Y48.415 E39.90466
G1 X78.554 Y49.138 E39.96814
G1 X78.982 Y49.906 E40.03392
G1 X79.366 Y50.663 E40.09741
G1 X79.707 Y51.406 E40.15860
G1 X80.042 Y52.218 E40.22437
G1 X80.451 Y53.380 E40.31652
G1 X80.616 Y53.501 E40.33187
G1 X90.113 Y53.501 E41.04251
G1 X90.984 Y54.251 E41.12861
G1 X91.231 Y55.895 E41.25300
G1 X91.365 Y57.089 E41.34286
G1 X91.450 Y58.229 E41.42846
G1 X91.494 Y59.399 E41.51609
G1 X91.494 Y60.572 E41.60382
G1 X91.450 Y61.771 E41.69367
G1 X91.362 Y62.940 E41.78138
