; generated by Slic3r 1.3.0 on 2020-04-10 at 19:27:56

; external perimeters extrusion width = 0.44mm (2.78mm^3/s)
; perimeters extrusion width = 0.40mm (7.14mm^3/s)
; infill extrusion width = 0.50mm (10.97mm^3/s)
; solid infill extrusion width = 0.60mm (6.68mm^3/s)
; top infill extrusion width = 0.40mm (2.14mm^3/s)

M107
M190 S80 ; set bed temperature and wait for it to be reached
M104 S200 ; set temperature
G28 ; home all axes
G1 Z5 F5000 ; lift nozzle

; Filament gcode

M109 S200 ; set temperature and wait for it to be reached
G21 ; set units to millimeters
G90 ; use absolute coordinates
M82 ; use absolute distances for extrusion
G92 E0
G1 Z0.300 F30000.000
G1 E-2.00000 F2400.00000
G92 E0
G1 X88.864 Y82.124 F30000.000
G1 E2.00000 F2400.00000
G1 F2100
G1 X91.017 Y81.023 E2.16150
G1 X92.480 Y80.675 E2.26200
G1 X94.240 Y80.341 E2.38164
G1 X95.499 Y80.157 E2.46667
G1 X96.389 Y80.056 E2.52648
G1 X98.174 Y79.919 E2.64613
G1 X100.036 Y79.872 E2.77055
G1 X101.307 Y79.896 E2.85543
G1 X102.201 Y79.940 E2.91528
G1 X103.986 Y80.096 E3.03492
G1 X105.760 Y80.341 E3.15457
G1 X107.520 Y80.675 E3.27426
G1 X108.983 Y81.023 E3.37476
G1 X110.898 Y81.939 E3.51651
G1 X112.342 Y83.493 E3.65827
G1 X113.163 Y85.767 E3.81977
G1 X113.457 Y88.115 E3.97786
G1 X113.723 Y90.756 E4.15520
G1 X113.831 Y92.079 E4.24387
G1 X113.993 Y94.657 E4.41645
G1 X114.094 Y97.310 E4.59383
G1 X114.128 Y100.036 E4.77591
G1 X114.096 Y102.619 E4.94849
G1 X114.054 Y103.945 E5.03716
G1 X113.922 Y106.598 E5.21460
G1 X113.723 Y109.244 E5.39185
G1 X113.457 Y111.886 E5.56923
G1 X113.163 Y114.233 E5.72728
G1 X112.496 Y116.248 E5.86904
G1 X111.136 Y117.876 E6.01079
G1 X108.983 Y118.976 E6.17229
G1 X107.520 Y119.325 E6.27279
G1 X105.760 Y119.659 E6.39249
G1 X104.501 Y119.843 E6.47746
G1 X103.611 Y119.944 E6.53728
G1 X101.755 Y120.085 E6.66165
G1 X99.967 Y120.128 E6.78110
G1 X98.693 Y120.104 E6.86623
G1 X97.799 Y120.060 E6.92607
G1 X96.014 Y119.904 E7.04572
G1 X94.240 Y119.659 E7.16536
G1 X92.480 Y119.325 E7.28505
G1 X91.017 Y118.977 E7.38555
G1 X89.102 Y118.061 E7.52730
G1 X87.658 Y116.507 E7.66906
G1 X86.837 Y114.233 E7.83056
G1 X86.543 Y111.885 E7.98865
G1 X86.277 Y109.244 E8.16599
G1 X86.169 Y107.921 E8.25467
G1 X86.007 Y105.343 E8.42724
G1 X85.906 Y102.690 E8.60462
G1 X85.872 Y99.964 E8.78670
G1 X85.904 Y97.387 E8.95888
G1 X85.946 Y96.055 E9.04795
G1 X86.078 Y93.402 E9.22540
G1 X86.277 Y90.754 E9.40278
G1 X86.543 Y88.113 E9.58009
G1 X86.837 Y85.767 E9.73807
G1 X87.504 Y83.752 E9.87983
G1 X88.826 Y82.170 E10.01758
G1 X89.359 Y82.416 F30000.000
G1 F2100
G1 X91.153 Y81.541 E10.15096
G1 X92.959 Y81.121 E10.27479
G1 X94.761 Y80.801 E10.39708
G1 X96.007 Y80.636 E10.48108
G1 X96.885 Y80.546 E10.53997
G1 X98.645 Y80.434 E10.65780
G1 X100.468 Y80.411 E10.77960
G1 X102.234 Y80.479 E10.89766
G1 X103.989 Y80.635 E11.01541
G1 X105.676 Y80.870 E11.12916
G1 X107.409 Y81.199 E11.24705
G1 X108.847 Y81.541 E11.34574
G1 X110.659 Y82.429 E11.48058
G1 X111.990 Y83.946 E11.61542
G1 X112.632 Y85.837 E11.74881
G1 X112.917 Y88.108 E11.90168
G1 X113.059 Y89.421 E11.98991
G1 X113.291 Y92.052 E12.16635
G1 X113.461 Y94.752 E12.34711
G1 X113.560 Y97.391 E12.52356
G1 X113.592 Y99.968 E12.69568
G1 X113.584 Y101.289 E12.78394
G1 X113.516 Y103.993 E12.96467
G1 X113.387 Y106.568 E13.13688
G1 X113.189 Y109.200 E13.31325
G1 X112.925 Y111.829 E13.48972
G1 X112.632 Y114.163 E13.64688
G1 X111.979 Y116.073 E13.78172
G1 X110.641 Y117.584 E13.91656
G1 X108.847 Y118.459 E14.04994
G1 X107.041 Y118.879 E14.17377
G1 X105.243 Y119.199 E14.29581
G1 X104.366 Y119.320 E14.35492
G1 X103.115 Y119.454 E14.43896
G1 X101.355 Y119.566 E14.55678
G1 X99.591 Y119.590 E14.67466
G1 X97.765 Y119.521 E14.79675
G1 X96.072 Y119.372 E14.91030
G1 X94.324 Y119.130 E15.02814
G1 X92.591 Y118.801 E15.14603
G1 X91.154 Y118.459 E15.24472
G1 X89.341 Y117.571 E15.37956
G1 X88.010 Y116.054 E15.51440
G1 X87.368 Y114.163 E15.64779
G1 X87.083 Y111.892 E15.80066
G1 X86.941 Y110.579 E15.88890
G1 X86.709 Y107.948 E16.06538
G1 X86.542 Y105.313 E16.24177
G1 X86.440 Y102.609 E16.42254
G1 X86.416 Y101.288 E16.51076
G1 X86.415 Y98.716 E16.68258
G1 X86.484 Y96.007 E16.86365
G1 X86.613 Y93.432 E17.03587
G1 X86.811 Y90.798 E17.21235
G1 X87.076 Y88.170 E17.38876
G1 X87.368 Y85.837 E17.54586
G1 X88.021 Y83.927 E17.68070
G1 X89.319 Y82.461 E17.81153
G1 X89.849 Y82.722 F30000.000
G1 F2100
G1 X91.290 Y82.059 E17.91746
G1 X91.376 Y82.037 E17.92343
G1 X92.277 Y81.817 E17.98536
G1 X93.497 Y81.561 E18.06864
G1 X94.407 Y81.399 E18.13040
G1 X95.640 Y81.219 E18.21363
G1 X97.368 Y81.044 E18.32963
G1 X99.103 Y80.955 E18.44572
G1 X100.896 Y80.955 E18.56549
G1 X102.630 Y81.043 E18.68148
G1 X104.302 Y81.212 E18.79378
G1 X105.649 Y81.408 E18.88471
G1 X107.299 Y81.723 E18.99691
G1 X108.710 Y82.059 E19.09380
G1 X110.415 Y82.918 E19.22135
G1 X111.625 Y84.395 E19.34890
G1 X112.101 Y85.908 E19.45483
G1 X112.386 Y88.171 E19.60726
G1 X112.532 Y89.535 E19.69889
G1 X112.758 Y92.095 E19.87057
G1 X112.852 Y93.464 E19.96221
G1 X112.984 Y96.088 E20.13776
G1 X113.024 Y97.401 E20.22554
G1 X113.057 Y99.971 E20.39722
G1 X113.024 Y102.599 E20.57276
G1 X112.926 Y105.224 E20.74831
G1 X112.762 Y107.847 E20.92386
G1 X112.650 Y109.214 E21.01550
G1 X112.392 Y111.772 E21.18721
G1 X112.101 Y114.092 E21.34347
G1 X111.463 Y115.892 E21.47102
G1 X110.151 Y117.278 E21.59857
G1 X108.710 Y117.941 E21.70450
G1 X108.624 Y117.963 E21.71046
G1 X107.722 Y118.183 E21.77244
G1 X106.503 Y118.439 E21.85567
G1 X105.592 Y118.601 E21.91749
G1 X104.360 Y118.781 E22.00066
G1 X102.632 Y118.956 E22.11666
G1 X100.897 Y119.045 E22.23275
G1 X99.103 Y119.045 E22.35259
G1 X97.368 Y118.956 E22.46868
G1 X95.698 Y118.788 E22.58081
G1 X94.353 Y118.592 E22.67158
G1 X92.701 Y118.277 E22.78394
G1 X91.290 Y117.941 E22.88083
G1 X89.585 Y117.082 E23.00839
G1 X88.375 Y115.605 E23.13594
G1 X87.899 Y114.092 E23.24187
G1 X87.614 Y111.829 E23.39429
G1 X87.474 Y110.522 E23.48208
G1 X87.238 Y107.847 E23.66148
G1 X87.074 Y105.224 E23.83703
G1 X86.977 Y102.662 E24.00831
G1 X86.952 Y101.343 E24.09648
G1 X86.951 Y98.714 E24.27210
G1 X87.019 Y96.030 E24.45144
G1 X87.148 Y93.463 E24.62320
G1 X87.345 Y90.842 E24.79877
G1 X87.608 Y88.228 E24.97429
G1 X87.899 Y85.908 E25.13050
G1 X88.537 Y84.108 E25.25805
G1 X89.808 Y82.765 E25.38159
G1 X90.336 Y83.044 F30000.000
G1 F2100
G1 X91.427 Y82.577 E25.46086
G1 X92.346 Y82.351 E25.52408
G1 X93.231 Y82.159 E25.58462
G1 X94.441 Y81.936 E25.66680
G1 X96.185 Y81.693 E25.78441
G1 X97.886 Y81.545 E25.89852
G1 X99.595 Y81.481 E26.01275
G1 X101.256 Y81.502 E26.12373
G1 X102.964 Y81.608 E26.23802
G1 X104.287 Y81.750 E26.32693
G1 X105.930 Y82.000 E26.43794
G1 X107.237 Y82.257 E26.52692
G1 X108.573 Y82.577 E26.61873
G1 X110.164 Y83.406 E26.73855
G1 X111.245 Y84.837 E26.85838
G1 X111.570 Y85.978 E26.93764
G1 X111.854 Y88.235 E27.08961
G1 X112.121 Y90.887 E27.26767
G1 X112.228 Y92.190 E27.35500
G1 X112.388 Y94.748 E27.52623
G1 X112.488 Y97.361 E27.70090
G1 X112.521 Y99.974 E27.87552
G1 X112.489 Y102.588 E28.05017
G1 X112.391 Y105.201 E28.22482
G1 X112.228 Y107.810 E28.39947
G1 X112.117 Y109.164 E28.49021
G1 X111.859 Y111.714 E28.66146
G1 X111.570 Y114.022 E28.81683
G1 X110.949 Y115.704 E28.93665
G1 X109.664 Y116.956 E29.05647
G1 X108.573 Y117.423 E29.13573
G1 X107.654 Y117.649 E29.19895
G1 X105.931 Y118.000 E29.31642
G1 X105.083 Y118.139 E29.37385
G1 X103.865 Y118.301 E29.45594
G1 X102.161 Y118.452 E29.57020
G1 X100.453 Y118.518 E29.68441
G1 X98.744 Y118.498 E29.79861
G1 X97.036 Y118.392 E29.91290
G1 X95.711 Y118.250 E30.00196
G1 X94.070 Y118.000 E30.11281
G1 X92.763 Y117.742 E30.20184
G1 X91.427 Y117.423 E30.29361
G1 X89.836 Y116.594 E30.41343
G1 X88.755 Y115.163 E30.53325
G1 X88.430 Y114.022 E30.61251
G1 X88.146 Y111.765 E30.76449
G1 X87.879 Y109.113 E30.94255
G1 X87.772 Y107.810 E31.02987
G1 X87.612 Y105.252 E31.20110
G1 X87.512 Y102.639 E31.37577
G1 X87.479 Y100.025 E31.55042
G1 X87.511 Y97.411 E31.72507
G1 X87.609 Y94.799 E31.89969
G1 X87.772 Y92.196 E32.07394
G1 X87.883 Y90.836 E32.16508
G1 X88.141 Y88.285 E32.33638
G1 X88.430 Y85.978 E32.49170
G1 X89.051 Y84.296 E32.61152
G1 X90.293 Y83.086 E32.72734
G1 X91.563 Y83.095 F30000.000
G1 F2100
G1 X93.290 Y82.694 E32.84575
G1 X94.947 Y82.398 E32.95823
G1 X96.617 Y82.186 E33.07067
G1 X98.295 Y82.058 E33.18312
G1 X99.978 Y82.014 E33.29553
G1 X101.660 Y82.056 E33.40799
G1 X103.339 Y82.181 E33.52043
G1 X105.008 Y82.391 E33.63279
G1 X106.710 Y82.694 E33.74830
G1 X108.437 Y83.095 E33.86672
G1 X109.905 Y83.890 E33.97828
G1 X111.039 Y86.049 E34.14116
G1 X111.322 Y88.299 E34.29269
G1 X111.461 Y89.592 E34.37957
G1 X111.690 Y92.183 E34.55331
G1 X111.854 Y94.778 E34.72705
G1 X111.953 Y97.422 E34.90377
G1 X111.986 Y100.022 E35.07752
G1 X111.953 Y102.578 E35.24830
G1 X111.913 Y103.878 E35.33517
G1 X111.783 Y106.477 E35.50898
G1 X111.587 Y109.069 E35.68267
G1 X111.327 Y111.657 E35.85644
G1 X111.039 Y113.951 E36.01091
G1 X110.435 Y115.508 E36.12246
G1 X108.437 Y116.905 E36.28535
G1 X106.710 Y117.306 E36.40377
G1 X105.053 Y117.602 E36.51624
G1 X103.383 Y117.814 E36.62869
G1 X101.705 Y117.942 E36.74113
G1 X100.023 Y117.986 E36.85354
G1 X98.340 Y117.944 E36.96600
G1 X96.661 Y117.819 E37.07843
G1 X94.992 Y117.609 E37.19080
G1 X93.290 Y117.306 E37.30631
G1 X91.563 Y116.905 E37.42473
G1 X90.095 Y116.110 E37.53629
G1 X88.961 Y113.951 E37.69917
G1 X88.678 Y111.701 E37.85070
G1 X88.539 Y110.408 E37.93758
G1 X88.310 Y107.817 E38.11135
G1 X88.146 Y105.222 E38.28506
G1 X88.047 Y102.578 E38.46178
G1 X88.014 Y99.978 E38.63553
G1 X88.046 Y97.428 E38.80591
G1 X88.087 Y96.122 E38.89318
G1 X88.217 Y93.523 E39.06699
G1 X88.413 Y90.930 E39.24076
G1 X88.673 Y88.342 E39.41449
G1 X88.961 Y86.049 E39.56892
G1 X89.565 Y84.492 E39.68047
G1 X91.514 Y83.129 E39.83935
G1 X91.764 Y83.855 F30000.000
G1 F2100
G1 X93.059 Y83.546 E39.93900
G1 X94.284 Y83.304 E40.03246
G1 X95.503 Y83.111 E40.12482
G1 X97.118 Y82.928 E40.24644
G1 X98.366 Y82.841 E40.34003
G1 X99.991 Y82.801 E40.46171
G1 X101.224 Y82.824 E40.55395
G1 X102.471 Y82.894 E40.64743
G1 X104.105 Y83.059 E40.77035
G1 X105.730 Y83.307 E40.89337
G1 X107.325 Y83.632 E41.01516
G1 X109.044 Y84.069 E41.14793
G1 X110.150 Y85.323 E41.27307
G1 X110.391 Y87.137 E41.40999
G1 X110.682 Y89.702 E41.60315
G1 X110.908 Y92.272 E41.79630
G1 X111.069 Y94.831 E41.98815
G1 X111.127 Y96.138 E42.08604
G1 X111.191 Y98.718 E42.27919
G1 X111.191 Y101.282 E42.47106
G1 X111.127 Y103.862 E42.66419
G1 X110.997 Y106.440 E42.85740
G1 X110.802 Y109.031 E43.05180
G1 X110.542 Y111.599 E43.24496
G1 X110.150 Y114.677 E43.47716
G1 X109.044 Y115.931 E43.60230
G1 X107.725 Y116.274 E43.70434
G1 X106.521 Y116.543 E43.79665
G1 X104.921 Y116.827 E43.91822
G1 X103.681 Y116.991 E44.01184
G1 X102.454 Y117.107 E44.10405
G1 X100.830 Y117.189 E44.22578
G1 X99.187 Y117.189 E44.34875
G1 X97.936 Y117.134 E44.44240
G1 X97.118 Y117.072 E44.50379
G1 X95.910 Y116.943 E44.59473
G1 X94.285 Y116.696 E44.71778
G1 X92.676 Y116.369 E44.84065
G1 X90.956 Y115.931 E44.97346
G1 X89.850 Y114.677 E45.09860
G1 X89.458 Y111.600 E45.33076
G1 X89.198 Y109.030 E45.52400
G1 X89.004 Y106.457 E45.71712
G1 X88.874 Y103.879 E45.91028
G1 X88.809 Y101.282 E46.10471
G1 X88.809 Y98.718 E46.29661
G1 X88.873 Y96.138 E46.48972
G1 X89.003 Y93.560 E46.68292
G1 X89.196 Y91.001 E46.87496
G1 X89.320 Y89.684 E46.97390
G1 X89.609 Y87.137 E47.16579
G1 X89.850 Y85.323 E47.30269
G1 X90.956 Y84.069 E47.42783
G1 X91.706 Y83.871 E47.48591
G1 X91.917 Y84.435 F30000.000
G1 F2100
G1 X93.188 Y84.132 E47.58371
G1 X94.375 Y83.897 E47.67424
G1 X95.571 Y83.708 E47.76485
G1 X96.786 Y83.562 E47.85643
G1 X97.999 Y83.463 E47.94753
G1 X99.590 Y83.403 E48.06663
G1 X100.813 Y83.411 E48.15818
G1 X102.022 Y83.464 E48.24873
G1 X103.628 Y83.606 E48.36943
G1 X105.228 Y83.829 E48.49032
G1 X106.812 Y84.132 E48.61095
G1 X107.598 Y84.313 E48.67137
G1 X108.715 Y84.602 E48.75769
G1 X109.579 Y85.583 E48.85552
G1 X109.795 Y87.210 E48.97836
G1 X110.083 Y89.746 E49.16938
G1 X110.309 Y92.302 E49.36138
G1 X110.398 Y93.596 E49.45843
G1 X110.527 Y96.145 E49.64945
G1 X110.591 Y98.698 E49.84052
G1 X110.599 Y100.007 E49.93849
G1 X110.567 Y102.572 E50.13051
G1 X110.470 Y105.137 E50.32254
G1 X110.311 Y107.671 E50.51260
G1 X110.205 Y108.963 E50.60955
G1 X109.946 Y111.529 E50.80261
G1 X109.579 Y114.417 E51.02045
G1 X108.715 Y115.398 E51.11828
G1 X107.205 Y115.780 E51.23482
G1 X106.021 Y116.030 E51.32538
G1 X104.816 Y116.236 E51.41686
G1 X103.615 Y116.395 E51.50752
G1 X102.411 Y116.509 E51.59804
G1 X100.813 Y116.589 E51.71778
G1 X99.603 Y116.597 E51.80835
G1 X98.380 Y116.558 E51.89988
G1 X96.771 Y116.437 E52.02064
G1 X95.970 Y116.345 E52.08100
G1 X94.786 Y116.173 E52.17052
G1 X93.188 Y115.868 E52.29230
G1 X92.401 Y115.687 E52.35268
G1 X91.285 Y115.398 E52.43898
G1 X90.421 Y114.417 E52.53681
G1 X90.205 Y112.790 E52.65965
G1 X89.915 Y110.240 E52.85168
G1 X89.691 Y107.697 E53.04272
G1 X89.529 Y105.123 E53.23572
G1 X89.433 Y102.572 E53.42676
G1 X89.401 Y100.007 E53.61878
G1 X89.433 Y97.441 E53.81081
G1 X89.529 Y94.877 E54.00281
G1 X89.690 Y92.316 E54.19486
G1 X89.915 Y89.760 E54.38686
G1 X90.205 Y87.210 E54.57892
G1 X90.421 Y85.583 E54.70175
G1 X91.285 Y84.602 E54.79957
G1 X91.859 Y84.451 E54.84400
G1 X92.070 Y85.016 F30000.000
G1 F2100
G1 X93.317 Y84.718 E54.93995
G1 X94.482 Y84.488 E55.02879
G1 X95.655 Y84.302 E55.11769
G1 X96.834 Y84.160 E55.20654
G1 X98.026 Y84.063 E55.29606
G1 X99.204 Y84.011 E55.38427
G1 X100.400 Y84.003 E55.47375
G1 X101.578 Y84.040 E55.56202
G1 X103.156 Y84.159 E55.68045
G1 X104.727 Y84.357 E55.79890
G1 X106.286 Y84.634 E55.91740
G1 X107.445 Y84.893 E56.00626
G1 X108.385 Y85.136 E56.07896
G1 X109.008 Y85.843 E56.14948
G1 X109.200 Y87.284 E56.25825
G1 X109.486 Y89.809 E56.44842
G1 X109.711 Y92.349 E56.63930
G1 X109.799 Y93.632 E56.73549
G1 X109.927 Y96.159 E56.92485
G1 X109.967 Y97.454 E57.02184
G1 X109.999 Y100.005 E57.21273
G1 X109.967 Y102.546 E57.40290
G1 X109.871 Y105.095 E57.59379
G1 X109.711 Y107.641 E57.78469
G1 X109.486 Y110.191 E57.97632
G1 X109.198 Y112.726 E58.16722
G1 X109.008 Y114.157 E58.27526
G1 X108.385 Y114.864 E58.34578
G1 X107.069 Y115.196 E58.44737
G1 X105.907 Y115.441 E58.53624
G1 X104.728 Y115.643 E58.62577
G1 X103.560 Y115.798 E58.71396
G1 X102.378 Y115.910 E58.80280
G1 X101.192 Y115.977 E58.89167
G1 X99.996 Y115.999 E58.98121
G1 X98.809 Y115.977 E59.07002
G1 X97.237 Y115.878 E59.18788
G1 X95.664 Y115.699 E59.30638
G1 X94.102 Y115.442 E59.42482
G1 X92.932 Y115.196 E59.51435
G1 X91.615 Y114.864 E59.61600
G1 X90.992 Y114.157 E59.68652
G1 X90.800 Y112.716 E59.79528
G1 X90.513 Y110.182 E59.98618
G1 X90.289 Y107.650 E60.17636
G1 X90.129 Y105.105 E60.36723
G1 X90.073 Y103.821 E60.46343
G1 X90.009 Y101.271 E60.65432
G1 X90.009 Y98.729 E60.84451
G1 X90.073 Y96.179 E61.03538
G1 X90.201 Y93.631 E61.22631
G1 X90.393 Y91.078 E61.41792
G1 X90.650 Y88.540 E61.60881
G1 X90.992 Y85.843 E61.81229
G1 X91.615 Y85.136 E61.88281
G1 X92.012 Y85.031 E61.91358
G1 X92.223 Y85.596 F30000.000
G1 F2100
G1 X93.073 Y85.387 E61.97906
G1 X94.213 Y85.147 E62.06622
G1 X95.355 Y84.952 E62.15296
G1 X96.510 Y84.798 E62.24013
G1 X97.669 Y84.689 E62.32730
G1 X98.832 Y84.623 E62.41447
G1 X99.997 Y84.601 E62.50164
G1 X100.784 Y84.611 E62.56053
G1 X102.324 Y84.688 E62.67596
G1 X103.484 Y84.798 E62.76313
G1 X104.645 Y84.952 E62.85074
G1 X105.793 Y85.149 E62.93794
G1 X106.933 Y85.388 E63.02509
G1 X108.056 Y85.669 E63.11174
G1 X108.438 Y86.103 E63.15495
G1 X108.753 Y88.601 E63.34341
G1 X108.890 Y89.871 E63.43896
G1 X109.010 Y91.139 E63.53430
G1 X109.200 Y93.662 E63.72362
G1 X109.272 Y94.933 E63.81895
G1 X109.367 Y97.461 E64.00827
G1 X109.399 Y99.988 E64.19737
G1 X109.391 Y101.271 E64.29337
G1 X109.328 Y103.800 E64.48269
G1 X109.201 Y106.324 E64.67180
G1 X109.112 Y107.603 E64.76779
G1 X108.890 Y110.129 E64.95756
G1 X108.754 Y111.390 E65.05245
G1 X108.438 Y113.897 E65.24157
G1 X108.056 Y114.331 E65.28479
G1 X106.933 Y114.612 E65.37144
G1 X105.793 Y114.852 E65.45861
G1 X104.639 Y115.049 E65.54618
G1 X103.490 Y115.202 E65.63294
G1 X102.331 Y115.311 E65.72010
G1 X101.168 Y115.377 E65.80727
G1 X100.003 Y115.399 E65.89443
G1 X99.220 Y115.390 E65.95302
G1 X97.675 Y115.312 E66.06877
