; generated by Slic3r 1.3.0 on 2023-03-14 at 17:42:35

; external perimeters extrusion width = 0.44mm (2.78mm^3/s)
; perimeters extrusion width = 0.40mm (7.14mm^3/s)
; infill extrusion width = 0.50mm (10.97mm^3/s)
; solid infill extrusion width = 0.60mm (6.68mm^3/s)
; top infill extrusion width = 0.40mm (2.14mm^3/s)

M107
M190 S80 ; set bed temperature and wait for it to be reached
M104 S210 ; set temperature
G28 ; home all axes
G1 Z5 F5000 ; lift nozzle

; Filament gcode

M109 S210 ; set temperature and wait for it to be reached
G21 ; set units to millimeters
G90 ; use absolute coordinates
M82 ; use absolute distances for extrusion
G92 E0
G1 Z0.300 F30000.000
G1 E-2.00000 F2400.00000
G92 E0
G1 X22.089 Y60.473 F30000.000
G1 E2.00000 F2400.00000
G1 F2100
G1 X23.050 Y60.358 E2.06463
G1 X126.950 Y60.358 E9.00572
G1 X128.700 Y60.753 E9.12554
G1 X130.110 Y61.861 E9.24536
G1 X130.906 Y63.468 E9.36518
G1 X131.021 Y64.429 E9.42982
G1 X131.021 Y85.571 E10.84224
G1 X130.626 Y87.321 E10.96206
G1 X129.518 Y88.731 E11.08189
G1 X127.911 Y89.527 E11.20171
G1 X126.950 Y89.642 E11.26634
G1 X23.050 Y89.642 E18.20742
G1 X21.300 Y89.247 E18.32725
G1 X19.890 Y88.139 E18.44707
G1 X19.094 Y86.532 E18.56689
G1 X18.979 Y85.571 E18.63153
G1 X18.979 Y64.429 E20.04395
G1 X19.374 Y62.679 E20.16377
G1 X20.482 Y61.269 E20.28359
G1 X22.036 Y60.499 E20.39941
G1 X23.050 Y60.893 F30000.000
G1 F2100
G1 X126.950 Y60.893 E27.34049
G1 X128.573 Y61.288 E27.45205
G1 X129.833 Y62.383 E27.56360
G1 X130.486 Y64.429 E27.70708
G1 X130.486 Y85.571 E29.11950
G1 X130.091 Y87.194 E29.23106
G1 X128.996 Y88.455 E29.34262
G1 X126.950 Y89.107 E29.48609
G1 X23.050 Y89.107 E36.42717
G1 X21.427 Y88.712 E36.53873
G1 X20.167 Y87.617 E36.65029
G1 X19.514 Y85.571 E36.79376
G1 X19.514 Y64.429 E38.20619
G1 X19.909 Y62.806 E38.31774
G1 X21.004 Y61.545 E38.42930
G1 X22.993 Y60.911 E38.56877
G1 E36.56877 F2400.00000
G92 E0
G1 X25.564 Y82.155 F30000.000
G1 E2.00000 F2400.00000
G1 F2100
G1 X25.564 Y67.845 E2.95594
G1 X125.436 Y67.845 E9.62788
G1 X125.436 Y82.155 E10.58381
G1 X25.624 Y82.155 E17.25174
G1 E15.25174 F2400.00000
G92 E0
G1 X121.100 Y81.619 F30000.000
G1 E2.00000 F2400.00000
G1 F2100
G1 X121.100 Y68.381 E2.88437
G1 X124.900 Y68.381 E3.13823
G1 X124.900 Y81.619 E4.02260
G1 X121.160 Y81.619 E4.27246
G1 X120.736 Y81.786 F30000.000
G1 X119.900 Y81.619 F30000.000
G1 F2100
G1 X116.100 Y81.619 E4.52632
G1 X116.100 Y68.381 E5.41069
G1 X119.900 Y68.381 E5.66455
G1 X119.900 Y81.559 E6.54491
G1 X119.937 Y82.017 F30000.000
G1 E4.54491 F2400.00000
G92 E0
G1 X114.900 Y81.619 F30000.000
G1 E2.00000 F2400.00000
G1 F2100
G1 X111.100 Y81.619 E2.25386
G1 X111.100 Y68.381 E3.13823
G1 X114.900 Y68.381 E3.39209
G1 X114.900 Y81.559 E4.27246
G1 X114.937 Y82.017 F30000.000
G1 E2.27246 F2400.00000
G92 E0
G1 X109.900 Y81.619 F30000.000
G1 E2.00000 F2400.00000
G1 F2100
G1 X106.100 Y81.619 E2.25386
G1 X106.100 Y68.381 E3.13823
G1 X109.900 Y68.381 E3.39209
G1 X109.900 Y81.559 E4.27246
G1 X109.937 Y82.017 F30000.000
G1 E2.27246 F2400.00000
G92 E0
G1 X104.900 Y81.619 F30000.000
G1 E2.00000 F2400.00000
G1 F2100
G1 X101.100 Y81.619 E2.25386
G1 X101.100 Y68.381 E3.13823
G1 X104.900 Y68.381 E3.39209
G1 X104.900 Y81.559 E4.27246
G1 X104.937 Y82.017 F30000.000
G1 E2.27246 F2400.00000
G92 E0
G1 X99.900 Y81.619 F30000.000
G1 E2.00000 F2400.00000
G1 F2100
G1 X96.100 Y81.619 E2.25386
G1 X96.100 Y68.381 E3.13823
G1 X99.900 Y68.381 E3.39209
G1 X99.900 Y81.559 E4.27246
G1 X99.937 Y82.017 F30000.000
G1 E2.27246 F2400.00000
G92 E0
G1 X94.900 Y81.619 F30000.000
G1 E2.00000 F2400.00000
G1 F2100
G1 X91.100 Y81.619 E2.25386
G1 X91.100 Y68.381 E3.13823
G1 X94.900 Y68.381 E3.39209
G1 X94.900 Y81.559 E4.27246
G1 X94.937 Y82.017 F30000.000
G1 E2.27246 F2400.00000
G92 E0
G1 X89.900 Y81.619 F30000.000
G1 E2.00000 F2400.00000
G1 F2100
G1 X86.100 Y81.619 E2.25386
G1 X86.100 Y68.381 E3.13823
G1 X89.900 Y68.381 E3.39209
G1 X89.900 Y81.559 E4.27246
G1 X89.937 Y82.017 F30000.000
G1 E2.27246 F2400.00000
G92 E0
G1 X84.900 Y81.619 F30000.000
G1 E2.00000 F2400.00000
G1 F2100
G1 X81.100 Y81.619 E2.25386
G1 X81.100 Y68.381 E3.13823
G1 X84.900 Y68.381 E3.39209
G1 X84.900 Y81.559 E4.27246
G1 X84.937 Y82.017 F30000.000
G1 E2.27246 F2400.00000
G92 E0
G1 X79.900 Y81.619 F30000.000
G1 E2.00000 F2400.00000
G1 F2100
G1 X76.100 Y81.619 E2.25386
G1 X76.100 Y68.381 E3.13823
G1 X79.900 Y68.381 E3.39209
G1 X79.900 Y81.559 E4.27246
G1 X79.937 Y82.017 F30000.000
G1 E2.27246 F2400.00000
G92 E0
G1 X74.900 Y81.619 F30000.000
G1 E2.00000 F2400.00000
G1 F2100
G1 X71.100 Y81.619 E2.25386
G1 X71.100 Y68.381 E3.13823
G1 X74.900 Y68.381 E3.39209
G1 X74.900 Y81.559 E4.27246
G1 X74.937 Y82.017 F30000.000
G1 E2.27246 F2400.00000
G92 E0
G1 X69.900 Y81.619 F30000.000
G1 E2.00000 F2400.00000
G1 F2100
G1 X66.100 Y81.619 E2.25386
G1 X66.100 Y68.381 E3.13823
G1 X69.900 Y68.381 E3.39209
G1 X69.900 Y81.559 E4.27246
G1 X69.937 Y82.017 F30000.000
G1 E2.27246 F2400.00000
G92 E0
G1 X64.900 Y81.619 F30000.000
G1 E2.00000 F2400.00000
G1 F2100
G1 X61.100 Y81.619 E2.25386
G1 X61.100 Y68.381 E3.13823
G1 X64.900 Y68.381 E3.39209
G1 X64.900 Y81.559 E4.27246
G1 X64.937 Y82.017 F30000.000
G1 E2.27246 F2400.00000
G92 E0
G1 X59.900 Y81.619 F30000.000
G1 E2.00000 F2400.00000
G1 F2100
G1 X56.100 Y81.619 E2.25386
G1 X56.100 Y68.381 E3.13823
G1 X59.900 Y68.381 E3.39209
G1 X59.900 Y81.559 E4.27246
G1 X59.937 Y82.017 F30000.000
G1 E2.27246 F2400.00000
G92 E0
G1 X54.900 Y81.619 F30000.000
G1 E2.00000 F2400.00000
G1 F2100
G1 X51.100 Y81.619 E2.25386
G1 X51.100 Y68.381 E3.13823
G1 X54.900 Y68.381 E3.39209
G1 X54.900 Y81.559 E4.27246
G1 X54.937 Y82.017 F30000.000
G1 E2.27246 F2400.00000
G92 E0
G1 X49.900 Y81.619 F30000.000
G1 E2.00000 F2400.00000
G1 F2100
G1 X46.100 Y81.619 E2.25386
G1 X46.100 Y68.381 E3.13823
G1 X49.900 Y68.381 E3.39209
G1 X49.900 Y81.559 E4.27246
G1 X49.937 Y82.017 F30000.000
G1 E2.27246 F2400.00000
G92 E0
G1 X44.900 Y81.619 F30000.000
G1 E2.00000 F2400.00000
G1 F2100
G1 X41.100 Y81.619 E2.25386
G1 X41.100 Y68.381 E3.13823
G1 X44.900 Y68.381 E3.39209
G1 X44.900 Y81.559 E4.27246
G1 X44.937 Y82.017 F30000.000
G1 E2.27246 F2400.00000
G92 E0
G1 X39.900 Y81.619 F30000.000
G1 E2.00000 F2400.00000
G1 F2100
G1 X36.100 Y81.619 E2.25386
G1 X36.100 Y68.381 E3.13823
G1 X39.900 Y68.381 E3.39209
G1 X39.900 Y81.559 E4.27246
G1 X39.937 Y82.017 F30000.000
G1 E2.27246 F2400.00000
G92 E0
G1 X34.900 Y81.619 F30000.000
G1 E2.00000 F2400.00000
G1 F2100
G1 X31.100 Y81.619 E2.25386
G1 X31.100 Y68.381 E3.13823
G1 X34.900 Y68.381 E3.39209
G1 X34.900 Y81.559 E4.27246
G1 X34.937 Y82.017 F30000.000
G1 E2.27246 F2400.00000
G92 E0
G1 X29.900 Y81.619 F30000.000
G1 E2.00000 F2400.00000
G1 F2100
G1 X26.100 Y81.619 E2.25386
G1 X26.100 Y68.381 E3.13823
G1 X29.900 Y68.381 E3.39209
G1 X29.900 Y81.559 E4.27246
G1 X29.937 Y82.017 F30000.000
G1 E2.27246 F2400.00000
G92 E0
G1 X23.886 Y84.736 F30000.000
G1 E2.00000 F2400.00000
G1 F2100
G1 X23.886 Y65.264 E3.30078
G1 X126.114 Y65.264 E10.13021
G1 X126.114 Y84.736 E11.43099
G1 X23.946 Y84.736 E18.25641
G1 X23.350 Y85.271 F30000.000
G1 F2100
G1 X23.350 Y64.729 E19.62875
G1 X126.650 Y64.729 E26.52975
G1 X126.650 Y85.271 E27.90209
G1 X23.410 Y85.271 E34.79908
G1 X23.527 Y84.912 F30000.000
G1 E32.79908 F2400.00000
G92 E0
G1 X30.500 Y81.887 F30000.000
G1 E2.00000 F2400.00000
G1 F2100
G1 X30.500 Y68.113 E3.03076
G1 E1.03076 F2400.00000
G92 E0
G1 X35.500 Y68.113 F30000.000
G1 E2.00000 F2400.00000
G1 F2100
G1 X35.500 Y81.887 E3.03076
G1 E1.03076 F2400.00000
G92 E0
G1 X40.500 Y81.887 F30000.000
G1 E2.00000 F2400.00000
G1 F2100
G1 X40.500 Y68.113 E3.03076
G1 E1.03076 F2400.00000
G92 E0
G1 X45.500 Y68.113 F30000.000
G1 E2.00000 F2400.00000
G1 F2100
G1 X45.500 Y81.887 E3.03076
G1 E1.03076 F2400.00000
G92 E0
G1 X50.500 Y81.887 F30000.000
G1 E2.00000 F2400.00000
G1 F2100
G1 X50.500 Y68.113 E3.03076
G1 E1.03076 F2400.00000
G92 E0
G1 X55.500 Y68.113 F30000.000
G1 E2.00000 F2400.00000
G1 F2100
G1 X55.500 Y81.887 E3.03076
G1 E1.03076 F2400.00000
G92 E0
G1 X60.500 Y81.887 F30000.000
G1 E2.00000 F2400.00000
G1 F2100
G1 X60.500 Y68.113 E3.03076
G1 E1.03076 F2400.00000
G92 E0
G1 X65.500 Y68.113 F30000.000
G1 E2.00000 F2400.00000
G1 F2100
G1 X65.500 Y81.887 E3.03076
G1 E1.03076 F2400.00000
G92 E0
G1 X70.500 Y81.887 F30000.000
G1 E2.00000 F2400.00000
G1 F2100
G1 X70.500 Y68.113 E3.03076
G1 E1.03076 F2400.00000
G92 E0
G1 X75.500 Y68.113 F30000.000
G1 E2.00000 F2400.00000
G1 F2100
G1 X75.500 Y81.887 E3.03076
G1 E1.03076 F2400.00000
G92 E0
G1 X80.500 Y81.887 F30000.000
G1 E2.00000 F2400.00000
G1 F2100
G1 X80.500 Y68.113 E3.03076
G1 E1.03076 F2400.00000
G92 E0
G1 X85.500 Y68.113 F30000.000
G1 E2.00000 F2400.00000
G1 F2100
G1 X85.500 Y81.887 E3.03076
G1 E1.03076 F2400.00000
G92 E0
G1 X90.500 Y81.887 F30000.000
G1 E2.00000 F2400.00000
G1 F2100
G1 X90.500 Y68.113 E3.03075
G1 E1.03075 F2400.00000
G92 E0
G1 X95.500 Y68.113 F30000.000
G1 E2.00000 F2400.00000
G1 F2100
G1 X95.500 Y81.887 E3.03076
G1 E1.03076 F2400.00000
G92 E0
G1 X100.500 Y81.887 F30000.000
G1 E2.00000 F2400.00000
G1 F2100
G1 X100.500 Y68.113 E3.03076
G1 E1.03076 F2400.00000
G92 E0
G1 X105.500 Y68.113 F30000.000
G1 E2.00000 F2400.00000
G1 F2100
G1 X105.500 Y81.887 E3.03076
G1 E1.03076 F2400.00000
G92 E0
G1 X110.500 Y81.887 F30000.000
G1 E2.00000 F2400.00000
G1 F2100
G1 X110.500 Y68.113 E3.03076
G1 E1.03076 F2400.00000
G92 E0
G1 X115.500 Y68.113 F30000.000
G1 E2.00000 F2400.00000
G1 F2100
G1 X115.500 Y81.887 E3.03076
G1 E1.03076 F2400.00000
G92 E0
G1 X120.500 Y81.887 F30000.000
G1 E2.00000 F2400.00000
G1 F2100
G1 X120.500 Y68.113 E3.03076
G1 E1.03076 F2400.00000
G92 E0
G1 X125.775 Y67.578 F30000.000
G1 E2.00000 F2400.00000
G1 F2100
G1 X125.775 Y82.422 E2.14583
G1 X125.522 Y84.257 F30000.000
G1 F2100
G1 X125.636 Y84.143 E2.15664
G1 X125.636 Y83.381 E2.20778
G1 X124.760 Y84.257 E2.29092
G1 X123.999 Y84.257 E2.34206
G1 X125.354 Y82.901 E2.47081
G1 X125.225 Y82.901 E2.47952
G1 X125.225 Y82.633 E2.49751
G1 X124.861 Y82.633 E2.52195
G1 X123.237 Y84.257 E2.67614
G1 X122.476 Y84.257 E2.72728
G1 X124.099 Y82.633 E2.88147
G1 X123.338 Y82.633 E2.93261
G1 X121.714 Y84.257 E3.08680
G1 X120.953 Y84.257 E3.13794
G1 X122.576 Y82.633 E3.29213
G1 X121.815 Y82.633 E3.34327
G1 X120.191 Y84.257 E3.49745
G1 X119.430 Y84.257 E3.54860
G1 X121.053 Y82.633 E3.70278
G1 X120.292 Y82.633 E3.75393
G1 X118.668 Y84.257 E3.90811
G1 X117.907 Y84.257 E3.95926
G1 X119.530 Y82.633 E4.11344
G1 X118.769 Y82.633 E4.16459
G1 X117.145 Y84.257 E4.31877
G1 X116.384 Y84.257 E4.36991
G1 X118.007 Y82.633 E4.52410
G1 X117.246 Y82.633 E4.57524
G1 X115.622 Y84.257 E4.72943
G1 X114.861 Y84.257 E4.78057
G1 X116.484 Y82.633 E4.93476
G1 X115.723 Y82.633 E4.98590
G1 X114.099 Y84.257 E5.14009
G1 X113.338 Y84.257 E5.19123
G1 X114.961 Y82.633 E5.34542
G1 X114.200 Y82.633 E5.39656
G1 X112.576 Y84.257 E5.55074
G1 X111.815 Y84.257 E5.60189
G1 X113.438 Y82.633 E5.75607
G1 X112.676 Y82.633 E5.80722
G1 X111.053 Y84.257 E5.96140
G1 X110.292 Y84.257 E6.01255
G1 X111.915 Y82.633 E6.16673
G1 X111.153 Y82.633 E6.21788
G1 X109.530 Y84.257 E6.37206
G1 X108.769 Y84.257 E6.42320
G1 X110.392 Y82.633 E6.57739
G1 X109.630 Y82.633 E6.62853
G1 X108.007 Y84.257 E6.78272
G1 X107.246 Y84.257 E6.83386
G1 X108.869 Y82.633 E6.98805
G1 X108.107 Y82.633 E7.03919
G1 X106.484 Y84.257 E7.19338
G1 X105.723 Y84.257 E7.24452
G1 X107.346 Y82.633 E7.39871
G1 X106.584 Y82.633 E7.44985
G1 X104.961 Y84.257 E7.60403
G1 X104.200 Y84.257 E7.65518
G1 X105.823 Y82.633 E7.80936
G1 X105.061 Y82.633 E7.86051
G1 X103.438 Y84.257 E8.01469
G1 X102.677 Y84.257 E8.06584
G1 X104.300 Y82.633 E8.22002
G1 X103.538 Y82.633 E8.27117
G1 X101.915 Y84.257 E8.42535
G1 X101.154 Y84.257 E8.47649
G1 X102.777 Y82.633 E8.63068
G1 X102.015 Y82.633 E8.68182
G1 X100.392 Y84.257 E8.83601
G1 X99.630 Y84.257 E8.88715
G1 X101.254 Y82.633 E9.04134
G1 X100.492 Y82.633 E9.09248
G1 X98.869 Y84.257 E9.24667
G1 X98.107 Y84.257 E9.29781
G1 X99.731 Y82.633 E9.45200
G1 X98.969 Y82.633 E9.50314
G1 X97.346 Y84.257 E9.65733
G1 X96.584 Y84.257 E9.70847
G1 X98.208 Y82.633 E9.86265
G1 X97.446 Y82.633 E9.91380
G1 X95.823 Y84.257 E10.06798
G1 X95.061 Y84.257 E10.11913
G1 X96.685 Y82.633 E10.27331
G1 X95.923 Y82.633 E10.32446
G1 X94.300 Y84.257 E10.47864
G1 X93.538 Y84.257 E10.52979
G1 X95.162 Y82.633 E10.68397
G1 X94.400 Y82.633 E10.73511
G1 X92.777 Y84.257 E10.88930
G1 X92.015 Y84.257 E10.94044
G1 X93.639 Y82.633 E11.09463
G1 X92.877 Y82.633 E11.14577
G1 X91.254 Y84.257 E11.29996
G1 X90.492 Y84.257 E11.35110
G1 X92.116 Y82.633 E11.50529
G1 X91.354 Y82.633 E11.55643
G1 X89.731 Y84.257 E11.71062
G1 X88.969 Y84.257 E11.76176
G1 X90.593 Y82.633 E11.91594
G1 X89.831 Y82.633 E11.96709
G1 X88.208 Y84.257 E12.12127
G1 X87.446 Y84.257 E12.17242
G1 X89.070 Y82.633 E12.32660
G1 X88.308 Y82.633 E12.37775
G1 X86.685 Y84.257 E12.53193
G1 X85.923 Y84.257 E12.58307
G1 X87.547 Y82.633 E12.73726
G1 X86.785 Y82.633 E12.78840
G1 X85.162 Y84.257 E12.94259
G1 X84.400 Y84.257 E12.99373
G1 X86.024 Y82.633 E13.14792
G1 X85.262 Y82.633 E13.19906
G1 X83.639 Y84.257 E13.35325
G1 X82.877 Y84.257 E13.40439
G1 X84.501 Y82.633 E13.55857
G1 X83.739 Y82.633 E13.60972
G1 X82.116 Y84.257 E13.76390
G1 X81.354 Y84.257 E13.81505
G1 X82.978 Y82.633 E13.96923
G1 X82.216 Y82.633 E14.02038
G1 X80.593 Y84.257 E14.17456
G1 X79.831 Y84.257 E14.22570
G1 X81.455 Y82.633 E14.37989
G1 X80.693 Y82.633 E14.43103
G1 X79.070 Y84.257 E14.58522
G1 X78.308 Y84.257 E14.63636
G1 X79.932 Y82.633 E14.79055
G1 X79.170 Y82.633 E14.84169
G1 X77.547 Y84.257 E14.99588
G1 X76.785 Y84.257 E15.04702
G1 X78.409 Y82.633 E15.20120
G1 X77.647 Y82.633 E15.25235
G1 X76.024 Y84.257 E15.40653
G1 X75.262 Y84.257 E15.45768
G1 X76.885 Y82.633 E15.61186
G1 X76.124 Y82.633 E15.66301
G1 X74.501 Y84.257 E15.81719
G1 X73.739 Y84.257 E15.86833
G1 X75.362 Y82.633 E16.02252
G1 X74.601 Y82.633 E16.07366
G1 X72.978 Y84.257 E16.22785
G1 X72.216 Y84.257 E16.27899
G1 X73.839 Y82.633 E16.43318
G1 X73.078 Y82.633 E16.48432
G1 X71.455 Y84.257 E16.63851
G1 X70.693 Y84.257 E16.68965
G1 X72.316 Y82.633 E16.84383
G1 X71.555 Y82.633 E16.89498
G1 X69.932 Y84.257 E17.04916
G1 X69.170 Y84.257 E17.10031
G1 X70.793 Y82.633 E17.25449
G1 X70.032 Y82.633 E17.30564
G1 X68.409 Y84.257 E17.45982
G1 X67.647 Y84.257 E17.51096
G1 X69.270 Y82.633 E17.66515
G1 X68.509 Y82.633 E17.71629
G1 X66.886 Y84.257 E17.87048
G1 X66.124 Y84.257 E17.92162
G1 X67.747 Y82.633 E18.07581
G1 X66.986 Y82.633 E18.12695
G1 X65.363 Y84.257 E18.28114
G1 X64.601 Y84.257 E18.33228
G1 X66.224 Y82.633 E18.48646
G1 X65.463 Y82.633 E18.53761
G1 X63.839 Y84.257 E18.69179
G1 X63.078 Y84.257 E18.74294
G1 X64.701 Y82.633 E18.89712
G1 X63.940 Y82.633 E18.94827
G1 X62.316 Y84.257 E19.10245
G1 X61.555 Y84.257 E19.15360
G1 X63.178 Y82.633 E19.30778
G1 X62.417 Y82.633 E19.35892
G1 X60.793 Y84.257 E19.51311
G1 X60.032 Y84.257 E19.56425
G1 X61.655 Y82.633 E19.71844
G1 X60.894 Y82.633 E19.76958
G1 X59.270 Y84.257 E19.92377
G1 X58.509 Y84.257 E19.97491
G1 X60.132 Y82.633 E20.12910
G1 X59.371 Y82.633 E20.18024
G1 X57.747 Y84.257 E20.33443
G1 X56.986 Y84.257 E20.38557
G1 X58.609 Y82.633 E20.53975
G1 X57.848 Y82.633 E20.59090
G1 X56.224 Y84.257 E20.74508
G1 X55.463 Y84.257 E20.79623
G1 X57.086 Y82.633 E20.95041
G1 X56.325 Y82.633 E21.00156
G1 X54.701 Y84.257 E21.15574
G1 X53.940 Y84.257 E21.20688
G1 X55.563 Y82.633 E21.36107
G1 X54.802 Y82.633 E21.41221
G1 X53.178 Y84.257 E21.56640
G1 X52.417 Y84.257 E21.61754
G1 X54.040 Y82.633 E21.77173
G1 X53.279 Y82.633 E21.82287
G1 X51.655 Y84.257 E21.97706
G1 X50.894 Y84.257 E22.02820
G1 X52.517 Y82.633 E22.18239
G1 X51.756 Y82.633 E22.23353
G1 X50.132 Y84.257 E22.38771
G1 X49.371 Y84.257 E22.43886
G1 X50.994 Y82.633 E22.59304
G1 X50.233 Y82.633 E22.64419
G1 X48.609 Y84.257 E22.79837
G1 X47.848 Y84.257 E22.84952
G1 X49.471 Y82.633 E23.00370
G1 X48.710 Y82.633 E23.05484
G1 X47.086 Y84.257 E23.20903
G1 X46.325 Y84.257 E23.26017
G1 X47.948 Y82.633 E23.41436
G1 X47.187 Y82.633 E23.46550
G1 X45.563 Y84.257 E23.61969
G1 X44.802 Y84.257 E23.67083
G1 X46.425 Y82.633 E23.82502
G1 X45.664 Y82.633 E23.87616
G1 X44.040 Y84.257 E24.03035
G1 X43.279 Y84.257 E24.08149
G1 X44.902 Y82.633 E24.23567
