; generated by Slic3r 1.3.0 on 2023-07-13 at 23:50:55

; external perimeters extrusion width = 0.44mm (2.78mm^3/s)
; perimeters extrusion width = 0.40mm (7.14mm^3/s)
; infill extrusion width = 0.50mm (10.97mm^3/s)
; solid infill extrusion width = 0.60mm (6.68mm^3/s)
; top infill extrusion width = 0.40mm (2.14mm^3/s)

M107
M190 S80 ; set bed temperature and wait for it to be reached
M104 S210 ; set temperature
G28 ; home all axes
G1 Z5 F5000 ; lift nozzle

; Filament gcode

M109 S210 ; set temperature and wait for it to be reached
G21 ; set units to millimeters
G90 ; use absolute coordinates
M82 ; use absolute distances for extrusion
G92 E0
G1 Z0.300 F30000.000
G1 E-2.00000 F2400.00000
G92 E0
G1 X51.431 Y68.500 F30000.000
G1 E2.00000 F2400.00000
G1 F2100
G1 X53.116 Y67.388 E2.13484
G1 X55.050 Y67.011 E2.26650
G1 X94.950 Y67.011 E4.93203
G1 X96.929 Y67.407 E5.06687
G1 X98.603 Y68.534 E5.20171
G1 X99.715 Y70.219 E5.33655
G1 X100.092 Y72.153 E5.46821
G1 X100.092 Y87.450 E6.49012
G1 X99.696 Y89.429 E6.62496
G1 X98.569 Y91.103 E6.75980
G1 X96.884 Y92.215 E6.89464
G1 X94.950 Y92.592 E7.02630
G1 X55.050 Y92.592 E9.69184
G1 X53.071 Y92.196 E9.82668
G1 X51.397 Y91.069 E9.96152
G1 X50.285 Y89.384 E10.09636
G1 X49.908 Y87.450 E10.22801
G1 X49.908 Y72.153 E11.24992
G1 X50.304 Y70.174 E11.38477
G1 X51.397 Y68.550 E11.51560
G1 X51.958 Y68.738 F30000.000
G1 F2100
G1 X53.608 Y67.778 E11.64315
G1 X55.050 Y67.546 E11.74072
G1 X94.950 Y67.546 E14.40626
G1 X96.818 Y67.942 E14.53381
G1 X98.365 Y69.061 E14.66136
G1 X99.325 Y70.711 E14.78891
G1 X99.557 Y72.153 E14.88648
G1 X99.557 Y87.450 E15.90839
G1 X99.161 Y89.318 E16.03595
G1 X98.042 Y90.865 E16.16350
G1 X96.392 Y91.825 E16.29105
G1 X94.950 Y92.057 E16.38862
G1 X55.050 Y92.057 E19.05416
G1 X53.182 Y91.661 E19.18171
G1 X51.635 Y90.542 E19.30926
G1 X50.675 Y88.892 E19.43681
G1 X50.443 Y87.450 E19.53438
G1 X50.443 Y72.153 E20.55629
G1 X50.839 Y70.285 E20.68385
G1 X51.923 Y68.787 E20.80739
G1 X52.482 Y68.994 F30000.000
G1 F2100
G1 X54.089 Y68.197 E20.92721
G1 X55.050 Y68.082 E20.99185
G1 X94.950 Y68.082 E23.65738
G1 X96.700 Y68.477 E23.77721
G1 X98.110 Y69.586 E23.89703
G1 X98.906 Y71.193 E24.01685
G1 X99.021 Y72.153 E24.08149
G1 X99.021 Y87.450 E25.10340
G1 X98.626 Y89.200 E25.22322
G1 X97.518 Y90.610 E25.34304
G1 X95.911 Y91.406 E25.46286
G1 X94.950 Y91.521 E25.52750
G1 X55.050 Y91.521 E28.19303
G1 X53.300 Y91.126 E28.31286
G1 X51.890 Y90.018 E28.43268
G1 X51.094 Y88.411 E28.55250
G1 X50.979 Y87.450 E28.61713
G1 X50.979 Y72.153 E29.63905
G1 X51.374 Y70.404 E29.75887
G1 X52.445 Y69.041 E29.87468
G1 X53.004 Y69.270 F30000.000
G1 F2100
G1 X55.050 Y68.618 E30.01816
G1 X94.950 Y68.618 E32.68369
G1 X96.573 Y69.012 E32.79525
G1 X97.833 Y70.107 E32.90681
G1 X98.486 Y72.153 E33.05028
G1 X98.486 Y87.450 E34.07219
G1 X98.091 Y89.073 E34.18375
G1 X96.996 Y90.333 E34.29531
G1 X94.950 Y90.986 E34.43878
G1 X55.050 Y90.986 E37.10432
G1 X53.427 Y90.591 E37.21588
G1 X52.167 Y89.496 E37.32743
G1 X51.514 Y87.450 E37.47091
G1 X51.514 Y72.153 E38.49282
G1 X51.909 Y70.531 E38.60438
G1 X52.964 Y69.315 E38.71193
G1 E36.71193 F2400.00000
G92 E0
G1 X91.386 Y84.136 F30000.000
G1 E2.00000 F2400.00000
G1 F2100
G1 X58.614 Y84.136 E4.18930
G1 X58.614 Y75.864 E4.74186
G1 X91.386 Y75.864 E6.93116
G1 X91.386 Y84.076 E7.47971
G1 X90.850 Y83.600 F30000.000
G1 F2100
G1 X59.150 Y83.600 E9.59744
G1 X59.150 Y76.400 E10.07844
G1 X90.850 Y76.400 E12.19617
G1 X90.850 Y83.540 E12.67316
G1 X91.024 Y83.960 F30000.000
G1 E10.67316 F2400.00000
G92 E0
G1 X94.114 Y86.614 F30000.000
G1 E2.00000 F2400.00000
G1 F2100
G1 X55.886 Y86.614 E4.55389
G1 X55.886 Y72.989 E5.46415
G1 X94.114 Y72.989 E8.01804
G1 X94.114 Y86.554 E8.92430
G1 X94.650 Y87.150 F30000.000
G1 F2100
G1 X55.350 Y87.150 E11.54975
G1 X55.350 Y72.453 E12.53158
G1 X94.650 Y72.453 E15.15703
G1 X94.650 Y87.090 E16.13485
G1 X94.253 Y87.102 F30000.000
G1 X93.522 Y86.136 F30000.000
G1 F2100
G1 X93.636 Y86.022 E16.14570
G1 X93.636 Y85.257 E16.19729
G1 X92.757 Y86.136 E16.28109
G1 X91.992 Y86.136 E16.33268
G1 X93.636 Y84.492 E16.48943
G1 X93.636 Y83.727 E16.54102
G1 X91.227 Y86.136 E16.77073
G1 X90.463 Y86.136 E16.82232
G1 X93.636 Y82.963 E17.12498
G1 X93.636 Y82.198 E17.17657
G1 X91.864 Y83.969 E17.34552
G1 X91.864 Y83.204 E17.39711
G1 X93.636 Y81.433 E17.56606
G1 X93.636 Y80.668 E17.61764
G1 X91.864 Y82.439 E17.78660
G1 X91.864 Y81.675 E17.83818
G1 X93.636 Y79.903 E18.00713
G1 X93.636 Y79.139 E18.05872
G1 X91.864 Y80.910 E18.22767
G1 X91.864 Y80.145 E18.27926
G1 X93.636 Y78.374 E18.44821
G1 X93.636 Y77.609 E18.49980
G1 X91.864 Y79.380 E18.66875
G1 X91.864 Y78.615 E18.72033
G1 X93.636 Y76.844 E18.88929
G1 X93.636 Y76.080 E18.94087
G1 X91.864 Y77.851 E19.10982
G1 X91.864 Y77.086 E19.16141
G1 X93.636 Y75.315 E19.33036
G1 X93.636 Y74.550 E19.38195
G1 X91.864 Y76.321 E19.55090
G1 X91.864 Y75.556 E19.60249
G1 X93.636 Y73.785 E19.77144
G1 X93.636 Y73.468 E19.79286
G1 X93.188 Y73.468 E19.82303
G1 X91.270 Y75.386 E20.00598
G1 X90.506 Y75.386 E20.05757
G1 X92.424 Y73.468 E20.24053
G1 X91.659 Y73.468 E20.29211
G1 X89.741 Y75.386 E20.47507
G1 X88.976 Y75.386 E20.52666
G1 X90.894 Y73.468 E20.70962
G1 X90.129 Y73.468 E20.76120
G1 X88.211 Y75.386 E20.94416
G1 X87.446 Y75.386 E20.99575
G1 X89.364 Y73.468 E21.17871
G1 X88.600 Y73.468 E21.23029
G1 X86.682 Y75.386 E21.41325
G1 X85.917 Y75.386 E21.46484
G1 X87.835 Y73.468 E21.64780
G1 X87.070 Y73.468 E21.69938
G1 X85.152 Y75.386 E21.88234
G1 X84.387 Y75.386 E21.93393
G1 X86.305 Y73.468 E22.11689
G1 X85.540 Y73.468 E22.16847
G1 X83.622 Y75.386 E22.35143
G1 X82.858 Y75.386 E22.40302
G1 X84.776 Y73.468 E22.58598
G1 X84.011 Y73.468 E22.63756
G1 X82.093 Y75.386 E22.82052
G1 X81.328 Y75.386 E22.87211
G1 X83.246 Y73.468 E23.05507
G1 X82.481 Y73.468 E23.10665
G1 X80.563 Y75.386 E23.28961
G1 X79.798 Y75.386 E23.34120
G1 X81.716 Y73.468 E23.52416
G1 X80.952 Y73.468 E23.57574
G1 X79.034 Y75.386 E23.75870
G1 X78.269 Y75.386 E23.81029
G1 X80.187 Y73.468 E23.99324
G1 X79.422 Y73.468 E24.04483
G1 X77.504 Y75.386 E24.22779
G1 X76.739 Y75.386 E24.27938
G1 X78.657 Y73.468 E24.46233
G1 X77.892 Y73.468 E24.51392
G1 X75.974 Y75.386 E24.69688
G1 X75.210 Y75.386 E24.74846
G1 X77.128 Y73.468 E24.93142
G1 X76.363 Y73.468 E24.98301
G1 X74.445 Y75.386 E25.16597
G1 X73.680 Y75.386 E25.21755
G1 X75.598 Y73.468 E25.40051
G1 X74.833 Y73.468 E25.45210
G1 X72.915 Y75.386 E25.63506
G1 X72.150 Y75.386 E25.68664
G1 X74.069 Y73.468 E25.86960
G1 X73.304 Y73.468 E25.92119
G1 X71.386 Y75.386 E26.10415
G1 X70.621 Y75.386 E26.15573
G1 X72.539 Y73.468 E26.33869
G1 X71.774 Y73.468 E26.39028
G1 X69.856 Y75.386 E26.57324
G1 X69.091 Y75.386 E26.62482
G1 X71.009 Y73.468 E26.80778
G1 X70.245 Y73.468 E26.85937
G1 X68.327 Y75.386 E27.04233
G1 X67.562 Y75.386 E27.09391
G1 X69.480 Y73.468 E27.27687
G1 X68.715 Y73.468 E27.32846
G1 X66.797 Y75.386 E27.51142
G1 X66.032 Y75.386 E27.56300
G1 X67.950 Y73.468 E27.74596
G1 X67.185 Y73.468 E27.79755
G1 X65.267 Y75.386 E27.98051
G1 X64.503 Y75.386 E28.03209
G1 X66.421 Y73.468 E28.21505
G1 X65.656 Y73.468 E28.26664
G1 X63.738 Y75.386 E28.44959
G1 X62.973 Y75.386 E28.50118
G1 X64.891 Y73.468 E28.68414
G1 X64.126 Y73.468 E28.73573
G1 X62.208 Y75.386 E28.91868
G1 X61.443 Y75.386 E28.97027
G1 X63.361 Y73.468 E29.15323
G1 X62.597 Y73.468 E29.20481
G1 X60.679 Y75.386 E29.38777
G1 X59.914 Y75.386 E29.43936
G1 X61.832 Y73.468 E29.62232
G1 X61.067 Y73.468 E29.67390
G1 X59.149 Y75.386 E29.85686
G1 X58.384 Y75.386 E29.90845
G1 X60.302 Y73.468 E30.09141
G1 X59.537 Y73.468 E30.14299
G1 X56.364 Y76.641 E30.44567
G1 X56.364 Y75.876 E30.49725
G1 X58.773 Y73.468 E30.72697
G1 X58.008 Y73.468 E30.77856
G1 X56.364 Y75.111 E30.93532
G1 X56.364 Y74.346 E30.98691
G1 X57.243 Y73.468 E31.07072
G1 X56.478 Y73.468 E31.12230
G1 X56.365 Y73.581 E31.13314
G1 E29.13314 F2400.00000
G92 E0
G1 X56.364 Y76.641 F30000.000
G1 E2.00000 F2400.00000
G1 F2100
G1 X56.364 Y77.405 E2.05159
G1 X58.136 Y75.634 E2.22054
G1 X58.136 Y76.399 E2.27212
G1 X56.364 Y78.170 E2.44108
G1 X56.364 Y78.935 E2.49266
G1 X58.136 Y77.164 E2.66161
G1 X58.136 Y77.929 E2.71320
G1 X56.364 Y79.700 E2.88215
G1 X56.364 Y80.465 E2.93374
G1 X58.136 Y78.693 E3.10269
G1 X58.136 Y79.458 E3.15428
G1 X56.364 Y81.229 E3.32323
G1 X56.364 Y81.994 E3.37481
G1 X58.136 Y80.223 E3.54377
G1 X58.136 Y80.988 E3.59535
G1 X56.364 Y82.759 E3.76430
G1 X56.364 Y83.524 E3.81589
G1 X58.136 Y81.753 E3.98484
G1 X58.136 Y82.517 E4.03643
G1 X56.364 Y84.289 E4.20538
G1 X56.364 Y85.053 E4.25697
G1 X58.136 Y83.282 E4.42592
G1 X58.136 Y84.047 E4.47750
G1 X56.364 Y85.818 E4.64646
G1 X56.364 Y86.136 E4.66787
G1 X56.812 Y86.136 E4.69804
G1 X58.333 Y84.614 E4.84315
G1 X59.098 Y84.614 E4.89473
G1 X57.577 Y86.136 E5.03984
G1 X58.341 Y86.136 E5.09142
G1 X59.862 Y84.614 E5.23653
G1 X60.627 Y84.614 E5.28811
G1 X59.106 Y86.136 E5.43322
G1 X59.871 Y86.136 E5.48481
G1 X61.392 Y84.614 E5.62991
G1 X62.157 Y84.614 E5.68150
G1 X60.636 Y86.136 E5.82660
G1 X61.400 Y86.136 E5.87819
G1 X62.922 Y84.614 E6.02329
G1 X63.686 Y84.614 E6.07488
G1 X62.165 Y86.136 E6.21998
G1 X62.930 Y86.136 E6.27157
G1 X64.451 Y84.614 E6.41667
G1 X65.216 Y84.614 E6.46826
G1 X63.695 Y86.136 E6.61336
G1 X64.460 Y86.136 E6.66495
G1 X65.981 Y84.614 E6.81006
G1 X66.746 Y84.614 E6.86164
G1 X65.224 Y86.136 E7.00675
G1 X65.989 Y86.136 E7.05833
G1 X67.510 Y84.614 E7.20344
G1 X68.275 Y84.614 E7.25502
G1 X66.754 Y86.136 E7.40013
G1 X67.519 Y86.136 E7.45171
G1 X69.040 Y84.614 E7.59682
G1 X69.805 Y84.614 E7.64840
G1 X68.284 Y86.136 E7.79351
G1 X69.048 Y86.136 E7.84509
G1 X70.570 Y84.614 E7.99020
G1 X71.334 Y84.614 E8.04179
G1 X69.813 Y86.136 E8.18689
G1 X70.578 Y86.136 E8.23848
G1 X72.099 Y84.614 E8.38358
G1 X72.864 Y84.614 E8.43517
G1 X71.343 Y86.136 E8.58027
G1 X72.108 Y86.136 E8.63186
G1 X73.629 Y84.614 E8.77696
G1 X74.394 Y84.614 E8.82855
G1 X72.872 Y86.136 E8.97365
G1 X73.637 Y86.136 E9.02524
G1 X75.158 Y84.614 E9.17034
G1 X75.923 Y84.614 E9.22193
G1 X74.402 Y86.136 E9.36704
G1 X75.167 Y86.136 E9.41862
G1 X76.688 Y84.614 E9.56373
G1 X77.453 Y84.614 E9.61531
G1 X75.932 Y86.136 E9.76042
G1 X76.696 Y86.136 E9.81200
G1 X78.218 Y84.614 E9.95711
G1 X78.982 Y84.614 E10.00869
G1 X77.461 Y86.136 E10.15380
G1 X78.226 Y86.136 E10.20538
G1 X79.747 Y84.614 E10.35049
G1 X80.512 Y84.614 E10.40207
G1 X78.991 Y86.136 E10.54718
G1 X79.756 Y86.136 E10.59876
G1 X81.277 Y84.614 E10.74387
G1 X82.042 Y84.614 E10.79546
G1 X80.520 Y86.136 E10.94056
G1 X81.285 Y86.136 E10.99215
G1 X82.806 Y84.614 E11.13725
G1 X83.571 Y84.614 E11.18884
G1 X82.050 Y86.136 E11.33394
G1 X82.815 Y86.136 E11.38553
G1 X84.336 Y84.614 E11.53063
G1 X85.101 Y84.614 E11.58222
G1 X83.580 Y86.136 E11.72732
G1 X84.344 Y86.136 E11.77891
G1 X85.865 Y84.614 E11.92401
G1 X86.630 Y84.614 E11.97560
G1 X85.109 Y86.136 E12.12070
G1 X85.874 Y86.136 E12.17229
G1 X87.395 Y84.614 E12.31740
G1 X88.160 Y84.614 E12.36898
G1 X86.639 Y86.136 E12.51409
G1 X87.403 Y86.136 E12.56567
G1 X88.925 Y84.614 E12.71078
G1 X89.689 Y84.614 E12.76236
G1 X88.168 Y86.136 E12.90747
G1 X88.933 Y86.136 E12.95905
G1 X90.454 Y84.614 E13.10416
G1 X91.219 Y84.614 E13.15574
G1 X89.698 Y86.136 E13.30085
G1 Z0.500 F30000.000
G1 X91.147 Y83.897 F30000.000
G1 F6000
G1 X58.853 Y83.897 E14.25970
G1 X58.853 Y76.103 E14.49112
G1 X91.147 Y76.103 E15.44998
G1 X91.147 Y83.837 E15.67962
G1 X90.770 Y83.520 F30000.000
G1 F2100
G1 X59.230 Y83.520 E16.72098
G1 X59.230 Y76.480 E16.95342
G1 X90.770 Y76.480 E17.99479
G1 X90.770 Y83.460 E18.22525
G1 X90.944 Y83.880 F30000.000
G1 X94.353 Y86.853 F30000.000
G1 F6000
G1 X55.647 Y86.853 E19.37448
G1 X55.647 Y72.688 E19.79505
G1 X94.353 Y72.688 E20.94428
G1 X94.353 Y86.793 E21.36308
G1 X94.730 Y87.230 F30000.000
G1 F2100
G1 X55.270 Y87.230 E22.66594
G1 X55.270 Y72.311 E23.15853
G1 X94.730 Y72.311 E24.46139
G1 X94.730 Y87.170 E24.95200
G1 X94.333 Y87.182 F30000.000
G1 X93.944 Y78.776 F30000.000
G1 F3600
G1 X91.556 Y76.388 E25.11041
G1 X91.556 Y77.185 E25.14781
G1 X93.944 Y79.574 E25.30621
G1 X93.944 Y80.371 E25.34361
G1 X91.556 Y77.983 E25.50202
G1 X91.556 Y78.780 E25.53942
G1 X93.944 Y81.169 E25.69782
G1 X93.944 Y81.966 E25.73522
G1 X91.556 Y79.578 E25.89363
G1 X91.556 Y80.375 E25.93103
G1 X93.944 Y82.764 E26.08943
G1 X93.944 Y83.562 E26.12683
G1 X91.556 Y81.173 E26.28524
G1 X91.556 Y81.970 E26.32264
G1 X93.944 Y84.359 E26.48104
G1 X93.944 Y85.157 E26.51844
G1 X91.556 Y82.768 E26.67685
G1 X91.556 Y83.565 E26.71425
G1 X93.944 Y85.954 E26.87265
G1 X93.944 Y86.444 E26.89564
G1 X93.637 Y86.444 E26.91005
G1 X91.498 Y84.306 E27.05188
G1 X90.701 Y84.306 E27.08928
G1 X92.839 Y86.444 E27.23110
G1 X92.042 Y86.444 E27.26850
G1 X89.903 Y84.306 E27.41033
G1 X89.106 Y84.306 E27.44773
G1 X91.244 Y86.444 E27.58956
G1 X90.447 Y86.444 E27.62695
G1 X88.308 Y84.306 E27.76878
G1 X87.511 Y84.306 E27.80618
G1 X89.649 Y86.444 E27.94801
G1 X88.852 Y86.444 E27.98541
G1 X86.713 Y84.306 E28.12723
G1 X85.916 Y84.306 E28.16463
G1 X88.054 Y86.444 E28.30646
G1 X87.257 Y86.444 E28.34386
G1 X85.118 Y84.306 E28.48569
G1 X84.320 Y84.306 E28.52308
G1 X86.459 Y86.444 E28.66491
G1 X85.662 Y86.444 E28.70231
G1 X83.523 Y84.306 E28.84414
G1 X82.725 Y84.306 E28.88154
G1 X84.864 Y86.444 E29.02336
G1 X84.067 Y86.444 E29.06076
G1 X81.928 Y84.306 E29.20259
G1 X81.130 Y84.306 E29.23999
G1 X83.269 Y86.444 E29.38182
G1 X82.471 Y86.444 E29.41921
G1 X80.333 Y84.306 E29.56104
G1 X79.535 Y84.306 E29.59844
G1 X81.674 Y86.444 E29.74027
G1 X80.876 Y86.444 E29.77767
G1 X78.738 Y84.306 E29.91949
G1 X77.940 Y84.306 E29.95689
G1 X80.079 Y86.444 E30.09872
G1 X79.281 Y86.444 E30.13612
G1 X77.143 Y84.306 E30.27795
G1 X76.345 Y84.306 E30.31534
G1 X78.484 Y86.444 E30.45717
G1 X77.686 Y86.444 E30.49457
G1 X75.548 Y84.306 E30.63640
G1 X74.750 Y84.306 E30.67380
G1 X76.889 Y86.444 E30.81562
G1 X76.091 Y86.444 E30.85302
G1 X73.953 Y84.306 E30.99485
G1 X73.155 Y84.306 E31.03225
G1 X75.294 Y86.444 E31.17408
G1 X74.496 Y86.444 E31.21147
G1 X72.357 Y84.306 E31.35330
G1 X71.560 Y84.306 E31.39070
G1 X73.699 Y86.444 E31.53253
G1 X72.901 Y86.444 E31.56993
G1 X70.762 Y84.306 E31.71175
G1 X69.965 Y84.306 E31.74915
G1 X72.104 Y86.444 E31.89098
G1 X71.306 Y86.444 E31.92838
G1 X69.167 Y84.306 E32.07021
G1 X68.370 Y84.306 E32.10760
G1 X70.508 Y86.444 E32.24943
G1 X69.711 Y86.444 E32.28683
G1 X67.572 Y84.306 E32.42866
G1 X66.775 Y84.306 E32.46606
G1 X68.913 Y86.444 E32.60789
G1 X68.116 Y86.444 E32.64528
G1 X65.977 Y84.306 E32.78711
G1 X65.180 Y84.306 E32.82451
G1 X67.318 Y86.444 E32.96634
G1 X66.521 Y86.444 E33.00374
G1 X64.382 Y84.306 E33.14556
G1 X63.585 Y84.306 E33.18296
G1 X65.723 Y86.444 E33.32479
G1 X64.926 Y86.444 E33.36219
G1 X62.787 Y84.306 E33.50402
G1 X61.989 Y84.306 E33.54141
G1 X64.128 Y86.444 E33.68324
G1 X63.331 Y86.444 E33.72064
G1 X61.192 Y84.306 E33.86247
G1 X60.394 Y84.306 E33.89987
G1 X62.533 Y86.444 E34.04169
G1 X61.736 Y86.444 E34.07909
G1 X59.597 Y84.306 E34.22092
G1 X58.799 Y84.306 E34.25832
G1 X60.938 Y86.444 E34.40015
G1 X60.140 Y86.444 E34.43754
G1 X56.056 Y86.347 F30000.000
G1 F3600
G1 X56.153 Y86.444 E34.44399
G1 X56.950 Y86.444 E34.48138
G1 X56.056 Y85.550 E34.54072
G1 X56.056 Y84.752 E34.57811
G1 X57.748 Y86.444 E34.69033
G1 X58.545 Y86.444 E34.72773
G1 X56.056 Y83.955 E34.89284
G1 X56.056 Y83.157 E34.93024
G1 X59.343 Y86.444 E35.14824
G1 X60.140 Y86.444 E35.18564
G1 X56.056 Y82.360 E35.45652
G1 X56.056 Y81.562 E35.49392
G1 X58.444 Y83.951 E35.65233
G1 X58.444 Y83.153 E35.68973
G1 X56.056 Y80.764 E35.84813
G1 X56.056 Y79.967 E35.88553
G1 X58.444 Y82.356 E36.04394
G1 X58.444 Y81.558 E36.08134
G1 X56.056 Y79.169 E36.23974
G1 X56.056 Y78.372 E36.27714
G1 X58.444 Y80.761 E36.43555
G1 X58.444 Y79.963 E36.47295
G1 X56.056 Y77.574 E36.63135
G1 X56.056 Y76.777 E36.66875
G1 X58.444 Y79.165 E36.82716
G1 X58.444 Y78.368 E36.86456
G1 X56.056 Y75.979 E37.02296
G1 X56.056 Y75.182 E37.06036
G1 X58.444 Y77.570 E37.21877
G1 X58.444 Y76.773 E37.25617
G1 X56.056 Y74.384 E37.41457
G1 X56.056 Y73.587 E37.45197
G1 X58.444 Y75.975 E37.61038
G1 X58.444 Y75.694 E37.62355
G1 X58.961 Y75.694 E37.64778
G1 X56.363 Y73.096 E37.82005
G1 X57.161 Y73.096 E37.85745
G1 X59.758 Y75.694 E38.02973
G1 X60.556 Y75.694 E38.06713
G1 X57.958 Y73.096 E38.23941
