; generated by Slic3r 1.3.0 on 2023-03-02 at 19:27:35

; external perimeters extrusion width = 0.44mm (2.78mm^3/s)
; perimeters extrusion width = 0.40mm (7.14mm^3/s)
; infill extrusion width = 0.50mm (10.97mm^3/s)
; solid infill extrusion width = 0.60mm (6.68mm^3/s)
; top infill extrusion width = 0.40mm (2.14mm^3/s)

M107
M190 S80 ; set bed temperature and wait for it to be reached
M104 S210 ; set temperature
G28 ; home all axes
G1 Z5 F5000 ; lift nozzle

; Filament gcode

M109 S210 ; set temperature and wait for it to be reached
G21 ; set units to millimeters
G90 ; use absolute coordinates
M82 ; use absolute distances for extrusion
G92 E0
G1 Z0.300 F30000.000
G1 E-2.00000 F2400.00000
G92 E0
G1 X49.579 Y50.076 F30000.000
G1 E2.00000 F2400.00000
G1 F2100
G1 X51.074 Y48.673 E2.13696
G1 X51.571 Y48.261 E2.18010
G1 X53.230 Y47.056 E2.31707
G1 X53.775 Y46.710 E2.36020
G1 X55.572 Y45.722 E2.49716
G1 X56.156 Y45.447 E2.54030
G1 X58.062 Y44.693 E2.67726
G1 X58.676 Y44.493 E2.72040
G1 X60.662 Y43.983 E2.85736
G1 X61.296 Y43.862 E2.90048
G1 X63.330 Y43.605 E3.03746
G1 X63.975 Y43.565 E3.08060
G1 X66.025 Y43.565 E3.21756
G1 X66.670 Y43.605 E3.26070
G1 X68.704 Y43.862 E3.39767
G1 X69.338 Y43.983 E3.44080
G1 X71.324 Y44.493 E3.57776
G1 X71.938 Y44.693 E3.62090
G1 X73.844 Y45.447 E3.75786
G1 X74.428 Y45.722 E3.80100
G1 X76.225 Y46.710 E3.93796
G1 X76.770 Y47.056 E3.98110
G1 X78.429 Y48.261 E4.11806
G1 X78.926 Y48.673 E4.16121
G1 X80.421 Y50.076 E4.29816
G1 X80.863 Y50.547 E4.34131
G1 X82.169 Y52.127 E4.47826
G1 X82.549 Y52.649 E4.52141
G1 X83.648 Y54.380 E4.65837
G1 X83.959 Y54.946 E4.70151
G1 X84.832 Y56.801 E4.83846
G1 X85.076 Y57.420 E4.88295
G1 X85.703 Y59.351 E5.01856
G1 X85.863 Y59.977 E5.06171
G1 X86.248 Y61.990 E5.19866
G1 X86.329 Y62.631 E5.24180
G1 X86.457 Y64.677 E5.37876
G1 X86.457 Y65.323 E5.42191
G1 X86.329 Y67.369 E5.55886
G1 X86.248 Y68.010 E5.60201
G1 X85.863 Y70.023 E5.73896
G1 X85.703 Y70.649 E5.78211
G1 X85.069 Y72.599 E5.91908
G1 X84.832 Y73.199 E5.96221
G1 X83.959 Y75.054 E6.09919
G1 X83.648 Y75.620 E6.14229
G1 X82.549 Y77.351 E6.27927
G1 X82.169 Y77.873 E6.32241
G1 X80.863 Y79.453 E6.45937
G1 X80.421 Y79.924 E6.50251
G1 X78.926 Y81.327 E6.63947
G1 X78.429 Y81.739 E6.68261
G1 X76.770 Y82.944 E6.81958
G1 X76.225 Y83.290 E6.86268
G1 X74.428 Y84.278 E6.99967
G1 X73.844 Y84.553 E7.04281
G1 X71.938 Y85.307 E7.17977
G1 X71.324 Y85.507 E7.22291
G1 X69.338 Y86.017 E7.35987
G1 X68.704 Y86.138 E7.40299
G1 X66.670 Y86.395 E7.53997
G1 X66.025 Y86.435 E7.58311
G1 X63.975 Y86.435 E7.72007
G1 X63.330 Y86.395 E7.76321
G1 X61.296 Y86.138 E7.90017
G1 X60.662 Y86.017 E7.94331
G1 X58.676 Y85.507 E8.08027
G1 X58.062 Y85.307 E8.12341
G1 X56.156 Y84.553 E8.26037
G1 X55.572 Y84.278 E8.30351
G1 X53.775 Y83.290 E8.44047
G1 X53.230 Y82.944 E8.48361
G1 X51.571 Y81.739 E8.62057
G1 X51.074 Y81.327 E8.66371
G1 X49.579 Y79.924 E8.80067
G1 X49.137 Y79.453 E8.84381
G1 X47.831 Y77.873 E8.98077
G1 X47.451 Y77.351 E9.02391
G1 X46.352 Y75.620 E9.16089
G1 X46.041 Y75.054 E9.20401
G1 X45.168 Y73.199 E9.34097
G1 X44.924 Y72.579 E9.38547
G1 X44.297 Y70.649 E9.52107
G1 X44.137 Y70.023 E9.56421
G1 X43.752 Y68.010 E9.70117
G1 X43.671 Y67.369 E9.74431
G1 X43.543 Y65.323 E9.88127
G1 X43.543 Y64.677 E9.92441
G1 X43.671 Y62.631 E10.06137
G1 X43.752 Y61.990 E10.10451
G1 X44.137 Y59.977 E10.24147
G1 X44.297 Y59.351 E10.28461
G1 X44.931 Y57.401 E10.42157
G1 X45.168 Y56.801 E10.46471
G1 X46.041 Y54.946 E10.60167
G1 X46.352 Y54.380 E10.64482
G1 X47.451 Y52.649 E10.78177
G1 X47.831 Y52.127 E10.82492
G1 X49.137 Y50.547 E10.96187
G1 X49.538 Y50.120 E11.00101
G1 X49.946 Y50.467 F30000.000
G1 F2100
G1 X51.441 Y49.063 E11.13797
G1 X51.886 Y48.694 E11.17661
G1 X53.545 Y47.489 E11.31358
G1 X54.033 Y47.179 E11.35222
G1 X55.830 Y46.192 E11.48918
G1 X56.353 Y45.945 E11.52783
G1 X58.259 Y45.191 E11.66479
G1 X58.810 Y45.012 E11.70344
G1 X60.795 Y44.502 E11.84039
G1 X61.384 Y44.391 E11.88038
G1 X63.398 Y44.137 E12.01600
G1 X63.975 Y44.100 E12.05465
G1 X66.025 Y44.100 E12.19160
G1 X66.602 Y44.137 E12.23025
G1 X68.636 Y44.394 E12.36722
G1 X69.205 Y44.502 E12.40586
G1 X71.190 Y45.012 E12.54282
G1 X71.759 Y45.198 E12.58282
G1 X73.647 Y45.945 E12.71842
G1 X74.170 Y46.192 E12.75707
G1 X75.967 Y47.179 E12.89403
G1 X76.455 Y47.489 E12.93267
G1 X78.114 Y48.694 E13.06964
G1 X78.559 Y49.063 E13.10829
G1 X80.054 Y50.467 E13.24524
G1 X80.450 Y50.888 E13.28389
G1 X81.757 Y52.468 E13.42085
G1 X82.097 Y52.936 E13.45950
G1 X83.195 Y54.667 E13.59646
G1 X83.474 Y55.174 E13.63511
G1 X84.347 Y57.029 E13.77206
G1 X84.566 Y57.586 E13.81205
G1 X85.193 Y59.517 E13.94767
G1 X85.337 Y60.077 E13.98632
G1 X85.721 Y62.091 E14.12327
G1 X85.794 Y62.665 E14.16192
G1 X85.923 Y64.711 E14.29888
G1 X85.923 Y65.289 E14.33753
G1 X85.794 Y67.335 E14.47449
G1 X85.721 Y67.909 E14.51314
G1 X85.337 Y69.923 E14.65009
G1 X85.193 Y70.483 E14.68874
G1 X84.560 Y72.433 E14.82571
G1 X84.347 Y72.971 E14.86435
G1 X83.474 Y74.826 E15.00133
G1 X83.195 Y75.333 E15.03995
G1 X82.097 Y77.064 E15.17692
G1 X81.757 Y77.532 E15.21556
G1 X80.450 Y79.112 E15.35252
G1 X80.054 Y79.533 E15.39117
G1 X78.559 Y80.937 E15.52813
G1 X78.114 Y81.306 E15.56678
G1 X76.455 Y82.511 E15.70375
G1 X75.967 Y82.820 E15.74236
G1 X74.170 Y83.808 E15.87934
G1 X73.647 Y84.055 E15.91799
G1 X71.741 Y84.809 E16.05495
G1 X71.190 Y84.988 E16.09360
G1 X69.205 Y85.498 E16.23056
G1 X68.637 Y85.606 E16.26919
G1 X66.602 Y85.863 E16.40616
G1 X66.025 Y85.900 E16.44481
G1 X63.975 Y85.900 E16.58177
G1 X63.398 Y85.863 E16.62042
G1 X61.364 Y85.606 E16.75738
G1 X60.795 Y85.498 E16.79603
G1 X58.810 Y84.988 E16.93298
G1 X58.259 Y84.809 E16.97163
G1 X56.353 Y84.055 E17.10859
G1 X55.830 Y83.808 E17.14724
G1 X54.033 Y82.821 E17.28420
G1 X53.545 Y82.511 E17.32285
G1 X51.886 Y81.306 E17.45980
G1 X51.441 Y80.937 E17.49845
G1 X49.946 Y79.533 E17.63541
G1 X49.550 Y79.112 E17.67406
G1 X48.243 Y77.532 E17.81102
G1 X47.903 Y77.064 E17.84967
G1 X46.805 Y75.333 E17.98664
G1 X46.526 Y74.826 E18.02527
G1 X45.653 Y72.971 E18.16223
G1 X45.440 Y72.433 E18.20088
G1 X44.807 Y70.483 E18.33784
G1 X44.663 Y69.923 E18.37649
G1 X44.279 Y67.909 E18.51345
G1 X44.206 Y67.335 E18.55210
G1 X44.077 Y65.289 E18.68905
G1 X44.077 Y64.711 E18.72770
G1 X44.206 Y62.665 E18.86466
G1 X44.279 Y62.091 E18.90331
G1 X44.663 Y60.077 E19.04027
G1 X44.807 Y59.517 E19.07892
G1 X45.440 Y57.567 E19.21587
G1 X45.653 Y57.029 E19.25452
G1 X46.526 Y55.174 E19.39148
G1 X46.805 Y54.667 E19.43013
G1 X47.903 Y52.936 E19.56709
G1 X48.243 Y52.468 E19.60574
G1 X49.550 Y50.888 E19.74269
G1 X49.905 Y50.510 E19.77733
G1 X50.313 Y50.857 F30000.000
G1 F2100
G1 X51.807 Y49.454 E19.91429
G1 X52.201 Y49.128 E19.94845
G1 X53.860 Y47.923 E20.08541
G1 X54.291 Y47.649 E20.11956
G1 X56.088 Y46.661 E20.25652
G1 X56.550 Y46.443 E20.29067
G1 X58.457 Y45.689 E20.42763
G1 X58.943 Y45.531 E20.46179
G1 X60.929 Y45.021 E20.59875
G1 X61.451 Y44.923 E20.63425
G1 X63.465 Y44.668 E20.76986
G1 X63.975 Y44.636 E20.80401
G1 X66.025 Y44.636 E20.94097
G1 X66.535 Y44.668 E20.97512
G1 X68.569 Y44.925 E21.11209
G1 X69.071 Y45.021 E21.14624
G1 X71.057 Y45.531 E21.28320
G1 X71.543 Y45.689 E21.31734
G1 X73.450 Y46.443 E21.45431
G1 X73.912 Y46.661 E21.48846
G1 X75.709 Y47.649 E21.62542
G1 X76.140 Y47.923 E21.65957
G1 X77.799 Y49.128 E21.79654
G1 X78.193 Y49.454 E21.83069
G1 X79.687 Y50.857 E21.96765
G1 X80.037 Y51.230 E22.00180
G1 X81.344 Y52.809 E22.13876
G1 X81.645 Y53.223 E22.17292
G1 X82.743 Y54.954 E22.30988
G1 X82.989 Y55.402 E22.34403
G1 X83.862 Y57.257 E22.48099
G1 X84.057 Y57.751 E22.51649
G1 X84.684 Y59.682 E22.65210
G1 X84.811 Y60.177 E22.68626
G1 X85.195 Y62.191 E22.82321
G1 X85.259 Y62.698 E22.85737
G1 X85.388 Y64.744 E22.99433
G1 X85.388 Y65.256 E23.02848
G1 X85.259 Y67.302 E23.16544
G1 X85.195 Y67.809 E23.19959
G1 X84.811 Y69.823 E23.33655
G1 X84.684 Y70.318 E23.37071
G1 X84.050 Y72.268 E23.50768
G1 X83.862 Y72.743 E23.54182
G1 X82.989 Y74.598 E23.67880
G1 X82.743 Y75.046 E23.71292
G1 X81.645 Y76.777 E23.84989
G1 X81.344 Y77.191 E23.88405
G1 X80.037 Y78.770 E24.02101
G1 X79.687 Y79.143 E24.05516
G1 X78.193 Y80.546 E24.19212
G1 X77.799 Y80.872 E24.22628
G1 X76.140 Y82.077 E24.36325
G1 X75.709 Y82.351 E24.39736
G1 X73.912 Y83.339 E24.53435
G1 X73.450 Y83.557 E24.56850
G1 X71.543 Y84.311 E24.70546
G1 X71.057 Y84.469 E24.73961
G1 X69.071 Y84.979 E24.87658
G1 X68.570 Y85.075 E24.91071
G1 X66.535 Y85.332 E25.04769
G1 X66.025 Y85.364 E25.08184
G1 X63.975 Y85.364 E25.21880
G1 X63.465 Y85.332 E25.25295
G1 X61.431 Y85.075 E25.38991
G1 X60.929 Y84.979 E25.42407
G1 X58.943 Y84.469 E25.56103
G1 X58.457 Y84.311 E25.59518
G1 X56.550 Y83.557 E25.73214
G1 X56.088 Y83.339 E25.76629
G1 X54.291 Y82.351 E25.90325
G1 X53.860 Y82.077 E25.93741
G1 X52.201 Y80.872 E26.07436
G1 X51.807 Y80.546 E26.10852
G1 X50.313 Y79.143 E26.24548
G1 X49.963 Y78.770 E26.27963
G1 X48.656 Y77.191 E26.41659
G1 X48.355 Y76.777 E26.45075
G1 X47.257 Y75.046 E26.58772
G1 X47.011 Y74.598 E26.62186
G1 X46.138 Y72.743 E26.75882
G1 X45.950 Y72.268 E26.79297
G1 X45.316 Y70.318 E26.92993
G1 X45.189 Y69.823 E26.96409
G1 X44.805 Y67.809 E27.10104
G1 X44.741 Y67.302 E27.13520
G1 X44.612 Y65.256 E27.27216
G1 X44.612 Y64.744 E27.30631
G1 X44.741 Y62.698 E27.44327
G1 X44.805 Y62.191 E27.47743
G1 X45.189 Y60.177 E27.61438
G1 X45.316 Y59.682 E27.64854
G1 X45.950 Y57.732 E27.78550
G1 X46.138 Y57.257 E27.81965
G1 X47.011 Y55.402 E27.95661
G1 X47.257 Y54.954 E27.99077
G1 X48.355 Y53.223 E28.12772
G1 X48.656 Y52.809 E28.16188
G1 X49.963 Y51.230 E28.29884
G1 X50.272 Y50.901 E28.32898
G1 X50.679 Y51.247 F30000.000
G1 F2100
G1 X52.174 Y49.844 E28.46594
G1 X52.516 Y49.561 E28.49560
G1 X54.175 Y48.356 E28.63257
G1 X54.549 Y48.118 E28.66222
G1 X56.346 Y47.131 E28.79918
G1 X56.748 Y46.941 E28.82884
G1 X58.654 Y46.187 E28.96580
G1 X59.076 Y46.050 E28.99546
G1 X61.062 Y45.540 E29.13242
G1 X61.518 Y45.454 E29.16343
G1 X63.532 Y45.200 E29.29904
G1 X63.975 Y45.172 E29.32870
G1 X66.025 Y45.172 E29.46566
G1 X66.468 Y45.200 E29.49532
G1 X68.502 Y45.457 E29.63228
G1 X68.938 Y45.540 E29.66194
G1 X70.924 Y46.050 E29.79890
G1 X71.365 Y46.194 E29.82992
G1 X73.252 Y46.941 E29.96551
G1 X73.654 Y47.131 E29.99518
G1 X75.451 Y48.118 E30.13213
G1 X75.825 Y48.356 E30.16179
G1 X77.484 Y49.561 E30.29875
G1 X77.826 Y49.844 E30.32842
G1 X79.321 Y51.247 E30.46537
G1 X79.625 Y51.571 E30.49504
G1 X80.931 Y53.151 E30.63199
G1 X81.192 Y53.510 E30.66166
G1 X82.291 Y55.241 E30.79862
G1 X82.505 Y55.630 E30.82828
G1 X83.378 Y57.485 E30.96523
G1 X83.547 Y57.917 E30.99624
G1 X84.175 Y59.848 E31.13185
G1 X84.285 Y60.278 E31.16151
G1 X84.669 Y62.291 E31.29847
G1 X84.725 Y62.732 E31.32813
G1 X84.854 Y64.778 E31.46509
G1 X84.854 Y65.222 E31.49475
G1 X84.725 Y67.268 E31.63171
G1 X84.669 Y67.709 E31.66137
G1 X84.285 Y69.722 E31.79833
G1 X84.175 Y70.152 E31.82799
G1 X83.541 Y72.102 E31.96496
G1 X83.378 Y72.515 E31.99461
G1 X82.505 Y74.370 E32.13158
G1 X82.291 Y74.759 E32.16122
G1 X81.192 Y76.490 E32.29819
G1 X80.931 Y76.849 E32.32785
G1 X79.625 Y78.429 E32.46481
G1 X79.321 Y78.753 E32.49447
G1 X77.826 Y80.156 E32.63143
G1 X77.484 Y80.439 E32.66109
G1 X75.825 Y81.644 E32.79806
G1 X75.451 Y81.882 E32.82769
G1 X73.654 Y82.869 E32.96467
G1 X73.252 Y83.059 E32.99433
G1 X71.346 Y83.813 E33.13129
G1 X70.924 Y83.950 E33.16095
G1 X68.938 Y84.460 E33.29791
G1 X68.502 Y84.543 E33.32755
G1 X66.468 Y84.800 E33.46453
G1 X66.025 Y84.828 E33.49419
G1 X63.975 Y84.828 E33.63115
G1 X63.532 Y84.800 E33.66081
G1 X61.498 Y84.543 E33.79777
G1 X61.062 Y84.460 E33.82743
G1 X59.076 Y83.950 E33.96438
G1 X58.654 Y83.813 E33.99405
G1 X56.748 Y83.059 E34.13100
G1 X56.346 Y82.869 E34.16067
G1 X54.549 Y81.882 E34.29762
G1 X54.174 Y81.644 E34.32729
G1 X52.516 Y80.439 E34.46424
G1 X52.174 Y80.156 E34.49391
G1 X50.679 Y78.752 E34.63087
G1 X50.375 Y78.429 E34.66052
G1 X49.069 Y76.849 E34.79748
G1 X48.808 Y76.490 E34.82715
G1 X47.709 Y74.759 E34.96411
G1 X47.495 Y74.370 E34.99377
G1 X46.622 Y72.515 E35.13072
G1 X46.459 Y72.102 E35.16038
G1 X45.825 Y70.152 E35.29734
G1 X45.715 Y69.722 E35.32700
G1 X45.331 Y67.709 E35.46396
G1 X45.275 Y67.268 E35.49362
G1 X45.146 Y65.222 E35.63058
G1 X45.146 Y64.778 E35.66024
G1 X45.275 Y62.732 E35.79720
G1 X45.331 Y62.291 E35.82686
G1 X45.715 Y60.278 E35.96382
G1 X45.825 Y59.848 E35.99348
G1 X46.459 Y57.898 E36.13044
G1 X46.622 Y57.485 E36.16010
G1 X47.495 Y55.630 E36.29706
G1 X47.709 Y55.241 E36.32672
G1 X48.808 Y53.510 E36.46368
G1 X49.069 Y53.151 E36.49334
G1 X50.375 Y51.571 E36.63030
G1 X50.638 Y51.291 E36.65595
G1 E34.65595 F2400.00000
G92 E0
G1 X76.290 Y75.602 F30000.000
G1 E2.00000 F2400.00000
G1 F2100
G1 X74.872 Y76.933 E2.12993
G1 X73.299 Y78.077 E2.25987
G1 X71.594 Y79.014 E2.38980
G1 X69.786 Y79.730 E2.51973
G1 X67.902 Y80.213 E2.64967
G1 X65.972 Y80.457 E2.77960
G1 X64.028 Y80.457 E2.90953
G1 X62.098 Y80.213 E3.03947
G1 X60.214 Y79.730 E3.16940
G1 X58.406 Y79.014 E3.29933
G1 X56.701 Y78.077 E3.42927
G1 X55.128 Y76.933 E3.55920
G1 X53.710 Y75.602 E3.68913
G1 X52.470 Y74.103 E3.81907
G1 X51.428 Y72.461 E3.94900
G1 X50.600 Y70.701 E4.07893
G1 X49.999 Y68.852 E4.20887
G1 X49.634 Y66.941 E4.33880
G1 X49.512 Y65.000 E4.46873
G1 X49.634 Y63.059 E4.59867
G1 X49.999 Y61.148 E4.72860
G1 X50.600 Y59.299 E4.85853
G1 X51.428 Y57.539 E4.98847
G1 X52.470 Y55.897 E5.11840
G1 X53.710 Y54.398 E5.24833
G1 X55.128 Y53.067 E5.37827
G1 X56.701 Y51.923 E5.50820
G1 X58.406 Y50.986 E5.63813
G1 X60.214 Y50.270 E5.76807
G1 X62.098 Y49.787 E5.89800
G1 X64.028 Y49.543 E6.02793
G1 X65.972 Y49.543 E6.15787
G1 X67.882 Y49.784 E6.28647
G1 X69.786 Y50.271 E6.41776
G1 X71.594 Y50.986 E6.54766
G1 X73.299 Y51.923 E6.67759
G1 X74.872 Y53.067 E6.80752
G1 X76.290 Y54.398 E6.93746
G1 X77.530 Y55.897 E7.06739
G1 X78.572 Y57.539 E7.19732
G1 X79.400 Y59.299 E7.32726
G1 X80.001 Y61.148 E7.45719
G1 X80.366 Y63.059 E7.58712
G1 X80.488 Y65.000 E7.71706
G1 X80.366 Y66.941 E7.84699
G1 X80.001 Y68.852 E7.97692
G1 X79.400 Y70.701 E8.10686
G1 X78.572 Y72.461 E8.23679
G1 X77.530 Y74.103 E8.36672
G1 X76.328 Y75.556 E8.49265
G1 X76.703 Y75.943 F30000.000
G1 F2100
G1 X75.214 Y77.347 E8.62932
G1 X73.586 Y78.530 E8.76375
G1 X71.823 Y79.499 E8.89819
G1 X69.952 Y80.240 E9.03263
G1 X68.003 Y80.740 E9.16706
G1 X66.006 Y80.993 E9.30150
G1 X63.994 Y80.993 E9.43593
G1 X61.997 Y80.740 E9.57037
G1 X60.048 Y80.240 E9.70481
G1 X58.177 Y79.499 E9.83924
G1 X56.414 Y78.530 E9.97368
G1 X54.786 Y77.347 E10.10811
G1 X53.319 Y75.969 E10.24255
G1 X52.036 Y74.419 E10.37698
G1 X50.958 Y72.720 E10.51142
G1 X50.101 Y70.899 E10.64586
G1 X49.479 Y68.985 E10.78029
G1 X49.102 Y67.008 E10.91473
G1 X48.976 Y65.000 E11.04916
G1 X49.102 Y62.992 E11.18360
G1 X49.479 Y61.015 E11.31803
G1 X50.101 Y59.101 E11.45247
G1 X50.958 Y57.280 E11.58691
G1 X52.036 Y55.581 E11.72134
G1 X53.319 Y54.031 E11.85578
G1 X54.786 Y52.653 E11.99021
G1 X56.414 Y51.470 E12.12465
G1 X58.177 Y50.501 E12.25909
G1 X60.048 Y49.760 E12.39352
G1 X61.997 Y49.260 E12.52796
G1 X63.994 Y49.007 E12.66239
G1 X66.006 Y49.007 E12.79683
G1 X67.983 Y49.257 E12.92991
G1 X69.952 Y49.760 E13.06570
G1 X71.823 Y50.501 E13.20013
G1 X73.586 Y51.470 E13.33456
G1 X75.214 Y52.653 E13.46900
G1 X76.681 Y54.031 E13.60343
G1 X77.964 Y55.581 E13.73787
G1 X79.042 Y57.280 E13.87230
G1 X79.899 Y59.101 E14.00674
G1 X80.521 Y61.015 E14.14118
G1 X80.898 Y62.992 E14.27561
G1 X81.024 Y65.000 E14.41005
G1 X80.898 Y67.008 E14.54448
G1 X80.521 Y68.985 E14.67892
G1 X79.899 Y70.899 E14.81336
G1 X79.042 Y72.720 E14.94779
G1 X77.964 Y74.419 E15.08223
G1 X76.741 Y75.897 E15.21040
G1 X76.669 Y75.939 F30000.000
G1 X75.840 Y75.294 F30000.000
G1 F2100
G1 X75.956 Y75.177 E15.22158
G1 X77.152 Y73.731 E15.34876
G1 X78.053 Y72.311 E15.46273
G1 X72.355 Y78.010 E16.00891
G1 X71.309 Y78.585 E16.08981
G1 X70.816 Y78.780 E16.12572
G1 X78.788 Y70.809 E16.88976
G1 X78.958 Y70.447 E16.91684
G1 X79.236 Y69.592 E16.97776
G1 X69.548 Y79.280 E17.90632
G1 X68.514 Y79.545 E17.97867
G1 X79.571 Y68.488 E19.03850
G1 X79.752 Y67.539 E19.10402
G1 X67.519 Y79.771 E20.27652
G1 X66.640 Y79.883 E20.33661
G1 X79.902 Y66.620 E21.60781
G1 X79.954 Y65.800 E21.66350
G1 X65.776 Y79.978 E23.02247
G1 X65.007 Y79.978 E23.07456
