; generated by Slic3r 1.3.0 on 2021-08-20 at 12:13:32

; external perimeters extrusion width = 0.44mm (2.78mm^3/s)
; perimeters extrusion width = 0.40mm (7.14mm^3/s)
; infill extrusion width = 0.50mm (10.97mm^3/s)
; solid infill extrusion width = 0.60mm (6.68mm^3/s)
; top infill extrusion width = 0.40mm (2.14mm^3/s)

M107
M190 S80 ; set bed temperature and wait for it to be reached
M104 S210 ; set temperature
G28 ; home all axes
G1 Z5 F5000 ; lift nozzle

; Filament gcode

M109 S210 ; set temperature and wait for it to be reached
G21 ; set units to millimeters
G90 ; use absolute coordinates
M82 ; use absolute distances for extrusion
G92 E0
G1 Z0.300 F30000.000
G1 E-2.00000 F2400.00000
G92 E0
G1 X36.374 Y8.300 F30000.000
G1 E2.00000 F2400.00000
G1 F2100
G1 X37.482 Y6.890 E2.11982
G1 X39.089 Y6.094 E2.23964
G1 X40.050 Y5.979 E2.30428
G1 X79.950 Y5.979 E4.96982
G1 X81.700 Y6.374 E5.08964
G1 X83.110 Y7.482 E5.20946
G1 X83.906 Y9.089 E5.32928
G1 X84.021 Y10.050 E5.39392
G1 X84.021 Y109.950 E12.06778
G1 X83.626 Y111.700 E12.18760
G1 X82.518 Y113.110 E12.30742
G1 X80.911 Y113.906 E12.42724
G1 X79.950 Y114.021 E12.49188
G1 X40.050 Y114.021 E15.15741
G1 X38.300 Y113.626 E15.27724
G1 X36.890 Y112.518 E15.39706
G1 X36.094 Y110.911 E15.51688
G1 X35.979 Y109.950 E15.58152
G1 X35.979 Y10.050 E22.25538
G1 X36.361 Y8.359 E22.37119
G1 X36.909 Y8.427 F30000.000
G1 F2100
G1 X38.004 Y7.167 E22.48275
G1 X40.050 Y6.514 E22.62622
G1 X79.950 Y6.514 E25.29176
G1 X81.573 Y6.909 E25.40331
G1 X82.833 Y8.004 E25.51487
G1 X83.486 Y10.050 E25.65835
G1 X83.486 Y109.950 E32.33221
G1 X83.091 Y111.573 E32.44376
G1 X81.996 Y112.833 E32.55532
G1 X79.950 Y113.486 E32.69880
G1 X40.050 Y113.486 E35.36433
G1 X38.427 Y113.091 E35.47589
G1 X37.167 Y111.996 E35.58745
G1 X36.514 Y109.950 E35.73092
G1 X36.514 Y10.050 E42.40478
G1 X36.895 Y8.486 E42.51233
G1 X37.347 Y8.865 F30000.000
G1 F2100
G1 X38.911 Y7.301 E42.67792
G1 X81.089 Y7.301 E45.83430
G1 X82.699 Y8.911 E46.00475
G1 X82.699 Y111.089 E53.65124
G1 X81.089 Y112.699 E53.82169
G1 X38.911 Y112.699 E56.97807
G1 X37.301 Y111.089 E57.14852
G1 X37.304 Y8.908 E64.79528
G1 X37.901 Y9.160 F30000.000
G1 F2100
G1 X39.160 Y7.901 E64.92853
G1 X80.840 Y7.901 E68.04771
G1 X82.099 Y9.160 E68.18097
G1 X82.099 Y110.840 E75.79027
G1 X80.840 Y112.099 E75.92352
G1 X39.160 Y112.099 E79.04270
G1 X37.901 Y110.840 E79.17595
G1 X37.901 Y9.220 E86.78076
G1 X38.501 Y9.408 F30000.000
G1 F2100
G1 X39.408 Y8.501 E86.87682
G1 X80.592 Y8.501 E89.95880
G1 X81.499 Y9.408 E90.05485
G1 X81.499 Y110.592 E97.62696
G1 X80.592 Y111.499 E97.72301
G1 X39.408 Y111.499 E100.80500
G1 X38.501 Y110.592 E100.90105
G1 X38.501 Y9.468 E108.46866
G1 X39.101 Y9.657 F30000.000
G1 F2100
G1 X39.657 Y9.101 E108.52752
G1 X80.343 Y9.101 E111.57231
G1 X80.899 Y9.657 E111.63116
G1 X80.899 Y110.343 E119.16607
G1 X80.343 Y110.899 E119.22493
G1 X39.657 Y110.899 E122.26971
G1 X39.101 Y110.343 E122.32857
G1 X39.101 Y9.717 E129.85898
G1 X39.701 Y9.905 F30000.000
G1 F2100
G1 X39.905 Y9.701 E129.88064
G1 X80.095 Y9.701 E132.88823
G1 X80.299 Y9.905 E132.90989
G1 X80.299 Y110.095 E140.40760
G1 X80.095 Y110.299 E140.42926
G1 X39.905 Y110.299 E143.43685
G1 X39.701 Y110.095 E143.45851
G1 X39.701 Y9.965 E150.95173
G1 E148.95173 F2400.00000
G92 E0
G1 X79.650 Y10.350 F30000.000
G1 E2.00000 F2400.00000
G1 F2100
G1 X79.650 Y109.650 E8.63378
G1 X40.350 Y109.650 E11.25923
G1 X40.350 Y10.350 E17.89301
G1 X79.590 Y10.350 E20.51445
G1 X79.600 Y10.747 F30000.000
G1 X79.114 Y10.886 F30000.000
G1 F2100
G1 X79.114 Y109.114 E27.07666
G1 X40.886 Y109.114 E29.63055
G1 X40.886 Y10.886 E36.19277
G1 X79.054 Y10.886 E38.74265
G1 E36.74265 F2400.00000
G92 E0
G1 X41.365 Y11.478 F30000.000
G1 E2.00000 F2400.00000
G1 F2100
G1 X41.478 Y11.364 E2.01075
G1 X42.237 Y11.364 E2.06154
G1 X41.364 Y12.237 E2.14414
G1 X41.364 Y12.996 E2.19493
G1 X42.996 Y11.364 E2.34936
G1 X43.755 Y11.364 E2.40014
G1 X41.364 Y13.755 E2.62639
G1 X41.364 Y14.514 E2.67718
G1 X44.514 Y11.364 E2.97525
G1 X45.273 Y11.364 E3.02603
G1 X41.364 Y15.273 E3.39592
G1 X41.364 Y16.031 E3.44671
G1 X46.031 Y11.364 E3.88842
G1 X46.790 Y11.364 E3.93921
G1 X41.364 Y16.790 E4.45274
G1 X41.364 Y17.549 E4.50353
G1 X47.549 Y11.364 E5.08888
G1 X48.308 Y11.364 E5.13967
G1 X41.364 Y18.308 E5.79685
G1 X41.364 Y19.067 E5.84763
G1 X49.067 Y11.364 E6.57663
G1 X49.826 Y11.364 E6.62742
G1 X41.364 Y19.826 E7.42824
G1 X41.364 Y20.584 E7.47903
G1 X50.584 Y11.364 E8.35167
G1 X51.343 Y11.364 E8.40246
G1 X41.364 Y21.343 E9.34692
G1 X41.364 Y22.102 E9.39771
G1 X52.102 Y11.364 E10.41400
G1 X52.861 Y11.364 E10.46478
G1 X41.364 Y22.861 E11.55289
G1 X41.364 Y23.620 E11.60368
G1 X53.620 Y11.364 E12.76361
G1 X54.379 Y11.364 E12.81439
G1 X41.364 Y24.379 E14.04615
G1 X41.364 Y25.137 E14.09693
G1 X55.137 Y11.364 E15.40051
G1 X55.896 Y11.364 E15.45129
G1 X41.364 Y25.896 E16.82669
G1 X41.364 Y26.655 E16.87747
G1 X56.655 Y11.364 E18.32469
G1 X57.414 Y11.364 E18.37548
G1 X41.364 Y27.414 E19.89451
G1 X41.364 Y28.173 E19.94530
G1 X58.173 Y11.364 E21.53616
G1 X58.932 Y11.364 E21.58695
G1 X41.364 Y28.932 E23.24963
G1 X41.364 Y29.690 E23.30042
G1 X59.691 Y11.364 E25.03492
G1 X60.449 Y11.364 E25.08571
G1 X41.364 Y30.449 E26.89203
G1 X41.364 Y31.208 E26.94282
G1 X61.208 Y11.364 E28.82097
G1 X61.967 Y11.364 E28.87175
G1 X41.364 Y31.967 E30.82172
G1 X41.364 Y32.726 E30.87251
G1 X62.726 Y11.364 E32.89430
G1 X63.485 Y11.364 E32.94508
G1 X41.364 Y33.485 E35.03870
G1 X41.364 Y34.244 E35.08948
G1 X64.244 Y11.364 E37.25492
G1 X65.002 Y11.364 E37.30570
G1 X41.364 Y35.002 E39.54296
G1 X41.364 Y35.761 E39.59375
G1 X65.761 Y11.364 E41.90282
G1 X66.520 Y11.364 E41.95361
G1 X41.364 Y36.520 E44.33451
G1 X41.364 Y37.279 E44.38529
G1 X67.279 Y11.364 E46.83802
G1 X68.038 Y11.364 E46.88880
G1 X41.364 Y38.038 E49.41335
G1 X41.364 Y38.797 E49.46413
G1 X68.797 Y11.364 E52.06050
G1 X69.555 Y11.364 E52.11128
G1 X41.364 Y39.555 E54.77947
G1 X41.364 Y40.314 E54.83025
G1 X70.314 Y11.364 E57.57026
G1 X71.073 Y11.364 E57.62105
G1 X41.364 Y41.073 E60.43288
G1 X41.364 Y41.832 E60.48366
G1 X71.832 Y11.364 E63.36732
G1 X72.591 Y11.364 E63.41810
G1 X41.364 Y42.591 E66.37358
G1 X41.364 Y43.350 E66.42436
G1 X73.350 Y11.364 E69.45166
G1 X74.108 Y11.364 E69.50244
G1 X41.364 Y44.108 E72.60156
G1 X41.364 Y44.867 E72.65235
G1 X74.867 Y11.364 E75.82328
G1 X75.626 Y11.364 E75.87407
G1 X41.364 Y45.626 E79.11683
G1 X41.364 Y46.385 E79.16762
G1 X76.385 Y11.364 E82.48220
G1 X77.144 Y11.364 E82.53298
G1 X41.364 Y47.144 E85.91939
G1 X41.364 Y47.903 E85.97017
G1 X77.903 Y11.364 E89.42840
G1 X78.636 Y11.364 E89.47745
G1 X78.636 Y11.390 E89.47919
G1 X41.364 Y48.661 E93.00678
G1 X41.364 Y49.420 E93.05757
G1 X78.636 Y12.149 E96.58516
G1 X78.636 Y12.908 E96.63595
G1 X41.364 Y50.179 E100.16354
G1 X41.364 Y50.938 E100.21433
G1 X78.636 Y13.667 E103.74192
G1 X78.636 Y14.426 E103.79271
G1 X41.364 Y51.697 E107.32030
G1 X41.364 Y52.456 E107.37109
G1 X78.636 Y15.185 E110.89869
G1 X78.636 Y15.943 E110.94947
G1 X41.364 Y53.215 E114.47707
G1 X41.364 Y53.973 E114.52785
G1 X78.636 Y16.702 E118.05545
G1 X78.636 Y17.461 E118.10623
G1 X41.364 Y54.732 E121.63383
G1 X41.364 Y55.491 E121.68461
G1 X78.636 Y18.220 E125.21221
G1 X78.636 Y18.979 E125.26300
G1 X41.364 Y56.250 E128.79059
G1 X41.364 Y57.009 E128.84138
G1 X78.636 Y19.738 E132.36897
G1 X78.636 Y20.496 E132.41976
G1 X41.364 Y57.768 E135.94735
G1 X41.364 Y58.526 E135.99814
G1 X78.636 Y21.255 E139.52573
G1 X78.636 Y22.014 E139.57652
G1 X41.364 Y59.285 E143.10411
G1 X41.364 Y60.044 E143.15490
G1 X78.636 Y22.773 E146.68250
G1 X78.636 Y23.532 E146.73328
G1 X41.364 Y60.803 E150.26088
G1 X41.364 Y61.562 E150.31166
G1 X78.636 Y24.291 E153.83926
G1 X78.636 Y25.049 E153.89004
G1 X41.364 Y62.321 E157.41764
G1 X41.364 Y63.079 E157.46842
G1 X78.636 Y25.808 E160.99602
G1 X78.636 Y26.567 E161.04681
G1 X41.364 Y63.838 E164.57440
G1 X41.364 Y64.597 E164.62519
G1 X78.636 Y27.326 E168.15278
G1 X78.636 Y28.085 E168.20357
G1 X41.364 Y65.356 E171.73116
G1 X41.364 Y66.115 E171.78195
G1 X78.636 Y28.844 E175.30954
G1 X78.636 Y29.602 E175.36033
G1 X41.364 Y66.874 E178.88793
G1 X41.364 Y67.632 E178.93871
G1 X78.636 Y30.361 E182.46631
G1 X78.636 Y31.120 E182.51709
G1 X41.364 Y68.391 E186.04469
G1 X41.364 Y69.150 E186.09547
G1 X78.636 Y31.879 E189.62307
G1 X78.636 Y32.638 E189.67385
G1 X41.364 Y69.909 E193.20145
G1 X41.364 Y70.668 E193.25224
G1 X78.636 Y33.397 E196.77983
G1 X78.636 Y34.156 E196.83062
G1 X41.364 Y71.427 E200.35821
G1 X41.364 Y72.186 E200.40900
G1 X78.636 Y34.914 E203.93659
G1 X78.636 Y35.673 E203.98738
G1 X41.364 Y72.944 E207.51498
G1 X41.364 Y73.703 E207.56576
G1 X78.636 Y36.432 E211.09336
G1 X78.636 Y37.191 E211.14414
G1 X41.364 Y74.462 E214.67174
G1 X41.364 Y75.221 E214.72252
G1 X78.636 Y37.950 E218.25012
G1 X78.636 Y38.709 E218.30090
G1 X41.364 Y75.980 E221.82850
G1 X41.364 Y76.739 E221.87929
G1 X78.636 Y39.467 E225.40688
G1 X78.636 Y40.226 E225.45767
G1 X41.364 Y77.497 E228.98526
G1 X41.364 Y78.256 E229.03605
G1 X78.636 Y40.985 E232.56364
G1 X78.636 Y41.744 E232.61443
G1 X41.364 Y79.015 E236.14202
G1 X41.364 Y79.774 E236.19281
G1 X78.636 Y42.503 E239.72041
G1 X78.636 Y43.262 E239.77119
G1 X41.364 Y80.533 E243.29879
G1 X41.364 Y81.292 E243.34957
G1 X78.636 Y44.020 E246.87717
G1 X78.636 Y44.779 E246.92795
G1 X41.364 Y82.050 E250.45555
G1 X41.364 Y82.809 E250.50633
G1 X78.636 Y45.538 E254.03393
G1 X78.636 Y46.297 E254.08472
G1 X41.364 Y83.568 E257.61231
G1 X41.364 Y84.327 E257.66310
G1 X78.636 Y47.056 E261.19069
G1 X78.636 Y47.815 E261.24148
G1 X41.364 Y85.086 E264.76907
G1 X41.364 Y85.845 E264.81986
G1 X78.636 Y48.573 E268.34746
G1 X78.636 Y49.332 E268.39824
G1 X41.364 Y86.603 E271.92584
G1 X41.364 Y87.362 E271.97662
G1 X78.636 Y50.091 E275.50422
G1 X78.636 Y50.850 E275.55500
G1 X41.364 Y88.121 E279.08260
G1 X41.364 Y88.880 E279.13339
G1 X78.636 Y51.609 E282.66098
G1 X78.636 Y52.368 E282.71177
G1 X41.364 Y89.639 E286.23936
G1 X41.364 Y90.398 E286.29015
G1 X78.636 Y53.127 E289.81774
G1 X78.636 Y53.885 E289.86853
G1 X41.364 Y91.157 E293.39612
G1 X41.364 Y91.915 E293.44691
G1 X78.636 Y54.644 E296.97451
G1 X78.636 Y55.403 E297.02529
G1 X41.364 Y92.674 E300.55289
G1 X41.364 Y93.433 E300.60367
G1 X78.636 Y56.162 E304.13127
G1 X78.636 Y56.921 E304.18205
G1 X41.364 Y94.192 E307.70965
G1 X41.364 Y94.951 E307.76044
G1 X78.636 Y57.680 E311.28803
G1 X78.636 Y58.438 E311.33882
G1 X41.364 Y95.710 E314.86641
G1 X41.364 Y96.468 E314.91720
G1 X78.636 Y59.197 E318.44479
G1 X78.636 Y59.956 E318.49558
G1 X41.364 Y97.227 E322.02318
G1 X41.364 Y97.986 E322.07396
G1 X78.636 Y60.715 E325.60156
G1 X78.636 Y61.474 E325.65234
G1 X41.364 Y98.745 E329.17994
G1 X41.364 Y99.504 E329.23072
G1 X78.636 Y62.233 E332.75832
G1 X78.636 Y62.991 E332.80911
G1 X41.364 Y100.263 E336.33670
G1 X41.364 Y101.021 E336.38749
G1 X78.636 Y63.750 E339.91508
G1 X78.636 Y64.509 E339.96587
G1 X41.364 Y101.780 E343.49346
G1 X41.364 Y102.539 E343.54425
G1 X78.636 Y65.268 E347.07185
G1 X78.636 Y66.027 E347.12263
G1 X41.364 Y103.298 E350.65023
G1 X41.364 Y104.057 E350.70101
G1 X78.636 Y66.786 E354.22861
G1 X78.636 Y67.544 E354.27939
G1 X41.364 Y104.816 E357.80699
G1 X41.364 Y105.574 E357.85778
G1 X78.636 Y68.303 E361.38537
G1 X78.636 Y69.062 E361.43616
G1 X41.364 Y106.333 E364.96375
G1 X41.364 Y107.092 E365.01454
G1 X78.636 Y69.821 E368.54213
G1 X78.636 Y70.580 E368.59292
G1 X41.364 Y107.851 E372.12052
G1 X41.364 Y108.610 E372.17130
G1 X78.636 Y71.339 E375.69890
G1 X78.636 Y72.098 E375.74968
G1 X42.098 Y108.636 E379.20789
G1 X42.856 Y108.636 E379.25868
G1 X78.636 Y72.856 E382.64507
G1 X78.636 Y73.615 E382.69585
G1 X43.615 Y108.636 E386.01042
G1 X44.374 Y108.636 E386.06120
G1 X78.636 Y74.374 E389.30395
G1 X78.636 Y75.133 E389.35474
G1 X45.133 Y108.636 E392.52566
G1 X45.892 Y108.636 E392.57644
G1 X78.636 Y75.892 E395.67555
G1 X78.636 Y76.651 E395.72633
G1 X46.651 Y108.636 E398.75361
G1 X47.409 Y108.636 E398.80440
G1 X78.636 Y77.409 E401.75986
G1 X78.636 Y78.168 E401.81064
G1 X48.168 Y108.636 E404.69428
G1 X48.927 Y108.636 E404.74506
G1 X78.636 Y78.927 E407.55688
G1 X78.636 Y79.686 E407.60766
G1 X49.686 Y108.636 E410.34766
G1 X50.445 Y108.636 E410.39844
G1 X78.636 Y80.445 E413.06661
G1 X78.636 Y81.204 E413.11740
G1 X51.204 Y108.636 E415.71375
G1 X51.962 Y108.636 E415.76453
G1 X78.636 Y81.962 E418.28906
G1 X78.636 Y82.721 E418.33985
G1 X52.721 Y108.636 E420.79255
G1 X53.480 Y108.636 E420.84334
G1 X78.636 Y83.480 E423.22422
G1 X78.636 Y84.239 E423.27501
G1 X54.239 Y108.636 E425.58407
G1 X54.998 Y108.636 E425.63486
G1 X78.636 Y84.998 E427.87210
G1 X78.636 Y85.757 E427.92288
G1 X55.757 Y108.636 E430.08830
G1 X56.515 Y108.636 E430.13909
G1 X78.636 Y86.515 E432.23268
G1 X78.636 Y87.274 E432.28347
G1 X57.274 Y108.636 E434.30525
G1 X58.033 Y108.636 E434.35603
G1 X78.636 Y88.033 E436.30599
G1 X78.636 Y88.792 E436.35677
G1 X58.792 Y108.636 E438.23490
G1 X59.551 Y108.636 E438.28569
G1 X78.636 Y89.551 E440.09200
G1 X78.636 Y90.310 E440.14278
G1 X60.310 Y108.636 E441.87727
G1 X61.069 Y108.636 E441.92806
G1 X78.636 Y91.069 E443.59073
G1 X78.636 Y91.827 E443.64151
G1 X61.827 Y108.636 E445.23236
G1 X62.586 Y108.636 E445.28314
G1 X78.636 Y92.586 E446.80217
G1 X78.636 Y93.345 E446.85295
G1 X63.345 Y108.636 E448.30015
G1 X64.104 Y108.636 E448.35094
G1 X78.636 Y94.104 E449.72632
G1 X78.636 Y94.863 E449.77710
G1 X64.863 Y108.636 E451.08066
G1 X65.622 Y108.636 E451.13145
G1 X78.636 Y95.622 E452.36319
G1 X78.636 Y96.380 E452.41397
G1 X66.380 Y108.636 E453.57389
G1 X67.139 Y108.636 E453.62467
G1 X78.636 Y97.139 E454.71276
G1 X78.636 Y97.898 E454.76355
G1 X67.898 Y108.636 E455.77982
G1 X68.657 Y108.636 E455.83061
G1 X78.636 Y98.657 E456.77506
G1 X78.636 Y99.416 E456.82584
G1 X69.416 Y108.636 E457.69847
G1 X70.175 Y108.636 E457.74926
G1 X78.636 Y100.175 E458.55006
G1 X78.636 Y100.933 E458.60085
G1 X70.933 Y108.636 E459.32983
G1 X71.692 Y108.636 E459.38062
G1 X78.636 Y101.692 E460.03778
G1 X78.636 Y102.451 E460.08857
G1 X72.451 Y108.636 E460.67391
G1 X73.210 Y108.636 E460.72469
G1 X78.636 Y103.210 E461.23821
G1 X78.636 Y103.969 E461.28900
G1 X73.969 Y108.636 E461.73070
G1 X74.728 Y108.636 E461.78148
G1 X78.636 Y104.728 E462.15136
G1 X78.636 Y105.486 E462.20214
G1 X75.486 Y108.636 E462.50020
G1 X76.245 Y108.636 E462.55098
G1 X78.636 Y106.245 E462.77722
G1 X78.636 Y107.004 E462.82800
G1 X77.004 Y108.636 E462.98241
G1 X77.763 Y108.636 E463.03320
G1 X78.636 Y107.763 E463.11579
G1 X78.636 Y108.522 E463.16657
G1 X78.522 Y108.636 E463.17734
G1 Z0.500 F30000.000
G1 X79.353 Y10.647 F30000.000
G1 F6000
G1 X79.353 Y109.353 E466.10805
G1 X40.647 Y109.353 E467.25727
G1 X40.647 Y10.647 E470.18798
G1 X79.293 Y10.647 E471.33542
G1 X79.730 Y10.270 F30000.000
G1 F2100
G1 X79.730 Y109.730 E474.61932
G1 X40.270 Y109.730 E475.92219
G1 X40.270 Y10.270 E479.20609
G1 X79.670 Y10.270 E480.50697
G1 X79.680 Y10.667 F30000.000
G1 X78.944 Y11.153 F30000.000
G1 F3600
G1 X78.847 Y11.056 E480.51333
G1 X78.059 Y11.056 E480.54987
G1 X78.944 Y11.941 E480.60790
G1 X78.944 Y12.729 E480.64444
G1 X77.271 Y11.056 E480.75414
G1 X76.482 Y11.056 E480.79067
G1 X78.944 Y13.518 E480.95204
G1 X78.944 Y14.306 E480.98857
G1 X75.694 Y11.056 E481.20161
G1 X74.906 Y11.056 E481.23814
G1 X78.944 Y15.094 E481.50285
G1 X78.944 Y15.882 E481.53938
G1 X74.118 Y11.056 E481.85575
G1 X73.329 Y11.056 E481.89228
G1 X78.944 Y16.671 E482.26032
G1 X78.944 Y17.459 E482.29686
G1 X72.541 Y11.056 E482.71656
G1 X71.753 Y11.056 E482.75310
G1 X78.944 Y18.247 E483.22447
G1 X78.944 Y19.035 E483.26101
G1 X70.965 Y11.056 E483.78405
G1 X70.176 Y11.056 E483.82058
G1 X78.944 Y19.824 E484.39529
G1 X78.944 Y20.612 E484.43182
G1 X69.388 Y11.056 E485.05820
G1 X68.600 Y11.056 E485.09473
G1 X78.944 Y21.400 E485.77278
G1 X78.944 Y22.189 E485.80931
G1 X67.811 Y11.056 E486.53902
G1 X67.023 Y11.056 E486.57556
G1 X78.944 Y22.977 E487.35694
G1 X78.944 Y23.765 E487.39347
G1 X66.235 Y11.056 E488.22652
G1 X65.447 Y11.056 E488.26305
G1 X78.944 Y24.553 E489.14777
G1 X78.944 Y25.342 E489.18430
G1 X64.658 Y11.056 E490.12068
G1 X63.870 Y11.056 E490.15722
G1 X78.944 Y26.130 E491.14527
G1 X78.944 Y26.918 E491.18180
G1 X63.082 Y11.056 E492.22152
G1 X62.293 Y11.056 E492.25805
