; generated by Slic3r 1.3.0 on 2021-09-07 at 18:38:30

; external perimeters extrusion width = 0.44mm (2.78mm^3/s)
; perimeters extrusion width = 0.40mm (7.14mm^3/s)
; infill extrusion width = 0.50mm (10.97mm^3/s)
; solid infill extrusion width = 0.60mm (6.68mm^3/s)
; top infill extrusion width = 0.40mm (2.14mm^3/s)

M107
M190 S80 ; set bed temperature and wait for it to be reached
M104 S210 ; set temperature
G28 ; home all axes
G1 Z5 F5000 ; lift nozzle

; Filament gcode

M109 S210 ; set temperature and wait for it to be reached
G21 ; set units to millimeters
G90 ; use absolute coordinates
M82 ; use absolute distances for extrusion
G92 E0
G1 Z0.300 F30000.000
G1 E-2.00000 F2400.00000
G92 E0
G1 X9.089 Y31.094 F30000.000
G1 E2.00000 F2400.00000
G1 F2100
G1 X10.050 Y30.979 E2.06463
G1 X109.950 Y30.979 E8.73850
G1 X111.700 Y31.374 E8.85832
G1 X113.110 Y32.482 E8.97814
G1 X113.906 Y34.089 E9.09796
G1 X114.021 Y35.050 E9.16260
G1 X114.021 Y84.950 E12.49619
G1 X113.626 Y86.700 E12.61601
G1 X112.518 Y88.110 E12.73583
G1 X110.911 Y88.906 E12.85565
G1 X109.950 Y89.021 E12.92029
G1 X10.050 Y89.021 E19.59415
G1 X8.300 Y88.626 E19.71397
G1 X6.890 Y87.518 E19.83379
G1 X6.094 Y85.911 E19.95361
G1 X5.979 Y84.950 E20.01825
G1 X5.979 Y35.050 E23.35184
G1 X6.374 Y33.300 E23.47166
G1 X7.482 Y31.890 E23.59148
G1 X9.036 Y31.120 E23.70730
G1 X10.050 Y31.514 F30000.000
G1 F2100
G1 X109.950 Y31.514 E30.38116
G1 X111.573 Y31.909 E30.49271
G1 X112.833 Y33.004 E30.60427
G1 X113.486 Y35.050 E30.74775
G1 X113.486 Y84.950 E34.08134
G1 X113.091 Y86.573 E34.19289
G1 X111.996 Y87.833 E34.30445
G1 X109.950 Y88.486 E34.44793
G1 X10.050 Y88.486 E41.12179
G1 X8.427 Y88.091 E41.23334
G1 X7.167 Y86.996 E41.34490
G1 X6.514 Y84.950 E41.48838
G1 X6.514 Y35.050 E44.82197
G1 X6.909 Y33.427 E44.93352
G1 X8.004 Y32.167 E45.04508
G1 X9.993 Y31.533 E45.18455
G1 X10.050 Y32.301 F30000.000
G1 F2100
G1 X111.089 Y32.301 E52.74582
G1 X112.699 Y33.911 E52.91627
G1 X112.699 Y86.089 E56.82100
G1 X111.089 Y87.699 E56.99145
G1 X8.911 Y87.699 E64.63795
G1 X7.301 Y86.089 E64.80840
G1 X7.301 Y33.911 E68.71313
G1 X8.911 Y32.301 E68.88358
G1 X9.990 Y32.301 E68.96431
G1 X10.050 Y32.901 F30000.000
G1 F2100
G1 X110.840 Y32.901 E76.50698
G1 X112.099 Y34.160 E76.64024
G1 X112.099 Y85.840 E80.50777
G1 X110.840 Y87.099 E80.64102
G1 X9.160 Y87.099 E88.25032
G1 X7.901 Y85.840 E88.38357
G1 X7.901 Y34.160 E92.25111
G1 X9.160 Y32.901 E92.38436
G1 X9.990 Y32.901 E92.44650
G1 X10.050 Y33.501 F30000.000
G1 F2100
G1 X110.592 Y33.501 E99.97057
G1 X111.499 Y34.408 E100.06663
G1 X111.499 Y85.592 E103.89696
G1 X110.592 Y86.499 E103.99302
G1 X9.408 Y86.499 E111.56512
G1 X8.501 Y85.592 E111.66117
G1 X8.501 Y34.408 E115.49151
G1 X9.408 Y33.501 E115.58756
G1 X9.990 Y33.501 E115.63110
G1 X10.050 Y34.101 F30000.000
G1 F2100
G1 X110.343 Y34.101 E123.13658
G1 X110.899 Y34.657 E123.19544
G1 X110.899 Y85.343 E126.98857
G1 X110.343 Y85.899 E127.04743
G1 X9.657 Y85.899 E134.58234
G1 X9.101 Y85.343 E134.64119
G1 X9.101 Y34.657 E138.43433
G1 X9.657 Y34.101 E138.49319
G1 X9.990 Y34.101 E138.51813
G1 X10.050 Y34.701 F30000.000
G1 F2100
G1 X110.095 Y34.701 E146.00501
G1 X110.299 Y34.905 E146.02667
G1 X110.299 Y85.095 E149.78261
G1 X110.095 Y85.299 E149.80427
G1 X9.905 Y85.299 E157.30198
G1 X9.701 Y85.095 E157.32364
G1 X9.701 Y34.905 E161.07958
G1 X9.905 Y34.701 E161.10124
G1 X9.990 Y34.701 E161.10758
G1 E159.10758 F2400.00000
G92 E0
G1 X10.350 Y84.650 F30000.000
G1 E2.00000 F2400.00000
G1 F2100
G1 X10.350 Y35.350 E5.29351
G1 X109.650 Y35.350 E11.92728
G1 X109.650 Y84.650 E15.22079
G1 X10.410 Y84.650 E21.85056
G1 X10.495 Y84.277 F30000.000
G1 X10.886 Y84.114 F30000.000
G1 F2100
G1 X10.886 Y35.886 E25.07250
G1 X109.114 Y35.886 E31.63471
G1 X109.114 Y84.114 E34.85666
G1 X10.946 Y84.114 E41.41486
G1 E39.41486 F2400.00000
G92 E0
G1 X11.478 Y36.364 F30000.000
G1 E2.00000 F2400.00000
G1 F2100
G1 X11.364 Y36.478 E2.01078
G1 X11.364 Y37.238 E2.06166
G1 X12.238 Y36.364 E2.14440
G1 X12.997 Y36.364 E2.19528
G1 X11.364 Y37.997 E2.34998
G1 X11.364 Y38.757 E2.40086
G1 X13.757 Y36.364 E2.62751
G1 X14.516 Y36.364 E2.67839
G1 X11.364 Y39.516 E2.97700
G1 X11.364 Y40.276 E3.02788
G1 X15.276 Y36.364 E3.39845
G1 X16.036 Y36.364 E3.44933
G1 X11.364 Y41.036 E3.89185
G1 X11.364 Y41.795 E3.94273
G1 X16.795 Y36.364 E4.45721
G1 X17.555 Y36.364 E4.50809
G1 X11.364 Y42.555 E5.09453
G1 X11.364 Y43.314 E5.14541
G1 X18.314 Y36.364 E5.80380
G1 X19.074 Y36.364 E5.85468
G1 X11.364 Y44.074 E6.58503
G1 X11.364 Y44.833 E6.63591
G1 X19.833 Y36.364 E7.43821
G1 X20.593 Y36.364 E7.48909
G1 X11.364 Y45.593 E8.36335
G1 X11.364 Y46.352 E8.41423
G1 X21.352 Y36.364 E9.36045
G1 X22.112 Y36.364 E9.41133
G1 X11.364 Y47.112 E10.42950
G1 X11.364 Y47.871 E10.48039
G1 X22.872 Y36.364 E11.57051
G1 X23.631 Y36.364 E11.62140
G1 X11.364 Y48.631 E12.78348
G1 X11.364 Y49.391 E12.83436
G1 X24.391 Y36.364 E14.06841
G1 X25.150 Y36.364 E14.11929
G1 X11.364 Y50.150 E15.42529
G1 X11.364 Y50.910 E15.47617
G1 X25.910 Y36.364 E16.85412
G1 X26.669 Y36.364 E16.90500
G1 X11.364 Y51.669 E18.35491
G1 X11.364 Y52.429 E18.40580
G1 X27.429 Y36.364 E19.92766
G1 X28.188 Y36.364 E19.97854
G1 X11.364 Y53.188 E21.57237
G1 X11.364 Y53.948 E21.62325
G1 X28.948 Y36.364 E23.28903
G1 X29.707 Y36.364 E23.33991
G1 X11.364 Y54.707 E25.07765
G1 X11.364 Y55.467 E25.12853
G1 X30.467 Y36.364 E26.93823
G1 X31.227 Y36.364 E26.98911
G1 X11.364 Y56.227 E28.87076
G1 X11.364 Y56.986 E28.92164
G1 X31.986 Y36.364 E30.87524
G1 X32.746 Y36.364 E30.92613
G1 X11.364 Y57.746 E32.95169
G1 X11.364 Y58.505 E33.00257
G1 X33.505 Y36.364 E35.10009
G1 X34.265 Y36.364 E35.15097
G1 X11.364 Y59.265 E37.32045
G1 X11.364 Y60.024 E37.37133
G1 X35.024 Y36.364 E39.61276
G1 X35.784 Y36.364 E39.66364
G1 X11.364 Y60.784 E41.97703
G1 X11.364 Y61.543 E42.02791
G1 X36.543 Y36.364 E44.41326
G1 X37.303 Y36.364 E44.46414
G1 X11.364 Y62.303 E46.92144
G1 X11.364 Y63.063 E46.97232
G1 X38.063 Y36.364 E49.50158
G1 X38.822 Y36.364 E49.55246
G1 X11.364 Y63.822 E52.15367
G1 X11.364 Y64.582 E52.20456
G1 X39.582 Y36.364 E54.87773
G1 X40.341 Y36.364 E54.92861
G1 X11.364 Y65.341 E57.67373
G1 X11.364 Y66.101 E57.72462
G1 X41.101 Y36.364 E60.54170
G1 X41.860 Y36.364 E60.59258
G1 X11.364 Y66.860 E63.48162
G1 X11.364 Y67.620 E63.53250
G1 X42.620 Y36.364 E66.49350
G1 X43.379 Y36.364 E66.54438
G1 X11.364 Y68.379 E69.57733
G1 X11.364 Y69.139 E69.62821
G1 X44.139 Y36.364 E72.73312
G1 X44.898 Y36.364 E72.78401
G1 X11.364 Y69.898 E75.96087
G1 X11.364 Y70.658 E76.01175
G1 X45.658 Y36.364 E79.26058
G1 X46.418 Y36.364 E79.31146
G1 X11.364 Y71.418 E82.63224
G1 X11.364 Y72.177 E82.68312
G1 X47.177 Y36.364 E86.07585
G1 X47.937 Y36.364 E86.12673
G1 X11.364 Y72.937 E89.59142
G1 X11.364 Y73.696 E89.64231
G1 X48.696 Y36.364 E93.17895
G1 X49.456 Y36.364 E93.22983
G1 X11.364 Y74.456 E96.83844
G1 X11.364 Y75.215 E96.88932
G1 X50.215 Y36.364 E100.56988
G1 X50.975 Y36.364 E100.62076
G1 X11.364 Y75.975 E104.37328
G1 X11.364 Y76.734 E104.42416
G1 X51.734 Y36.364 E108.24864
G1 X52.494 Y36.364 E108.29952
G1 X11.364 Y77.494 E112.19595
G1 X11.364 Y78.254 E112.24683
G1 X53.254 Y36.364 E116.21522
G1 X54.013 Y36.364 E116.26610
G1 X11.364 Y79.013 E120.30644
G1 X11.364 Y79.773 E120.35732
G1 X54.773 Y36.364 E124.46962
G1 X55.532 Y36.364 E124.52050
G1 X11.364 Y80.532 E128.70476
G1 X11.364 Y81.292 E128.75564
G1 X56.292 Y36.364 E133.01185
G1 X57.051 Y36.364 E133.06273
G1 X11.364 Y82.051 E137.39090
G1 X11.364 Y82.811 E137.44178
G1 X57.811 Y36.364 E141.84191
G1 X58.570 Y36.364 E141.89279
G1 X11.364 Y83.570 E146.36487
G1 X11.364 Y83.636 E146.36924
G1 X12.059 Y83.636 E146.41575
G1 X59.330 Y36.364 E150.89401
G1 X60.090 Y36.364 E150.94489
G1 X12.818 Y83.636 E155.42315
G1 X13.578 Y83.636 E155.47403
G1 X60.849 Y36.364 E159.95229
G1 X61.609 Y36.364 E160.00317
G1 X14.337 Y83.636 E164.48142
G1 X15.097 Y83.636 E164.53230
G1 X62.368 Y36.364 E169.01056
G1 X63.128 Y36.364 E169.06144
G1 X15.857 Y83.636 E173.53970
G1 X16.616 Y83.636 E173.59058
G1 X63.887 Y36.364 E178.06884
G1 X64.647 Y36.364 E178.11972
G1 X17.376 Y83.636 E182.59798
G1 X18.135 Y83.636 E182.64886
G1 X65.406 Y36.364 E187.12711
G1 X66.166 Y36.364 E187.17800
G1 X18.895 Y83.636 E191.65625
G1 X19.654 Y83.636 E191.70713
G1 X66.925 Y36.364 E196.18539
G1 X67.685 Y36.364 E196.23627
G1 X20.414 Y83.636 E200.71453
G1 X21.173 Y83.636 E200.76541
G1 X68.445 Y36.364 E205.24367
G1 X69.204 Y36.364 E205.29455
G1 X21.933 Y83.636 E209.77281
G1 X22.692 Y83.636 E209.82369
G1 X69.964 Y36.364 E214.30194
G1 X70.723 Y36.364 E214.35282
G1 X23.452 Y83.636 E218.83108
G1 X24.212 Y83.636 E218.88196
G1 X71.483 Y36.364 E223.36022
G1 X72.242 Y36.364 E223.41110
G1 X24.971 Y83.636 E227.88936
G1 X25.731 Y83.636 E227.94024
G1 X73.002 Y36.364 E232.41850
G1 X73.761 Y36.364 E232.46938
G1 X26.490 Y83.636 E236.94763
G1 X27.250 Y83.636 E236.99852
G1 X74.521 Y36.364 E241.47677
G1 X75.281 Y36.364 E241.52765
G1 X28.009 Y83.636 E246.00591
G1 X28.769 Y83.636 E246.05679
G1 X76.040 Y36.364 E250.53505
G1 X76.800 Y36.364 E250.58593
G1 X29.528 Y83.636 E255.06419
G1 X30.288 Y83.636 E255.11507
G1 X77.559 Y36.364 E259.59333
G1 X78.319 Y36.364 E259.64421
G1 X31.048 Y83.636 E264.12246
G1 X31.807 Y83.636 E264.17335
G1 X79.078 Y36.364 E268.65160
G1 X79.838 Y36.364 E268.70248
G1 X32.567 Y83.636 E273.18074
G1 X33.326 Y83.636 E273.23162
G1 X80.597 Y36.364 E277.70988
G1 X81.357 Y36.364 E277.76076
G1 X34.086 Y83.636 E282.23902
G1 X34.845 Y83.636 E282.28990
G1 X82.117 Y36.364 E286.76816
G1 X82.876 Y36.364 E286.81904
G1 X35.605 Y83.636 E291.29729
G1 X36.364 Y83.636 E291.34817
G1 X83.636 Y36.364 E295.82643
G1 X84.395 Y36.364 E295.87731
G1 X37.124 Y83.636 E300.35557
G1 X37.884 Y83.636 E300.40645
G1 X85.155 Y36.364 E304.88471
G1 X85.914 Y36.364 E304.93559
G1 X38.643 Y83.636 E309.41385
G1 X39.403 Y83.636 E309.46473
G1 X86.674 Y36.364 E313.94298
G1 X87.433 Y36.364 E313.99387
G1 X40.162 Y83.636 E318.47212
G1 X40.922 Y83.636 E318.52300
G1 X88.193 Y36.364 E323.00126
G1 X88.952 Y36.364 E323.05214
G1 X41.681 Y83.636 E327.53040
G1 X42.441 Y83.636 E327.58128
G1 X89.712 Y36.364 E332.05954
G1 X90.472 Y36.364 E332.11042
G1 X43.200 Y83.636 E336.58868
G1 X43.960 Y83.636 E336.63956
G1 X91.231 Y36.364 E341.11781
G1 X91.991 Y36.364 E341.16869
G1 X44.719 Y83.636 E345.64695
G1 X45.479 Y83.636 E345.69783
G1 X92.750 Y36.364 E350.17609
G1 X93.510 Y36.364 E350.22697
G1 X46.239 Y83.636 E354.70523
G1 X46.998 Y83.636 E354.75611
G1 X94.269 Y36.364 E359.23437
G1 X95.029 Y36.364 E359.28525
G1 X47.758 Y83.636 E363.76350
G1 X48.517 Y83.636 E363.81439
G1 X95.788 Y36.364 E368.29264
G1 X96.548 Y36.364 E368.34352
G1 X49.277 Y83.636 E372.82178
G1 X50.036 Y83.636 E372.87266
G1 X97.308 Y36.364 E377.35092
G1 X98.067 Y36.364 E377.40180
G1 X50.796 Y83.636 E381.88006
G1 X51.555 Y83.636 E381.93094
G1 X98.827 Y36.364 E386.40920
G1 X99.586 Y36.364 E386.46008
G1 X52.315 Y83.636 E390.93833
G1 X53.075 Y83.636 E390.98922
G1 X100.346 Y36.364 E395.46747
G1 X101.105 Y36.364 E395.51835
G1 X53.834 Y83.636 E399.99661
G1 X54.594 Y83.636 E400.04749
G1 X101.865 Y36.364 E404.52575
G1 X102.624 Y36.364 E404.57663
G1 X55.353 Y83.636 E409.05489
G1 X56.113 Y83.636 E409.10577
G1 X103.384 Y36.364 E413.58402
G1 X104.144 Y36.364 E413.63491
G1 X56.872 Y83.636 E418.11316
G1 X57.632 Y83.636 E418.16404
G1 X104.903 Y36.364 E422.64230
G1 X105.663 Y36.364 E422.69318
G1 X58.391 Y83.636 E427.17144
G1 X59.151 Y83.636 E427.22232
G1 X106.422 Y36.364 E431.70058
G1 X107.182 Y36.364 E431.75146
G1 X59.911 Y83.636 E436.22972
G1 X60.670 Y83.636 E436.28060
G1 X107.941 Y36.364 E440.75885
G1 X108.636 Y36.364 E440.80536
G1 X108.636 Y36.430 E440.80973
G1 X61.430 Y83.636 E445.28181
G1 X62.189 Y83.636 E445.33269
G1 X108.636 Y37.189 E449.73281
G1 X108.636 Y37.949 E449.78369
G1 X62.949 Y83.636 E454.11186
G1 X63.708 Y83.636 E454.16274
G1 X108.636 Y38.708 E458.41895
G1 X108.636 Y39.468 E458.46983
G1 X64.468 Y83.636 E462.65408
G1 X65.227 Y83.636 E462.70496
G1 X108.636 Y40.227 E466.81725
G1 X108.636 Y40.987 E466.86813
G1 X65.987 Y83.636 E470.90847
G1 X66.746 Y83.636 E470.95935
G1 X108.636 Y41.747 E474.92773
G1 X108.636 Y42.506 E474.97862
G1 X67.506 Y83.636 E478.87504
G1 X68.266 Y83.636 E478.92592
G1 X108.636 Y43.266 E482.75039
G1 X108.636 Y44.025 E482.80127
G1 X69.025 Y83.636 E486.55378
G1 X69.785 Y83.636 E486.60467
G1 X108.636 Y44.785 E490.28522
G1 X108.636 Y45.544 E490.33610
G1 X70.544 Y83.636 E493.94470
G1 X71.304 Y83.636 E493.99558
G1 X108.636 Y46.304 E497.53223
G1 X108.636 Y47.063 E497.58311
G1 X72.063 Y83.636 E501.04779
G1 X72.823 Y83.636 E501.09867
G1 X108.636 Y47.823 E504.49140
G1 X108.636 Y48.582 E504.54228
G1 X73.582 Y83.636 E507.86306
G1 X74.342 Y83.636 E507.91394
G1 X108.636 Y49.342 E511.16276
G1 X108.636 Y50.102 E511.21364
G1 X75.102 Y83.636 E514.39050
G1 X75.861 Y83.636 E514.44138
G1 X108.636 Y50.861 E517.54628
G1 X108.636 Y51.621 E517.59716
G1 X76.621 Y83.636 E520.63011
G1 X77.380 Y83.636 E520.68099
G1 X108.636 Y52.380 E523.64198
G1 X108.636 Y53.140 E523.69287
G1 X78.140 Y83.636 E526.58190
G1 X78.899 Y83.636 E526.63278
G1 X108.636 Y53.899 E529.44986
G1 X108.636 Y54.659 E529.50074
G1 X79.659 Y83.636 E532.24586
G1 X80.418 Y83.636 E532.29674
G1 X108.636 Y55.418 E534.96991
G1 X108.636 Y56.178 E535.02079
G1 X81.178 Y83.636 E537.62200
G1 X81.938 Y83.636 E537.67288
G1 X108.636 Y56.938 E540.20213
G1 X108.636 Y57.697 E540.25302
G1 X82.697 Y83.636 E542.71031
G1 X83.457 Y83.636 E542.76119
G1 X108.636 Y58.457 E545.14653
G1 X108.636 Y59.216 E545.19741
G1 X84.216 Y83.636 E547.51080
G1 X84.976 Y83.636 E547.56168
G1 X108.636 Y59.976 E549.80311
G1 X108.636 Y60.735 E549.85399
G1 X85.735 Y83.636 E552.02346
G1 X86.495 Y83.636 E552.07434
G1 X108.636 Y61.495 E554.17185
G1 X108.636 Y62.254 E554.22273
G1 X87.254 Y83.636 E556.24829
G1 X88.014 Y83.636 E556.29917
G1 X108.636 Y63.014 E558.25277
G1 X108.636 Y63.773 E558.30365
G1 X88.773 Y83.636 E560.18530
G1 X89.533 Y83.636 E560.23618
G1 X108.636 Y64.533 E562.04587
G1 X108.636 Y65.293 E562.09675
G1 X90.293 Y83.636 E563.83448
G1 X91.052 Y83.636 E563.88536
G1 X108.636 Y66.052 E565.55114
G1 X108.636 Y66.812 E565.60202
G1 X91.812 Y83.636 E567.19584
G1 X92.571 Y83.636 E567.24672
G1 X108.636 Y67.571 E568.76858
G1 X108.636 Y68.331 E568.81946
G1 X93.331 Y83.636 E570.26937
G1 X94.090 Y83.636 E570.32025
G1 X108.636 Y69.090 E571.69820
G1 X108.636 Y69.850 E571.74908
G1 X94.850 Y83.636 E573.05507
G1 X95.609 Y83.636 E573.10595
G1 X108.636 Y70.609 E574.33999
G1 X108.636 Y71.369 E574.39087
G1 X96.369 Y83.636 E575.55295
G1 X97.129 Y83.636 E575.60383
G1 X108.636 Y72.129 E576.69396
G1 X108.636 Y72.888 E576.74484
G1 X97.888 Y83.636 E577.76301
G1 X98.648 Y83.636 E577.81389
G1 X108.636 Y73.648 E578.76010
G1 X108.636 Y74.407 E578.81098
G1 X99.407 Y83.636 E579.68523
G1 X100.167 Y83.636 E579.73611
G1 X108.636 Y75.167 E580.53841
G1 X108.636 Y75.926 E580.58929
G1 X100.926 Y83.636 E581.31964
G1 X101.686 Y83.636 E581.37052
G1 X108.636 Y76.686 E582.02890
G1 X108.636 Y77.445 E582.07978
G1 X102.445 Y83.636 E582.66621
G1 X103.205 Y83.636 E582.71709
G1 X108.636 Y78.205 E583.23156
G1 X108.636 Y78.965 E583.28245
G1 X103.965 Y83.636 E583.72496
G1 X104.724 Y83.636 E583.77584
G1 X108.636 Y79.724 E584.14640
G1 X108.636 Y80.484 E584.19728
G1 X105.484 Y83.636 E584.49589
G1 X106.243 Y83.636 E584.54677
G1 X108.636 Y81.243 E584.77341
G1 X108.636 Y82.003 E584.82429
G1 X107.003 Y83.636 E584.97899
G1 X107.762 Y83.636 E585.02987
G1 X108.636 Y82.762 E585.11260
G1 X108.636 Y83.522 E585.16348
G1 X108.522 Y83.636 E585.17426
G1 Z0.500 F30000.000
G1 X10.647 Y84.353 F30000.000
G1 F6000
G1 X10.647 Y35.647 E586.62040
G1 X109.353 Y35.647 E589.55110
G1 X109.353 Y84.353 E590.99724
G1 X10.707 Y84.353 E593.92616
G1 X10.270 Y84.730 F30000.000
G1 F2100
G1 X10.270 Y35.270 E595.55920
G1 X109.730 Y35.270 E598.84310
G1 X109.730 Y84.730 E600.47614
G1 X10.330 Y84.730 E603.75806
G1 X10.415 Y84.357 F30000.000
G1 X11.056 Y83.847 F30000.000
G1 F3600
G1 X11.153 Y83.944 E603.76445
G1 X11.944 Y83.944 E603.80125
G1 X11.056 Y83.056 E603.85970
G1 X11.056 Y82.265 E603.89650
G1 X12.735 Y83.944 E604.00700
G1 X13.526 Y83.944 E604.04381
G1 X11.056 Y81.474 E604.20635
G1 X11.056 Y80.682 E604.24316
G1 X14.318 Y83.944 E604.45777
