; generated by Slic3r 1.3.0 on 2021-08-20 at 12:01:46

; external perimeters extrusion width = 0.44mm (2.78mm^3/s)
; perimeters extrusion width = 0.40mm (7.14mm^3/s)
; infill extrusion width = 0.50mm (10.97mm^3/s)
; solid infill extrusion width = 0.60mm (6.68mm^3/s)
; top infill extrusion width = 0.40mm (2.14mm^3/s)

M107
M190 S80 ; set bed temperature and wait for it to be reached
M104 S210 ; set temperature
G28 ; home all axes
G1 Z5 F5000 ; lift nozzle

; Filament gcode

M109 S210 ; set temperature and wait for it to be reached
G21 ; set units to millimeters
G90 ; use absolute coordinates
M82 ; use absolute distances for extrusion
G92 E0
G1 Z0.300 F30000.000
G1 E-2.00000 F2400.00000
G92 E0
G1 X9.089 Y36.094 F30000.000
G1 E2.00000 F2400.00000
G1 F2100
G1 X10.050 Y35.979 E2.06463
G1 X109.950 Y35.979 E8.73850
G1 X111.700 Y36.374 E8.85832
G1 X113.110 Y37.482 E8.97814
G1 X113.906 Y39.089 E9.09796
G1 X114.021 Y40.050 E9.16260
G1 X114.021 Y79.950 E11.82813
G1 X113.626 Y81.700 E11.94795
G1 X112.518 Y83.110 E12.06778
G1 X110.911 Y83.906 E12.18760
G1 X109.950 Y84.021 E12.25223
G1 X10.050 Y84.021 E18.92609
G1 X8.300 Y83.626 E19.04592
G1 X6.890 Y82.518 E19.16574
G1 X6.094 Y80.911 E19.28556
G1 X5.979 Y79.950 E19.35020
G1 X5.979 Y40.050 E22.01573
G1 X6.374 Y38.300 E22.13555
G1 X7.482 Y36.890 E22.25538
G1 X9.036 Y36.120 E22.37119
G1 X10.050 Y36.514 F30000.000
G1 F2100
G1 X109.950 Y36.514 E29.04505
G1 X111.573 Y36.909 E29.15661
G1 X112.833 Y38.004 E29.26816
G1 X113.486 Y40.050 E29.41164
G1 X113.486 Y79.950 E32.07718
G1 X113.091 Y81.573 E32.18873
G1 X111.996 Y82.833 E32.30029
G1 X109.950 Y83.486 E32.44376
G1 X10.050 Y83.486 E39.11763
G1 X8.427 Y83.091 E39.22918
G1 X7.167 Y81.996 E39.34074
G1 X6.514 Y79.950 E39.48421
G1 X6.514 Y40.050 E42.14975
G1 X6.909 Y38.427 E42.26131
G1 X8.004 Y37.167 E42.37286
G1 X9.993 Y36.533 E42.51233
G1 X10.050 Y37.301 F30000.000
G1 F2100
G1 X111.089 Y37.301 E50.07360
G1 X112.699 Y38.911 E50.24405
G1 X112.699 Y81.089 E53.40043
G1 X111.089 Y82.699 E53.57088
G1 X8.911 Y82.699 E61.21738
G1 X7.301 Y81.089 E61.38783
G1 X7.301 Y38.911 E64.54421
G1 X8.911 Y37.301 E64.71466
G1 X9.990 Y37.301 E64.79539
G1 X10.050 Y37.901 F30000.000
G1 F2100
G1 X110.840 Y37.901 E72.33806
G1 X112.099 Y39.160 E72.47132
G1 X112.099 Y80.840 E75.59050
G1 X110.840 Y82.099 E75.72375
G1 X9.160 Y82.099 E83.33305
G1 X7.901 Y80.840 E83.46630
G1 X7.901 Y39.160 E86.58548
G1 X9.160 Y37.901 E86.71873
G1 X9.990 Y37.901 E86.78087
G1 X10.050 Y38.501 F30000.000
G1 F2100
G1 X110.592 Y38.501 E94.30495
G1 X111.499 Y39.408 E94.40100
G1 X111.499 Y80.592 E97.48298
G1 X110.592 Y81.499 E97.57904
G1 X9.408 Y81.499 E105.15114
G1 X8.501 Y80.592 E105.24720
G1 X8.501 Y39.408 E108.32918
G1 X9.408 Y38.501 E108.42523
G1 X9.990 Y38.501 E108.46877
G1 X10.050 Y39.101 F30000.000
G1 F2100
G1 X110.343 Y39.101 E115.97425
G1 X110.899 Y39.657 E116.03311
G1 X110.899 Y80.343 E119.07789
G1 X110.343 Y80.899 E119.13675
G1 X9.657 Y80.899 E126.67165
G1 X9.101 Y80.343 E126.73051
G1 X9.101 Y39.657 E129.77530
G1 X9.657 Y39.101 E129.83416
G1 X9.990 Y39.101 E129.85909
G1 X10.050 Y39.701 F30000.000
G1 F2100
G1 X110.095 Y39.701 E137.34597
G1 X110.299 Y39.905 E137.36763
G1 X110.299 Y80.095 E140.37522
G1 X110.095 Y80.299 E140.39688
G1 X9.905 Y80.299 E147.89459
G1 X9.701 Y80.095 E147.91625
G1 X9.701 Y39.905 E150.92384
G1 X9.905 Y39.701 E150.94550
G1 X9.990 Y39.701 E150.95184
G1 E148.95184 F2400.00000
G92 E0
G1 X10.350 Y79.650 F30000.000
G1 E2.00000 F2400.00000
G1 F2100
G1 X10.350 Y40.350 E4.62545
G1 X109.650 Y40.350 E11.25923
G1 X109.650 Y79.650 E13.88468
G1 X10.410 Y79.650 E20.51445
G1 X10.505 Y79.281 F30000.000
G1 X10.886 Y79.114 F30000.000
G1 F2100
G1 X10.886 Y40.886 E23.06834
G1 X109.114 Y40.886 E29.63055
G1 X109.114 Y79.114 E32.18444
G1 X10.946 Y79.114 E38.74265
G1 E36.74265 F2400.00000
G92 E0
G1 X11.365 Y41.478 F30000.000
G1 E2.00000 F2400.00000
G1 F2100
G1 X11.478 Y41.364 E2.01075
G1 X12.237 Y41.364 E2.06154
G1 X11.364 Y42.237 E2.14414
G1 X11.364 Y42.996 E2.19493
G1 X12.996 Y41.364 E2.34935
G1 X13.755 Y41.364 E2.40014
G1 X11.364 Y43.755 E2.62638
G1 X11.364 Y44.514 E2.67717
G1 X14.514 Y41.364 E2.97524
G1 X15.273 Y41.364 E3.02602
G1 X11.364 Y45.273 E3.39591
G1 X11.364 Y46.031 E3.44670
G1 X16.031 Y41.364 E3.88841
G1 X16.790 Y41.364 E3.93920
G1 X11.364 Y46.790 E4.45273
G1 X11.364 Y47.549 E4.50351
G1 X17.549 Y41.364 E5.08887
G1 X18.308 Y41.364 E5.13965
G1 X11.364 Y48.308 E5.79683
G1 X11.364 Y49.067 E5.84762
G1 X19.067 Y41.364 E6.57662
G1 X19.826 Y41.364 E6.62740
G1 X11.364 Y49.826 E7.42822
G1 X11.364 Y50.584 E7.47901
G1 X20.584 Y41.364 E8.35165
G1 X21.343 Y41.364 E8.40243
G1 X11.364 Y51.343 E9.34690
G1 X11.364 Y52.102 E9.39768
G1 X22.102 Y41.364 E10.41397
G1 X22.861 Y41.364 E10.46475
G1 X11.364 Y52.861 E11.55286
G1 X11.364 Y53.620 E11.60365
G1 X23.620 Y41.364 E12.76358
G1 X24.379 Y41.364 E12.81436
G1 X11.364 Y54.379 E14.04611
G1 X11.364 Y55.137 E14.09690
G1 X25.137 Y41.364 E15.40047
G1 X25.896 Y41.364 E15.45125
G1 X11.364 Y55.896 E16.82665
G1 X11.364 Y56.655 E16.87743
G1 X26.655 Y41.364 E18.32465
G1 X27.414 Y41.364 E18.37544
G1 X11.364 Y57.414 E19.89447
G1 X11.364 Y58.173 E19.94526
G1 X28.173 Y41.364 E21.53612
G1 X28.932 Y41.364 E21.58690
G1 X11.364 Y58.932 E23.24958
G1 X11.364 Y59.690 E23.30037
G1 X29.690 Y41.364 E25.03487
G1 X30.449 Y41.364 E25.08566
G1 X11.364 Y60.449 E26.89198
G1 X11.364 Y61.208 E26.94277
G1 X31.208 Y41.364 E28.82091
G1 X31.967 Y41.364 E28.87170
G1 X11.364 Y61.967 E30.82167
G1 X11.364 Y62.726 E30.87245
G1 X32.726 Y41.364 E32.89424
G1 X33.485 Y41.364 E32.94503
G1 X11.364 Y63.485 E35.03864
G1 X11.364 Y64.244 E35.08942
G1 X34.244 Y41.364 E37.25486
G1 X35.002 Y41.364 E37.30564
G1 X11.364 Y65.002 E39.54290
G1 X11.364 Y65.761 E39.59368
G1 X35.761 Y41.364 E41.90276
G1 X36.520 Y41.364 E41.95354
G1 X11.364 Y66.520 E44.33444
G1 X11.364 Y67.279 E44.38523
G1 X37.279 Y41.364 E46.83795
G1 X38.038 Y41.364 E46.88873
G1 X11.364 Y68.038 E49.41327
G1 X11.364 Y68.797 E49.46406
G1 X38.797 Y41.364 E52.06042
G1 X39.555 Y41.364 E52.11121
G1 X11.364 Y69.555 E54.77939
G1 X11.364 Y70.314 E54.83018
G1 X40.314 Y41.364 E57.57019
G1 X41.073 Y41.364 E57.62097
G1 X11.364 Y71.073 E60.43280
G1 X11.364 Y71.832 E60.48359
G1 X41.832 Y41.364 E63.36724
G1 X42.591 Y41.364 E63.41802
G1 X11.364 Y72.591 E66.37349
G1 X11.364 Y73.350 E66.42428
G1 X43.350 Y41.364 E69.45157
G1 X44.108 Y41.364 E69.50236
G1 X11.364 Y74.108 E72.60147
G1 X11.364 Y74.867 E72.65226
G1 X44.867 Y41.364 E75.82320
G1 X45.626 Y41.364 E75.87398
G1 X11.364 Y75.626 E79.11674
G1 X11.364 Y76.385 E79.16753
G1 X46.385 Y41.364 E82.48211
G1 X47.144 Y41.364 E82.53289
G1 X11.364 Y77.144 E85.91929
G1 X11.364 Y77.903 E85.97008
G1 X47.903 Y41.364 E89.42830
G1 X48.661 Y41.364 E89.47909
G1 X11.390 Y78.636 E93.00669
G1 X12.149 Y78.636 E93.05747
G1 X49.420 Y41.364 E96.58507
G1 X50.179 Y41.364 E96.63585
G1 X12.908 Y78.636 E100.16345
G1 X13.667 Y78.636 E100.21424
G1 X50.938 Y41.364 E103.74183
G1 X51.697 Y41.364 E103.79262
G1 X14.426 Y78.636 E107.32022
G1 X15.184 Y78.636 E107.37100
G1 X52.456 Y41.364 E110.89860
G1 X53.215 Y41.364 E110.94938
G1 X15.943 Y78.636 E114.47698
G1 X16.702 Y78.636 E114.52777
G1 X53.973 Y41.364 E118.05536
G1 X54.732 Y41.364 E118.10615
G1 X17.461 Y78.636 E121.63375
G1 X18.220 Y78.636 E121.68453
G1 X55.491 Y41.364 E125.21213
G1 X56.250 Y41.364 E125.26291
G1 X18.979 Y78.636 E128.79051
G1 X19.738 Y78.636 E128.84130
G1 X57.009 Y41.364 E132.36889
G1 X57.768 Y41.364 E132.41968
G1 X20.496 Y78.636 E135.94727
G1 X21.255 Y78.636 E135.99806
G1 X58.526 Y41.364 E139.52566
G1 X59.285 Y41.364 E139.57644
G1 X22.014 Y78.636 E143.10404
G1 X22.773 Y78.636 E143.15483
G1 X60.044 Y41.364 E146.68242
G1 X60.803 Y41.364 E146.73321
G1 X23.532 Y78.636 E150.26080
G1 X24.291 Y78.636 E150.31159
G1 X61.562 Y41.364 E153.83919
G1 X62.321 Y41.364 E153.88997
G1 X25.049 Y78.636 E157.41757
G1 X25.808 Y78.636 E157.46836
G1 X63.079 Y41.364 E160.99595
G1 X63.838 Y41.364 E161.04674
G1 X26.567 Y78.636 E164.57434
G1 X27.326 Y78.636 E164.62512
G1 X64.597 Y41.364 E168.15272
G1 X65.356 Y41.364 E168.20350
G1 X28.085 Y78.636 E171.73110
G1 X28.844 Y78.636 E171.78189
G1 X66.115 Y41.364 E175.30948
G1 X66.874 Y41.364 E175.36027
G1 X29.602 Y78.636 E178.88787
G1 X30.361 Y78.636 E178.93865
G1 X67.632 Y41.364 E182.46625
G1 X68.391 Y41.364 E182.51703
G1 X31.120 Y78.636 E186.04463
G1 X31.879 Y78.636 E186.09542
G1 X69.150 Y41.364 E189.62301
G1 X69.909 Y41.364 E189.67380
G1 X32.638 Y78.636 E193.20140
G1 X33.397 Y78.636 E193.25218
G1 X70.668 Y41.364 E196.77978
G1 X71.427 Y41.364 E196.83056
G1 X34.155 Y78.636 E200.35816
G1 X34.914 Y78.636 E200.40895
G1 X72.186 Y41.364 E203.93654
G1 X72.944 Y41.364 E203.98733
G1 X35.673 Y78.636 E207.51493
G1 X36.432 Y78.636 E207.56571
G1 X73.703 Y41.364 E211.09331
G1 X74.462 Y41.364 E211.14410
G1 X37.191 Y78.636 E214.67169
G1 X37.950 Y78.636 E214.72248
G1 X75.221 Y41.364 E218.25007
G1 X75.980 Y41.364 E218.30086
G1 X38.709 Y78.636 E221.82846
G1 X39.467 Y78.636 E221.87924
G1 X76.739 Y41.364 E225.40684
G1 X77.497 Y41.364 E225.45763
G1 X40.226 Y78.636 E228.98522
G1 X40.985 Y78.636 E229.03601
G1 X78.256 Y41.364 E232.56361
G1 X79.015 Y41.364 E232.61439
G1 X41.744 Y78.636 E236.14199
G1 X42.503 Y78.636 E236.19277
G1 X79.774 Y41.364 E239.72037
G1 X80.533 Y41.364 E239.77116
G1 X43.262 Y78.636 E243.29875
G1 X44.020 Y78.636 E243.34954
G1 X81.292 Y41.364 E246.87714
G1 X82.050 Y41.364 E246.92792
G1 X44.779 Y78.636 E250.45552
G1 X45.538 Y78.636 E250.50630
G1 X82.809 Y41.364 E254.03390
G1 X83.568 Y41.364 E254.08469
G1 X46.297 Y78.636 E257.61228
G1 X47.056 Y78.636 E257.66307
G1 X84.327 Y41.364 E261.19067
G1 X85.086 Y41.364 E261.24145
G1 X47.815 Y78.636 E264.76905
G1 X48.573 Y78.636 E264.81983
G1 X85.845 Y41.364 E268.34743
G1 X86.604 Y41.364 E268.39822
G1 X49.332 Y78.636 E271.92581
G1 X50.091 Y78.636 E271.97660
G1 X87.362 Y41.364 E275.50420
G1 X88.121 Y41.364 E275.55498
G1 X50.850 Y78.636 E279.08258
G1 X51.609 Y78.636 E279.13336
G1 X88.880 Y41.364 E282.66096
G1 X89.639 Y41.364 E282.71175
G1 X52.368 Y78.636 E286.23934
G1 X53.126 Y78.636 E286.29013
G1 X90.398 Y41.364 E289.81773
G1 X91.157 Y41.364 E289.86851
G1 X53.885 Y78.636 E293.39611
G1 X54.644 Y78.636 E293.44689
G1 X91.915 Y41.364 E296.97449
G1 X92.674 Y41.364 E297.02528
G1 X55.403 Y78.636 E300.55287
G1 X56.162 Y78.636 E300.60366
G1 X93.433 Y41.364 E304.13126
G1 X94.192 Y41.364 E304.18204
G1 X56.921 Y78.636 E307.70964
G1 X57.680 Y78.636 E307.76043
G1 X94.951 Y41.364 E311.28802
G1 X95.710 Y41.364 E311.33881
G1 X58.438 Y78.636 E314.86641
G1 X59.197 Y78.636 E314.91719
G1 X96.468 Y41.364 E318.44479
G1 X97.227 Y41.364 E318.49557
G1 X59.956 Y78.636 E322.02317
G1 X60.715 Y78.636 E322.07396
G1 X97.986 Y41.364 E325.60155
G1 X98.745 Y41.364 E325.65234
G1 X61.474 Y78.636 E329.17994
G1 X62.233 Y78.636 E329.23072
G1 X99.504 Y41.364 E332.75832
G1 X100.263 Y41.364 E332.80910
G1 X62.991 Y78.636 E336.33670
G1 X63.750 Y78.636 E336.38749
G1 X101.021 Y41.364 E339.91508
G1 X101.780 Y41.364 E339.96587
G1 X64.509 Y78.636 E343.49347
G1 X65.268 Y78.636 E343.54425
G1 X102.539 Y41.364 E347.07185
G1 X103.298 Y41.364 E347.12264
G1 X66.027 Y78.636 E350.65023
G1 X66.786 Y78.636 E350.70102
G1 X104.057 Y41.364 E354.22861
G1 X104.816 Y41.364 E354.27940
G1 X67.544 Y78.636 E357.80700
G1 X68.303 Y78.636 E357.85778
G1 X105.575 Y41.364 E361.38538
G1 X106.333 Y41.364 E361.43617
G1 X69.062 Y78.636 E364.96376
G1 X69.821 Y78.636 E365.01455
G1 X107.092 Y41.364 E368.54215
G1 X107.851 Y41.364 E368.59293
G1 X70.580 Y78.636 E372.12053
G1 X71.339 Y78.636 E372.17131
G1 X108.610 Y41.364 E375.69891
G1 X108.636 Y41.364 E375.70063
G1 X108.636 Y42.098 E375.74970
G1 X72.097 Y78.636 E379.20791
G1 X72.856 Y78.636 E379.25869
G1 X108.636 Y42.856 E382.64508
G1 X108.636 Y43.615 E382.69587
G1 X73.615 Y78.636 E386.01043
G1 X74.374 Y78.636 E386.06122
G1 X108.636 Y44.374 E389.30396
G1 X108.636 Y45.133 E389.35475
G1 X75.133 Y78.636 E392.52567
G1 X75.892 Y78.636 E392.57646
G1 X108.636 Y45.892 E395.67556
G1 X108.636 Y46.651 E395.72635
G1 X76.651 Y78.636 E398.75363
G1 X77.409 Y78.636 E398.80441
G1 X108.636 Y47.409 E401.75987
G1 X108.636 Y48.168 E401.81066
G1 X78.168 Y78.636 E404.69429
G1 X78.927 Y78.636 E404.74508
G1 X108.636 Y48.927 E407.55689
G1 X108.636 Y49.686 E407.60768
G1 X79.686 Y78.636 E410.34767
G1 X80.445 Y78.636 E410.39846
G1 X108.636 Y50.445 E413.06663
G1 X108.636 Y51.204 E413.11741
G1 X81.204 Y78.636 E415.71376
G1 X81.962 Y78.636 E415.76455
G1 X108.636 Y51.962 E418.28908
G1 X108.636 Y52.721 E418.33986
G1 X82.721 Y78.636 E420.79257
G1 X83.480 Y78.636 E420.84335
G1 X108.636 Y53.480 E423.22424
G1 X108.636 Y54.239 E423.27502
G1 X84.239 Y78.636 E425.58409
G1 X84.998 Y78.636 E425.63487
G1 X108.636 Y54.998 E427.87211
G1 X108.636 Y55.757 E427.92290
G1 X85.757 Y78.636 E430.08832
G1 X86.515 Y78.636 E430.13910
G1 X108.636 Y56.515 E432.23270
G1 X108.636 Y57.274 E432.28349
G1 X87.274 Y78.636 E434.30526
G1 X88.033 Y78.636 E434.35605
G1 X108.636 Y58.033 E436.30600
G1 X108.636 Y58.792 E436.35679
G1 X88.792 Y78.636 E438.23492
G1 X89.551 Y78.636 E438.28571
G1 X108.636 Y59.551 E440.09202
G1 X108.636 Y60.310 E440.14280
G1 X90.310 Y78.636 E441.87729
G1 X91.069 Y78.636 E441.92808
G1 X108.636 Y61.069 E443.59074
G1 X108.636 Y61.827 E443.64153
G1 X91.827 Y78.636 E445.23237
G1 X92.586 Y78.636 E445.28316
G1 X108.636 Y62.586 E446.80218
G1 X108.636 Y63.345 E446.85297
G1 X93.345 Y78.636 E448.30017
G1 X94.104 Y78.636 E448.35096
G1 X108.636 Y64.104 E449.72634
G1 X108.636 Y64.863 E449.77712
G1 X94.863 Y78.636 E451.08068
G1 X95.622 Y78.636 E451.13147
G1 X108.636 Y65.622 E452.36320
G1 X108.636 Y66.380 E452.41399
G1 X96.380 Y78.636 E453.57390
G1 X97.139 Y78.636 E453.62469
G1 X108.636 Y67.139 E454.71278
G1 X108.636 Y67.898 E454.76357
G1 X97.898 Y78.636 E455.77984
G1 X98.657 Y78.636 E455.83063
G1 X108.636 Y68.657 E456.77508
G1 X108.636 Y69.416 E456.82586
G1 X99.416 Y78.636 E457.69849
G1 X100.175 Y78.636 E457.74928
G1 X108.636 Y70.175 E458.55008
G1 X108.636 Y70.933 E458.60087
G1 X100.933 Y78.636 E459.32985
G1 X101.692 Y78.636 E459.38064
G1 X108.636 Y71.692 E460.03780
G1 X108.636 Y72.451 E460.08859
G1 X102.451 Y78.636 E460.67393
G1 X103.210 Y78.636 E460.72471
G1 X108.636 Y73.210 E461.23823
G1 X108.636 Y73.969 E461.28902
G1 X103.969 Y78.636 E461.73072
G1 X104.728 Y78.636 E461.78150
G1 X108.636 Y74.728 E462.15138
G1 X108.636 Y75.486 E462.20216
G1 X105.486 Y78.636 E462.50022
G1 X106.245 Y78.636 E462.55100
G1 X108.636 Y76.245 E462.77724
G1 X108.636 Y77.004 E462.82802
G1 X107.004 Y78.636 E462.98243
G1 X107.763 Y78.636 E463.03322
G1 X108.636 Y77.763 E463.11581
G1 X108.636 Y78.522 E463.16659
G1 X108.522 Y78.636 E463.17736
G1 Z0.500 F30000.000
G1 X10.647 Y79.353 F30000.000
G1 F6000
G1 X10.647 Y40.647 E464.32659
G1 X109.353 Y40.647 E467.25729
G1 X109.353 Y79.353 E468.40652
G1 X10.707 Y79.353 E471.33544
G1 X10.270 Y79.730 F30000.000
G1 F2100
G1 X10.270 Y40.270 E472.63831
G1 X109.730 Y40.270 E475.92221
G1 X109.730 Y79.730 E477.22507
G1 X10.330 Y79.730 E480.50699
G1 X10.425 Y79.361 F30000.000
G1 X11.056 Y78.847 F30000.000
G1 F3600
G1 X11.153 Y78.944 E480.51336
G1 X11.941 Y78.944 E480.54989
G1 X11.056 Y78.059 E480.60792
G1 X11.056 Y77.271 E480.64446
G1 X12.729 Y78.944 E480.75416
G1 X13.518 Y78.944 E480.79070
G1 X11.056 Y76.482 E480.95206
G1 X11.056 Y75.694 E480.98860
G1 X14.306 Y78.944 E481.20164
G1 X15.094 Y78.944 E481.23817
G1 X11.056 Y74.906 E481.50287
G1 X11.056 Y74.118 E481.53941
G1 X15.882 Y78.944 E481.85578
G1 X16.671 Y78.944 E481.89232
G1 X11.056 Y73.329 E482.26036
G1 X11.056 Y72.541 E482.29689
G1 X17.459 Y78.944 E482.71660
G1 X18.247 Y78.944 E482.75313
G1 X11.056 Y71.753 E483.22451
G1 X11.056 Y70.964 E483.26104
G1 X19.036 Y78.944 E483.78408
G1 X19.824 Y78.944 E483.82062
G1 X11.056 Y70.176 E484.39533
G1 X11.056 Y69.388 E484.43186
G1 X20.612 Y78.944 E485.05824
G1 X21.400 Y78.944 E485.09478
G1 X11.056 Y68.600 E485.77282
G1 X11.056 Y67.811 E485.80936
G1 X22.189 Y78.944 E486.53907
G1 X22.977 Y78.944 E486.57560
G1 X11.056 Y67.023 E487.35698
G1 X11.056 Y66.235 E487.39352
G1 X23.765 Y78.944 E488.22657
G1 X24.553 Y78.944 E488.26310
G1 X11.056 Y65.447 E489.14782
G1 X11.056 Y64.658 E489.18435
