; generated by Slic3r 1.3.0 on 2023-03-22 at 12:58:08

; external perimeters extrusion width = 0.44mm (2.78mm^3/s)
; perimeters extrusion width = 0.40mm (7.14mm^3/s)
; infill extrusion width = 0.50mm (10.97mm^3/s)
; solid infill extrusion width = 0.60mm (6.68mm^3/s)
; top infill extrusion width = 0.40mm (2.14mm^3/s)

M107
M190 S80 ; set bed temperature and wait for it to be reached
M104 S210 ; set temperature
G28 ; home all axes
G1 Z5 F5000 ; lift nozzle

; Filament gcode

M109 S210 ; set temperature and wait for it to be reached
G21 ; set units to millimeters
G90 ; use absolute coordinates
M82 ; use absolute distances for extrusion
G92 E0
G1 Z0.300 F30000.000
G1 E-2.00000 F2400.00000
G92 E0
G1 X36.374 Y10.800 F30000.000
G1 E2.00000 F2400.00000
G1 F2100
G1 X37.482 Y9.390 E2.11982
G1 X39.089 Y8.594 E2.23964
G1 X40.050 Y8.479 E2.30428
G1 X109.950 Y8.479 E6.97398
G1 X111.700 Y8.874 E7.09380
G1 X113.110 Y9.982 E7.21362
G1 X113.906 Y11.589 E7.33344
G1 X114.021 Y12.550 E7.39808
G1 X114.021 Y137.450 E15.74207
G1 X113.626 Y139.200 E15.86190
G1 X112.518 Y140.610 E15.98172
G1 X110.911 Y141.406 E16.10154
G1 X109.950 Y141.521 E16.16617
G1 X40.050 Y141.521 E20.83587
G1 X38.300 Y141.126 E20.95569
G1 X36.890 Y140.018 E21.07552
G1 X36.094 Y138.411 E21.19534
G1 X35.979 Y137.450 E21.25997
G1 X35.979 Y12.550 E29.60397
G1 X36.361 Y10.859 E29.71978
G1 X36.909 Y10.927 F30000.000
G1 F2100
G1 X38.004 Y9.667 E29.83134
G1 X40.050 Y9.014 E29.97482
G1 X109.950 Y9.014 E34.64451
G1 X111.573 Y9.409 E34.75607
G1 X112.833 Y10.504 E34.86763
G1 X113.486 Y12.550 E35.01110
G1 X113.486 Y137.450 E43.35510
G1 X113.091 Y139.073 E43.46666
G1 X111.996 Y140.333 E43.57821
G1 X109.950 Y140.986 E43.72169
G1 X40.050 Y140.986 E48.39139
G1 X38.427 Y140.591 E48.50294
G1 X37.167 Y139.496 E48.61450
G1 X36.514 Y137.450 E48.75798
G1 X36.514 Y12.550 E57.10197
G1 X36.895 Y10.986 E57.20952
G1 E55.20952 F2400.00000
G92 E0
G1 X84.886 Y16.886 F30000.000
G1 E2.00000 F2400.00000
G1 F2100
G1 X84.886 Y13.386 E2.23382
G1 X109.114 Y13.386 E3.85243
G1 X109.114 Y136.614 E12.08478
G1 X40.886 Y136.614 E16.64283
G1 X40.886 Y13.386 E24.87518
G1 X65.114 Y13.386 E26.49379
G1 X65.114 Y16.886 E26.72761
G1 X84.826 Y16.886 E28.04443
G1 X84.350 Y16.350 F30000.000
G1 F2100
G1 X84.350 Y12.850 E28.27825
G1 X109.650 Y12.850 E29.96842
G1 X109.650 Y137.150 E38.27233
G1 X40.350 Y137.150 E42.90195
G1 X40.350 Y12.850 E51.20586
G1 X65.650 Y12.850 E52.89604
G1 X65.650 Y16.350 E53.12986
G1 X84.290 Y16.350 E54.37511
G1 X84.749 Y16.375 F30000.000
G1 E52.37511 F2400.00000
G92 E0
G1 X85.462 Y13.978 F30000.000
G1 E2.00000 F2400.00000
G1 F2100
G1 X85.364 Y13.978 E2.00656
G1 X85.364 Y14.076 E2.01311
G1 X85.576 Y13.864 E2.03316
G1 X86.336 Y13.864 E2.08414
G1 X85.364 Y14.836 E2.17629
G1 X85.364 Y15.596 E2.22727
G1 X87.096 Y13.864 E2.39151
G1 X87.857 Y13.864 E2.44249
G1 X85.364 Y16.357 E2.67884
G1 X85.364 Y17.117 E2.72982
G1 X88.617 Y13.864 E3.03826
G1 X89.377 Y13.864 E3.08924
G1 X41.364 Y61.877 E7.64224
G1 X41.364 Y62.638 E7.69322
G1 X90.138 Y13.864 E12.31832
G1 X90.898 Y13.864 E12.36931
G1 X41.364 Y63.398 E17.06650
G1 X41.364 Y64.158 E17.11749
G1 X91.658 Y13.864 E21.88678
G1 X92.419 Y13.864 E21.93776
G1 X41.364 Y64.918 E26.77916
G1 X41.364 Y65.679 E26.83014
G1 X93.179 Y13.864 E31.74364
G1 X93.939 Y13.864 E31.79462
G1 X41.364 Y66.439 E36.78021
G1 X41.364 Y67.199 E36.83119
G1 X94.699 Y13.864 E41.88888
G1 X95.460 Y13.864 E41.93986
G1 X41.364 Y67.960 E47.06965
G1 X41.364 Y68.720 E47.12063
G1 X96.220 Y13.864 E52.32252
G1 X96.980 Y13.864 E52.37350
G1 X41.364 Y69.480 E57.64749
G1 X41.364 Y70.241 E57.69847
G1 X97.741 Y13.864 E63.04455
G1 X98.501 Y13.864 E63.09553
G1 X41.364 Y71.001 E68.51371
G1 X41.364 Y71.761 E68.56470
G1 X99.261 Y13.864 E74.05498
G1 X100.022 Y13.864 E74.10596
G1 X41.364 Y72.521 E79.66834
G1 X41.364 Y73.282 E79.71932
G1 X100.782 Y13.864 E85.35379
G1 X101.542 Y13.864 E85.40477
G1 X41.364 Y74.042 E91.11135
G1 X41.364 Y74.802 E91.16233
G1 X102.302 Y13.864 E96.94100
G1 X103.063 Y13.864 E96.99198
G1 X41.364 Y75.563 E102.84276
G1 X41.364 Y76.323 E102.89374
G1 X103.823 Y13.864 E108.81661
G1 X104.583 Y13.864 E108.86759
G1 X41.364 Y77.083 E114.86256
G1 X41.364 Y77.844 E114.91354
G1 X105.344 Y13.864 E120.98060
G1 X106.104 Y13.864 E121.03158
G1 X41.364 Y78.604 E127.17075
G1 X41.364 Y79.364 E127.22173
G1 X106.864 Y13.864 E133.43299
G1 X107.625 Y13.864 E133.48397
G1 X41.364 Y80.124 E139.76734
G1 X41.364 Y80.885 E139.81832
G1 X108.385 Y13.864 E146.17378
G1 X108.636 Y13.864 E146.19059
G1 X108.636 Y14.374 E146.22476
G1 X41.364 Y81.645 E152.60400
G1 X41.364 Y82.405 E152.65498
G1 X108.636 Y15.134 E159.03422
G1 X108.636 Y15.895 E159.08520
G1 X41.364 Y83.166 E165.46444
G1 X41.364 Y83.926 E165.51542
G1 X108.636 Y16.655 E171.89467
G1 X108.636 Y17.415 E171.94565
G1 X41.364 Y84.686 E178.32489
G1 X41.364 Y85.447 E178.37587
G1 X108.636 Y18.175 E184.75511
G1 X108.636 Y18.936 E184.80609
G1 X41.364 Y86.207 E191.18533
G1 X41.364 Y86.967 E191.23631
G1 X108.636 Y19.696 E197.61555
G1 X108.636 Y20.456 E197.66654
G1 X41.364 Y87.727 E204.04578
G1 X41.364 Y88.488 E204.09676
G1 X108.636 Y21.217 E210.47600
G1 X108.636 Y21.977 E210.52698
G1 X41.364 Y89.248 E216.90622
G1 X41.364 Y90.008 E216.95720
G1 X108.636 Y22.737 E223.33644
G1 X108.636 Y23.498 E223.38743
G1 X41.364 Y90.769 E229.76667
G1 X41.364 Y91.529 E229.81765
G1 X108.636 Y24.258 E236.19689
G1 X108.636 Y25.018 E236.24787
G1 X41.364 Y92.289 E242.62711
G1 X41.364 Y93.050 E242.67809
G1 X108.636 Y25.778 E249.05733
G1 X108.636 Y26.539 E249.10832
G1 X41.364 Y93.810 E255.48756
G1 X41.364 Y94.570 E255.53854
G1 X108.636 Y27.299 E261.91778
G1 X108.636 Y28.059 E261.96876
G1 X41.364 Y95.330 E268.34800
G1 X41.364 Y96.091 E268.39898
G1 X108.636 Y28.820 E274.77822
G1 X108.636 Y29.580 E274.82921
G1 X41.364 Y96.851 E281.20845
G1 X41.364 Y97.611 E281.25943
G1 X108.636 Y30.340 E287.63867
G1 X108.636 Y31.101 E287.68965
G1 X41.364 Y98.372 E294.06889
G1 X41.364 Y99.132 E294.11987
G1 X108.636 Y31.861 E300.49911
G1 X108.636 Y32.621 E300.55010
G1 X41.364 Y99.892 E306.92934
G1 X41.364 Y100.653 E306.98032
G1 X108.636 Y33.381 E313.35956
G1 X108.636 Y34.142 E313.41054
G1 X41.364 Y101.413 E319.78978
G1 X41.364 Y102.173 E319.84076
G1 X108.636 Y34.902 E326.22000
G1 X108.636 Y35.662 E326.27098
G1 X41.364 Y102.933 E332.65023
G1 X41.364 Y103.694 E332.70121
G1 X108.636 Y36.423 E339.08045
G1 X108.636 Y37.183 E339.13143
G1 X41.364 Y104.454 E345.51067
G1 X41.364 Y105.214 E345.56165
G1 X108.636 Y37.943 E351.94089
G1 X108.636 Y38.703 E351.99187
G1 X41.364 Y105.975 E358.37111
G1 X41.364 Y106.735 E358.42210
G1 X108.636 Y39.464 E364.80134
G1 X108.636 Y40.224 E364.85232
G1 X41.364 Y107.495 E371.23156
G1 X41.364 Y108.256 E371.28254
G1 X108.636 Y40.984 E377.66178
G1 X108.636 Y41.745 E377.71276
G1 X41.364 Y109.016 E384.09200
G1 X41.364 Y109.776 E384.14298
G1 X108.636 Y42.505 E390.52223
G1 X108.636 Y43.265 E390.57321
G1 X41.364 Y110.536 E396.95245
G1 X41.364 Y111.297 E397.00343
G1 X108.636 Y44.026 E403.38267
G1 X108.636 Y44.786 E403.43365
G1 X41.364 Y112.057 E409.81289
G1 X41.364 Y112.817 E409.86387
G1 X108.636 Y45.546 E416.24311
G1 X108.636 Y46.306 E416.29410
G1 X41.364 Y113.578 E422.67334
G1 X41.364 Y114.338 E422.72432
G1 X108.636 Y47.067 E429.10356
G1 X108.636 Y47.827 E429.15454
G1 X41.364 Y115.098 E435.53378
G1 X41.364 Y115.859 E435.58476
G1 X108.636 Y48.587 E441.96400
G1 X108.636 Y49.348 E442.01498
G1 X41.364 Y116.619 E448.39423
G1 X41.364 Y117.379 E448.44521
G1 X108.636 Y50.108 E454.82445
G1 X108.636 Y50.868 E454.87543
G1 X41.364 Y118.139 E461.25467
G1 X41.364 Y118.900 E461.30565
G1 X108.636 Y51.629 E467.68489
G1 X108.636 Y52.389 E467.73587
G1 X41.364 Y119.660 E474.11511
G1 X41.364 Y120.420 E474.16610
G1 X108.636 Y53.149 E480.54534
G1 X108.636 Y53.909 E480.59632
G1 X41.364 Y121.181 E486.97556
G1 X41.364 Y121.941 E487.02654
G1 X108.636 Y54.670 E493.40578
G1 X108.636 Y55.430 E493.45676
G1 X41.364 Y122.701 E499.83600
G1 X41.364 Y123.462 E499.88698
G1 X108.636 Y56.190 E506.26623
G1 X108.636 Y56.951 E506.31721
G1 X41.364 Y124.222 E512.69645
G1 X41.364 Y124.982 E512.74743
G1 X108.636 Y57.711 E519.12667
G1 X108.636 Y58.471 E519.17765
G1 X41.364 Y125.742 E525.55689
G1 X41.364 Y126.503 E525.60787
G1 X108.636 Y59.232 E531.98711
G1 X108.636 Y59.992 E532.03810
G1 X41.364 Y127.263 E538.41734
G1 X41.364 Y128.023 E538.46832
G1 X108.636 Y60.752 E544.84756
G1 X108.636 Y61.512 E544.89854
G1 X41.364 Y128.784 E551.27778
G1 X41.364 Y129.544 E551.32876
G1 X108.636 Y62.273 E557.70800
G1 X108.636 Y63.033 E557.75899
G1 X41.364 Y130.304 E564.13823
G1 X41.364 Y131.065 E564.18921
G1 X108.636 Y63.793 E570.56845
G1 X108.636 Y64.554 E570.61943
G1 X41.364 Y131.825 E576.99867
G1 X41.364 Y132.585 E577.04965
G1 X108.636 Y65.314 E583.42889
G1 X108.636 Y66.074 E583.47987
G1 X41.364 Y133.345 E589.85912
G1 X41.364 Y134.106 E589.91010
G1 X108.636 Y66.835 E596.28934
G1 X108.636 Y67.595 E596.34032
G1 X41.364 Y134.866 E602.71956
G1 X41.364 Y135.626 E602.77054
G1 X108.636 Y68.355 E609.14978
G1 X108.636 Y69.115 E609.20076
G1 X41.615 Y136.136 E615.55620
G1 X42.376 Y136.136 E615.60718
G1 X108.636 Y69.876 E621.89052
G1 X108.636 Y70.636 E621.94150
G1 X43.136 Y136.136 E628.15273
G1 X43.896 Y136.136 E628.20372
G1 X108.636 Y71.396 E634.34286
G1 X108.636 Y72.157 E634.39384
G1 X44.657 Y136.136 E640.46088
G1 X45.417 Y136.136 E640.51186
G1 X108.636 Y72.917 E646.50680
G1 X108.636 Y73.677 E646.55778
G1 X46.177 Y136.136 E652.48063
G1 X46.938 Y136.136 E652.53161
G1 X108.636 Y74.438 E658.38236
G1 X108.636 Y75.198 E658.43334
G1 X47.698 Y136.136 E664.21199
G1 X48.458 Y136.136 E664.26297
G1 X108.636 Y75.958 E669.96952
G1 X108.636 Y76.718 E670.02050
G1 X49.218 Y136.136 E675.65495
G1 X49.979 Y136.136 E675.70593
G1 X108.636 Y77.479 E681.26828
G1 X108.636 Y78.239 E681.31927
G1 X50.739 Y136.136 E686.80952
G1 X51.499 Y136.136 E686.86050
G1 X108.636 Y78.999 E692.27866
G1 X108.636 Y79.760 E692.32964
G1 X52.260 Y136.136 E697.67570
G1 X53.020 Y136.136 E697.72668
G1 X108.636 Y80.520 E703.00064
G1 X108.636 Y81.280 E703.05162
G1 X53.780 Y136.136 E708.25348
G1 X54.541 Y136.136 E708.30446
G1 X108.636 Y82.041 E713.43423
G1 X108.636 Y82.801 E713.48521
G1 X55.301 Y136.136 E718.54288
G1 X56.061 Y136.136 E718.59386
G1 X108.636 Y83.561 E723.57943
G1 X108.636 Y84.321 E723.63041
G1 X56.821 Y136.136 E728.54388
G1 X57.582 Y136.136 E728.59486
G1 X108.636 Y85.082 E733.43623
G1 X108.636 Y85.842 E733.48721
G1 X58.342 Y136.136 E738.25648
G1 X59.102 Y136.136 E738.30746
G1 X108.636 Y86.602 E743.00464
G1 X108.636 Y87.363 E743.05562
G1 X59.863 Y136.136 E747.68070
G1 X60.623 Y136.136 E747.73168
G1 X108.636 Y88.123 E752.28465
G1 X108.636 Y88.883 E752.33564
G1 X61.383 Y136.136 E756.81652
G1 X62.144 Y136.136 E756.86750
G1 X108.636 Y89.644 E761.27628
G1 X108.636 Y90.404 E761.32726
G1 X62.904 Y136.136 E765.66394
G1 X63.664 Y136.136 E765.71492
G1 X108.636 Y91.164 E769.97951
G1 X108.636 Y91.924 E770.03049
G1 X64.424 Y136.136 E774.22298
G1 X65.185 Y136.136 E774.27396
G1 X108.636 Y92.685 E778.39435
G1 X108.636 Y93.445 E778.44533
G1 X65.945 Y136.136 E782.49362
G1 X66.705 Y136.136 E782.54460
G1 X108.636 Y94.205 E786.52079
G1 X108.636 Y94.966 E786.57177
G1 X67.466 Y136.136 E790.47587
G1 X68.226 Y136.136 E790.52685
G1 X108.636 Y95.726 E794.35884
G1 X108.636 Y96.486 E794.40983
G1 X68.986 Y136.136 E798.16972
G1 X69.747 Y136.136 E798.22070
G1 X108.636 Y97.247 E801.90850
G1 X108.636 Y98.007 E801.95948
G1 X70.507 Y136.136 E805.57519
G1 X71.267 Y136.136 E805.62617
G1 X108.636 Y98.767 E809.16977
G1 X108.636 Y99.527 E809.22075
G1 X72.027 Y136.136 E812.69225
G1 X72.788 Y136.136 E812.74324
G1 X108.636 Y100.288 E816.14264
G1 X108.636 Y101.048 E816.19362
G1 X73.548 Y136.136 E819.52093
G1 X74.308 Y136.136 E819.57191
G1 X108.636 Y101.808 E822.82712
G1 X108.636 Y102.569 E822.87810
G1 X75.069 Y136.136 E826.06121
G1 X75.829 Y136.136 E826.11220
G1 X108.636 Y103.329 E829.22321
G1 X108.636 Y104.089 E829.27419
G1 X76.589 Y136.136 E832.31310
G1 X77.350 Y136.136 E832.36409
G1 X108.636 Y104.850 E835.33090
G1 X108.636 Y105.610 E835.38188
G1 X78.110 Y136.136 E838.27660
G1 X78.870 Y136.136 E838.32758
G1 X108.636 Y106.370 E841.15020
G1 X108.636 Y107.130 E841.20118
G1 X79.630 Y136.136 E843.95171
G1 X80.391 Y136.136 E844.00269
G1 X108.636 Y107.891 E846.68111
G1 X108.636 Y108.651 E846.73209
G1 X81.151 Y136.136 E849.33842
G1 X81.911 Y136.136 E849.38940
G1 X108.636 Y109.411 E851.92362
G1 X108.636 Y110.172 E851.97461
G1 X82.672 Y136.136 E854.43673
G1 X83.432 Y136.136 E854.48772
G1 X108.636 Y110.932 E856.87775
G1 X108.636 Y111.692 E856.92873
G1 X84.192 Y136.136 E859.24666
G1 X84.953 Y136.136 E859.29764
G1 X108.636 Y112.453 E861.54347
G1 X108.636 Y113.213 E861.59446
G1 X85.713 Y136.136 E863.76819
G1 X86.473 Y136.136 E863.81917
G1 X108.636 Y113.973 E865.92081
G1 X108.636 Y114.733 E865.97179
G1 X87.233 Y136.136 E868.00133
G1 X87.994 Y136.136 E868.05231
G1 X108.636 Y115.494 E870.00975
G1 X108.636 Y116.254 E870.06073
G1 X88.754 Y136.136 E871.94608
G1 X89.514 Y136.136 E871.99706
G1 X108.636 Y117.014 E873.81030
G1 X108.636 Y117.775 E873.86128
G1 X90.275 Y136.136 E875.60243
G1 X91.035 Y136.136 E875.65341
G1 X108.636 Y118.535 E877.32246
G1 X108.636 Y119.295 E877.37344
G1 X91.795 Y136.136 E878.97039
G1 X92.556 Y136.136 E879.02137
G1 X108.636 Y120.056 E880.54622
G1 X108.636 Y120.816 E880.59720
G1 X93.316 Y136.136 E882.04996
G1 X94.076 Y136.136 E882.10094
G1 X108.636 Y121.576 E883.48159
G1 X108.636 Y122.336 E883.53257
G1 X94.836 Y136.136 E884.84113
G1 X95.597 Y136.136 E884.89211
G1 X108.636 Y123.097 E886.12857
G1 X108.636 Y123.857 E886.17955
G1 X96.357 Y136.136 E887.34391
G1 X97.117 Y136.136 E887.39489
G1 X108.636 Y124.617 E888.48715
G1 X108.636 Y125.378 E888.53814
G1 X97.878 Y136.136 E889.55830
G1 X98.638 Y136.136 E889.60928
G1 X108.636 Y126.138 E890.55735
G1 X108.636 Y126.898 E890.60833
G1 X99.398 Y136.136 E891.48429
G1 X100.159 Y136.136 E891.53527
G1 X108.636 Y127.659 E892.33914
G1 X108.636 Y128.419 E892.39012
G1 X100.919 Y136.136 E893.12190
G1 X101.679 Y136.136 E893.17288
G1 X108.636 Y129.179 E893.83255
G1 X108.636 Y129.939 E893.88353
G1 X102.439 Y136.136 E894.47110
G1 X103.200 Y136.136 E894.52209
G1 X108.636 Y130.700 E895.03756
G1 X108.636 Y131.460 E895.08854
G1 X103.960 Y136.136 E895.53192
G1 X104.720 Y136.136 E895.58290
G1 X108.636 Y132.220 E895.95418
G1 X108.636 Y132.981 E896.00516
G1 X105.481 Y136.136 E896.30434
G1 X106.241 Y136.136 E896.35532
G1 X108.636 Y133.741 E896.58241
G1 X108.636 Y134.501 E896.63339
G1 X107.001 Y136.136 E896.78837
G1 X107.762 Y136.136 E896.83935
G1 X108.636 Y135.262 E896.92224
G1 X108.636 Y136.022 E896.97322
G1 X108.522 Y136.136 E896.98401
G1 E894.98401 F2400.00000
G92 E0
G1 X41.364 Y61.117 F30000.000
G1 E2.00000 F2400.00000
G1 F2100
G1 X85.117 Y17.364 E6.14900
G1 X84.357 Y17.364 E6.19998
G1 X41.364 Y60.357 E10.27689
G1 X41.364 Y59.596 E10.32787
G1 X83.596 Y17.364 E14.33268
G1 X82.836 Y17.364 E14.38366
G1 X41.364 Y58.836 E18.31637
G1 X41.364 Y58.076 E18.36735
G1 X82.076 Y17.364 E22.22796
G1 X81.316 Y17.364 E22.27894
G1 X41.364 Y57.315 E26.06745
G1 X41.364 Y56.555 E26.11844
G1 X80.555 Y17.364 E29.83485
G1 X79.795 Y17.364 E29.88583
G1 X41.364 Y55.795 E33.53015
G1 X41.364 Y55.035 E33.58113
G1 X79.035 Y17.364 E37.15334
G1 X78.274 Y17.364 E37.20433
G1 X41.364 Y54.274 E40.70445
G1 X41.364 Y53.514 E40.75543
G1 X77.514 Y17.364 E44.18345
G1 X76.754 Y17.364 E44.23443
G1 X41.364 Y52.754 E47.59035
G1 X41.364 Y51.993 E47.64133
G1 X75.993 Y17.364 E50.92516
G1 X75.233 Y17.364 E50.97614
G1 X41.364 Y51.233 E54.18787
G1 X41.364 Y50.473 E54.23885
G1 X74.473 Y17.364 E57.37847
G1 X73.713 Y17.364 E57.42946
G1 X41.364 Y49.713 E60.49699
G1 X41.364 Y48.952 E60.54797
G1 X72.952 Y17.364 E63.54340
G1 X72.192 Y17.364 E63.59438
G1 X41.364 Y48.192 E66.51771
G1 X41.364 Y47.432 E66.56869
G1 X71.432 Y17.364 E69.41993
G1 X70.671 Y17.364 E69.47091
G1 X41.364 Y46.671 E72.25005
G1 X41.364 Y45.911 E72.30103
G1 X69.911 Y17.364 E75.00807
G1 X69.151 Y17.364 E75.05905
G1 X41.364 Y45.151 E77.69399
G1 X41.364 Y44.390 E77.74497
G1 X68.390 Y17.364 E80.30781
G1 X67.630 Y17.364 E80.35879
G1 X41.364 Y43.630 E82.84954
G1 X41.364 Y42.870 E82.90052
G1 X66.870 Y17.364 E85.31916
