; generated by Slic3r 1.3.0 on 2023-03-20 at 22:18:29

; external perimeters extrusion width = 0.44mm (2.78mm^3/s)
; perimeters extrusion width = 0.40mm (7.14mm^3/s)
; infill extrusion width = 0.50mm (10.97mm^3/s)
; solid infill extrusion width = 0.60mm (6.68mm^3/s)
; top infill extrusion width = 0.40mm (2.14mm^3/s)

M107
M190 S80 ; set bed temperature and wait for it to be reached
M104 S210 ; set temperature
G28 ; home all axes
G1 Z5 F5000 ; lift nozzle

; Filament gcode

M109 S210 ; set temperature and wait for it to be reached
G21 ; set units to millimeters
G90 ; use absolute coordinates
M82 ; use absolute distances for extrusion
G92 E0
G1 Z0.300 F30000.000
G1 E-2.00000 F2400.00000
G92 E0
G1 X59.047 Y58.308 F30000.000
G1 E2.00000 F2400.00000
G1 F2100
G1 X60.406 Y57.106 E2.12120
G1 X61.297 Y56.415 E2.19653
G1 X62.491 Y55.591 E2.29344
G1 X64.018 Y54.688 E2.41191
G1 X65.023 Y54.176 E2.48725
G1 X66.350 Y53.591 E2.58415
G1 X68.018 Y52.990 E2.70263
G1 X69.414 Y52.595 E2.79953
G1 X70.515 Y52.349 E2.87487
G1 X71.946 Y52.112 E2.97178
G1 X73.389 Y51.966 E3.06868
G1 X75.161 Y51.910 E3.18715
G1 X76.289 Y51.946 E3.26249
G1 X77.734 Y52.072 E3.35940
G1 X79.485 Y52.349 E3.47787
G1 X80.899 Y52.676 E3.57477
G1 X81.982 Y52.990 E3.65011
G1 X83.650 Y53.591 E3.76859
G1 X84.977 Y54.176 E3.86549
G1 X86.265 Y54.844 E3.96239
G1 X87.236 Y55.418 E4.03773
G1 X88.441 Y56.225 E4.13464
G1 X89.843 Y57.312 E4.25311
G1 X90.688 Y58.058 E4.32845
G1 X91.721 Y59.076 E4.42535
G1 X92.894 Y60.406 E4.54383
G1 X93.775 Y61.559 E4.64074
G1 X94.409 Y62.491 E4.71607
G1 X95.312 Y64.018 E4.83454
G1 X95.824 Y65.023 E4.90988
G1 X96.409 Y66.350 E5.00678
G1 X97.010 Y68.018 E5.12526
G1 X97.324 Y69.101 E5.20059
G1 X97.651 Y70.515 E5.29750
G1 X97.888 Y71.946 E5.39441
G1 X98.034 Y73.389 E5.49131
G1 X98.090 Y75.162 E5.60979
G1 X98.054 Y76.289 E5.68512
G1 X97.928 Y77.734 E5.78203
G1 X97.651 Y79.485 E5.90050
G1 X97.405 Y80.586 E5.97585
G1 X97.010 Y81.982 E6.07276
G1 X96.528 Y83.350 E6.16965
G1 X95.977 Y84.648 E6.26382
G1 X95.156 Y86.265 E6.38502
G1 X94.582 Y87.236 E6.46036
G1 X93.775 Y88.441 E6.55726
G1 X92.688 Y89.843 E6.67574
G1 X91.942 Y90.688 E6.75107
G1 X90.924 Y91.721 E6.84798
G1 X89.594 Y92.894 E6.96645
G1 X88.441 Y93.775 E7.06336
G1 X87.509 Y94.409 E7.13869
G1 X85.982 Y95.312 E7.25716
G1 X84.977 Y95.824 E7.33250
G1 X83.650 Y96.409 E7.42941
G1 X81.982 Y97.010 E7.54787
G1 X80.586 Y97.405 E7.64477
G1 X79.485 Y97.651 E7.72012
G1 X77.734 Y97.928 E7.83859
G1 X76.289 Y98.054 E7.93550
G1 X74.838 Y98.090 E8.03241
G1 X73.711 Y98.054 E8.10774
G1 X72.266 Y97.928 E8.20465
G1 X70.515 Y97.651 E8.32313
G1 X69.101 Y97.324 E8.42003
G1 X67.711 Y96.910 E8.51694
G1 X66.350 Y96.409 E8.61384
G1 X65.315 Y95.961 E8.68918
G1 X63.735 Y95.156 E8.80764
G1 X62.491 Y94.409 E8.90455
G1 X61.559 Y93.775 E8.97989
G1 X60.157 Y92.688 E9.09837
G1 X59.076 Y91.721 E9.19528
G1 X58.279 Y90.924 E9.27061
G1 X57.106 Y89.594 E9.38908
G1 X56.415 Y88.703 E9.46442
G1 X55.591 Y87.509 E9.56132
G1 X54.688 Y85.982 E9.67980
G1 X54.176 Y84.977 E9.75513
G1 X53.591 Y83.650 E9.85204
G1 X53.090 Y82.289 E9.94894
G1 X52.687 Y80.938 E10.04312
G1 X52.289 Y79.168 E10.16432
G1 X52.112 Y78.054 E10.23966
G1 X51.966 Y76.611 E10.33656
G1 X51.910 Y74.838 E10.45504
G1 X51.946 Y73.711 E10.53037
G1 X52.072 Y72.266 E10.62729
G1 X52.349 Y70.515 E10.74575
G1 X52.595 Y69.414 E10.82109
G1 X52.990 Y68.018 E10.91799
G1 X53.591 Y66.350 E11.03647
G1 X54.039 Y65.315 E11.11180
G1 X54.688 Y64.018 E11.20871
G1 X55.591 Y62.491 E11.32718
G1 X56.225 Y61.559 E11.40251
G1 X57.106 Y60.406 E11.49942
G1 X58.058 Y59.312 E11.59633
G1 X59.005 Y58.350 E11.68650
G1 X59.426 Y58.686 F30000.000
G1 F2100
G1 X60.735 Y57.529 E11.80320
G1 X61.860 Y56.668 E11.89786
G1 X62.792 Y56.034 E11.97319
G1 X64.261 Y55.166 E12.08718
G1 X65.528 Y54.530 E12.18183
G1 X66.563 Y54.083 E12.25717
G1 X68.168 Y53.505 E12.37115
G1 X69.531 Y53.118 E12.46580
G1 X70.632 Y52.872 E12.54114
G1 X72.357 Y52.601 E12.65784
G1 X73.728 Y52.481 E12.74977
G1 X75.145 Y52.445 E12.84443
G1 X76.272 Y52.481 E12.91977
G1 X77.683 Y52.605 E13.01443
G1 X79.368 Y52.872 E13.12841
G1 X80.749 Y53.190 E13.22306
G1 X81.832 Y53.505 E13.29840
G1 X83.437 Y54.083 E13.41239
G1 X84.734 Y54.654 E13.50704
G1 X85.992 Y55.305 E13.60170
G1 X86.963 Y55.879 E13.67704
G1 X88.140 Y56.668 E13.77170
G1 X89.488 Y57.714 E13.88568
G1 X90.334 Y58.459 E13.96101
G1 X91.343 Y59.455 E14.05567
G1 X92.471 Y60.735 E14.16965
G1 X93.332 Y61.860 E14.26431
G1 X93.966 Y62.793 E14.33965
G1 X94.834 Y64.261 E14.45363
G1 X95.346 Y65.266 E14.52896
G1 X95.917 Y66.563 E14.62362
G1 X96.495 Y68.168 E14.73760
G1 X96.810 Y69.251 E14.81293
G1 X97.128 Y70.632 E14.90759
G1 X97.395 Y72.317 E15.02157
G1 X97.519 Y73.728 E15.11623
G1 X97.555 Y75.145 E15.21089
G1 X97.519 Y76.272 E15.28623
G1 X97.395 Y77.683 E15.38089
G1 X97.128 Y79.368 E15.49487
G1 X96.882 Y80.469 E15.57021
G1 X96.495 Y81.832 E15.66487
G1 X96.024 Y83.168 E15.75952
G1 X95.486 Y84.435 E15.85145
G1 X94.695 Y85.993 E15.96815
G1 X94.121 Y86.963 E16.04349
G1 X93.332 Y88.140 E16.13815
G1 X92.286 Y89.488 E16.25213
G1 X91.541 Y90.334 E16.32746
G1 X90.545 Y91.343 E16.42212
G1 X89.265 Y92.471 E16.53610
G1 X88.140 Y93.332 E16.63076
G1 X87.208 Y93.966 E16.70609
G1 X85.739 Y94.834 E16.82007
G1 X84.734 Y95.346 E16.89541
G1 X83.437 Y95.917 E16.99007
G1 X81.832 Y96.495 E17.10404
G1 X80.469 Y96.882 E17.19870
G1 X79.368 Y97.128 E17.27404
G1 X77.683 Y97.395 E17.38802
G1 X76.272 Y97.519 E17.48268
G1 X74.855 Y97.555 E17.57734
G1 X73.728 Y97.519 E17.65268
G1 X72.317 Y97.395 E17.74734
G1 X70.632 Y97.128 E17.86132
G1 X69.251 Y96.810 E17.95598
G1 X67.893 Y96.406 E18.05064
G1 X66.832 Y96.024 E18.12597
G1 X65.528 Y95.470 E18.22063
G1 X64.008 Y94.695 E18.33460
G1 X62.793 Y93.966 E18.42926
G1 X61.860 Y93.332 E18.50460
G1 X60.512 Y92.286 E18.61858
G1 X59.666 Y91.541 E18.69392
G1 X58.657 Y90.545 E18.78858
G1 X57.529 Y89.265 E18.90256
G1 X56.838 Y88.374 E18.97789
G1 X56.034 Y87.208 E19.07255
G1 X55.166 Y85.739 E19.18653
G1 X54.654 Y84.734 E19.26186
G1 X54.083 Y83.437 E19.35652
G1 X53.505 Y81.832 E19.47051
G1 X53.190 Y80.749 E19.54585
G1 X52.872 Y79.368 E19.64050
G1 X52.641 Y77.970 E19.73516
G1 X52.499 Y76.561 E19.82982
G1 X52.445 Y74.855 E19.94380
G1 X52.481 Y73.728 E20.01913
G1 X52.605 Y72.317 E20.11380
G1 X52.872 Y70.632 E20.22777
G1 X53.118 Y69.531 E20.30311
G1 X53.505 Y68.168 E20.39777
G1 X54.083 Y66.563 E20.51175
G1 X54.530 Y65.528 E20.58708
G1 X55.166 Y64.261 E20.68174
G1 X56.034 Y62.792 E20.79572
G1 X56.668 Y61.860 E20.87105
G1 X57.529 Y60.735 E20.96572
G1 X58.459 Y59.666 E21.06038
G1 X59.384 Y58.729 E21.14830
G1 X59.805 Y59.065 F30000.000
G1 F2100
G1 X61.063 Y57.952 E21.26051
G1 X61.954 Y57.261 E21.33584
G1 X63.094 Y56.477 E21.42825
G1 X64.504 Y55.643 E21.53774
G1 X65.509 Y55.131 E21.61307
G1 X66.775 Y54.574 E21.70548
G1 X68.317 Y54.019 E21.81497
G1 X69.648 Y53.641 E21.90738
G1 X70.748 Y53.395 E21.98272
G1 X72.113 Y53.170 E22.07513
G1 X73.490 Y53.032 E22.16754
G1 X75.128 Y52.981 E22.27703
G1 X76.255 Y53.016 E22.35236
G1 X77.633 Y53.138 E22.44478
G1 X79.252 Y53.395 E22.55426
G1 X80.600 Y53.704 E22.64667
G1 X81.683 Y54.019 E22.72201
G1 X83.225 Y54.574 E22.83150
G1 X84.491 Y55.131 E22.92391
G1 X85.720 Y55.766 E23.01632
G1 X86.691 Y56.340 E23.09166
G1 X87.839 Y57.111 E23.18407
G1 X89.134 Y58.115 E23.29355
G1 X89.980 Y58.861 E23.36889
G1 X90.964 Y59.834 E23.46130
G1 X92.048 Y61.063 E23.57079
G1 X92.739 Y61.954 E23.64612
G1 X93.523 Y63.094 E23.73854
G1 X94.357 Y64.504 E23.84802
G1 X94.869 Y65.509 E23.92335
G1 X95.426 Y66.775 E24.01577
G1 X95.981 Y68.317 E24.12526
G1 X96.296 Y69.400 E24.20059
G1 X96.605 Y70.748 E24.29300
G1 X96.830 Y72.113 E24.38542
G1 X96.968 Y73.490 E24.47782
G1 X97.019 Y75.128 E24.58731
G1 X96.984 Y76.255 E24.66265
G1 X96.862 Y77.633 E24.75506
G1 X96.605 Y79.252 E24.86455
G1 X96.359 Y80.352 E24.93989
G1 X95.981 Y81.683 E25.03230
G1 X95.520 Y82.987 E25.12470
G1 X94.994 Y84.222 E25.21439
G1 X94.234 Y85.720 E25.32660
G1 X93.660 Y86.691 E25.40193
G1 X92.889 Y87.839 E25.49434
G1 X91.885 Y89.134 E25.60383
G1 X91.139 Y89.980 E25.67916
G1 X90.166 Y90.964 E25.77158
G1 X88.937 Y92.048 E25.88106
G1 X88.046 Y92.739 E25.95640
G1 X86.906 Y93.523 E26.04881
G1 X85.459 Y94.376 E26.16102
G1 X84.260 Y94.978 E26.25070
G1 X82.987 Y95.520 E26.34312
G1 X81.683 Y95.981 E26.43552
G1 X80.600 Y96.296 E26.51086
G1 X79.000 Y96.653 E26.62035
G1 X77.633 Y96.862 E26.71276
G1 X76.510 Y96.968 E26.78810
G1 X74.872 Y97.019 E26.89758
G1 X73.745 Y96.984 E26.97292
G1 X72.367 Y96.862 E27.06533
G1 X70.748 Y96.605 E27.17482
G1 X69.400 Y96.296 E27.26723
G1 X68.074 Y95.902 E27.35964
G1 X66.775 Y95.426 E27.45205
G1 X65.740 Y94.978 E27.52739
G1 X64.280 Y94.234 E27.63687
G1 X63.309 Y93.660 E27.71221
G1 X62.161 Y92.889 E27.80462
G1 X60.866 Y91.885 E27.91411
G1 X60.020 Y91.139 E27.98944
G1 X59.036 Y90.166 E28.08185
G1 X57.952 Y88.937 E28.19134
G1 X57.261 Y88.046 E28.26667
G1 X56.477 Y86.906 E28.35909
G1 X55.766 Y85.720 E28.45150
G1 X55.131 Y84.491 E28.54391
G1 X54.480 Y82.987 E28.65340
G1 X54.098 Y81.926 E28.72873
G1 X53.704 Y80.600 E28.82115
G1 X53.347 Y79.000 E28.93063
G1 X53.170 Y77.887 E29.00597
G1 X53.032 Y76.510 E29.09838
G1 X52.981 Y74.872 E29.20787
G1 X53.016 Y73.745 E29.28320
G1 X53.138 Y72.367 E29.37562
G1 X53.395 Y70.748 E29.48510
G1 X53.641 Y69.648 E29.56044
G1 X54.019 Y68.317 E29.65284
G1 X54.574 Y66.775 E29.76233
G1 X55.022 Y65.740 E29.83767
G1 X55.643 Y64.504 E29.93008
G1 X56.477 Y63.094 E30.03957
G1 X57.111 Y62.161 E30.11490
G1 X57.952 Y61.063 E30.20731
G1 X58.861 Y60.020 E30.29973
G1 X59.762 Y59.108 E30.38540
G1 X60.183 Y59.444 F30000.000
G1 F2100
G1 X61.391 Y58.376 E30.49312
G1 X62.462 Y57.554 E30.58328
G1 X63.395 Y56.920 E30.65861
G1 X64.747 Y56.120 E30.76361
G1 X65.752 Y55.608 E30.83894
G1 X66.988 Y55.066 E30.92911
G1 X68.467 Y54.533 E31.03410
G1 X69.765 Y54.163 E31.12426
G1 X70.865 Y53.917 E31.19960
G1 X72.197 Y53.699 E31.28977
G1 X73.540 Y53.566 E31.37993
G1 X75.111 Y53.516 E31.48492
G1 X76.238 Y53.552 E31.56026
G1 X77.582 Y53.672 E31.65042
G1 X79.135 Y53.917 E31.75542
G1 X80.450 Y54.219 E31.84558
G1 X81.533 Y54.533 E31.92091
G1 X83.012 Y55.066 E32.02591
G1 X84.248 Y55.608 E32.11607
G1 X85.447 Y56.227 E32.20623
G1 X86.418 Y56.801 E32.28157
G1 X87.538 Y57.554 E32.37174
G1 X88.780 Y58.517 E32.47673
G1 X89.626 Y59.263 E32.55206
G1 X90.585 Y60.212 E32.64223
G1 X91.624 Y61.391 E32.74722
G1 X92.446 Y62.462 E32.83739
G1 X93.080 Y63.395 E32.91273
G1 X93.880 Y64.747 E33.01772
G1 X94.392 Y65.752 E33.09305
G1 X94.934 Y66.988 E33.18322
G1 X95.467 Y68.467 E33.28821
G1 X95.837 Y69.765 E33.37837
G1 X96.124 Y71.083 E33.46854
G1 X96.301 Y72.197 E33.54388
G1 X96.434 Y73.540 E33.63404
G1 X96.484 Y75.111 E33.73903
G1 X96.448 Y76.238 E33.81437
G1 X96.328 Y77.582 E33.90453
G1 X96.083 Y79.135 E34.00953
G1 X95.836 Y80.235 E34.08487
G1 X95.467 Y81.533 E34.17503
G1 X95.016 Y82.805 E34.26519
G1 X94.503 Y84.009 E34.35262
G1 X93.773 Y85.447 E34.46034
G1 X93.199 Y86.418 E34.53568
G1 X92.446 Y87.538 E34.62584
G1 X91.483 Y88.780 E34.73083
G1 X90.737 Y89.626 E34.80617
G1 X89.788 Y90.585 E34.89633
G1 X88.609 Y91.624 E35.00133
G1 X87.538 Y92.446 E35.09149
G1 X86.605 Y93.080 E35.16683
G1 X85.253 Y93.880 E35.27181
G1 X84.248 Y94.392 E35.34715
G1 X83.012 Y94.934 E35.43732
G1 X81.533 Y95.467 E35.54230
G1 X80.235 Y95.836 E35.63247
G1 X79.135 Y96.083 E35.70781
G1 X77.542 Y96.332 E35.81553
G1 X76.238 Y96.448 E35.90296
G1 X74.889 Y96.484 E35.99313
G1 X73.762 Y96.448 E36.06846
G1 X72.418 Y96.328 E36.15863
G1 X70.865 Y96.083 E36.26362
G1 X69.550 Y95.781 E36.35379
G1 X68.256 Y95.398 E36.44395
G1 X66.988 Y94.934 E36.53412
G1 X65.953 Y94.486 E36.60945
G1 X64.553 Y93.773 E36.71444
G1 X63.395 Y93.080 E36.80461
G1 X62.462 Y92.446 E36.87994
G1 X61.220 Y91.483 E36.98494
G1 X60.374 Y90.737 E37.06027
G1 X59.415 Y89.788 E37.15044
G1 X58.376 Y88.609 E37.25543
G1 X57.684 Y87.718 E37.33076
G1 X56.920 Y86.605 E37.42093
G1 X56.120 Y85.253 E37.52592
G1 X55.608 Y84.248 E37.60126
G1 X55.066 Y83.012 E37.69142
G1 X54.533 Y81.533 E37.79642
G1 X54.219 Y80.450 E37.87175
G1 X53.917 Y79.135 E37.96191
G1 X53.699 Y77.803 E38.05208
G1 X53.566 Y76.460 E38.14224
G1 X53.516 Y74.889 E38.24724
G1 X53.552 Y73.762 E38.32257
G1 X53.672 Y72.417 E38.41274
G1 X53.917 Y70.865 E38.51773
G1 X54.163 Y69.765 E38.59307
G1 X54.533 Y68.467 E38.68323
G1 X55.066 Y66.988 E38.78822
G1 X55.514 Y65.953 E38.86356
G1 X56.120 Y64.747 E38.95372
G1 X56.920 Y63.395 E39.05872
G1 X57.554 Y62.462 E39.13405
G1 X58.376 Y61.391 E39.22422
G1 X59.263 Y60.374 E39.31438
G1 X60.141 Y59.486 E39.39781
G1 E37.39781 F2400.00000
G92 E0
G1 X77.835 Y77.662 F30000.000
G1 E2.00000 F2400.00000
G1 F2100
G1 X77.286 Y78.147 E2.04890
G1 X76.656 Y78.519 E2.09781
G1 X75.967 Y78.767 E2.14671
G1 X75.257 Y78.880 E2.19474
G1 X74.756 Y78.880 E2.22823
G1 X74.258 Y78.817 E2.26172
G1 X73.568 Y78.616 E2.30975
G1 X72.916 Y78.284 E2.35865
G1 X72.338 Y77.835 E2.40755
G1 X71.853 Y77.286 E2.45646
G1 X71.481 Y76.656 E2.50536
G1 X71.233 Y75.967 E2.55427
G1 X71.120 Y75.257 E2.60229
G1 X71.120 Y74.756 E2.63578
G1 X71.183 Y74.259 E2.66927
G1 X71.384 Y73.568 E2.71729
G1 X71.716 Y72.916 E2.76620
G1 X72.165 Y72.338 E2.81510
G1 X72.714 Y71.853 E2.86401
G1 X73.344 Y71.481 E2.91291
G1 X74.033 Y71.233 E2.96182
G1 X74.756 Y71.118 E3.01072
G1 X75.487 Y71.141 E3.05963
G1 X76.202 Y71.301 E3.10853
G1 X76.874 Y71.592 E3.15744
G1 X77.468 Y71.996 E3.20546
G1 X77.834 Y72.339 E3.23895
G1 X78.153 Y72.725 E3.27244
G1 X78.519 Y73.344 E3.32046
G1 X78.767 Y74.033 E3.36937
G1 X78.880 Y74.743 E3.41739
G1 X78.880 Y75.244 E3.45088
G1 X78.817 Y75.741 E3.48438
G1 X78.616 Y76.432 E3.53240
G1 X78.284 Y77.084 E3.58130
G1 X77.872 Y77.615 E3.62620
G1 X77.443 Y77.294 F30000.000
G1 F2100
G1 X76.970 Y77.711 E3.66834
G1 X76.427 Y78.032 E3.71048
G1 X75.833 Y78.246 E3.75262
G1 X75.215 Y78.344 E3.79444
G1 X74.790 Y78.344 E3.82287
G1 X74.367 Y78.291 E3.85129
G1 X73.766 Y78.116 E3.89312
G1 X73.204 Y77.830 E3.93526
G1 X72.706 Y77.443 E3.97740
G1 X72.289 Y76.970 E4.01954
G1 X71.968 Y76.427 E4.06167
G1 X71.754 Y75.833 E4.10381
G1 X71.656 Y75.215 E4.14564
G1 X71.656 Y74.790 E4.17406
G1 X71.709 Y74.367 E4.20249
G1 X71.884 Y73.766 E4.24431
G1 X72.170 Y73.204 E4.28645
G1 X72.557 Y72.706 E4.32859
G1 X73.030 Y72.289 E4.37073
G1 X73.573 Y71.968 E4.41287
G1 X74.167 Y71.754 E4.45501
G1 X74.790 Y71.655 E4.49715
G1 X75.420 Y71.675 E4.53929
G1 X76.036 Y71.813 E4.58143
G1 X76.615 Y72.063 E4.62357
G1 X77.132 Y72.415 E4.66539
G1 X77.442 Y72.706 E4.69382
G1 X77.714 Y73.034 E4.72224
G1 X78.032 Y73.573 E4.76406
G1 X78.246 Y74.167 E4.80621
G1 X78.344 Y74.785 E4.84803
G1 X78.344 Y75.210 E4.87645
G1 X78.291 Y75.633 E4.90488
G1 X78.116 Y76.234 E4.94670
G1 X77.830 Y76.796 E4.98884
G1 X77.480 Y77.247 E5.02697
G1 X77.443 Y77.294 F30000.000
G1 E3.02697 F2400.00000
G92 E0
G1 X87.170 Y87.021 F30000.000
G1 E2.00000 F2400.00000
G1 F2100
G1 X86.715 Y87.476 E2.04294
G1 X85.909 Y88.187 E2.11477
G1 X85.059 Y88.845 E2.18659
G1 X84.170 Y89.450 E2.25842
G1 X83.245 Y89.997 E2.33024
G1 X82.287 Y90.485 E2.40207
G1 X81.300 Y90.912 E2.47389
G1 X80.289 Y91.276 E2.54565
G1 X79.217 Y91.585 E2.62020
G1 X78.207 Y91.811 E2.68936
G1 X77.145 Y91.979 E2.76118
G1 X76.075 Y92.080 E2.83300
G1 X75.000 Y92.114 E2.90483
G1 X73.925 Y92.080 E2.97665
G1 X72.855 Y91.979 E3.04848
G1 X71.793 Y91.811 E3.12030
G1 X70.744 Y91.576 E3.19212
G1 X69.711 Y91.276 E3.26395
G1 X68.700 Y90.912 E3.33577
G1 X67.713 Y90.485 E3.40760
G1 X66.755 Y89.997 E3.47942
G1 X65.830 Y89.450 E3.55125
G1 X64.941 Y88.845 E3.62307
G1 X64.091 Y88.187 E3.69489
G1 X63.285 Y87.476 E3.76672
G1 X62.524 Y86.715 E3.83854
G1 X61.840 Y85.939 E3.90770
G1 X61.154 Y85.059 E3.98225
G1 X60.550 Y84.170 E4.05401
G1 X60.003 Y83.245 E4.12583
G1 X59.515 Y82.287 E4.19766
G1 X59.088 Y81.300 E4.26948
G1 X58.724 Y80.288 E4.34131
G1 X58.435 Y79.294 E4.41046
G1 X58.189 Y78.206 E4.48501
G1 X58.021 Y77.145 E4.55677
G1 X57.920 Y76.075 E4.62860
G1 X57.886 Y75.000 E4.70042
G1 X57.920 Y73.925 E4.77224
G1 X58.021 Y72.855 E4.84407
G1 X58.189 Y71.793 E4.91589
G1 X58.424 Y70.744 E4.98772
G1 X58.724 Y69.711 E5.05954
G1 X59.088 Y68.700 E5.13137
G1 X59.515 Y67.713 E5.20319
G1 X60.003 Y66.755 E5.27501
G1 X60.550 Y65.830 E5.34684
