; generated by Slic3r 1.3.0 on 2020-08-21 at 11:14:26

; external perimeters extrusion width = 0.44mm (2.78mm^3/s)
; perimeters extrusion width = 0.40mm (7.14mm^3/s)
; infill extrusion width = 0.50mm (10.97mm^3/s)
; solid infill extrusion width = 0.60mm (6.68mm^3/s)
; top infill extrusion width = 0.40mm (2.14mm^3/s)

M107
M190 S80 ; set bed temperature and wait for it to be reached
M104 S200 ; set temperature
G28 ; home all axes
G1 Z5 F5000 ; lift nozzle

; Filament gcode

M109 S200 ; set temperature and wait for it to be reached
G21 ; set units to millimeters
G90 ; use absolute coordinates
M82 ; use absolute distances for extrusion
G92 E0
G1 Z0.300 F30000.000
G1 E-2.00000 F2400.00000
G92 E0
G1 X20.903 Y19.961 F30000.000
G1 E2.00000 F2400.00000
G1 F2100
G1 X22.160 Y18.674 E2.12018
G1 X23.360 Y17.524 E2.23123
G1 X24.698 Y16.321 E2.35141
G1 X26.182 Y15.079 E2.48073
G1 X27.837 Y13.800 E2.62040
G1 X29.056 Y12.914 E2.72108
G1 X30.431 Y11.981 E2.83212
G1 X32.068 Y10.948 E2.96144
G1 X33.622 Y10.042 E3.08162
G1 X35.084 Y9.251 E3.19267
G1 X36.694 Y8.447 E3.31285
G1 X38.455 Y7.643 E3.44217
G1 X39.989 Y7.004 E3.55321
G1 X41.671 Y6.366 E3.67339
G1 X43.374 Y5.785 E3.79357
G1 X45.226 Y5.224 E3.92289
G1 X46.965 Y4.763 E4.04307
G1 X48.719 Y4.361 E4.16325
G1 X50.350 Y4.041 E4.27430
G1 X52.261 Y3.734 E4.40361
G1 X53.773 Y3.542 E4.50546
G1 X54.285 Y3.510 E4.53970
G1 X65.341 Y3.510 E5.27834
G1 X65.814 Y3.537 E5.30998
G1 X66.610 Y3.632 E5.36349
G1 X68.390 Y3.890 E5.48368
G1 X70.027 Y4.182 E5.59472
G1 X71.786 Y4.554 E5.71491
G1 X73.921 Y5.094 E5.86202
G1 X75.395 Y5.516 E5.96440
G1 X77.107 Y6.068 E6.08458
G1 X78.671 Y6.629 E6.19562
G1 X80.344 Y7.291 E6.31580
G1 X81.994 Y8.009 E6.43599
G1 X83.617 Y8.781 E6.55606
G1 X85.345 Y9.678 E6.68609
G1 X86.903 Y10.557 E6.80567
G1 X88.324 Y11.420 E6.91671
G1 X89.943 Y12.481 E7.04603
G1 X91.413 Y13.518 E7.16621
G1 X92.740 Y14.519 E7.27725
G1 X94.245 Y15.737 E7.40657
G1 X95.603 Y16.917 E7.52675
G1 X96.920 Y18.142 E7.64693
G1 X98.101 Y19.312 E7.75798
G1 X99.336 Y20.620 E7.87816
G1 X100.616 Y22.072 E8.00748
G1 X101.758 Y23.462 E8.12766
G1 X102.852 Y24.890 E8.24784
G1 X103.820 Y26.241 E8.35889
G1 X104.894 Y27.852 E8.48820
G1 X105.769 Y29.265 E8.59925
G1 X106.666 Y30.824 E8.71943
G1 X107.572 Y32.535 E8.84875
G1 X108.359 Y34.153 E8.96893
G1 X109.036 Y35.671 E9.07997
G1 X109.766 Y37.464 E9.20929
G1 X110.385 Y39.153 E9.32947
G1 X110.907 Y40.731 E9.44052
G1 X111.452 Y42.588 E9.56984
G1 X111.867 Y44.198 E9.68088
G1 X112.259 Y45.954 E9.80106
G1 X112.614 Y47.857 E9.93038
G1 X112.883 Y49.635 E10.05056
G1 X113.078 Y51.286 E10.16160
G1 X113.241 Y53.215 E10.29092
G1 X113.333 Y55.278 E10.42890
G1 X113.357 Y56.810 E10.53127
G1 X113.329 Y58.473 E10.64232
G1 X113.231 Y60.406 E10.77164
G1 X113.092 Y62.062 E10.88268
G1 X112.883 Y63.849 E11.00287
G1 X112.592 Y65.763 E11.13218
G1 X112.286 Y67.396 E11.24323
G1 X111.899 Y69.153 E11.36341
G1 X111.416 Y71.028 E11.49273
G1 X110.948 Y72.623 E11.60377
G1 X110.385 Y74.332 E11.72395
G1 X109.716 Y76.148 E11.85327
G1 X108.928 Y78.057 E11.99124
G1 X108.301 Y79.455 E12.09362
G1 X107.572 Y80.949 E12.20467
G1 X106.666 Y82.660 E12.33399
G1 X105.839 Y84.102 E12.44503
G1 X104.894 Y85.632 E12.56521
G1 X103.820 Y87.243 E12.69453
G1 X102.852 Y88.594 E12.80558
G1 X101.758 Y90.022 E12.92576
G1 X100.528 Y91.517 E13.05507
G1 X99.336 Y92.865 E13.17525
G1 X98.196 Y94.074 E13.28630
G1 X96.822 Y95.437 E13.41562
G1 X95.603 Y96.567 E13.52666
G1 X94.245 Y97.747 E13.64684
G1 X92.740 Y98.965 E13.77616
G1 X91.085 Y100.200 E13.91413
G1 X89.830 Y101.080 E14.01651
G1 X88.440 Y101.991 E14.12756
G1 X86.785 Y102.996 E14.25688
G1 X85.337 Y103.811 E14.36792
G1 X83.741 Y104.642 E14.48810
G1 X81.994 Y105.475 E14.61742
G1 X80.097 Y106.291 E14.75540
G1 X78.671 Y106.855 E14.85777
G1 X77.107 Y107.416 E14.96882
G1 X75.264 Y108.008 E15.09814
G1 X73.533 Y108.498 E15.21832
G1 X71.920 Y108.899 E15.32937
G1 X70.027 Y109.303 E15.45868
G1 X68.390 Y109.594 E15.56973
G1 X66.610 Y109.853 E15.68991
G1 X64.686 Y110.064 E15.81923
G1 X63.028 Y110.189 E15.93027
G1 X61.231 Y110.267 E16.05045
G1 X59.295 Y110.283 E16.17977
G1 X57.497 Y110.236 E16.29995
G1 X55.837 Y110.138 E16.41100
G1 X53.910 Y109.959 E16.54031
G1 X52.261 Y109.750 E16.65136
G1 X50.484 Y109.467 E16.77154
G1 X48.585 Y109.095 E16.90086
G1 X46.832 Y108.688 E17.02103
G1 X45.226 Y108.260 E17.13208
G1 X43.373 Y107.699 E17.26140
G1 X41.800 Y107.165 E17.37245
G1 X40.116 Y106.531 E17.49263
G1 X38.329 Y105.786 E17.62194
G1 X36.817 Y105.096 E17.73299
G1 X35.206 Y104.296 E17.85317
G1 X33.503 Y103.376 E17.98248
G1 X32.068 Y102.536 E18.09354
G1 X30.545 Y101.579 E18.21371
G1 X28.944 Y100.491 E18.34303
G1 X27.601 Y99.512 E18.45408
G1 X26.182 Y98.406 E18.57426
G1 X24.801 Y97.252 E18.69444
G1 X23.360 Y95.960 E18.82376
G1 X22.063 Y94.714 E18.94394
G1 X20.903 Y93.524 E19.05498
G1 X19.599 Y92.093 E19.18429
G1 X18.435 Y90.724 E19.30430
G1 X17.394 Y89.415 E19.41603
G1 X16.325 Y87.978 E19.53573
G1 X15.224 Y86.386 E19.66503
G1 X14.254 Y84.871 E19.78521
G1 X13.402 Y83.443 E19.89625
G1 X12.468 Y81.748 E20.02557
G1 X11.654 Y80.144 E20.14575
G1 X10.951 Y78.637 E20.25680
G1 X10.192 Y76.857 E20.38611
G1 X9.591 Y75.307 E20.49716
G1 X8.996 Y73.609 E20.61734
G1 X8.419 Y71.761 E20.74666
G1 X7.978 Y70.159 E20.85770
G1 X7.556 Y68.410 E20.97788
G1 X7.169 Y66.514 E21.10720
G1 X6.870 Y64.739 E21.22738
G1 X6.648 Y63.092 E21.33843
G1 X6.453 Y61.166 E21.46775
G1 X6.341 Y59.508 E21.57879
G1 X6.278 Y57.710 E21.69897
G1 X6.278 Y55.774 E21.82829
G1 X6.359 Y53.710 E21.96627
G1 X6.464 Y52.182 E22.06864
G1 X6.632 Y50.528 E22.17969
G1 X6.891 Y48.610 E22.30901
G1 X7.169 Y46.971 E22.42005
G1 X7.527 Y45.208 E22.54023
G1 X7.978 Y43.325 E22.66955
G1 X8.419 Y41.723 E22.78059
G1 X8.953 Y40.005 E22.90078
G1 X9.591 Y38.177 E23.03009
G1 X10.192 Y36.627 E23.14114
G1 X10.895 Y34.972 E23.26132
G1 X11.714 Y33.218 E23.39064
G1 X12.468 Y31.736 E23.50168
G1 X13.334 Y30.160 E23.62186
G1 X14.326 Y28.497 E23.75118
G1 X15.300 Y26.985 E23.87136
G1 X16.245 Y25.617 E23.98241
G1 X17.399 Y24.063 E24.11173
G1 X18.434 Y22.762 E24.22277
G1 X19.599 Y21.391 E24.34295
G1 X20.861 Y20.004 E24.46826
G1 X21.286 Y20.335 F30000.000
G1 F2100
G1 X22.531 Y19.061 E24.58724
G1 X23.818 Y17.830 E24.70622
G1 X25.056 Y16.720 E24.81726
G1 X26.512 Y15.500 E24.94418
G1 X28.152 Y14.233 E25.08265
G1 X29.356 Y13.357 E25.18213
G1 X30.732 Y12.424 E25.29317
G1 X32.338 Y11.410 E25.42009
G1 X33.877 Y10.513 E25.53907
G1 X35.339 Y9.722 E25.65011
G1 X36.932 Y8.927 E25.76909
G1 X38.661 Y8.137 E25.89600
G1 X40.195 Y7.498 E26.00705
G1 X41.860 Y6.867 E26.12603
G1 X43.659 Y6.256 E26.25294
G1 X45.364 Y5.741 E26.37192
G1 X47.086 Y5.285 E26.49090
G1 X48.821 Y4.886 E26.60988
G1 X50.453 Y4.567 E26.72092
G1 X52.328 Y4.265 E26.84783
G1 X53.841 Y4.074 E26.94968
G1 X54.285 Y4.046 E26.97941
G1 X65.341 Y4.045 E27.71805
G1 X65.752 Y4.069 E27.74553
G1 X66.533 Y4.162 E27.79809
G1 X68.296 Y4.417 E27.91709
G1 X69.933 Y4.709 E28.02813
G1 X71.675 Y5.078 E28.14711
G1 X73.775 Y5.609 E28.29182
G1 X75.231 Y6.026 E28.39299
G1 X76.926 Y6.572 E28.51197
G1 X78.491 Y7.134 E28.62302
G1 X80.147 Y7.789 E28.74200
G1 X81.780 Y8.500 E28.86098
G1 X83.386 Y9.264 E28.97985
G1 X85.082 Y10.144 E29.10747
G1 X86.625 Y11.015 E29.22585
G1 X88.046 Y11.878 E29.33689
G1 X89.537 Y12.852 E29.45587
G1 X90.995 Y13.875 E29.57485
G1 X92.511 Y15.020 E29.70176
G1 X93.803 Y16.066 E29.81281
G1 X95.150 Y17.231 E29.93179
G1 X96.543 Y18.522 E30.05870
G1 X97.723 Y19.693 E30.16975
G1 X98.947 Y20.987 E30.28873
G1 X100.203 Y22.412 E30.41564
G1 X101.496 Y24.000 E30.55241
G1 X102.417 Y25.202 E30.65359
G1 X103.385 Y26.553 E30.76464
G1 X104.439 Y28.134 E30.89155
G1 X105.314 Y29.547 E31.00259
G1 X106.202 Y31.091 E31.12157
G1 X107.091 Y32.770 E31.24848
G1 X107.819 Y34.264 E31.35953
G1 X108.547 Y35.889 E31.47851
G1 X109.263 Y37.649 E31.60542
G1 X109.877 Y39.321 E31.72440
G1 X110.398 Y40.899 E31.83545
G1 X110.934 Y42.722 E31.96236
G1 X111.376 Y44.447 E32.08134
G1 X111.736 Y46.070 E32.19238
G1 X112.085 Y47.937 E32.31930
G1 X112.335 Y49.580 E32.43034
G1 X112.546 Y51.349 E32.54932
G1 X112.706 Y53.242 E32.67624
G1 X112.798 Y55.287 E32.81301
G1 X112.821 Y56.801 E32.91418
G1 X112.793 Y58.464 E33.02523
G1 X112.698 Y60.361 E33.15214
G1 X112.558 Y62.017 E33.26319
G1 X112.351 Y63.786 E33.38217
G1 X112.065 Y65.664 E33.50908
G1 X111.760 Y67.298 E33.62013
G1 X111.376 Y69.037 E33.73911
G1 X110.902 Y70.877 E33.86602
G1 X110.434 Y72.472 E33.97707
G1 X109.877 Y74.163 E34.09604
G1 X109.220 Y75.946 E34.22296
G1 X108.439 Y77.838 E34.35973
G1 X107.819 Y79.221 E34.46091
G1 X107.091 Y80.715 E34.57195
G1 X106.202 Y82.393 E34.69886
G1 X105.374 Y83.835 E34.80991
G1 X104.439 Y85.350 E34.92889
G1 X103.385 Y86.931 E35.05580
G1 X102.417 Y88.282 E35.16685
G1 X101.333 Y89.696 E35.28583
G1 X100.126 Y91.162 E35.41274
G1 X98.947 Y92.497 E35.53172
G1 X97.806 Y93.707 E35.64277
G1 X96.457 Y95.044 E35.76968
G1 X95.150 Y96.254 E35.88866
G1 X93.894 Y97.342 E35.99970
G1 X92.417 Y98.537 E36.12662
G1 X90.995 Y99.609 E36.24559
G1 X89.635 Y100.566 E36.35664
G1 X88.046 Y101.606 E36.48355
G1 X86.625 Y102.469 E36.59460
G1 X85.074 Y103.344 E36.71358
G1 X83.388 Y104.219 E36.84049
G1 X81.780 Y104.985 E36.95947
G1 X80.256 Y105.650 E37.07051
G1 X78.491 Y106.351 E37.19743
G1 X76.926 Y106.912 E37.30847
G1 X75.231 Y107.458 E37.42745
G1 X73.404 Y107.978 E37.55436
G1 X71.791 Y108.379 E37.66541
G1 X70.049 Y108.753 E37.78439
G1 X68.179 Y109.086 E37.91130
G1 X66.151 Y109.366 E38.04808
G1 X64.645 Y109.529 E38.14925
G1 X62.988 Y109.655 E38.26030
G1 X61.090 Y109.735 E38.38721
G1 X59.427 Y109.749 E38.49826
G1 X57.647 Y109.706 E38.61724
G1 X55.869 Y109.603 E38.73622
G1 X53.977 Y109.428 E38.86313
G1 X52.328 Y109.219 E38.97417
G1 X50.570 Y108.938 E39.09315
G1 X48.705 Y108.573 E39.22006
G1 X46.970 Y108.171 E39.33904
G1 X45.364 Y107.743 E39.45009
G1 X43.546 Y107.192 E39.57701
G1 X41.972 Y106.657 E39.68805
G1 X40.305 Y106.030 E39.80703
G1 X38.552 Y105.299 E39.93394
G1 X37.040 Y104.609 E40.04499
G1 X35.445 Y103.817 E40.16397
G1 X33.773 Y102.913 E40.29087
G1 X32.338 Y102.074 E40.40192
G1 X30.831 Y101.126 E40.52090
G1 X29.259 Y100.059 E40.64782
G1 X27.916 Y99.079 E40.75886
G1 X26.512 Y97.984 E40.87784
G1 X25.145 Y96.842 E40.99682
G1 X23.731 Y95.574 E41.12373
G1 X22.531 Y94.423 E41.23478
G1 X21.286 Y93.150 E41.35376
G1 X20.006 Y91.746 E41.48066
G1 X18.855 Y90.391 E41.59946
G1 X17.813 Y89.082 E41.71120
G1 X16.686 Y87.562 E41.83761
G1 X15.675 Y86.096 E41.95659
G1 X14.776 Y84.698 E42.06763
G1 X13.803 Y83.066 E42.19455
G1 X13.001 Y81.610 E42.30559
G1 X12.192 Y80.024 E42.42457
G1 X11.388 Y78.302 E42.55148
G1 X10.736 Y76.774 E42.66253
G1 X10.091 Y75.114 E42.78151
G1 X9.464 Y73.320 E42.90842
G1 X8.969 Y71.733 E43.01947
G1 X8.494 Y70.017 E43.13845
G1 X8.052 Y68.169 E43.26536
G1 X7.697 Y66.424 E43.38434
G1 X7.401 Y64.668 E43.50332
G1 X7.178 Y63.020 E43.61436
G1 X6.987 Y61.130 E43.74128
G1 X6.876 Y59.472 E43.85232
G1 X6.814 Y57.692 E43.97130
G1 X6.814 Y55.792 E44.09821
G1 X6.876 Y54.012 E44.21719
G1 X6.987 Y52.354 E44.32824
G1 X7.164 Y50.582 E44.44722
G1 X7.419 Y48.699 E44.57413
G1 X7.697 Y47.060 E44.68517
G1 X8.052 Y45.315 E44.80415
G1 X8.494 Y43.468 E44.93107
G1 X8.936 Y41.865 E45.04211
G1 X9.464 Y40.164 E45.16109
G1 X10.091 Y38.371 E45.28801
G1 X10.736 Y36.711 E45.40698
G1 X11.388 Y35.182 E45.51803
G1 X12.192 Y33.460 E45.64494
G1 X12.945 Y31.979 E45.75599
G1 X13.803 Y30.418 E45.87497
G1 X14.776 Y28.787 E46.00188
G1 X15.675 Y27.388 E46.11292
G1 X16.686 Y25.922 E46.23190
G1 X17.818 Y24.396 E46.35882
G1 X18.853 Y23.096 E46.46986
G1 X20.006 Y21.739 E46.58884
G1 X21.245 Y20.378 E46.71175
G1 X21.849 Y20.884 F30000.000
G1 F2100
G1 X23.058 Y19.644 E46.84132
G1 X24.292 Y18.462 E46.96917
G1 X25.632 Y17.260 E47.10393
G1 X26.978 Y16.134 E47.23524
G1 X28.324 Y15.082 E47.36309
G1 X29.741 Y14.047 E47.49439
G1 X31.192 Y13.061 E47.62570
G1 X32.715 Y12.101 E47.76046
G1 X34.230 Y11.215 E47.89176
G1 X35.733 Y10.403 E48.01961
G1 X37.304 Y9.620 E48.15091
G1 X38.942 Y8.872 E48.28568
G1 X40.519 Y8.215 E48.41352
G1 X42.160 Y7.594 E48.54483
G1 X43.821 Y7.029 E48.67613
G1 X45.544 Y6.507 E48.81089
G1 X47.240 Y6.056 E48.94220
G1 X48.904 Y5.672 E49.07005
G1 X50.626 Y5.334 E49.20135
G1 X52.404 Y5.048 E49.33611
G1 X55.169 Y4.698 E49.54470
G1 X57.031 Y6.335 E49.73025
G1 X57.033 Y28.204 E51.36681
G1 X57.049 Y31.984 E51.64969
G1 X57.084 Y32.245 E51.66938
G1 X57.218 Y32.724 E51.70661
G1 X57.428 Y33.159 E51.74278
G1 X57.573 Y33.379 E51.76247
G1 X57.891 Y33.743 E51.79864
G1 X58.279 Y34.054 E51.83587
G1 X58.505 Y34.189 E51.85555
G1 X58.949 Y34.379 E51.89173
G1 X59.434 Y34.491 E51.92895
G1 X59.945 Y34.514 E51.96723
G1 X60.193 Y34.491 E51.98587
G1 X60.664 Y34.383 E52.02204
G1 X61.134 Y34.182 E52.06032
G1 X61.549 Y33.907 E52.09754
G1 X61.736 Y33.743 E52.11618
G1 X62.054 Y33.379 E52.15235
G1 X62.316 Y32.940 E52.19063
G1 X62.414 Y32.710 E52.20926
G1 X62.542 Y32.245 E52.24544
G1 X62.590 Y31.699 E52.28645
G1 X62.595 Y6.342 E54.18399
G1 X64.437 Y4.707 E54.36834
G1 X66.370 Y4.933 E54.51394
G1 X68.135 Y5.187 E54.64742
G1 X69.863 Y5.496 E54.77873
G1 X71.533 Y5.852 E54.90658
G1 X73.236 Y6.274 E55.03788
G1 X74.968 Y6.767 E55.17264
G1 X76.639 Y7.305 E55.30395
G1 X78.559 Y8.005 E55.45691
G1 X79.920 Y8.546 E55.56655
G1 X81.486 Y9.229 E55.69439
G1 X83.110 Y10.004 E55.82905
G1 X84.676 Y10.818 E55.96113
G1 X86.197 Y11.675 E56.09177
G1 X87.657 Y12.562 E56.21961
G1 X89.164 Y13.548 E56.35438
G1 X90.829 Y14.733 E56.50734
G1 X91.998 Y15.617 E56.61697
G1 X93.326 Y16.691 E56.74482
G1 X94.653 Y17.840 E56.87613
G1 X95.973 Y19.064 E57.01089
G1 X97.186 Y20.267 E57.13874
G1 X98.390 Y21.543 E57.27004
G1 X99.551 Y22.859 E57.40135
G1 X100.696 Y24.249 E57.53610
G1 X101.737 Y25.604 E57.66395
G1 X102.759 Y27.030 E57.79526
G1 X103.758 Y28.528 E57.93002
G1 X104.681 Y30.020 E58.06132
G1 X105.531 Y31.502 E58.18917
G1 X106.374 Y33.093 E58.32393
G1 X107.123 Y34.629 E58.45178
G1 X107.839 Y36.231 E58.58309
G1 X108.517 Y37.899 E58.71785
G1 X109.123 Y39.546 E58.84915
G1 X109.659 Y41.168 E58.97700
G1 X110.166 Y42.896 E59.11176
G1 X110.592 Y44.550 E59.23961
G1 X110.973 Y46.263 E59.37091
G1 X111.304 Y48.033 E59.50568
G1 X111.562 Y49.722 E59.63352
G1 X111.768 Y51.464 E59.76483
G1 X111.919 Y53.259 E59.89959
G1 X112.012 Y55.300 E60.05255
G1 X112.036 Y56.765 E60.16219
G1 X112.007 Y58.473 E60.29004
G1 X111.916 Y60.272 E60.42480
G1 X111.773 Y61.974 E60.55265
G1 X111.568 Y63.717 E60.68395
G1 X111.296 Y65.497 E60.81871
G1 X110.973 Y67.222 E60.95002
G1 X110.603 Y68.889 E61.07786
G1 X110.154 Y70.633 E61.21263
G1 X109.673 Y72.272 E61.34048
G1 X109.123 Y73.939 E61.47178
G1 X108.501 Y75.629 E61.60654
G1 X107.721 Y77.518 E61.75950
G1 X107.123 Y78.855 E61.86914
G1 X106.374 Y80.391 E61.99699
G1 X105.531 Y81.982 E62.13175
G1 X104.681 Y83.464 E62.25960
G1 X103.758 Y84.956 E62.39090
G1 X102.759 Y86.455 E62.52566
G1 X101.764 Y87.843 E62.65351
G1 X100.696 Y89.235 E62.78481
G1 X99.551 Y90.625 E62.91958
G1 X98.422 Y91.907 E63.04742
G1 X97.218 Y93.184 E63.17873
G1 X95.940 Y94.452 E63.31349
G1 X94.687 Y95.614 E63.44134
G1 X93.361 Y96.763 E63.57264
G1 X91.962 Y97.896 E63.70741
G1 X90.561 Y98.953 E63.83870
G1 X89.164 Y99.936 E63.96656
G1 X87.657 Y100.922 E64.10132
G1 X86.197 Y101.809 E64.22916
G1 X84.668 Y102.670 E64.36047
G1 X83.070 Y103.500 E64.49523
G1 X81.486 Y104.255 E64.62653
G1 X79.920 Y104.938 E64.75438
G1 X78.247 Y105.603 E64.88914
G1 X76.639 Y106.180 E65.01699
G1 X74.968 Y106.717 E65.14830
G1 X73.237 Y107.210 E65.28306
G1 X71.578 Y107.622 E65.41091
G1 X69.863 Y107.988 E65.54221
G1 X68.090 Y108.304 E65.67698
G1 X66.065 Y108.585 E65.82994
G1 X64.609 Y108.744 E65.93957
G1 X62.905 Y108.873 E66.06742
G1 X61.106 Y108.948 E66.20218
G1 X59.398 Y108.963 E66.33003
G1 X57.644 Y108.919 E66.46133
G1 X55.892 Y108.817 E66.59264
G1 X54.099 Y108.651 E66.72740
G1 X52.404 Y108.436 E66.85525
G1 X50.672 Y108.158 E66.98655
G1 X48.905 Y107.812 E67.12131
G1 X47.240 Y107.428 E67.24916
G1 X45.544 Y106.977 E67.38047
G1 X43.821 Y106.455 E67.51523
G1 X42.203 Y105.906 E67.64308
G1 X40.562 Y105.286 E67.77438
G1 X38.899 Y104.594 E67.90914
G1 X37.345 Y103.884 E68.03699
G1 X35.774 Y103.103 E68.16829
G1 X34.190 Y102.246 E68.30305
