; generated by Slic3r 1.3.0 on 2021-01-01 at 19:33:42

; external perimeters extrusion width = 0.44mm (2.78mm^3/s)
; perimeters extrusion width = 0.40mm (7.14mm^3/s)
; infill extrusion width = 0.50mm (10.97mm^3/s)
; solid infill extrusion width = 0.60mm (6.68mm^3/s)
; top infill extrusion width = 0.40mm (2.14mm^3/s)

M107
M190 S80 ; set bed temperature and wait for it to be reached
M104 S210 ; set temperature
G28 ; home all axes
G1 Z5 F5000 ; lift nozzle

; Filament gcode

M109 S210 ; set temperature and wait for it to be reached
G21 ; set units to millimeters
G90 ; use absolute coordinates
M82 ; use absolute distances for extrusion
G92 E0
G1 Z0.300 F30000.000
G1 E-2.00000 F2400.00000
G92 E0
G1 X31.255 Y38.166 F30000.000
G1 E2.00000 F2400.00000
G1 F2100
G1 X32.969 Y36.914 E2.14175
G1 X35.403 Y36.366 E2.30845
G1 X55.303 Y36.366 E3.63788
G1 X57.387 Y36.762 E3.77963
G1 X59.181 Y37.896 E3.92139
G1 X60.433 Y39.610 E4.06314
G1 X60.981 Y42.044 E4.22984
G1 X60.981 Y61.944 E5.55927
G1 X60.585 Y64.028 E5.70102
G1 X59.450 Y65.822 E5.84278
G1 X57.737 Y67.074 E5.98453
G1 X55.303 Y67.622 E6.15123
G1 X35.403 Y67.622 E7.48066
G1 X33.318 Y67.226 E7.62241
G1 X31.525 Y66.091 E7.76417
G1 X30.273 Y64.378 E7.90592
G1 X29.725 Y61.944 E8.07262
G1 X29.725 Y42.044 E9.40204
G1 X30.121 Y39.959 E9.54380
G1 X31.223 Y38.217 E9.68155
G1 X31.784 Y38.391 F30000.000
G1 F2100
G1 X33.469 Y37.279 E9.81639
G1 X35.403 Y36.901 E9.94804
G1 X55.303 Y36.901 E11.27747
G1 X57.282 Y37.298 E11.41231
G1 X58.956 Y38.425 E11.54715
G1 X60.068 Y40.110 E11.68199
G1 X60.445 Y42.044 E11.81365
G1 X60.445 Y61.944 E13.14308
G1 X60.049 Y63.923 E13.27792
G1 X58.922 Y65.597 E13.41276
G1 X57.237 Y66.709 E13.54760
G1 X55.303 Y67.086 E13.67925
G1 X35.403 Y67.086 E15.00868
G1 X33.424 Y66.690 E15.14352
G1 X31.749 Y65.563 E15.27836
G1 X30.638 Y63.878 E15.41320
G1 X30.260 Y61.944 E15.54486
G1 X30.260 Y42.044 E16.87429
G1 X30.657 Y40.065 E17.00913
G1 X31.750 Y38.440 E17.13996
G1 X32.311 Y38.629 F30000.000
G1 F2100
G1 X33.961 Y37.669 E17.26751
G1 X35.403 Y37.437 E17.36508
G1 X55.303 Y37.437 E18.69451
G1 X57.171 Y37.833 E18.82206
G1 X58.718 Y38.952 E18.94961
G1 X59.678 Y40.602 E19.07717
G1 X59.910 Y42.044 E19.17474
G1 X59.910 Y61.944 E20.50416
G1 X59.514 Y63.812 E20.63172
G1 X58.395 Y65.359 E20.75927
G1 X56.745 Y66.319 E20.88682
G1 X55.303 Y66.551 E20.98439
G1 X35.403 Y66.551 E22.31382
G1 X33.535 Y66.155 E22.44137
G1 X31.988 Y65.036 E22.56892
G1 X31.028 Y63.386 E22.69648
G1 X30.796 Y61.944 E22.79404
G1 X30.796 Y42.044 E24.12347
G1 X31.192 Y40.176 E24.25102
G1 X32.276 Y38.678 E24.37457
G1 X32.835 Y38.884 F30000.000
G1 F2100
G1 X34.442 Y38.088 E24.49439
G1 X35.403 Y37.973 E24.55903
G1 X55.303 Y37.973 E25.88845
G1 X57.052 Y38.368 E26.00828
G1 X58.462 Y39.476 E26.12810
G1 X59.259 Y41.083 E26.24792
G1 X59.374 Y42.044 E26.31255
G1 X59.374 Y61.944 E27.64198
G1 X58.979 Y63.693 E27.76180
G1 X57.870 Y65.103 E27.88163
G1 X56.264 Y65.900 E28.00145
G1 X55.303 Y66.015 E28.06608
G1 X35.403 Y66.015 E29.39551
G1 X33.653 Y65.620 E29.51533
G1 X32.243 Y64.511 E29.63515
G1 X31.447 Y62.905 E29.75498
G1 X31.332 Y61.944 E29.81961
G1 X31.332 Y42.044 E31.14904
G1 X31.727 Y40.294 E31.26886
G1 X32.798 Y38.932 E31.38468
G1 X33.357 Y39.161 F30000.000
G1 F2100
G1 X35.403 Y38.508 E31.52815
G1 X55.303 Y38.508 E32.85758
G1 X56.926 Y38.903 E32.96914
G1 X58.186 Y39.998 E33.08069
G1 X58.839 Y42.044 E33.22417
G1 X58.839 Y61.944 E34.55360
G1 X58.444 Y63.567 E34.66515
G1 X57.349 Y64.827 E34.77671
G1 X55.303 Y65.480 E34.92018
G1 X35.403 Y65.480 E36.24961
G1 X33.780 Y65.085 E36.36117
G1 X32.520 Y63.990 E36.47273
G1 X31.867 Y61.944 E36.61620
G1 X31.867 Y42.044 E37.94563
G1 X32.262 Y40.421 E38.05719
G1 X33.317 Y39.206 E38.16474
G1 X33.877 Y39.681 F30000.000
G1 F2100
G1 X34.264 Y39.295 E38.20566
G1 X56.442 Y39.295 E39.86533
G1 X58.052 Y40.905 E40.03578
G1 X58.052 Y63.083 E41.69546
G1 X56.442 Y64.693 E41.86591
G1 X34.264 Y64.693 E43.52558
G1 X32.654 Y63.083 E43.69603
G1 X32.654 Y40.905 E45.35570
G1 X33.835 Y39.724 E45.48073
G1 X34.302 Y40.106 F30000.000
G1 F2100
G1 X34.513 Y39.895 E45.50306
G1 X56.193 Y39.895 E47.12553
G1 X57.452 Y41.154 E47.25879
G1 X57.452 Y62.834 E48.88126
G1 X56.193 Y64.093 E49.01451
G1 X34.513 Y64.093 E50.63699
G1 X33.254 Y62.834 E50.77024
G1 X33.254 Y41.154 E52.39272
G1 X34.259 Y40.148 E52.49915
G1 X34.726 Y40.530 F30000.000
G1 F2100
G1 X34.761 Y40.495 E52.50288
G1 X55.945 Y40.495 E54.08816
G1 X56.852 Y41.402 E54.18421
G1 X56.852 Y62.586 E55.76949
G1 X55.945 Y63.493 E55.86554
G1 X34.761 Y63.493 E57.45082
G1 X33.854 Y62.586 E57.54687
G1 X33.854 Y41.402 E59.13215
G1 X34.683 Y40.572 E59.21999
G1 X35.010 Y41.095 F30000.000
G1 F2100
G1 X55.696 Y41.095 E60.76807
G1 X56.252 Y41.651 E60.82692
G1 X56.252 Y62.337 E62.37500
G1 X55.696 Y62.893 E62.43386
G1 X35.010 Y62.893 E63.98194
G1 X34.454 Y62.337 E64.04080
G1 X34.454 Y41.651 E65.58888
G1 X34.967 Y41.137 E65.64325
G1 X35.258 Y41.695 F30000.000
G1 F2100
G1 X55.448 Y41.695 E67.15413
G1 X55.652 Y41.899 E67.17579
G1 X55.652 Y62.089 E68.68667
G1 X55.448 Y62.293 E68.70833
G1 X35.258 Y62.293 E70.21921
G1 X35.054 Y62.089 E70.24087
G1 X35.054 Y41.899 E71.75176
G1 X35.216 Y41.737 E71.76893
G1 E69.76893 F2400.00000
G92 E0
G1 X55.003 Y61.644 F30000.000
G1 E2.00000 F2400.00000
G1 F2100
G1 X35.703 Y61.644 E3.28934
G1 X35.703 Y42.344 E4.57869
G1 X55.003 Y42.344 E5.86803
G1 X55.003 Y61.584 E7.15337
G1 X54.617 Y61.540 F30000.000
G1 X54.467 Y61.108 F30000.000
G1 F2100
G1 X36.239 Y61.108 E8.37115
G1 X36.239 Y42.880 E9.58893
G1 X54.467 Y42.880 E10.80671
G1 X54.467 Y61.048 E12.02048
G1 X53.875 Y60.630 F30000.000
G1 F2100
G1 X53.989 Y60.516 E12.03130
G1 X53.989 Y59.753 E12.08258
G1 X53.112 Y60.630 E12.16593
G1 X52.350 Y60.630 E12.21721
G1 X53.989 Y58.991 E12.37308
G1 X53.989 Y58.228 E12.42437
G1 X51.587 Y60.630 E12.65277
G1 X50.825 Y60.630 E12.70405
G1 X53.989 Y57.466 E13.00497
G1 X53.989 Y56.703 E13.05626
G1 X50.062 Y60.630 E13.42971
G1 X49.299 Y60.630 E13.48099
G1 X53.989 Y55.940 E13.92696
G1 X53.989 Y55.178 E13.97825
G1 X48.537 Y60.630 E14.49675
G1 X47.774 Y60.630 E14.54803
G1 X53.989 Y54.415 E15.13906
G1 X53.989 Y53.653 E15.19034
G1 X47.012 Y60.630 E15.85390
G1 X46.249 Y60.630 E15.90518
G1 X53.989 Y52.890 E16.64126
G1 X53.989 Y52.128 E16.69254
G1 X45.487 Y60.630 E17.50115
G1 X44.724 Y60.630 E17.55243
G1 X53.989 Y51.365 E18.43356
G1 X53.989 Y50.603 E18.48484
G1 X43.962 Y60.630 E19.43850
G1 X43.199 Y60.630 E19.48979
G1 X53.989 Y49.840 E20.51597
G1 X53.989 Y49.077 E20.56725
G1 X42.436 Y60.630 E21.66596
G1 X41.674 Y60.630 E21.71724
G1 X53.989 Y48.315 E22.88848
G1 X53.989 Y47.552 E22.93976
G1 X40.911 Y60.630 E24.18352
G1 X40.149 Y60.630 E24.23480
G1 X53.989 Y46.790 E25.55109
G1 X53.989 Y46.027 E25.60237
G1 X39.386 Y60.630 E26.99119
G1 X38.624 Y60.630 E27.04247
G1 X53.989 Y45.265 E28.50381
G1 X53.989 Y44.502 E28.55509
G1 X37.861 Y60.630 E30.08895
G1 X37.099 Y60.630 E30.14024
G1 X53.989 Y43.740 E31.74663
G1 X53.989 Y43.358 E31.77227
G1 X53.607 Y43.358 E31.79791
G1 X36.717 Y60.248 E33.40431
G1 X36.717 Y59.486 E33.45559
G1 X52.845 Y43.358 E34.98946
G1 X52.082 Y43.358 E35.04074
G1 X36.717 Y58.723 E36.50208
G1 X36.717 Y57.961 E36.55337
G1 X51.320 Y43.358 E37.94219
G1 X50.557 Y43.358 E37.99347
G1 X36.717 Y57.198 E39.30976
G1 X36.717 Y56.436 E39.36104
G1 X49.795 Y43.358 E40.60481
G1 X49.032 Y43.358 E40.65609
G1 X36.717 Y55.673 E41.82733
G1 X36.717 Y54.910 E41.87861
G1 X48.269 Y43.358 E42.97733
G1 X47.507 Y43.358 E43.02861
G1 X36.717 Y54.148 E44.05480
G1 X36.717 Y53.385 E44.10608
G1 X46.744 Y43.358 E45.05974
G1 X45.982 Y43.358 E45.11103
G1 X36.717 Y52.623 E45.99216
G1 X36.717 Y51.860 E46.04345
G1 X45.219 Y43.358 E46.85206
G1 X44.457 Y43.358 E46.90334
G1 X36.717 Y51.098 E47.63942
G1 X36.717 Y50.335 E47.69071
G1 X43.694 Y43.358 E48.35427
G1 X42.932 Y43.358 E48.40555
G1 X36.717 Y49.573 E48.99658
G1 X36.717 Y48.810 E49.04787
G1 X42.169 Y43.358 E49.56637
G1 X41.406 Y43.358 E49.61766
G1 X36.717 Y48.047 E50.06364
G1 X36.717 Y47.285 E50.11492
G1 X40.644 Y43.358 E50.48837
G1 X39.881 Y43.358 E50.53966
G1 X36.717 Y46.522 E50.84059
G1 X36.717 Y45.760 E50.89187
G1 X39.119 Y43.358 E51.12027
G1 X38.356 Y43.358 E51.17155
G1 X36.717 Y44.997 E51.32743
G1 X36.717 Y44.235 E51.37872
G1 X37.594 Y43.358 E51.46207
G1 X36.831 Y43.358 E51.51335
G1 X36.718 Y43.472 E51.52416
G1 Z0.500 F30000.000
G1 X54.706 Y61.347 F30000.000
G1 F6000
G1 X36.000 Y61.347 E52.07956
G1 X36.000 Y42.641 E52.63496
G1 X54.706 Y42.641 E53.19036
G1 X54.706 Y61.287 E53.74398
G1 X55.083 Y61.724 F30000.000
G1 F2100
G1 X35.623 Y61.724 E54.38649
G1 X35.623 Y42.264 E55.02901
G1 X55.083 Y42.264 E55.67153
G1 X55.083 Y61.664 E56.31206
G1 X54.697 Y61.620 F30000.000
G1 X54.297 Y43.147 F30000.000
G1 F3600
G1 X54.200 Y43.050 E56.31845
G1 X53.409 Y43.050 E56.35521
G1 X54.297 Y43.937 E56.41359
G1 X54.297 Y44.728 E56.45035
G1 X52.619 Y43.050 E56.56072
G1 X51.828 Y43.050 E56.59748
G1 X54.297 Y45.519 E56.75984
G1 X54.297 Y46.310 E56.79660
G1 X51.037 Y43.050 E57.01095
G1 X50.246 Y43.050 E57.04771
G1 X54.297 Y47.100 E57.31405
G1 X54.297 Y47.891 E57.35081
G1 X49.456 Y43.050 E57.66914
G1 X48.665 Y43.050 E57.70591
G1 X54.297 Y48.682 E58.07623
G1 X54.297 Y49.473 E58.11299
G1 X47.874 Y43.050 E58.53530
G1 X47.084 Y43.050 E58.57206
G1 X54.297 Y50.263 E59.04637
G1 X54.297 Y51.054 E59.08313
G1 X46.293 Y43.050 E59.60942
G1 X45.502 Y43.050 E59.64619
G1 X54.297 Y51.845 E60.22447
G1 X54.297 Y52.636 E60.26123
G1 X44.711 Y43.050 E60.89151
G1 X43.921 Y43.050 E60.92827
G1 X54.297 Y53.426 E61.61054
G1 X54.297 Y54.217 E61.64730
G1 X43.130 Y43.050 E62.38156
G1 X42.339 Y43.050 E62.41832
G1 X54.297 Y55.008 E63.20457
G1 X54.297 Y55.798 E63.24133
G1 X41.548 Y43.050 E64.07957
G1 X40.758 Y43.050 E64.11634
G1 X54.297 Y56.589 E65.00657
G1 X54.297 Y57.380 E65.04333
G1 X39.967 Y43.050 E65.98555
G1 X39.176 Y43.050 E66.02231
G1 X54.297 Y58.171 E67.01652
G1 X54.297 Y58.961 E67.05329
G1 X38.385 Y43.050 E68.09949
G1 X37.595 Y43.050 E68.13625
G1 X54.297 Y59.752 E69.23445
G1 X54.297 Y60.543 E69.27121
G1 X36.804 Y43.050 E70.42139
G1 X36.409 Y43.050 E70.43978
G1 X36.409 Y43.445 E70.45816
G1 X53.902 Y60.938 E71.60834
G1 X53.111 Y60.938 E71.64511
G1 X36.409 Y44.236 E72.74330
G1 X36.409 Y45.026 E72.78007
G1 X52.320 Y60.938 E73.82627
G1 X51.530 Y60.938 E73.86304
G1 X36.409 Y45.817 E74.85725
G1 X36.409 Y46.608 E74.89401
G1 X50.739 Y60.938 E75.83624
G1 X49.948 Y60.938 E75.87300
G1 X36.409 Y47.399 E76.76323
G1 X36.409 Y48.189 E76.79999
G1 X49.157 Y60.938 E77.63824
G1 X48.367 Y60.938 E77.67500
G1 X36.409 Y48.980 E78.46125
G1 X36.409 Y49.771 E78.49801
G1 X47.576 Y60.938 E79.23227
G1 X46.785 Y60.938 E79.26904
G1 X36.409 Y50.562 E79.95131
G1 X36.409 Y51.352 E79.98807
G1 X45.995 Y60.938 E80.61835
G1 X45.204 Y60.938 E80.65511
G1 X36.409 Y52.143 E81.23340
G1 X36.409 Y52.934 E81.27016
G1 X44.413 Y60.938 E81.79646
G1 X43.622 Y60.938 E81.83322
G1 X36.409 Y53.724 E82.30752
G1 X36.409 Y54.515 E82.34429
G1 X42.832 Y60.938 E82.76660
G1 X42.041 Y60.938 E82.80337
G1 X36.409 Y55.306 E83.17369
G1 X36.409 Y56.097 E83.21045
G1 X41.250 Y60.938 E83.52878
G1 X40.459 Y60.938 E83.56555
G1 X36.409 Y56.887 E83.83189
G1 X36.409 Y57.678 E83.86865
G1 X39.669 Y60.938 E84.08300
G1 X38.878 Y60.938 E84.11977
G1 X36.409 Y58.469 E84.28213
G1 X36.409 Y59.260 E84.31889
G1 X38.087 Y60.938 E84.42926
G1 X37.296 Y60.938 E84.46602
G1 X36.409 Y60.050 E84.52440
G1 X36.409 Y60.841 E84.56116
G1 X36.506 Y60.938 E84.56754
G1 Z0.700 F30000.000
G1 X54.706 Y61.347 F30000.000
G1 F6000
G1 X36.000 Y61.347 E85.12294
G1 X36.000 Y42.641 E85.67834
G1 X54.706 Y42.641 E86.23374
G1 X54.706 Y61.287 E86.78736
G1 X55.083 Y61.724 F30000.000
G1 F2100
G1 X35.623 Y61.724 E87.42988
G1 X35.623 Y42.264 E88.07239
G1 X55.083 Y42.264 E88.71491
G1 X55.083 Y61.664 E89.35545
G1 X54.697 Y61.620 F30000.000
G1 X54.200 Y60.938 F30000.000
G1 F3600
G1 X54.297 Y60.841 E89.36183
G1 X54.297 Y60.050 E89.39859
G1 X53.409 Y60.938 E89.45697
G1 X52.619 Y60.938 E89.49373
G1 X54.297 Y59.260 E89.60410
G1 X54.297 Y58.469 E89.64086
G1 X51.828 Y60.938 E89.80322
G1 X51.037 Y60.938 E89.83998
G1 X54.297 Y57.678 E90.05433
G1 X54.297 Y56.887 E90.09109
G1 X50.246 Y60.938 E90.35743
G1 X49.456 Y60.938 E90.39419
G1 X54.297 Y56.097 E90.71252
G1 X54.297 Y55.306 E90.74929
G1 X48.665 Y60.938 E91.11961
G1 X47.874 Y60.938 E91.15637
G1 X54.297 Y54.515 E91.57868
G1 X54.297 Y53.725 E91.61545
G1 X47.084 Y60.938 E92.08975
G1 X46.293 Y60.938 E92.12651
G1 X54.297 Y52.934 E92.65280
G1 X54.297 Y52.143 E92.68957
G1 X45.502 Y60.938 E93.26785
G1 X44.711 Y60.938 E93.30462
G1 X54.297 Y51.352 E93.93489
G1 X54.297 Y50.562 E93.97165
G1 X43.921 Y60.938 E94.65392
G1 X43.130 Y60.938 E94.69068
G1 X54.297 Y49.771 E95.42494
G1 X54.297 Y48.980 E95.46170
G1 X42.339 Y60.938 E96.24795
G1 X41.548 Y60.938 E96.28471
G1 X54.297 Y48.189 E97.12295
G1 X54.297 Y47.399 E97.15972
G1 X40.758 Y60.938 E98.04995
G1 X39.967 Y60.938 E98.08671
G1 X54.297 Y46.608 E99.02893
G1 X54.297 Y45.817 E99.06569
G1 X39.176 Y60.938 E100.05990
G1 X38.385 Y60.938 E100.09667
G1 X54.297 Y45.026 E101.14287
G1 X54.297 Y44.236 E101.17963
G1 X37.595 Y60.938 E102.27783
G1 X36.804 Y60.938 E102.31459
G1 X54.297 Y43.445 E103.46477
G1 X54.297 Y43.050 E103.48316
G1 X53.902 Y43.050 E103.50154
G1 X36.409 Y60.543 E104.65172
G1 X36.409 Y59.752 E104.68849
G1 X53.111 Y43.050 E105.78668
G1 X52.320 Y43.050 E105.82345
G1 X36.409 Y58.961 E106.86965
G1 X36.409 Y58.171 E106.90642
G1 X51.530 Y43.050 E107.90063
G1 X50.739 Y43.050 E107.93739
G1 X36.409 Y57.380 E108.87962
G1 X36.409 Y56.589 E108.91638
G1 X49.948 Y43.050 E109.80661
G1 X49.157 Y43.050 E109.84337
G1 X36.409 Y55.799 E110.68162
G1 X36.409 Y55.008 E110.71838
G1 X48.367 Y43.050 E111.50463
G1 X47.576 Y43.050 E111.54139
G1 X36.409 Y54.217 E112.27565
G1 X36.409 Y53.426 E112.31242
G1 X46.785 Y43.050 E112.99468
G1 X45.995 Y43.050 E113.03145
G1 X36.409 Y52.636 E113.66173
G1 X36.409 Y51.845 E113.69849
G1 X45.204 Y43.050 E114.27678
G1 X44.413 Y43.050 E114.31354
G1 X36.409 Y51.054 E114.83984
G1 X36.409 Y50.263 E114.87660
G1 X43.622 Y43.050 E115.35090
G1 X42.832 Y43.050 E115.38767
G1 X36.409 Y49.473 E115.80998
G1 X36.409 Y48.682 E115.84674
G1 X42.041 Y43.050 E116.21707
G1 X41.250 Y43.050 E116.25383
G1 X36.409 Y47.891 E116.57216
G1 X36.409 Y47.100 E116.60893
G1 X40.459 Y43.050 E116.87527
G1 X39.669 Y43.050 E116.91203
G1 X36.409 Y46.310 E117.12638
G1 X36.409 Y45.519 E117.16314
G1 X38.878 Y43.050 E117.32550
G1 X38.087 Y43.050 E117.36227
G1 X36.409 Y44.728 E117.47264
G1 X36.409 Y43.937 E117.50940
G1 X37.296 Y43.050 E117.56778
G1 X36.506 Y43.050 E117.60454
G1 X36.409 Y43.147 E117.61092
M106 S255
G1 Z0.900 F30000.000
G1 X54.706 Y61.347 F30000.000
G1 F5312.6
G1 X36.000 Y61.347 E118.16632
G1 X36.000 Y42.641 E118.72172
G1 X54.706 Y42.641 E119.27712
G1 X54.706 Y61.287 E119.83074
G1 X55.083 Y61.724 F30000.000
G1 F1859.41
G1 X35.623 Y61.724 E120.47325
G1 X35.623 Y42.264 E121.11577
G1 X55.083 Y42.264 E121.75829
G1 X55.083 Y61.664 E122.39882
G1 X54.697 Y61.620 F30000.000
G1 X54.342 Y44.823 F30000.000
G1 F6375.12
G1 X52.524 Y43.005 E122.49653
G1 X49.292 Y43.005 E122.61937
G1 X54.342 Y48.055 E122.89080
G1 X54.342 Y51.287 E123.01364
G1 X46.060 Y43.005 E123.45878
G1 X42.828 Y43.005 E123.58162
G1 X54.342 Y54.519 E124.20049
G1 X54.342 Y57.751 E124.32333
G1 X39.596 Y43.005 E125.11591
G1 X36.364 Y43.005 E125.23875
G1 X54.342 Y60.983 E126.20505
G1 X51.110 Y60.983 E126.32789
G1 X36.364 Y46.237 E127.12048
G1 X36.364 Y49.469 E127.24331
G1 X47.878 Y60.983 E127.86218
G1 X44.646 Y60.983 E127.98502
G1 X36.364 Y52.701 E128.43017
G1 X36.364 Y55.933 E128.55300
G1 X41.414 Y60.983 E128.82443
G1 X38.182 Y60.983 E128.94727
G1 X36.364 Y59.165 E129.04498
G1 Z1.100 F30000.000
G1 X54.706 Y61.347 F30000.000
G1 F5312.6
G1 X36.000 Y61.347 E129.60038
G1 X36.000 Y42.641 E130.15578
G1 X54.706 Y42.641 E130.71118
G1 X54.706 Y61.287 E131.26480
G1 X55.083 Y61.724 F30000.000
G1 F1859.41
G1 X35.623 Y61.724 E131.90732
G1 X35.623 Y42.264 E132.54983
G1 X55.083 Y42.264 E133.19235
G1 X55.083 Y61.664 E133.83289
G1 X54.697 Y61.620 F30000.000
G1 X52.524 Y60.983 F30000.000
G1 F6375.12
G1 X54.342 Y59.165 E133.93060
G1 X54.342 Y55.933 E134.05343
G1 X49.292 Y60.983 E134.32486
