; generated by Slic3r 1.3.0 on 2020-05-30 at 15:25:43

; external perimeters extrusion width = 0.44mm (2.78mm^3/s)
; perimeters extrusion width = 0.40mm (7.14mm^3/s)
; infill extrusion width = 0.50mm (10.97mm^3/s)
; solid infill extrusion width = 0.60mm (6.68mm^3/s)
; top infill extrusion width = 0.40mm (2.14mm^3/s)

M107
M190 S80 ; set bed temperature and wait for it to be reached
M104 S200 ; set temperature
G28 ; home all axes
G1 Z5 F5000 ; lift nozzle

; Filament gcode

M109 S200 ; set temperature and wait for it to be reached
G21 ; set units to millimeters
G90 ; use absolute coordinates
M82 ; use absolute distances for extrusion
G92 E0
G1 Z0.300 F30000.000
G1 E-2.00000 F2400.00000
G92 E0
G1 X61.958 Y84.135 F30000.000
G1 E2.00000 F2400.00000
G1 F2100
G1 X63.608 Y83.175 E2.12755
G1 X65.050 Y82.943 E2.22512
G1 X134.950 Y82.943 E6.89482
G1 X136.818 Y83.339 E7.02237
G1 X138.365 Y84.458 E7.14992
G1 X139.325 Y86.108 E7.27748
G1 X139.557 Y87.550 E7.37505
G1 X139.557 Y112.450 E9.03850
G1 X139.161 Y114.318 E9.16605
G1 X138.042 Y115.865 E9.29361
G1 X136.392 Y116.825 E9.42116
G1 X134.950 Y117.057 E9.51873
G1 X65.050 Y117.057 E14.18843
G1 X63.182 Y116.661 E14.31598
G1 X61.635 Y115.542 E14.44353
G1 X60.675 Y113.892 E14.57108
G1 X60.443 Y112.450 E14.66865
G1 X60.443 Y87.550 E16.33211
G1 X60.839 Y85.682 E16.45966
G1 X61.923 Y84.184 E16.58320
G1 X62.482 Y84.390 F30000.000
G1 F2100
G1 X64.089 Y83.594 E16.70303
G1 X65.050 Y83.479 E16.76766
G1 X134.950 Y83.479 E21.43736
G1 X136.700 Y83.874 E21.55718
G1 X138.110 Y84.982 E21.67700
G1 X138.906 Y86.589 E21.79683
G1 X139.021 Y87.550 E21.86146
G1 X139.021 Y112.450 E23.52492
G1 X138.626 Y114.200 E23.64474
G1 X137.518 Y115.610 E23.76456
G1 X135.911 Y116.406 E23.88438
G1 X134.950 Y116.521 E23.94902
G1 X65.050 Y116.521 E28.61871
G1 X63.300 Y116.126 E28.73854
G1 X61.890 Y115.018 E28.85836
G1 X61.094 Y113.411 E28.97818
G1 X60.979 Y112.450 E29.04282
G1 X60.979 Y87.550 E30.70627
G1 X61.374 Y85.800 E30.82609
G1 X62.445 Y84.438 E30.94191
G1 X63.004 Y84.667 F30000.000
G1 F2100
G1 X65.050 Y84.014 E31.08538
G1 X134.950 Y84.014 E35.75508
G1 X136.573 Y84.409 E35.86664
G1 X137.833 Y85.504 E35.97819
G1 X138.486 Y87.550 E36.12167
G1 X138.486 Y112.450 E37.78512
G1 X138.091 Y114.073 E37.89668
G1 X136.996 Y115.333 E38.00824
G1 X134.950 Y115.986 E38.15171
G1 X65.050 Y115.986 E42.82141
G1 X63.427 Y115.591 E42.93297
G1 X62.167 Y114.496 E43.04453
G1 X61.514 Y112.450 E43.18800
G1 X61.514 Y87.550 E44.85146
G1 X61.909 Y85.927 E44.96301
G1 X62.964 Y84.712 E45.07056
G1 X63.524 Y85.187 F30000.000
G1 F2100
G1 X63.911 Y84.801 E45.11149
G1 X136.089 Y84.801 E50.51293
G1 X137.699 Y86.411 E50.68337
G1 X137.699 Y113.589 E52.71722
G1 X136.089 Y115.199 E52.88767
G1 X63.911 Y115.199 E58.28911
G1 X62.301 Y113.589 E58.45956
G1 X62.301 Y86.411 E60.49341
G1 X63.482 Y85.230 E60.61844
G1 X63.949 Y85.612 F30000.000
G1 F2100
G1 X64.160 Y85.401 E60.64077
G1 X135.840 Y85.401 E66.00501
G1 X137.099 Y86.660 E66.13826
G1 X137.099 Y113.340 E68.13491
G1 X135.840 Y114.599 E68.26817
G1 X64.160 Y114.599 E73.63241
G1 X62.901 Y113.340 E73.76566
G1 X62.901 Y86.660 E75.76231
G1 X63.906 Y85.654 E75.86874
G1 X64.373 Y86.036 F30000.000
G1 F2100
G1 X64.408 Y86.001 E75.87247
G1 X135.592 Y86.001 E81.19951
G1 X136.499 Y86.908 E81.29557
G1 X136.499 Y113.092 E83.25502
G1 X135.592 Y113.999 E83.35108
G1 X64.408 Y113.999 E88.67812
G1 X63.501 Y113.092 E88.77418
G1 X63.501 Y86.908 E90.73363
G1 X64.331 Y86.078 E90.82146
G1 X64.657 Y86.601 F30000.000
G1 F2100
G1 X135.343 Y86.601 E96.11131
G1 X135.899 Y87.157 E96.17017
G1 X135.899 Y112.843 E98.09242
G1 X135.343 Y113.399 E98.15128
G1 X64.657 Y113.399 E103.44113
G1 X64.101 Y112.843 E103.49998
G1 X64.101 Y87.157 E105.42224
G1 X64.614 Y86.643 E105.47661
G1 X64.905 Y87.201 F30000.000
G1 F2100
G1 X135.095 Y87.201 E110.72926
G1 X135.299 Y87.405 E110.75092
G1 X135.299 Y112.595 E112.63598
G1 X135.095 Y112.799 E112.65764
G1 X64.905 Y112.799 E117.91028
G1 X64.701 Y112.595 E117.93194
G1 X64.701 Y87.405 E119.81700
G1 X64.863 Y87.243 E119.83417
G1 E117.83417 F2400.00000
G92 E0
G1 X134.650 Y112.150 F30000.000
G1 E2.00000 F2400.00000
G1 F2100
G1 X65.350 Y112.150 E6.62961
G1 X65.350 Y87.850 E8.25299
G1 X134.650 Y87.850 E12.88260
G1 X134.650 Y112.090 E14.50196
G1 X134.253 Y112.105 F30000.000
G1 X134.114 Y111.614 F30000.000
G1 F2100
G1 X65.886 Y111.614 E19.06001
G1 X65.886 Y88.386 E20.61182
G1 X134.114 Y88.386 E25.16987
G1 X134.114 Y111.554 E26.71767
G1 X133.522 Y111.136 F30000.000
G1 F2100
G1 X133.636 Y111.022 E26.72850
G1 X133.636 Y110.258 E26.77990
G1 X132.758 Y111.136 E26.86341
G1 X131.995 Y111.136 E26.91480
G1 X133.636 Y109.495 E27.07100
G1 X133.636 Y108.732 E27.12240
G1 X131.232 Y111.136 E27.35128
G1 X130.468 Y111.136 E27.40267
G1 X133.636 Y107.968 E27.70423
G1 X133.636 Y107.205 E27.75563
G1 X129.705 Y111.136 E28.12987
G1 X128.942 Y111.136 E28.18126
G1 X133.636 Y106.442 E28.62819
G1 X133.636 Y105.678 E28.67959
G1 X128.178 Y111.136 E29.19920
G1 X127.415 Y111.136 E29.25059
G1 X133.636 Y104.915 E29.84288
G1 X133.636 Y104.151 E29.89428
G1 X126.651 Y111.136 E30.55925
G1 X125.888 Y111.136 E30.61064
G1 X133.636 Y103.388 E31.34830
G1 X133.636 Y102.625 E31.39970
G1 X125.125 Y111.136 E32.21004
G1 X124.361 Y111.136 E32.26143
G1 X133.636 Y101.861 E33.14445
G1 X133.636 Y101.098 E33.19585
G1 X123.598 Y111.136 E34.15155
G1 X122.835 Y111.136 E34.20295
G1 X133.636 Y100.335 E35.23133
G1 X133.636 Y99.571 E35.28273
G1 X122.071 Y111.136 E36.38380
G1 X121.308 Y111.136 E36.43519
G1 X133.636 Y98.808 E37.60894
G1 X133.636 Y98.044 E37.66034
G1 X120.544 Y111.136 E38.90677
G1 X119.781 Y111.136 E38.95817
G1 X133.636 Y97.281 E40.27728
G1 X133.636 Y96.518 E40.32868
G1 X119.018 Y111.136 E41.72048
G1 X118.254 Y111.136 E41.77187
G1 X133.636 Y95.754 E43.23636
G1 X133.636 Y94.991 E43.28775
G1 X117.491 Y111.136 E44.82492
G1 X116.728 Y111.136 E44.87631
G1 X133.636 Y94.228 E46.48616
G1 X133.636 Y93.464 E46.53755
G1 X115.964 Y111.136 E48.22008
G1 X115.201 Y111.136 E48.27148
G1 X133.636 Y92.701 E50.02669
G1 X133.636 Y91.937 E50.07808
G1 X114.437 Y111.136 E51.90598
G1 X113.674 Y111.136 E51.95737
G1 X133.636 Y91.174 E53.85795
G1 X133.636 Y90.411 E53.90934
G1 X112.911 Y111.136 E55.88260
G1 X112.147 Y111.136 E55.93400
G1 X133.636 Y89.647 E57.97994
G1 X133.636 Y88.884 E58.03134
G1 X111.384 Y111.136 E60.14996
G1 X110.621 Y111.136 E60.20136
G1 X132.892 Y88.864 E62.32185
G1 X132.128 Y88.864 E62.37324
G1 X109.857 Y111.136 E64.49373
G1 X109.094 Y111.136 E64.54512
G1 X131.365 Y88.864 E66.66561
G1 X130.602 Y88.864 E66.71701
G1 X108.330 Y111.136 E68.83750
G1 X107.567 Y111.136 E68.88889
G1 X129.838 Y88.864 E71.00938
G1 X129.075 Y88.864 E71.06078
G1 X106.804 Y111.136 E73.18127
G1 X106.040 Y111.136 E73.23266
G1 X128.312 Y88.864 E75.35315
G1 X127.548 Y88.864 E75.40454
G1 X105.277 Y111.136 E77.52503
G1 X104.514 Y111.136 E77.57643
G1 X126.785 Y88.864 E79.69692
G1 X126.021 Y88.864 E79.74831
G1 X103.750 Y111.136 E81.86880
G1 X102.987 Y111.136 E81.92020
G1 X125.258 Y88.864 E84.04069
G1 X124.495 Y88.864 E84.09208
G1 X102.223 Y111.136 E86.21257
G1 X101.460 Y111.136 E86.26396
G1 X123.731 Y88.864 E88.38445
G1 X122.968 Y88.864 E88.43585
G1 X100.697 Y111.136 E90.55634
G1 X99.933 Y111.136 E90.60773
G1 X122.205 Y88.864 E92.72822
G1 X121.441 Y88.864 E92.77962
G1 X99.170 Y111.136 E94.90011
G1 X98.407 Y111.136 E94.95150
G1 X120.678 Y88.864 E97.07199
G1 X119.914 Y88.864 E97.12338
G1 X97.643 Y111.136 E99.24387
G1 X96.880 Y111.136 E99.29527
G1 X119.151 Y88.864 E101.41576
G1 X118.388 Y88.864 E101.46715
G1 X96.116 Y111.136 E103.58764
G1 X95.353 Y111.136 E103.63903
G1 X117.624 Y88.864 E105.75952
G1 X116.861 Y88.864 E105.81092
G1 X94.590 Y111.136 E107.93141
G1 X93.826 Y111.136 E107.98280
G1 X116.098 Y88.864 E110.10329
G1 X115.334 Y88.864 E110.15469
G1 X93.063 Y111.136 E112.27518
G1 X92.300 Y111.136 E112.32657
G1 X114.571 Y88.864 E114.44706
G1 X113.807 Y88.864 E114.49845
G1 X91.536 Y111.136 E116.61894
G1 X90.773 Y111.136 E116.67034
G1 X113.044 Y88.864 E118.79083
G1 X112.281 Y88.864 E118.84222
G1 X90.009 Y111.136 E120.96271
G1 X89.246 Y111.136 E121.01411
G1 X111.517 Y88.864 E123.13459
G1 X110.754 Y88.864 E123.18599
G1 X88.483 Y111.136 E125.30648
G1 X87.719 Y111.136 E125.35787
G1 X109.991 Y88.864 E127.47836
G1 X109.227 Y88.864 E127.52976
G1 X86.956 Y111.136 E129.65025
G1 X86.193 Y111.136 E129.70164
G1 X108.464 Y88.864 E131.82213
G1 X107.700 Y88.864 E131.87352
G1 X85.429 Y111.136 E133.99401
G1 X84.666 Y111.136 E134.04541
G1 X106.937 Y88.864 E136.16590
G1 X106.174 Y88.864 E136.21729
G1 X83.903 Y111.136 E138.33778
G1 X83.139 Y111.136 E138.38918
G1 X105.410 Y88.864 E140.50966
G1 X104.647 Y88.864 E140.56106
G1 X82.376 Y111.136 E142.68155
G1 X81.612 Y111.136 E142.73294
G1 X103.884 Y88.864 E144.85343
G1 X103.120 Y88.864 E144.90483
G1 X80.849 Y111.136 E147.02532
G1 X80.086 Y111.136 E147.07671
G1 X102.357 Y88.864 E149.19720
G1 X101.593 Y88.864 E149.24859
G1 X79.322 Y111.136 E151.36908
G1 X78.559 Y111.136 E151.42048
G1 X100.830 Y88.864 E153.54097
G1 X100.067 Y88.864 E153.59236
G1 X77.796 Y111.136 E155.71285
G1 X77.032 Y111.136 E155.76424
G1 X99.303 Y88.864 E157.88473
G1 X98.540 Y88.864 E157.93613
G1 X76.269 Y111.136 E160.05662
G1 X75.505 Y111.136 E160.10801
G1 X97.777 Y88.864 E162.22850
G1 X97.013 Y88.864 E162.27990
G1 X74.742 Y111.136 E164.40039
G1 X73.979 Y111.136 E164.45178
G1 X96.250 Y88.864 E166.57227
G1 X95.486 Y88.864 E166.62366
G1 X73.215 Y111.136 E168.74415
G1 X72.452 Y111.136 E168.79555
G1 X94.723 Y88.864 E170.91604
G1 X93.960 Y88.864 E170.96743
G1 X71.689 Y111.136 E173.08792
G1 X70.925 Y111.136 E173.13931
G1 X93.196 Y88.864 E175.25980
G1 X92.433 Y88.864 E175.31120
G1 X70.162 Y111.136 E177.43169
G1 X69.398 Y111.136 E177.48308
G1 X91.670 Y88.864 E179.60357
G1 X90.906 Y88.864 E179.65497
G1 X68.635 Y111.136 E181.77546
G1 X67.872 Y111.136 E181.82685
G1 X90.143 Y88.864 E183.94734
G1 X89.379 Y88.864 E183.99873
G1 X67.108 Y111.136 E186.11922
G1 X66.364 Y111.136 E186.16930
G1 X66.364 Y111.116 E186.17062
G1 X88.616 Y88.864 E188.28925
G1 X87.853 Y88.864 E188.34064
G1 X66.364 Y110.353 E190.38659
G1 X66.364 Y109.589 E190.43799
G1 X87.089 Y88.864 E192.41125
G1 X86.326 Y88.864 E192.46265
G1 X66.364 Y108.826 E194.36323
G1 X66.364 Y108.063 E194.41463
G1 X85.563 Y88.864 E196.24253
G1 X84.799 Y88.864 E196.29392
G1 X66.364 Y107.299 E198.04914
G1 X66.364 Y106.536 E198.10054
G1 X84.036 Y88.864 E199.78307
G1 X83.272 Y88.864 E199.83447
G1 X66.364 Y105.772 E201.44432
G1 X66.364 Y105.009 E201.49572
G1 X82.509 Y88.864 E203.03289
G1 X81.746 Y88.864 E203.08428
G1 X66.364 Y104.246 E204.54877
G1 X66.364 Y103.482 E204.60017
G1 X80.982 Y88.864 E205.99197
G1 X80.219 Y88.864 E206.04337
G1 X66.364 Y102.719 E207.36249
G1 X66.364 Y101.956 E207.41389
G1 X79.456 Y88.864 E208.66033
G1 X78.692 Y88.864 E208.71172
G1 X66.364 Y101.192 E209.88548
G1 X66.364 Y100.429 E209.93688
G1 X77.929 Y88.864 E211.03795
G1 X77.165 Y88.864 E211.08935
G1 X66.364 Y99.665 E212.11774
G1 X66.364 Y98.902 E212.16914
G1 X76.402 Y88.864 E213.12485
G1 X75.639 Y88.864 E213.17624
G1 X66.364 Y98.139 E214.05927
G1 X66.364 Y97.375 E214.11066
G1 X74.875 Y88.864 E214.92101
G1 X74.112 Y88.864 E214.97241
G1 X66.364 Y96.612 E215.71007
G1 X66.364 Y95.849 E215.76146
G1 X73.349 Y88.864 E216.42644
G1 X72.585 Y88.864 E216.47784
G1 X66.364 Y95.085 E217.07014
G1 X66.364 Y94.322 E217.12153
G1 X71.822 Y88.864 E217.64115
G1 X71.058 Y88.864 E217.69254
G1 X66.364 Y93.558 E218.13948
G1 X66.364 Y92.795 E218.19087
G1 X70.295 Y88.864 E218.56512
G1 X69.532 Y88.864 E218.61652
G1 X66.364 Y92.032 E218.91808
G1 X66.364 Y91.268 E218.96948
G1 X68.768 Y88.864 E219.19836
G1 X68.005 Y88.864 E219.24976
G1 X66.364 Y90.505 E219.40596
G1 X66.364 Y89.742 E219.45736
G1 X67.242 Y88.864 E219.54088
G1 X66.478 Y88.864 E219.59227
G1 X66.365 Y88.978 E219.60309
G1 Z0.500 F30000.000
G1 X134.353 Y111.853 F30000.000
G1 F6000
G1 X65.647 Y111.853 E221.64306
G1 X65.647 Y88.147 E222.34691
G1 X134.353 Y88.147 E224.38688
G1 X134.353 Y111.793 E225.08895
G1 X134.730 Y112.230 F30000.000
G1 F2100
G1 X65.270 Y112.230 E227.38234
G1 X65.270 Y87.770 E228.18994
G1 X134.730 Y87.770 E230.48332
G1 X134.730 Y112.170 E231.28894
G1 X134.333 Y112.185 F30000.000
G1 X133.944 Y88.653 F30000.000
G1 F3600
G1 X133.847 Y88.556 E231.29536
G1 X133.053 Y88.556 E231.33248
G1 X133.944 Y89.447 E231.39140
G1 X133.944 Y90.242 E231.42852
G1 X132.258 Y88.556 E231.53993
G1 X131.463 Y88.556 E231.57705
G1 X133.944 Y91.037 E231.74096
G1 X133.944 Y91.831 E231.77809
G1 X130.669 Y88.556 E231.99450
G1 X129.874 Y88.556 E232.03162
G1 X133.944 Y92.626 E232.30053
G1 X133.944 Y93.420 E232.33765
G1 X129.080 Y88.556 E232.65906
G1 X128.285 Y88.556 E232.69618
G1 X133.944 Y94.215 E233.07009
G1 X133.944 Y95.009 E233.10721
G1 X127.491 Y88.556 E233.53361
G1 X126.696 Y88.556 E233.57074
G1 X133.944 Y95.804 E234.04964
G1 X133.944 Y96.599 E234.08676
G1 X125.901 Y88.556 E234.61816
G1 X125.107 Y88.556 E234.65529
G1 X133.944 Y97.393 E235.23919
G1 X133.944 Y98.188 E235.27631
G1 X124.312 Y88.556 E235.91271
G1 X123.518 Y88.556 E235.94983
G1 X133.944 Y98.982 E236.63873
G1 X133.944 Y99.777 E236.67585
G1 X122.723 Y88.556 E237.41725
G1 X121.928 Y88.556 E237.45437
G1 X133.944 Y100.572 E238.24827
G1 X133.944 Y101.366 E238.28539
G1 X121.134 Y88.556 E239.13179
G1 X120.339 Y88.556 E239.16891
G1 X133.944 Y102.161 E240.06780
G1 X133.944 Y102.955 E240.10492
G1 X119.545 Y88.556 E241.05632
G1 X118.750 Y88.556 E241.09344
G1 X133.944 Y103.750 E242.09733
G1 X133.944 Y104.545 E242.13445
G1 X117.955 Y88.556 E243.19084
G1 X117.161 Y88.556 E243.22796
G1 X133.944 Y105.339 E244.33685
G1 X133.944 Y106.134 E244.37397
G1 X116.366 Y88.556 E245.53536
G1 X115.572 Y88.556 E245.57248
G1 X133.944 Y106.928 E246.78637
G1 X133.944 Y107.723 E246.82349
G1 X114.777 Y88.556 E248.08988
G1 X113.983 Y88.556 E248.12700
G1 X133.944 Y108.517 E249.44588
G1 X133.944 Y109.312 E249.48301
G1 X113.188 Y88.556 E250.85439
G1 X112.393 Y88.556 E250.89151
G1 X133.944 Y110.107 E252.31539
G1 X133.944 Y110.901 E252.35251
G1 X111.599 Y88.556 E253.82889
G1 X110.804 Y88.556 E253.86601
G1 X133.693 Y111.444 E255.37828
G1 X132.898 Y111.444 E255.41540
G1 X110.010 Y88.556 E256.92766
G1 X109.215 Y88.556 E256.96478
G1 X132.104 Y111.444 E258.47705
G1 X131.309 Y111.444 E258.51417
G1 X108.420 Y88.556 E260.02643
G1 X107.626 Y88.556 E260.06355
G1 X130.515 Y111.444 E261.57582
G1 X129.720 Y111.444 E261.61294
G1 X106.831 Y88.556 E263.12520
G1 X106.037 Y88.556 E263.16232
G1 X128.925 Y111.444 E264.67459
G1 X128.131 Y111.444 E264.71171
G1 X105.242 Y88.556 E266.22397
G1 X104.447 Y88.556 E266.26109
G1 X127.336 Y111.444 E267.77336
G1 X126.542 Y111.444 E267.81048
G1 X103.653 Y88.556 E269.32274
G1 X102.858 Y88.556 E269.35986
G1 X125.747 Y111.444 E270.87213
G1 X124.952 Y111.444 E270.90925
G1 X102.064 Y88.556 E272.42151
G1 X101.269 Y88.556 E272.45863
G1 X124.158 Y111.444 E273.97090
G1 X123.363 Y111.444 E274.00802
G1 X100.475 Y88.556 E275.52028
G1 X99.680 Y88.556 E275.55740
G1 X122.569 Y111.444 E277.06967
G1 X121.774 Y111.444 E277.10679
G1 X98.885 Y88.556 E278.61905
G1 X98.091 Y88.556 E278.65617
G1 X120.979 Y111.444 E280.16844
G1 X120.185 Y111.444 E280.20556
G1 X97.296 Y88.556 E281.71782
G1 X96.502 Y88.556 E281.75494
G1 X119.390 Y111.444 E283.26721
G1 X118.596 Y111.444 E283.30433
G1 X95.707 Y88.556 E284.81659
G1 X94.912 Y88.556 E284.85371
G1 X117.801 Y111.444 E286.36598
G1 X117.006 Y111.444 E286.40310
G1 X94.118 Y88.556 E287.91536
G1 X93.323 Y88.556 E287.95248
G1 X116.212 Y111.444 E289.46475
G1 X115.417 Y111.444 E289.50187
G1 X92.529 Y88.556 E291.01413
G1 X91.734 Y88.556 E291.05125
G1 X114.623 Y111.444 E292.56352
G1 X113.828 Y111.444 E292.60064
G1 X90.939 Y88.556 E294.11290
G1 X90.145 Y88.556 E294.15002
G1 X113.034 Y111.444 E295.66229
G1 X112.239 Y111.444 E295.69941
G1 X89.350 Y88.556 E297.21167
G1 X88.556 Y88.556 E297.24879
G1 X111.444 Y111.444 E298.76106
G1 X110.650 Y111.444 E298.79818
G1 X87.761 Y88.556 E300.31044
G1 X86.967 Y88.556 E300.34756
G1 X109.855 Y111.444 E301.85983
G1 X109.061 Y111.444 E301.89695
G1 X86.172 Y88.556 E303.40921
G1 X85.377 Y88.556 E303.44633
G1 X108.266 Y111.444 E304.95860
G1 X107.471 Y111.444 E304.99572
G1 X84.583 Y88.556 E306.50798
