; generated by Slic3r 1.3.0 on 2021-03-20 at 13:01:50

; external perimeters extrusion width = 0.44mm (2.78mm^3/s)
; perimeters extrusion width = 0.40mm (7.14mm^3/s)
; infill extrusion width = 0.50mm (10.97mm^3/s)
; solid infill extrusion width = 0.60mm (6.68mm^3/s)
; top infill extrusion width = 0.40mm (2.14mm^3/s)

M107
M190 S80 ; set bed temperature and wait for it to be reached
M104 S235 ; set temperature
G28 ; home all axes
G1 Z5 F5000 ; lift nozzle

; Filament gcode

M109 S235 ; set temperature and wait for it to be reached
G21 ; set units to millimeters
G90 ; use absolute coordinates
M82 ; use absolute distances for extrusion
G92 E0
G1 Z0.300 F30000.000
G1 E-2.00000 F2400.00000
G92 E0
G1 X90.171 Y89.818 F30000.000
G1 E2.00000 F2400.00000
G1 F2100
G1 X91.131 Y88.972 E2.08545
G1 X91.840 Y88.437 E2.14483
G1 X92.253 Y88.157 E2.17816
G1 X93.354 Y87.506 E2.26362
G1 X94.152 Y87.113 E2.32301
G1 X94.610 Y86.915 E2.35635
G1 X95.442 Y86.602 E2.41572
G1 X96.292 Y86.343 E2.47512
G1 X97.540 Y86.064 E2.56057
G1 X98.033 Y85.986 E2.59389
G1 X98.917 Y85.890 E2.65328
G1 X100.195 Y85.850 E2.73873
G1 X100.694 Y85.865 E2.77206
G1 X101.580 Y85.937 E2.83145
G1 X102.843 Y86.137 E2.91690
G1 X103.330 Y86.246 E2.95022
G1 X104.187 Y86.482 E3.00962
G1 X105.028 Y86.771 E3.06902
G1 X105.481 Y86.954 E3.10170
G1 X106.202 Y87.279 E3.15448
G1 X106.988 Y87.694 E3.21387
G1 X107.747 Y88.157 E3.27326
G1 X108.160 Y88.437 E3.30659
G1 X109.170 Y89.221 E3.39204
G1 X109.545 Y89.551 E3.42537
G1 X110.182 Y90.171 E3.48475
G1 X111.028 Y91.131 E3.57021
G1 X111.563 Y91.840 E3.62959
G1 X111.843 Y92.253 E3.66292
G1 X112.494 Y93.354 E3.74837
G1 X112.887 Y94.152 E3.80776
G1 X113.085 Y94.610 E3.84109
G1 X113.518 Y95.813 E3.92654
G1 X113.754 Y96.670 E3.98593
G1 X113.863 Y97.157 E4.01926
G1 X114.014 Y98.033 E4.07865
G1 X114.110 Y98.917 E4.13804
G1 X114.150 Y100.195 E4.22349
G1 X114.135 Y100.694 E4.25681
G1 X114.063 Y101.580 E4.31620
G1 X113.863 Y102.843 E4.40165
G1 X113.754 Y103.330 E4.43498
G1 X113.518 Y104.187 E4.49437
G1 X113.229 Y105.028 E4.55377
G1 X113.046 Y105.481 E4.58645
G1 X112.721 Y106.202 E4.63923
G1 X112.306 Y106.988 E4.69862
G1 X111.843 Y107.747 E4.75801
G1 X111.563 Y108.160 E4.79134
G1 X110.779 Y109.170 E4.87679
G1 X110.449 Y109.544 E4.91012
G1 X109.829 Y110.182 E4.96950
G1 X108.869 Y111.028 E5.05496
G1 X108.160 Y111.563 E5.11434
G1 X107.747 Y111.843 E5.14767
G1 X106.646 Y112.494 E5.23312
G1 X105.848 Y112.887 E5.29251
G1 X105.390 Y113.085 E5.32585
G1 X104.187 Y113.518 E5.41129
G1 X103.330 Y113.754 E5.47068
G1 X102.843 Y113.863 E5.50401
G1 X101.580 Y114.063 E5.58946
G1 X100.694 Y114.135 E5.64885
G1 X99.805 Y114.150 E5.70824
G1 X99.306 Y114.135 E5.74156
G1 X98.420 Y114.063 E5.80095
G1 X97.157 Y113.863 E5.88640
G1 X96.670 Y113.754 E5.91973
G1 X95.813 Y113.518 E5.97912
G1 X94.972 Y113.229 E6.03852
G1 X94.519 Y113.046 E6.07119
G1 X93.798 Y112.721 E6.12398
G1 X93.012 Y112.306 E6.18337
G1 X92.253 Y111.843 E6.24276
G1 X91.840 Y111.563 E6.27610
G1 X90.830 Y110.779 E6.36155
G1 X90.456 Y110.449 E6.39487
G1 X89.818 Y109.829 E6.45426
G1 X88.972 Y108.869 E6.53971
G1 X88.437 Y108.160 E6.59909
G1 X88.157 Y107.747 E6.63242
G1 X87.506 Y106.646 E6.71787
G1 X87.113 Y105.848 E6.77726
G1 X86.915 Y105.390 E6.81061
G1 X86.602 Y104.558 E6.86998
G1 X86.343 Y103.708 E6.92938
G1 X86.064 Y102.460 E7.01483
G1 X85.986 Y101.967 E7.04815
G1 X85.890 Y101.083 E7.10754
G1 X85.850 Y99.805 E7.19299
G1 X85.865 Y99.306 E7.22631
G1 X85.937 Y98.420 E7.28571
G1 X86.137 Y97.157 E7.37116
G1 X86.246 Y96.670 E7.40448
G1 X86.482 Y95.813 E7.46387
G1 X86.915 Y94.610 E7.54931
G1 X87.113 Y94.152 E7.58265
G1 X87.506 Y93.354 E7.64204
G1 X88.157 Y92.253 E7.72749
G1 X88.437 Y91.840 E7.76082
G1 X88.972 Y91.131 E7.82020
G1 X89.551 Y90.456 E7.87961
G1 X90.129 Y89.861 E7.93498
G1 X90.550 Y90.197 F30000.000
G1 F2100
G1 X91.459 Y89.396 E8.01594
G1 X92.141 Y88.880 E8.07308
G1 X92.554 Y88.600 E8.10641
G1 X93.597 Y87.983 E8.18737
G1 X94.364 Y87.605 E8.24451
G1 X94.822 Y87.407 E8.27785
G1 X95.623 Y87.106 E8.33497
G1 X96.441 Y86.857 E8.39213
G1 X97.624 Y86.593 E8.47308
G1 X98.117 Y86.515 E8.50640
G1 X98.967 Y86.423 E8.56355
G1 X100.178 Y86.385 E8.64450
G1 X100.677 Y86.401 E8.67783
G1 X101.529 Y86.470 E8.73497
G1 X102.726 Y86.659 E8.81593
G1 X103.213 Y86.768 E8.84925
G1 X104.038 Y86.996 E8.90640
G1 X104.846 Y87.275 E8.96355
G1 X105.268 Y87.446 E8.99397
G1 X105.958 Y87.757 E9.04452
G1 X106.715 Y88.155 E9.10166
G1 X107.446 Y88.600 E9.15881
G1 X107.859 Y88.880 E9.19214
G1 X108.816 Y89.623 E9.27309
G1 X109.190 Y89.953 E9.30642
G1 X109.803 Y90.550 E9.36356
G1 X110.604 Y91.459 E9.44452
G1 X111.120 Y92.141 E9.50165
G1 X111.400 Y92.554 E9.53498
G1 X112.017 Y93.597 E9.61594
G1 X112.395 Y94.364 E9.67308
G1 X112.593 Y94.822 E9.70642
G1 X113.004 Y95.962 E9.78737
G1 X113.232 Y96.787 E9.84451
G1 X113.341 Y97.274 E9.87784
G1 X113.485 Y98.117 E9.93498
G1 X113.577 Y98.967 E9.99212
G1 X113.615 Y100.178 E10.07308
G1 X113.599 Y100.677 E10.10640
G1 X113.530 Y101.529 E10.16355
G1 X113.341 Y102.726 E10.24450
G1 X113.232 Y103.213 E10.27783
G1 X113.004 Y104.038 E10.33497
G1 X112.725 Y104.846 E10.39212
G1 X112.554 Y105.268 E10.42254
G1 X112.243 Y105.958 E10.47309
G1 X111.845 Y106.715 E10.53023
G1 X111.400 Y107.446 E10.58738
G1 X111.120 Y107.859 E10.62071
G1 X110.377 Y108.816 E10.70166
G1 X110.047 Y109.190 E10.73499
G1 X109.450 Y109.803 E10.79213
G1 X108.541 Y110.604 E10.87309
G1 X108.147 Y110.910 E10.90641
G1 X107.446 Y111.400 E10.96356
G1 X106.403 Y112.017 E11.04451
G1 X105.636 Y112.395 E11.10165
G1 X105.178 Y112.593 E11.13499
G1 X104.038 Y113.004 E11.21594
G1 X103.213 Y113.232 E11.27308
G1 X102.726 Y113.341 E11.30641
G1 X101.529 Y113.530 E11.38736
G1 X100.677 Y113.599 E11.44451
G1 X99.822 Y113.615 E11.50165
G1 X98.967 Y113.577 E11.55880
G1 X98.471 Y113.530 E11.59212
G1 X97.274 Y113.341 E11.67307
G1 X96.787 Y113.232 E11.70640
G1 X95.962 Y113.004 E11.76354
G1 X95.154 Y112.725 E11.82069
G1 X94.731 Y112.554 E11.85112
G1 X94.042 Y112.243 E11.90166
G1 X93.285 Y111.845 E11.95881
G1 X92.554 Y111.400 E12.01595
G1 X92.141 Y111.120 E12.04928
G1 X91.184 Y110.377 E12.13024
G1 X90.810 Y110.047 E12.16356
G1 X90.197 Y109.450 E12.22070
G1 X89.396 Y108.541 E12.30166
G1 X88.880 Y107.859 E12.35879
G1 X88.600 Y107.446 E12.39213
G1 X87.983 Y106.403 E12.47308
G1 X87.605 Y105.636 E12.53023
G1 X87.407 Y105.178 E12.56357
G1 X87.106 Y104.377 E12.62069
G1 X86.857 Y103.559 E12.67784
G1 X86.593 Y102.376 E12.75880
G1 X86.515 Y101.883 E12.79212
G1 X86.423 Y101.033 E12.84927
G1 X86.385 Y99.822 E12.93022
G1 X86.401 Y99.323 E12.96355
G1 X86.470 Y98.471 E13.02069
G1 X86.659 Y97.274 E13.10165
G1 X86.768 Y96.787 E13.13497
G1 X86.996 Y95.962 E13.19212
G1 X87.407 Y94.822 E13.27306
G1 X87.605 Y94.364 E13.30640
G1 X87.983 Y93.597 E13.36354
G1 X88.600 Y92.554 E13.44450
G1 X88.880 Y92.141 E13.47783
G1 X89.396 Y91.459 E13.53496
G1 X89.953 Y90.810 E13.59212
G1 X90.507 Y90.240 E13.64525
G1 X90.929 Y90.576 F30000.000
G1 F2100
G1 X91.787 Y89.819 E13.72172
G1 X92.442 Y89.323 E13.77660
G1 X92.855 Y89.043 E13.80993
G1 X93.840 Y88.460 E13.88640
G1 X94.577 Y88.096 E13.94129
G1 X95.035 Y87.898 E13.97463
G1 X95.804 Y87.610 E14.02951
G1 X96.591 Y87.371 E14.08441
G1 X97.708 Y87.122 E14.16088
G1 X98.200 Y87.044 E14.19420
G1 X99.018 Y86.956 E14.24910
G1 X100.161 Y86.920 E14.32556
G1 X100.660 Y86.936 E14.35888
G1 X101.479 Y87.003 E14.41378
G1 X102.610 Y87.182 E14.49025
G1 X103.096 Y87.291 E14.52357
G1 X103.888 Y87.510 E14.57846
G1 X104.665 Y87.779 E14.63337
G1 X105.056 Y87.937 E14.66154
G1 X105.715 Y88.234 E14.70984
G1 X106.443 Y88.616 E14.76474
G1 X107.145 Y89.043 E14.81964
G1 X107.558 Y89.323 E14.85297
G1 X108.462 Y90.025 E14.92943
G1 X108.836 Y90.355 E14.96275
G1 X109.424 Y90.929 E15.01764
G1 X110.181 Y91.787 E15.09411
G1 X110.677 Y92.443 E15.14900
G1 X110.957 Y92.855 E15.18233
G1 X111.540 Y93.840 E15.25879
G1 X111.904 Y94.577 E15.31369
G1 X112.102 Y95.035 E15.34702
G1 X112.490 Y96.112 E15.42348
G1 X112.629 Y96.591 E15.45680
G1 X112.818 Y97.390 E15.51170
G1 X112.997 Y98.521 E15.58816
G1 X113.064 Y99.340 E15.64306
G1 X113.080 Y100.161 E15.69795
G1 X113.064 Y100.660 E15.73128
G1 X112.997 Y101.479 E15.78617
G1 X112.818 Y102.610 E15.86264
G1 X112.709 Y103.096 E15.89596
G1 X112.490 Y103.888 E15.95086
G1 X112.221 Y104.665 E16.00576
G1 X112.063 Y105.056 E16.03393
G1 X111.766 Y105.715 E16.08223
G1 X111.384 Y106.443 E16.13713
G1 X110.957 Y107.145 E16.19203
G1 X110.677 Y107.557 E16.22535
G1 X109.975 Y108.462 E16.30182
G1 X109.645 Y108.836 E16.33514
G1 X109.071 Y109.424 E16.39004
G1 X108.213 Y110.181 E16.46650
G1 X107.557 Y110.677 E16.52139
G1 X107.145 Y110.957 E16.55472
G1 X106.160 Y111.540 E16.63118
G1 X105.423 Y111.904 E16.68608
G1 X104.965 Y112.102 E16.71941
G1 X103.888 Y112.490 E16.79587
G1 X103.096 Y112.709 E16.85077
G1 X102.610 Y112.818 E16.88409
G1 X101.479 Y112.997 E16.96055
G1 X100.660 Y113.064 E17.01545
G1 X99.839 Y113.080 E17.07035
G1 X99.018 Y113.044 E17.12524
G1 X98.521 Y112.997 E17.15857
G1 X97.390 Y112.818 E17.23503
G1 X96.904 Y112.709 E17.26835
G1 X96.112 Y112.490 E17.32325
G1 X95.335 Y112.221 E17.37815
G1 X94.944 Y112.063 E17.40633
G1 X94.285 Y111.766 E17.45463
G1 X93.557 Y111.384 E17.50952
G1 X92.855 Y110.957 E17.56442
G1 X92.443 Y110.677 E17.59775
G1 X91.538 Y109.975 E17.67421
G1 X91.164 Y109.645 E17.70754
G1 X90.576 Y109.071 E17.76243
G1 X89.819 Y108.213 E17.83889
G1 X89.323 Y107.558 E17.89378
G1 X89.043 Y107.145 E17.92711
G1 X88.460 Y106.160 E18.00358
G1 X88.096 Y105.423 E18.05847
G1 X87.898 Y104.965 E18.09181
G1 X87.610 Y104.196 E18.14669
G1 X87.371 Y103.409 E18.20159
G1 X87.122 Y102.292 E18.27806
G1 X87.044 Y101.800 E18.31138
G1 X86.956 Y100.982 E18.36628
G1 X86.920 Y99.839 E18.44273
G1 X86.936 Y99.340 E18.47606
G1 X87.003 Y98.521 E18.53096
G1 X87.182 Y97.390 E18.60742
G1 X87.291 Y96.904 E18.64075
G1 X87.510 Y96.112 E18.69564
G1 X87.898 Y95.035 E18.77210
G1 X88.096 Y94.577 E18.80543
G1 X88.460 Y93.840 E18.86033
G1 X89.043 Y92.855 E18.93679
G1 X89.323 Y92.442 E18.97012
G1 X89.819 Y91.787 E19.02501
G1 X90.355 Y91.164 E19.07992
G1 X90.886 Y90.618 E19.13080
G1 X91.307 Y90.955 F30000.000
G1 F2100
G1 X92.115 Y90.242 E19.20277
G1 X92.744 Y89.766 E19.25541
G1 X93.156 Y89.486 E19.28874
G1 X94.083 Y88.938 E19.36071
G1 X94.790 Y88.588 E19.41336
G1 X95.248 Y88.390 E19.44670
G1 X95.986 Y88.114 E19.49933
G1 X96.740 Y87.886 E19.55199
G1 X97.792 Y87.651 E19.62396
G1 X98.284 Y87.573 E19.65728
G1 X99.068 Y87.489 E19.70993
G1 X100.145 Y87.456 E19.78190
G1 X100.643 Y87.471 E19.81522
G1 X101.429 Y87.536 E19.86787
G1 X102.493 Y87.705 E19.93984
G1 X102.979 Y87.814 E19.97317
G1 X103.739 Y88.025 E20.02581
G1 X104.483 Y88.283 E20.07847
G1 X104.843 Y88.429 E20.10439
G1 X105.472 Y88.711 E20.15045
G1 X106.170 Y89.077 E20.20310
G1 X106.844 Y89.486 E20.25575
G1 X107.256 Y89.766 E20.28908
G1 X108.108 Y90.427 E20.36104
G1 X108.482 Y90.757 E20.39437
G1 X109.045 Y91.307 E20.44701
G1 X109.758 Y92.115 E20.51899
G1 X110.234 Y92.744 E20.57163
G1 X110.514 Y93.156 E20.60496
G1 X111.062 Y94.083 E20.67693
G1 X111.412 Y94.790 E20.72958
G1 X111.610 Y95.248 E20.76291
G1 X111.975 Y96.261 E20.83487
G1 X112.186 Y97.020 E20.88752
G1 X112.295 Y97.507 E20.92085
G1 X112.427 Y98.284 E20.97349
G1 X112.511 Y99.068 E21.02614
G1 X112.544 Y100.145 E21.09811
G1 X112.529 Y100.643 E21.13144
G1 X112.464 Y101.429 E21.18409
G1 X112.295 Y102.493 E21.25605
G1 X112.186 Y102.980 E21.28938
G1 X111.975 Y103.739 E21.34203
G1 X111.717 Y104.483 E21.39468
G1 X111.571 Y104.843 E21.42062
G1 X111.289 Y105.472 E21.46666
G1 X110.923 Y106.170 E21.51931
G1 X110.514 Y106.844 E21.57196
G1 X110.234 Y107.256 E21.60529
G1 X109.573 Y108.108 E21.67726
G1 X109.243 Y108.482 E21.71058
G1 X108.693 Y109.045 E21.76323
G1 X107.885 Y109.758 E21.83520
G1 X107.490 Y110.064 E21.86852
G1 X106.844 Y110.514 E21.92117
G1 X105.917 Y111.062 E21.99314
G1 X105.210 Y111.412 E22.04579
G1 X104.752 Y111.610 E22.07912
G1 X103.739 Y111.975 E22.15109
G1 X102.980 Y112.186 E22.20374
G1 X102.493 Y112.295 E22.23706
G1 X101.429 Y112.464 E22.30903
G1 X100.643 Y112.529 E22.36168
G1 X99.855 Y112.544 E22.41433
G1 X99.357 Y112.529 E22.44765
G1 X98.571 Y112.464 E22.50030
G1 X97.507 Y112.295 E22.57227
G1 X97.020 Y112.186 E22.60559
G1 X96.261 Y111.975 E22.65824
G1 X95.517 Y111.717 E22.71090
G1 X95.157 Y111.571 E22.73683
G1 X94.528 Y111.289 E22.78288
G1 X93.830 Y110.923 E22.83553
G1 X93.156 Y110.514 E22.88817
G1 X92.744 Y110.234 E22.92150
G1 X91.892 Y109.573 E22.99347
G1 X91.518 Y109.243 E23.02680
G1 X90.955 Y108.693 E23.07944
G1 X90.242 Y107.885 E23.15141
G1 X89.766 Y107.256 E23.20406
G1 X89.486 Y106.844 E23.23738
G1 X88.938 Y105.917 E23.30936
G1 X88.588 Y105.210 E23.36200
G1 X88.390 Y104.752 E23.39534
G1 X88.114 Y104.014 E23.44797
G1 X87.886 Y103.260 E23.50063
G1 X87.651 Y102.208 E23.57260
G1 X87.573 Y101.716 E23.60592
G1 X87.489 Y100.932 E23.65857
G1 X87.456 Y99.855 E23.73054
G1 X87.471 Y99.357 E23.76386
G1 X87.536 Y98.571 E23.81651
G1 X87.705 Y97.507 E23.88848
G1 X87.814 Y97.021 E23.92181
G1 X88.025 Y96.261 E23.97446
G1 X88.390 Y95.248 E24.04642
G1 X88.588 Y94.790 E24.07975
G1 X88.938 Y94.083 E24.13240
G1 X89.486 Y93.156 E24.20437
G1 X89.766 Y92.744 E24.23770
G1 X90.242 Y92.115 E24.29034
G1 X90.757 Y91.518 E24.34300
G1 X91.265 Y90.997 E24.39164
G1 X91.686 Y91.333 F30000.000
G1 F2100
G1 X92.444 Y90.665 E24.45912
G1 X93.045 Y90.209 E24.50951
G1 X93.457 Y89.929 E24.54284
G1 X94.327 Y89.415 E24.61032
G1 X95.002 Y89.079 E24.66072
G1 X95.460 Y88.881 E24.69405
G1 X96.411 Y88.539 E24.76152
G1 X96.890 Y88.400 E24.79484
G1 X97.624 Y88.228 E24.84524
G1 X98.622 Y88.070 E24.91272
G1 X99.374 Y88.007 E24.96312
G1 X100.128 Y87.991 E25.01352
G1 X100.626 Y88.007 E25.04685
G1 X101.378 Y88.070 E25.09725
G1 X102.376 Y88.228 E25.16473
G1 X102.863 Y88.336 E25.19805
G1 X103.589 Y88.539 E25.24845
G1 X104.630 Y88.921 E25.32252
G1 X105.229 Y89.188 E25.36632
G1 X105.897 Y89.538 E25.41672
G1 X106.543 Y89.929 E25.46713
G1 X106.955 Y90.209 E25.50045
G1 X107.753 Y90.828 E25.56793
G1 X108.128 Y91.158 E25.60126
G1 X108.667 Y91.686 E25.65165
G1 X109.335 Y92.444 E25.71913
G1 X109.791 Y93.045 E25.76953
G1 X110.071 Y93.457 E25.80285
G1 X110.585 Y94.327 E25.87033
G1 X110.921 Y95.002 E25.92073
G1 X111.119 Y95.460 E25.95406
G1 X111.461 Y96.411 E26.02153
G1 X111.600 Y96.890 E26.05486
G1 X111.772 Y97.624 E26.10526
G1 X111.930 Y98.622 E26.17273
G1 X111.993 Y99.374 E26.22314
G1 X112.009 Y100.128 E26.27354
G1 X111.993 Y100.626 E26.30686
G1 X111.930 Y101.378 E26.35726
G1 X111.772 Y102.376 E26.42474
G1 X111.664 Y102.863 E26.45806
G1 X111.461 Y103.589 E26.50847
G1 X111.079 Y104.630 E26.58253
G1 X110.812 Y105.229 E26.62634
G1 X110.462 Y105.897 E26.67674
G1 X110.071 Y106.543 E26.72714
G1 X109.791 Y106.955 E26.76047
G1 X109.172 Y107.753 E26.82794
G1 X108.842 Y108.128 E26.86127
G1 X108.314 Y108.667 E26.91166
G1 X107.556 Y109.335 E26.97914
G1 X107.162 Y109.640 E27.01247
G1 X106.543 Y110.071 E27.06287
G1 X105.673 Y110.585 E27.13034
G1 X104.998 Y110.921 E27.18075
G1 X104.540 Y111.119 E27.21408
G1 X103.589 Y111.461 E27.28155
G1 X102.863 Y111.664 E27.33195
G1 X102.376 Y111.772 E27.36527
G1 X101.378 Y111.930 E27.43275
G1 X100.626 Y111.993 E27.48315
G1 X99.872 Y112.009 E27.53355
G1 X99.374 Y111.993 E27.56687
G1 X98.622 Y111.930 E27.61728
G1 X97.624 Y111.772 E27.68475
G1 X97.137 Y111.664 E27.71808
G1 X96.411 Y111.461 E27.76848
G1 X95.370 Y111.079 E27.84255
G1 X94.771 Y110.812 E27.88635
G1 X94.103 Y110.462 E27.93675
G1 X93.457 Y110.071 E27.98715
G1 X93.045 Y109.791 E28.02048
G1 X92.247 Y109.172 E28.08796
G1 X91.872 Y108.842 E28.12128
G1 X91.333 Y108.314 E28.17168
G1 X90.665 Y107.556 E28.23916
G1 X90.209 Y106.955 E28.28955
G1 X89.929 Y106.543 E28.32288
G1 X89.415 Y105.673 E28.39036
G1 X89.079 Y104.998 E28.44076
G1 X88.881 Y104.540 E28.47409
G1 X88.618 Y103.833 E28.52448
G1 X88.400 Y103.110 E28.57489
G1 X88.180 Y102.125 E28.64237
G1 X88.102 Y101.632 E28.67569
G1 X88.023 Y100.882 E28.72609
G1 X87.991 Y99.872 E28.79356
G1 X88.007 Y99.374 E28.82689
G1 X88.070 Y98.622 E28.87729
G1 X88.228 Y97.624 E28.94477
G1 X88.336 Y97.137 E28.97809
G1 X88.539 Y96.411 E29.02849
G1 X88.881 Y95.460 E29.09596
G1 X89.079 Y95.002 E29.12930
G1 X89.415 Y94.327 E29.17970
