; generated by Slic3r 1.3.0 on 2021-03-20 at 14:22:35

; external perimeters extrusion width = 0.44mm (2.78mm^3/s)
; perimeters extrusion width = 0.40mm (7.14mm^3/s)
; infill extrusion width = 0.50mm (10.97mm^3/s)
; solid infill extrusion width = 0.60mm (6.68mm^3/s)
; top infill extrusion width = 0.40mm (2.14mm^3/s)

M107
M190 S80 ; set bed temperature and wait for it to be reached
M104 S235 ; set temperature
G28 ; home all axes
G1 Z5 F5000 ; lift nozzle

; Filament gcode

M109 S235 ; set temperature and wait for it to be reached
G21 ; set units to millimeters
G90 ; use absolute coordinates
M82 ; use absolute distances for extrusion
G92 E0
G1 Z0.300 F30000.000
G1 E-2.00000 F2400.00000
G92 E0
G1 X90.000 Y89.636 F30000.000
G1 E2.00000 F2400.00000
G1 F2100
G1 X90.971 Y88.780 E2.08649
G1 X91.378 Y88.464 E2.12088
G1 X92.119 Y87.946 E2.18132
G1 X93.233 Y87.286 E2.26782
G1 X94.045 Y86.887 E2.32826
G1 X94.517 Y86.682 E2.36264
G1 X95.735 Y86.244 E2.44914
G1 X96.608 Y86.003 E2.50958
G1 X97.110 Y85.891 E2.54396
G1 X98.002 Y85.737 E2.60441
G1 X98.477 Y85.680 E2.63642
G1 X99.290 Y85.615 E2.69091
G1 X100.195 Y85.599 E2.75135
G1 X100.710 Y85.615 E2.78574
G1 X101.611 Y85.688 E2.84618
G1 X102.890 Y85.891 E2.93268
G1 X103.392 Y86.003 E2.96705
G1 X104.265 Y86.244 E3.02750
G1 X105.120 Y86.539 E3.08794
G1 X105.577 Y86.723 E3.12088
G1 X106.308 Y87.053 E3.17446
G1 X107.109 Y87.474 E3.23490
G1 X107.552 Y87.736 E3.26928
G1 X108.307 Y88.235 E3.32971
G1 X109.330 Y89.028 E3.41621
G1 X109.716 Y89.369 E3.45060
G1 X110.364 Y90.000 E3.51104
G1 X111.220 Y90.971 E3.59753
G1 X111.536 Y91.378 E3.63191
G1 X112.054 Y92.119 E3.69236
G1 X112.714 Y93.233 E3.77886
G1 X112.947 Y93.692 E3.81323
G1 X113.318 Y94.517 E3.87368
G1 X113.756 Y95.735 E3.96017
G1 X113.900 Y96.230 E3.99454
G1 X114.109 Y97.110 E4.05500
G1 X114.263 Y98.002 E4.11544
G1 X114.360 Y98.901 E4.17588
G1 X114.401 Y100.195 E4.26238
G1 X114.385 Y100.709 E4.29676
G1 X114.312 Y101.611 E4.35720
G1 X114.109 Y102.890 E4.44370
G1 X113.997 Y103.392 E4.47807
G1 X113.756 Y104.265 E4.53852
G1 X113.461 Y105.120 E4.59896
G1 X113.149 Y105.873 E4.65345
G1 X112.947 Y106.308 E4.68548
G1 X112.526 Y107.109 E4.74592
G1 X112.264 Y107.552 E4.78030
G1 X111.765 Y108.307 E4.84073
G1 X110.972 Y109.330 E4.92723
G1 X110.631 Y109.716 E4.96162
G1 X110.000 Y110.364 E5.02206
G1 X109.029 Y111.220 E5.10855
G1 X108.622 Y111.536 E5.14294
G1 X107.881 Y112.054 E5.20338
G1 X106.767 Y112.714 E5.28988
G1 X105.955 Y113.113 E5.35032
G1 X105.483 Y113.318 E5.38470
G1 X104.265 Y113.756 E5.47119
G1 X103.392 Y113.997 E5.53164
G1 X102.890 Y114.109 E5.56602
G1 X101.998 Y114.263 E5.62646
G1 X101.099 Y114.360 E5.68690
G1 X99.805 Y114.401 E5.77340
G1 X99.291 Y114.385 E5.80778
G1 X98.389 Y114.312 E5.86822
G1 X97.110 Y114.109 E5.95472
G1 X96.608 Y113.997 E5.98909
G1 X95.735 Y113.756 E6.04954
G1 X94.880 Y113.461 E6.10998
G1 X94.127 Y113.149 E6.16447
G1 X93.692 Y112.947 E6.19650
G1 X92.891 Y112.526 E6.25694
G1 X92.448 Y112.264 E6.29132
G1 X91.693 Y111.765 E6.35175
G1 X90.670 Y110.972 E6.43825
G1 X90.284 Y110.631 E6.47264
G1 X89.636 Y110.000 E6.53308
G1 X88.780 Y109.029 E6.61957
G1 X88.464 Y108.622 E6.65396
G1 X87.946 Y107.881 E6.71440
G1 X87.286 Y106.767 E6.80090
G1 X86.887 Y105.955 E6.86134
G1 X86.682 Y105.483 E6.89572
G1 X86.244 Y104.265 E6.98221
G1 X86.003 Y103.392 E7.04266
G1 X85.891 Y102.890 E7.07703
G1 X85.737 Y101.998 E7.13749
G1 X85.680 Y101.523 E7.16950
G1 X85.615 Y100.710 E7.22399
G1 X85.599 Y99.805 E7.28443
G1 X85.615 Y99.290 E7.31882
G1 X85.688 Y98.389 E7.37926
G1 X85.891 Y97.110 E7.46576
G1 X86.003 Y96.608 E7.50013
G1 X86.244 Y95.735 E7.56058
G1 X86.682 Y94.517 E7.64707
G1 X86.887 Y94.045 E7.68145
G1 X87.286 Y93.233 E7.74189
G1 X87.946 Y92.119 E7.82839
G1 X88.464 Y91.378 E7.88883
G1 X88.780 Y90.971 E7.92322
G1 X89.369 Y90.284 E7.98366
G1 X89.957 Y89.678 E8.04009
G1 X90.378 Y90.015 F30000.000
G1 F2100
G1 X91.299 Y89.203 E8.12209
G1 X91.706 Y88.887 E8.15648
G1 X92.420 Y88.389 E8.21467
G1 X93.477 Y87.764 E8.29667
G1 X94.258 Y87.378 E8.35487
G1 X94.730 Y87.174 E8.38925
G1 X95.885 Y86.758 E8.47125
G1 X96.379 Y86.614 E8.50562
G1 X97.227 Y86.414 E8.56382
G1 X98.085 Y86.266 E8.62203
G1 X98.528 Y86.213 E8.65179
G1 X99.307 Y86.151 E8.70404
G1 X100.178 Y86.135 E8.76223
G1 X100.693 Y86.151 E8.79661
G1 X101.561 Y86.222 E8.85481
G1 X102.773 Y86.414 E8.93681
G1 X103.275 Y86.526 E8.97119
G1 X104.115 Y86.758 E9.02939
G1 X104.938 Y87.043 E9.08758
G1 X105.364 Y87.215 E9.11827
G1 X106.065 Y87.530 E9.16960
G1 X106.836 Y87.935 E9.22779
G1 X107.279 Y88.197 E9.26218
G1 X108.006 Y88.678 E9.32036
G1 X108.976 Y89.430 E9.40237
G1 X109.362 Y89.770 E9.43676
G1 X109.985 Y90.378 E9.49494
G1 X110.797 Y91.299 E9.57694
G1 X111.113 Y91.706 E9.61133
G1 X111.611 Y92.420 E9.66953
G1 X112.236 Y93.477 E9.75153
G1 X112.622 Y94.258 E9.80973
G1 X112.826 Y94.730 E9.84410
G1 X113.242 Y95.885 E9.92610
G1 X113.385 Y96.379 E9.96048
G1 X113.586 Y97.227 E10.01868
G1 X113.734 Y98.085 E10.07688
G1 X113.827 Y98.951 E10.13507
G1 X113.865 Y100.178 E10.21707
G1 X113.849 Y100.693 E10.25145
G1 X113.778 Y101.561 E10.30965
G1 X113.586 Y102.773 E10.39165
G1 X113.474 Y103.275 E10.42603
G1 X113.242 Y104.115 E10.48423
G1 X112.957 Y104.938 E10.54242
G1 X112.657 Y105.660 E10.59466
G1 X112.470 Y106.065 E10.62444
G1 X112.064 Y106.836 E10.68264
G1 X111.803 Y107.279 E10.71702
G1 X111.322 Y108.006 E10.77520
G1 X110.570 Y108.976 E10.85721
G1 X110.230 Y109.362 E10.89159
G1 X109.622 Y109.985 E10.94978
G1 X108.701 Y110.797 E11.03178
G1 X108.294 Y111.113 E11.06617
G1 X107.580 Y111.611 E11.12436
G1 X106.523 Y112.236 E11.20637
G1 X105.742 Y112.622 E11.26456
G1 X105.270 Y112.826 E11.29894
G1 X104.115 Y113.242 E11.38094
G1 X103.275 Y113.474 E11.43914
G1 X102.773 Y113.586 E11.47352
G1 X101.915 Y113.734 E11.53172
G1 X101.049 Y113.827 E11.58991
G1 X99.822 Y113.865 E11.67192
G1 X99.307 Y113.849 E11.70629
G1 X98.439 Y113.778 E11.76449
G1 X97.227 Y113.586 E11.84649
G1 X96.379 Y113.385 E11.90470
G1 X95.885 Y113.242 E11.93907
G1 X95.062 Y112.957 E11.99726
G1 X94.339 Y112.657 E12.04950
G1 X93.935 Y112.470 E12.07928
G1 X93.164 Y112.064 E12.13748
G1 X92.721 Y111.803 E12.17186
G1 X91.994 Y111.322 E12.23004
G1 X91.025 Y110.570 E12.31205
G1 X90.638 Y110.230 E12.34643
G1 X90.015 Y109.622 E12.40462
G1 X89.203 Y108.701 E12.48662
G1 X88.887 Y108.294 E12.52101
G1 X88.389 Y107.580 E12.57921
G1 X87.764 Y106.523 E12.66121
G1 X87.378 Y105.742 E12.71941
G1 X87.174 Y105.270 E12.75379
G1 X86.758 Y104.115 E12.83579
G1 X86.614 Y103.621 E12.87016
G1 X86.414 Y102.773 E12.92836
G1 X86.266 Y101.915 E12.98657
G1 X86.213 Y101.472 E13.01633
G1 X86.151 Y100.693 E13.06857
G1 X86.135 Y99.822 E13.12676
G1 X86.151 Y99.307 E13.16115
G1 X86.222 Y98.439 E13.21935
G1 X86.414 Y97.227 E13.30135
G1 X86.526 Y96.725 E13.33572
G1 X86.758 Y95.885 E13.39392
G1 X87.174 Y94.730 E13.47592
G1 X87.378 Y94.258 E13.51030
G1 X87.764 Y93.477 E13.56850
G1 X88.389 Y92.420 E13.65050
G1 X88.887 Y91.706 E13.70870
G1 X89.203 Y91.299 E13.74308
G1 X89.770 Y90.638 E13.80128
G1 X90.336 Y90.057 E13.85546
G1 X90.757 Y90.393 F30000.000
G1 F2100
G1 X91.627 Y89.626 E13.93296
G1 X92.034 Y89.311 E13.96735
G1 X92.721 Y88.832 E14.02330
G1 X93.720 Y88.241 E14.10081
G1 X94.470 Y87.870 E14.15676
G1 X94.943 Y87.665 E14.19114
G1 X96.034 Y87.272 E14.26864
G1 X96.528 Y87.129 E14.30301
G1 X97.344 Y86.936 E14.35897
G1 X98.169 Y86.795 E14.41493
G1 X98.578 Y86.746 E14.44244
G1 X99.324 Y86.686 E14.49244
G1 X100.161 Y86.670 E14.54838
G1 X100.676 Y86.686 E14.58277
G1 X101.511 Y86.755 E14.63872
G1 X102.656 Y86.936 E14.71623
G1 X103.159 Y87.048 E14.75060
G1 X103.966 Y87.272 E14.80655
G1 X104.757 Y87.546 E14.86250
G1 X105.152 Y87.706 E14.89095
G1 X105.822 Y88.007 E14.94003
G1 X106.563 Y88.397 E14.99597
G1 X107.006 Y88.658 E15.03035
G1 X107.705 Y89.121 E15.08629
G1 X108.621 Y89.832 E15.16380
G1 X109.007 Y90.172 E15.19819
G1 X109.607 Y90.757 E15.25413
G1 X110.374 Y91.627 E15.33164
G1 X110.689 Y92.034 E15.36602
G1 X111.168 Y92.721 E15.42197
G1 X111.759 Y93.720 E15.49948
G1 X112.130 Y94.470 E15.55543
G1 X112.335 Y94.943 E15.58981
G1 X112.728 Y96.034 E15.66731
G1 X112.871 Y96.528 E15.70169
G1 X113.064 Y97.344 E15.75764
G1 X113.205 Y98.169 E15.81360
G1 X113.294 Y99.002 E15.86954
G1 X113.330 Y100.161 E15.94705
G1 X113.314 Y100.676 E15.98143
G1 X113.245 Y101.510 E16.03737
G1 X113.064 Y102.656 E16.11489
G1 X112.952 Y103.159 E16.14926
G1 X112.728 Y103.966 E16.20521
G1 X112.454 Y104.757 E16.26116
G1 X112.166 Y105.448 E16.31115
G1 X111.993 Y105.822 E16.33869
G1 X111.603 Y106.563 E16.39463
G1 X111.342 Y107.006 E16.42901
G1 X110.879 Y107.705 E16.48495
G1 X110.168 Y108.621 E16.56247
G1 X109.828 Y109.007 E16.59685
G1 X109.243 Y109.607 E16.65279
G1 X108.373 Y110.374 E16.73030
G1 X107.966 Y110.689 E16.76468
G1 X107.279 Y111.168 E16.82063
G1 X106.280 Y111.759 E16.89814
G1 X105.530 Y112.130 E16.95409
G1 X105.057 Y112.335 E16.98847
G1 X103.966 Y112.728 E17.06598
G1 X103.159 Y112.952 E17.12193
G1 X102.656 Y113.064 E17.15630
G1 X101.831 Y113.205 E17.21226
G1 X100.998 Y113.294 E17.26820
G1 X99.838 Y113.330 E17.34571
G1 X99.324 Y113.314 E17.38009
G1 X98.490 Y113.245 E17.43604
G1 X97.344 Y113.064 E17.51355
G1 X96.528 Y112.871 E17.56950
G1 X96.034 Y112.728 E17.60388
G1 X95.243 Y112.454 E17.65982
G1 X94.552 Y112.166 E17.70982
G1 X94.178 Y111.993 E17.73735
G1 X93.437 Y111.603 E17.79329
G1 X92.994 Y111.342 E17.82767
G1 X92.295 Y110.879 E17.88361
G1 X91.379 Y110.168 E17.96112
G1 X90.993 Y109.828 E17.99551
G1 X90.393 Y109.243 E18.05145
G1 X89.626 Y108.373 E18.12896
G1 X89.311 Y107.966 E18.16335
G1 X88.832 Y107.279 E18.21929
G1 X88.241 Y106.280 E18.29680
G1 X87.870 Y105.530 E18.35275
G1 X87.665 Y105.057 E18.38713
G1 X87.272 Y103.966 E18.46464
G1 X87.048 Y103.159 E18.52059
G1 X86.936 Y102.656 E18.55496
G1 X86.795 Y101.831 E18.61092
G1 X86.746 Y101.422 E18.63844
G1 X86.686 Y100.676 E18.68843
G1 X86.670 Y99.839 E18.74438
G1 X86.686 Y99.324 E18.77877
G1 X86.755 Y98.489 E18.83471
G1 X86.936 Y97.344 E18.91222
G1 X87.048 Y96.841 E18.94660
G1 X87.272 Y96.034 E19.00255
G1 X87.665 Y94.943 E19.08005
G1 X87.870 Y94.470 E19.11444
G1 X88.241 Y93.720 E19.17038
G1 X88.832 Y92.721 E19.24789
G1 X89.311 Y92.034 E19.30384
G1 X89.626 Y91.627 E19.33823
G1 X90.172 Y90.993 E19.39417
G1 X90.715 Y90.436 E19.44611
G1 X91.136 Y90.772 F30000.000
G1 F2100
G1 X91.956 Y90.049 E19.51912
G1 X92.362 Y89.734 E19.55351
G1 X93.022 Y89.275 E19.60720
G1 X93.963 Y88.718 E19.68022
G1 X94.683 Y88.361 E19.73392
G1 X95.155 Y88.157 E19.76830
G1 X96.184 Y87.787 E19.84132
G1 X96.678 Y87.643 E19.87569
G1 X97.460 Y87.459 E19.92939
G1 X98.253 Y87.324 E19.98310
G1 X98.629 Y87.280 E20.00837
G1 X99.341 Y87.221 E20.05612
G1 X100.145 Y87.205 E20.10982
G1 X100.659 Y87.221 E20.14420
G1 X101.460 Y87.288 E20.19790
G1 X102.540 Y87.459 E20.27092
G1 X103.042 Y87.571 E20.30530
G1 X103.816 Y87.787 E20.35900
G1 X104.576 Y88.050 E20.41270
G1 X104.939 Y88.198 E20.43889
G1 X105.579 Y88.485 E20.48573
G1 X106.291 Y88.858 E20.53943
G1 X106.734 Y89.120 E20.57381
G1 X107.403 Y89.564 E20.62750
G1 X108.267 Y90.234 E20.70052
G1 X108.653 Y90.574 E20.73491
G1 X109.228 Y91.136 E20.78860
G1 X109.951 Y91.956 E20.86161
G1 X110.266 Y92.362 E20.89599
G1 X110.725 Y93.022 E20.94970
G1 X111.282 Y93.963 E21.02271
G1 X111.639 Y94.683 E21.07642
G1 X111.843 Y95.155 E21.11079
G1 X112.213 Y96.184 E21.18381
G1 X112.429 Y96.958 E21.23751
G1 X112.541 Y97.460 E21.27189
G1 X112.676 Y98.253 E21.32559
G1 X112.760 Y99.052 E21.37929
G1 X112.795 Y100.145 E21.45231
G1 X112.779 Y100.659 E21.48668
G1 X112.712 Y101.460 E21.54038
G1 X112.541 Y102.540 E21.61340
G1 X112.429 Y103.042 E21.64778
G1 X112.213 Y103.816 E21.70148
G1 X111.950 Y104.575 E21.75518
G1 X111.674 Y105.235 E21.80293
G1 X111.515 Y105.579 E21.82821
G1 X111.142 Y106.291 E21.88191
G1 X110.880 Y106.734 E21.91629
G1 X110.436 Y107.403 E21.96998
G1 X109.766 Y108.267 E22.04300
G1 X109.426 Y108.653 E22.07738
G1 X108.864 Y109.228 E22.13108
G1 X108.044 Y109.951 E22.20410
G1 X107.638 Y110.266 E22.23848
G1 X106.978 Y110.725 E22.29218
G1 X106.037 Y111.282 E22.36520
G1 X105.317 Y111.639 E22.41890
G1 X104.845 Y111.843 E22.45327
G1 X103.816 Y112.213 E22.52629
G1 X103.042 Y112.429 E22.57999
G1 X102.540 Y112.541 E22.61437
G1 X101.747 Y112.676 E22.66807
G1 X100.948 Y112.760 E22.72177
G1 X99.855 Y112.795 E22.79479
G1 X99.341 Y112.779 E22.82917
G1 X98.540 Y112.712 E22.88287
G1 X97.460 Y112.541 E22.95588
G1 X96.958 Y112.429 E22.99026
G1 X96.184 Y112.213 E23.04396
G1 X95.424 Y111.950 E23.09766
G1 X94.765 Y111.674 E23.14541
G1 X94.421 Y111.515 E23.17070
G1 X93.709 Y111.142 E23.22439
G1 X93.266 Y110.880 E23.25877
G1 X92.597 Y110.436 E23.31247
G1 X91.733 Y109.766 E23.38548
G1 X91.347 Y109.426 E23.41987
G1 X90.772 Y108.864 E23.47356
G1 X90.049 Y108.044 E23.54658
G1 X89.734 Y107.638 E23.58096
G1 X89.275 Y106.978 E23.63466
G1 X88.718 Y106.037 E23.70768
G1 X88.361 Y105.317 E23.76138
G1 X88.157 Y104.845 E23.79576
G1 X87.787 Y103.816 E23.86877
G1 X87.571 Y103.042 E23.92248
G1 X87.459 Y102.540 E23.95685
G1 X87.324 Y101.747 E24.01056
G1 X87.280 Y101.371 E24.03583
G1 X87.221 Y100.659 E24.08358
G1 X87.205 Y99.855 E24.13728
G1 X87.221 Y99.341 E24.17166
G1 X87.288 Y98.540 E24.22536
G1 X87.459 Y97.460 E24.29838
G1 X87.571 Y96.958 E24.33275
G1 X87.787 Y96.184 E24.38646
G1 X88.157 Y95.155 E24.45947
G1 X88.361 Y94.683 E24.49385
G1 X88.718 Y93.963 E24.54755
G1 X89.275 Y93.022 E24.62057
G1 X89.734 Y92.362 E24.67427
G1 X90.049 Y91.956 E24.70865
G1 X90.574 Y91.347 E24.76235
G1 X91.093 Y90.814 E24.81204
G1 X91.515 Y91.151 F30000.000
G1 F2100
G1 X92.284 Y90.473 E24.88056
G1 X92.691 Y90.157 E24.91494
G1 X93.323 Y89.718 E24.96639
G1 X94.206 Y89.195 E25.03492
G1 X94.896 Y88.853 E25.08637
G1 X95.368 Y88.649 E25.12075
G1 X96.090 Y88.380 E25.17220
G1 X96.827 Y88.158 E25.22365
G1 X97.828 Y87.934 E25.29218
G1 X98.337 Y87.853 E25.32656
G1 X99.103 Y87.773 E25.37801
G1 X100.128 Y87.741 E25.44653
G1 X100.642 Y87.757 E25.48091
G1 X101.410 Y87.821 E25.53237
G1 X102.423 Y87.982 E25.60089
G1 X102.925 Y88.094 E25.63526
G1 X103.667 Y88.301 E25.68672
G1 X104.726 Y88.689 E25.76210
G1 X105.336 Y88.962 E25.80669
G1 X106.018 Y89.319 E25.85814
G1 X106.461 Y89.581 E25.89252
G1 X107.102 Y90.007 E25.94396
G1 X107.913 Y90.635 E26.01249
G1 X108.299 Y90.976 E26.04687
G1 X108.849 Y91.515 E26.09832
G1 X109.528 Y92.284 E26.16684
G1 X109.843 Y92.691 E26.20122
G1 X110.282 Y93.323 E26.25268
G1 X110.805 Y94.206 E26.32120
G1 X111.147 Y94.896 E26.37266
G1 X111.351 Y95.368 E26.40703
G1 X111.699 Y96.333 E26.47555
G1 X111.842 Y96.827 E26.50993
G1 X112.018 Y97.577 E26.56139
G1 X112.147 Y98.337 E26.61284
G1 X112.227 Y99.103 E26.66429
G1 X112.259 Y100.128 E26.73282
G1 X112.243 Y100.642 E26.76719
G1 X112.179 Y101.410 E26.81865
G1 X112.018 Y102.423 E26.88717
G1 X111.906 Y102.925 E26.92155
G1 X111.699 Y103.667 E26.97300
G1 X111.446 Y104.394 E27.02445
G1 X111.182 Y105.022 E27.06995
G1 X110.681 Y106.018 E27.14442
G1 X110.419 Y106.461 E27.17880
G1 X109.993 Y107.102 E27.23025
G1 X109.365 Y107.913 E27.29877
G1 X109.024 Y108.299 E27.33315
G1 X108.485 Y108.849 E27.38460
G1 X107.716 Y109.528 E27.45313
G1 X107.309 Y109.843 E27.48751
G1 X106.677 Y110.282 E27.53896
G1 X105.794 Y110.805 E27.60749
G1 X105.104 Y111.147 E27.65894
G1 X104.632 Y111.351 E27.69331
G1 X103.667 Y111.699 E27.76184
G1 X103.173 Y111.842 E27.79621
G1 X102.423 Y112.018 E27.84767
G1 X101.663 Y112.147 E27.89913
G1 X100.897 Y112.227 E27.95057
G1 X99.872 Y112.259 E28.01910
G1 X99.358 Y112.243 E28.05348
G1 X98.590 Y112.179 E28.10493
G1 X97.577 Y112.018 E28.17345
G1 X97.075 Y111.906 E28.20783
G1 X96.333 Y111.699 E28.25929
G1 X95.606 Y111.446 E28.31073
G1 X94.978 Y111.182 E28.35624
G1 X93.982 Y110.681 E28.43071
G1 X93.539 Y110.419 E28.46508
G1 X92.898 Y109.993 E28.51653
G1 X92.087 Y109.365 E28.58505
G1 X91.701 Y109.024 E28.61944
G1 X91.151 Y108.485 E28.67089
G1 X90.473 Y107.716 E28.73941
G1 X90.157 Y107.309 E28.77379
G1 X89.718 Y106.677 E28.82524
G1 X89.195 Y105.794 E28.89377
G1 X88.962 Y105.336 E28.92814
G1 X88.649 Y104.632 E28.97960
G1 X88.301 Y103.667 E29.04812
G1 X88.094 Y102.925 E29.09958
G1 X87.982 Y102.423 E29.13395
G1 X87.813 Y101.321 E29.20842
G1 X87.757 Y100.642 E29.25392
