; generated by Slic3r 1.3.0 on 2021-03-19 at 09:45:17

; external perimeters extrusion width = 0.44mm (2.78mm^3/s)
; perimeters extrusion width = 0.40mm (7.14mm^3/s)
; infill extrusion width = 0.50mm (10.97mm^3/s)
; solid infill extrusion width = 0.60mm (6.68mm^3/s)
; top infill extrusion width = 0.40mm (2.14mm^3/s)

M107
M190 S80 ; set bed temperature and wait for it to be reached
M104 S235 ; set temperature
G28 ; home all axes
G1 Z5 F5000 ; lift nozzle

; Filament gcode

M109 S235 ; set temperature and wait for it to be reached
G21 ; set units to millimeters
G90 ; use absolute coordinates
M82 ; use absolute distances for extrusion
G92 E0
G1 Z0.300 F30000.000
G1 E-2.00000 F2400.00000
G92 E0
G1 X90.724 Y90.466 F30000.000
G1 E2.00000 F2400.00000
G1 F2100
G1 X91.050 Y90.160 E2.02989
G1 X91.686 Y89.617 E2.08570
G1 X92.354 Y89.116 E2.14151
G1 X92.695 Y88.884 E2.16904
G1 X93.073 Y88.645 E2.19892
G1 X93.778 Y88.243 E2.25319
G1 X94.145 Y88.056 E2.28069
G1 X94.907 Y87.712 E2.33653
G1 X95.688 Y87.417 E2.39234
G1 X96.092 Y87.285 E2.42066
G1 X96.898 Y87.065 E2.47649
G1 X97.300 Y86.975 E2.50400
G1 X98.123 Y86.831 E2.55983
G1 X98.566 Y86.776 E2.58967
G1 X99.376 Y86.713 E2.64397
G1 X100.212 Y86.700 E2.69977
G1 X100.624 Y86.713 E2.72731
G1 X101.457 Y86.778 E2.78314
G1 X102.284 Y86.896 E2.83895
G1 X102.700 Y86.975 E2.86728
G1 X103.513 Y87.171 E2.92309
G1 X103.908 Y87.285 E2.95061
G1 X104.699 Y87.556 E3.00644
G1 X105.471 Y87.875 E3.06225
G1 X105.855 Y88.056 E3.09059
G1 X106.593 Y88.447 E3.14639
G1 X106.948 Y88.657 E3.17392
G1 X107.646 Y89.115 E3.22974
G1 X108.007 Y89.379 E3.25961
G1 X108.641 Y89.887 E3.31387
G1 X108.950 Y90.160 E3.34140
G1 X109.550 Y90.741 E3.39722
G1 X110.097 Y91.341 E3.45149
G1 X110.383 Y91.686 E3.48137
G1 X110.635 Y92.011 E3.50889
G1 X111.116 Y92.695 E3.56470
G1 X111.343 Y93.052 E3.59303
G1 X111.757 Y93.778 E3.64885
G1 X111.944 Y94.145 E3.67636
G1 X112.288 Y94.907 E3.73219
G1 X112.576 Y95.666 E3.78645
G1 X112.715 Y96.092 E3.81634
G1 X112.829 Y96.487 E3.84385
G1 X113.025 Y97.300 E3.89967
G1 X113.169 Y98.123 E3.95549
G1 X113.260 Y98.953 E4.01131
G1 X113.287 Y99.377 E4.03964
G1 X113.300 Y100.212 E4.09546
G1 X113.287 Y100.623 E4.12297
G1 X113.222 Y101.457 E4.17880
G1 X113.108 Y102.261 E4.23306
G1 X113.025 Y102.700 E4.26294
G1 X112.829 Y103.513 E4.31876
G1 X112.715 Y103.908 E4.34628
G1 X112.444 Y104.699 E4.40211
G1 X112.134 Y105.449 E4.45636
G1 X111.944 Y105.855 E4.48625
G1 X111.553 Y106.593 E4.54208
G1 X111.343 Y106.948 E4.56958
G1 X110.885 Y107.646 E4.62540
G1 X110.383 Y108.314 E4.68123
G1 X110.113 Y108.641 E4.70956
G1 X109.840 Y108.950 E4.73707
G1 X109.259 Y109.550 E4.79289
G1 X108.641 Y110.113 E4.84871
G1 X108.314 Y110.383 E4.87704
G1 X107.989 Y110.635 E4.90455
G1 X107.305 Y111.116 E4.96037
G1 X106.593 Y111.553 E5.01619
G1 X106.222 Y111.757 E5.04451
G1 X105.471 Y112.124 E5.10034
G1 X104.699 Y112.444 E5.15615
G1 X104.312 Y112.583 E5.18366
G1 X103.513 Y112.829 E5.23950
G1 X103.102 Y112.935 E5.26782
G1 X102.284 Y113.104 E5.32364
G1 X101.457 Y113.222 E5.37943
G1 X101.047 Y113.260 E5.40697
G1 X100.623 Y113.287 E5.43531
G1 X99.788 Y113.300 E5.49113
G1 X99.377 Y113.287 E5.51863
G1 X98.543 Y113.222 E5.57447
G1 X97.716 Y113.104 E5.63028
G1 X97.300 Y113.025 E5.65861
G1 X96.487 Y112.829 E5.71442
G1 X96.092 Y112.715 E5.74194
G1 X95.301 Y112.444 E5.79777
G1 X94.529 Y112.125 E5.85358
G1 X94.145 Y111.944 E5.88192
G1 X93.407 Y111.553 E5.93774
G1 X93.052 Y111.343 E5.96525
G1 X92.354 Y110.885 E6.02107
G1 X91.993 Y110.621 E6.05094
G1 X91.359 Y110.113 E6.10522
G1 X90.741 Y109.550 E6.16104
G1 X90.450 Y109.259 E6.18856
G1 X89.903 Y108.658 E6.24284
G1 X89.617 Y108.314 E6.27270
G1 X89.365 Y107.989 E6.30023
G1 X88.884 Y107.305 E6.35604
G1 X88.447 Y106.593 E6.41187
G1 X88.056 Y105.855 E6.46768
G1 X87.875 Y105.471 E6.49601
G1 X87.556 Y104.699 E6.55182
G1 X87.285 Y103.908 E6.60766
G1 X87.171 Y103.513 E6.63517
G1 X86.980 Y102.723 E6.68943
G1 X86.896 Y102.284 E6.71931
G1 X86.831 Y101.877 E6.74682
G1 X86.740 Y101.047 E6.80263
G1 X86.713 Y100.624 E6.83097
G1 X86.700 Y99.788 E6.88679
G1 X86.713 Y99.376 E6.91431
G1 X86.778 Y98.543 E6.97013
G1 X86.892 Y97.739 E7.02439
G1 X86.975 Y97.300 E7.05427
G1 X87.065 Y96.898 E7.08178
G1 X87.285 Y96.092 E7.13761
G1 X87.417 Y95.688 E7.16594
G1 X87.712 Y94.907 E7.22175
G1 X87.876 Y94.529 E7.24925
G1 X88.243 Y93.778 E7.30509
G1 X88.447 Y93.407 E7.33341
G1 X88.884 Y92.695 E7.38923
G1 X89.116 Y92.354 E7.41677
G1 X89.617 Y91.686 E7.47257
G1 X90.160 Y91.050 E7.52840
G1 X90.682 Y90.509 E7.57865
G1 X91.103 Y90.845 F30000.000
G1 F2100
G1 X91.404 Y90.561 E7.60627
G1 X92.014 Y90.040 E7.65984
G1 X92.655 Y89.559 E7.71340
G1 X92.996 Y89.327 E7.74093
G1 X94.022 Y88.720 E7.82056
G1 X94.388 Y88.533 E7.84807
G1 X95.120 Y88.204 E7.90166
G1 X96.241 Y87.800 E7.98128
G1 X97.015 Y87.588 E8.03486
G1 X97.416 Y87.498 E8.06237
G1 X98.207 Y87.360 E8.11595
G1 X98.616 Y87.309 E8.14354
G1 X99.393 Y87.248 E8.19559
G1 X100.195 Y87.235 E8.24915
G1 X100.607 Y87.248 E8.27668
G1 X101.406 Y87.312 E8.33027
G1 X102.584 Y87.498 E8.40989
G1 X103.363 Y87.685 E8.46346
G1 X103.759 Y87.800 E8.49097
G1 X104.518 Y88.060 E8.54456
G1 X105.258 Y88.367 E8.59812
G1 X106.320 Y88.908 E8.67775
G1 X106.675 Y89.118 E8.70527
G1 X107.345 Y89.558 E8.75885
G1 X108.287 Y90.289 E8.83847
G1 X108.596 Y90.561 E8.86599
G1 X109.171 Y91.120 E8.91957
G1 X109.960 Y92.014 E8.99921
G1 X110.212 Y92.339 E9.02672
G1 X110.673 Y92.996 E9.08029
G1 X111.280 Y94.022 E9.15992
G1 X111.633 Y94.742 E9.21351
G1 X111.796 Y95.120 E9.24101
G1 X112.200 Y96.241 E9.32065
G1 X112.315 Y96.637 E9.34816
G1 X112.502 Y97.416 E9.40173
G1 X112.640 Y98.207 E9.45530
G1 X112.727 Y99.004 E9.50887
G1 X112.765 Y100.195 E9.58851
G1 X112.727 Y100.996 E9.64210
G1 X112.688 Y101.406 E9.66961
G1 X112.502 Y102.584 E9.74923
G1 X112.315 Y103.363 E9.80281
G1 X112.200 Y103.759 E9.83032
G1 X111.940 Y104.518 E9.88390
G1 X111.642 Y105.237 E9.93590
G1 X111.467 Y105.612 E9.96355
G1 X111.092 Y106.320 E10.01713
G1 X110.882 Y106.675 E10.04463
G1 X110.442 Y107.345 E10.09821
G1 X109.711 Y108.287 E10.17784
G1 X109.439 Y108.596 E10.20536
G1 X108.880 Y109.171 E10.25893
G1 X107.986 Y109.960 E10.33857
G1 X107.661 Y110.212 E10.36607
G1 X107.004 Y110.673 E10.41965
G1 X105.978 Y111.280 E10.49928
G1 X105.258 Y111.633 E10.55285
G1 X104.518 Y111.940 E10.60642
G1 X104.130 Y112.080 E10.63393
G1 X103.363 Y112.315 E10.68752
G1 X102.200 Y112.575 E10.76714
G1 X101.407 Y112.688 E10.82069
G1 X100.996 Y112.727 E10.84823
G1 X99.805 Y112.765 E10.92787
G1 X99.004 Y112.727 E10.98146
G1 X98.594 Y112.688 E11.00896
G1 X97.416 Y112.502 E11.08859
G1 X96.637 Y112.315 E11.14216
G1 X96.241 Y112.200 E11.16967
G1 X95.482 Y111.940 E11.22326
G1 X94.742 Y111.633 E11.27682
G1 X93.680 Y111.092 E11.35647
G1 X93.325 Y110.882 E11.38397
G1 X92.655 Y110.442 E11.43755
G1 X91.713 Y109.711 E11.51718
G1 X91.120 Y109.171 E11.57076
G1 X90.828 Y108.880 E11.59828
G1 X90.040 Y107.986 E11.67790
G1 X89.788 Y107.661 E11.70542
G1 X89.327 Y107.004 E11.75899
G1 X88.908 Y106.320 E11.81258
G1 X88.533 Y105.612 E11.86613
G1 X88.060 Y104.518 E11.94577
G1 X87.800 Y103.759 E11.99936
G1 X87.685 Y103.363 E12.02687
G1 X87.425 Y102.200 E12.10649
G1 X87.312 Y101.406 E12.16006
G1 X87.273 Y100.996 E12.18757
G1 X87.235 Y99.805 E12.26721
G1 X87.248 Y99.393 E12.29473
G1 X87.312 Y98.594 E12.34830
G1 X87.498 Y97.416 E12.42793
G1 X87.588 Y97.015 E12.45544
G1 X87.800 Y96.241 E12.50902
G1 X88.204 Y95.120 E12.58864
G1 X88.367 Y94.742 E12.61615
G1 X88.720 Y94.022 E12.66974
G1 X89.327 Y92.996 E12.74937
G1 X89.559 Y92.655 E12.77690
G1 X90.040 Y92.014 E12.83046
G1 X90.561 Y91.404 E12.88404
G1 X91.061 Y90.887 E12.93205
G1 X91.482 Y91.224 F30000.000
G1 F2100
G1 X92.342 Y90.464 E13.00873
G1 X92.956 Y90.002 E13.06005
G1 X93.297 Y89.770 E13.08757
G1 X94.265 Y89.198 E13.16271
G1 X94.632 Y89.011 E13.19022
G1 X95.332 Y88.695 E13.24156
G1 X96.390 Y88.314 E13.31669
G1 X97.131 Y88.111 E13.36802
G1 X97.533 Y88.021 E13.39553
G1 X98.667 Y87.843 E13.47219
G1 X99.410 Y87.784 E13.52199
G1 X100.178 Y87.771 E13.57330
G1 X100.590 Y87.784 E13.60083
G1 X101.356 Y87.845 E13.65217
G1 X102.467 Y88.021 E13.72730
G1 X103.214 Y88.199 E13.77862
G1 X103.609 Y88.314 E13.80613
G1 X104.336 Y88.564 E13.85747
G1 X105.045 Y88.859 E13.90879
G1 X106.048 Y89.369 E13.98392
G1 X106.402 Y89.579 E14.01145
G1 X107.044 Y90.001 E14.06278
G1 X107.932 Y90.691 E14.13790
G1 X108.242 Y90.963 E14.16542
G1 X108.793 Y91.498 E14.21675
G1 X109.537 Y92.342 E14.29190
G1 X109.789 Y92.668 E14.31941
G1 X110.230 Y93.297 E14.37073
G1 X110.802 Y94.265 E14.44587
G1 X111.141 Y94.955 E14.49721
G1 X111.305 Y95.332 E14.52472
G1 X111.686 Y96.391 E14.59985
G1 X111.801 Y96.786 E14.62737
G1 X111.979 Y97.533 E14.67869
G1 X112.110 Y98.290 E14.73002
G1 X112.194 Y99.054 E14.78134
G1 X112.229 Y100.178 E14.85648
G1 X112.216 Y100.590 E14.88399
G1 X112.155 Y101.356 E14.93533
G1 X111.979 Y102.467 E15.01046
G1 X111.801 Y103.214 E15.06179
G1 X111.686 Y103.610 E15.08931
G1 X111.436 Y104.336 E15.14064
G1 X111.151 Y105.024 E15.19040
G1 X110.631 Y106.048 E15.26710
G1 X110.421 Y106.402 E15.29461
G1 X109.999 Y107.044 E15.34593
G1 X109.309 Y107.933 E15.42108
G1 X109.037 Y108.242 E15.44859
G1 X108.502 Y108.793 E15.49991
G1 X107.658 Y109.537 E15.57506
G1 X107.332 Y109.789 E15.60256
G1 X106.703 Y110.230 E15.65389
G1 X105.735 Y110.802 E15.72903
G1 X105.046 Y111.141 E15.78036
G1 X104.336 Y111.436 E15.83167
G1 X103.949 Y111.576 E15.85919
G1 X103.214 Y111.801 E15.91053
G1 X102.116 Y112.046 E15.98566
G1 X101.356 Y112.155 E16.03696
G1 X100.946 Y112.194 E16.06450
G1 X99.822 Y112.229 E16.13964
G1 X99.410 Y112.216 E16.16715
G1 X98.644 Y112.155 E16.21849
G1 X97.533 Y111.979 E16.29362
G1 X96.786 Y111.801 E16.34494
G1 X96.391 Y111.686 E16.37245
G1 X95.664 Y111.436 E16.42379
G1 X94.955 Y111.141 E16.47511
G1 X93.952 Y110.631 E16.55026
G1 X93.598 Y110.421 E16.57777
G1 X92.956 Y109.999 E16.62909
G1 X92.067 Y109.309 E16.70424
G1 X91.498 Y108.793 E16.75556
G1 X91.207 Y108.501 E16.78308
G1 X90.463 Y107.658 E16.85821
G1 X90.211 Y107.332 E16.88574
G1 X89.770 Y106.703 E16.93705
G1 X89.369 Y106.048 E16.98839
G1 X89.011 Y105.368 E17.03970
G1 X88.564 Y104.336 E17.11484
G1 X88.314 Y103.609 E17.16618
G1 X88.199 Y103.214 E17.19369
G1 X87.954 Y102.116 E17.26883
G1 X87.890 Y101.710 E17.29633
G1 X87.806 Y100.946 E17.34766
G1 X87.771 Y99.822 E17.42280
G1 X87.784 Y99.410 E17.45032
G1 X87.845 Y98.644 E17.50165
G1 X88.021 Y97.533 E17.57678
G1 X88.111 Y97.131 E17.60429
G1 X88.314 Y96.390 E17.65562
G1 X88.695 Y95.332 E17.73075
G1 X88.859 Y94.954 E17.75826
G1 X89.198 Y94.265 E17.80960
G1 X89.770 Y93.297 E17.88474
G1 X90.002 Y92.956 E17.91226
G1 X90.464 Y92.342 E17.96358
G1 X90.963 Y91.758 E18.01491
G1 X91.440 Y91.266 E18.06068
G1 X91.861 Y91.602 F30000.000
G1 F2100
G1 X92.670 Y90.887 E18.13286
G1 X93.257 Y90.445 E18.18193
G1 X93.598 Y90.213 E18.20946
G1 X94.508 Y89.675 E18.28010
G1 X94.875 Y89.488 E18.30761
G1 X95.545 Y89.187 E18.35670
G1 X96.540 Y88.829 E18.42734
G1 X97.248 Y88.633 E18.47642
G1 X97.650 Y88.543 E18.50393
G1 X98.717 Y88.376 E18.57610
G1 X99.427 Y88.319 E18.62365
G1 X100.161 Y88.306 E18.67272
G1 X100.573 Y88.319 E18.70025
G1 X101.305 Y88.378 E18.74933
G1 X102.350 Y88.543 E18.81998
G1 X103.064 Y88.714 E18.86905
G1 X103.460 Y88.828 E18.89656
G1 X104.155 Y89.068 E18.94565
G1 X104.833 Y89.350 E18.99472
G1 X105.775 Y89.830 E19.06536
G1 X106.130 Y90.040 E19.09288
G1 X106.743 Y90.444 E19.14197
G1 X107.578 Y91.093 E19.21260
G1 X107.887 Y91.365 E19.24012
G1 X108.414 Y91.877 E19.28920
G1 X109.113 Y92.670 E19.35985
G1 X109.366 Y92.996 E19.38737
G1 X109.787 Y93.598 E19.43644
G1 X110.325 Y94.508 E19.50708
G1 X110.512 Y94.875 E19.53459
G1 X110.813 Y95.545 E19.58368
G1 X111.172 Y96.540 E19.65433
G1 X111.286 Y96.936 E19.68184
G1 X111.457 Y97.650 E19.73091
G1 X111.581 Y98.374 E19.77999
G1 X111.661 Y99.104 E19.82907
G1 X111.694 Y100.161 E19.89972
G1 X111.681 Y100.573 E19.92723
G1 X111.622 Y101.305 E19.97632
G1 X111.457 Y102.350 E20.04696
G1 X111.286 Y103.065 E20.09604
G1 X111.171 Y103.460 E20.12355
G1 X110.932 Y104.155 E20.17264
G1 X110.659 Y104.812 E20.22016
G1 X110.170 Y105.775 E20.29236
G1 X109.960 Y106.130 E20.31986
G1 X109.556 Y106.743 E20.36894
G1 X108.907 Y107.578 E20.43959
G1 X108.635 Y107.887 E20.46711
G1 X108.123 Y108.414 E20.51618
G1 X107.329 Y109.113 E20.58683
G1 X107.004 Y109.366 E20.61434
G1 X106.402 Y109.787 E20.66342
G1 X105.492 Y110.325 E20.73406
G1 X104.833 Y110.650 E20.78314
G1 X104.155 Y110.932 E20.83222
G1 X103.767 Y111.072 E20.85973
G1 X103.065 Y111.286 E20.90882
G1 X102.033 Y111.517 E20.97946
G1 X101.306 Y111.622 E21.02852
G1 X100.896 Y111.661 E21.05605
G1 X99.839 Y111.694 E21.12670
G1 X99.427 Y111.681 E21.15421
G1 X98.695 Y111.622 E21.20330
G1 X97.650 Y111.457 E21.27394
G1 X96.936 Y111.286 E21.32301
G1 X96.540 Y111.172 E21.35052
G1 X95.845 Y110.932 E21.39962
G1 X95.167 Y110.650 E21.44868
G1 X94.225 Y110.170 E21.51934
G1 X93.870 Y109.960 E21.54685
G1 X93.257 Y109.556 E21.59593
G1 X92.422 Y108.907 E21.66657
G1 X91.877 Y108.414 E21.71566
G1 X91.586 Y108.123 E21.74317
G1 X90.887 Y107.330 E21.81381
G1 X90.634 Y107.004 E21.84133
G1 X90.213 Y106.402 E21.89040
G1 X89.830 Y105.775 E21.93950
G1 X89.488 Y105.125 E21.98856
G1 X89.068 Y104.155 E22.05921
G1 X88.828 Y103.460 E22.10830
G1 X88.714 Y103.064 E22.13581
G1 X88.483 Y102.033 E22.20645
G1 X88.419 Y101.626 E22.23396
G1 X88.339 Y100.896 E22.28303
G1 X88.306 Y99.838 E22.35368
G1 X88.319 Y99.427 E22.38120
G1 X88.378 Y98.695 E22.43028
G1 X88.543 Y97.650 E22.50092
G1 X88.633 Y97.248 E22.52843
G1 X88.829 Y96.540 E22.57751
G1 X89.187 Y95.545 E22.64815
G1 X89.350 Y95.167 E22.67566
G1 X89.675 Y94.508 E22.72475
G1 X90.213 Y93.598 E22.79539
G1 X90.445 Y93.257 E22.82292
G1 X90.887 Y92.670 E22.87199
G1 X91.365 Y92.113 E22.92107
G1 X91.818 Y91.645 E22.96459
G1 X92.240 Y91.981 F30000.000
G1 F2100
G1 X92.999 Y91.310 E23.03228
G1 X93.558 Y90.888 E23.07911
G1 X93.899 Y90.656 E23.10663
G1 X94.751 Y90.152 E23.17278
G1 X95.118 Y89.965 E23.20029
G1 X95.758 Y89.678 E23.24713
G1 X96.689 Y89.343 E23.31328
G1 X97.365 Y89.156 E23.36011
G1 X97.767 Y89.066 E23.38762
G1 X98.768 Y88.909 E23.45530
G1 X99.444 Y88.854 E23.50060
G1 X100.144 Y88.841 E23.54742
G1 X100.556 Y88.854 E23.57495
G1 X101.255 Y88.911 E23.62179
G1 X102.233 Y89.066 E23.68794
G1 X102.915 Y89.228 E23.73476
G1 X103.311 Y89.343 E23.76227
G1 X103.973 Y89.572 E23.80912
G1 X104.620 Y89.842 E23.85594
G1 X105.502 Y90.291 E23.92209
G1 X105.857 Y90.501 E23.94961
G1 X106.442 Y90.887 E23.99644
G1 X107.224 Y91.494 E24.06258
G1 X107.533 Y91.767 E24.09010
G1 X108.035 Y92.256 E24.13694
G1 X108.690 Y92.999 E24.20309
G1 X108.943 Y93.324 E24.23061
G1 X109.344 Y93.899 E24.27743
G1 X109.848 Y94.751 E24.34359
G1 X110.035 Y95.118 E24.37109
G1 X110.322 Y95.758 E24.41793
G1 X110.657 Y96.689 E24.48409
G1 X110.772 Y97.085 E24.51160
G1 X110.934 Y97.767 E24.55842
G1 X111.052 Y98.458 E24.60526
G1 X111.127 Y99.155 E24.65209
G1 X111.159 Y100.145 E24.71825
G1 X111.146 Y100.556 E24.74575
G1 X111.089 Y101.255 E24.79259
G1 X110.934 Y102.233 E24.85874
G1 X110.772 Y102.915 E24.90557
G1 X110.657 Y103.311 E24.93309
G1 X110.428 Y103.973 E24.97992
G1 X110.167 Y104.599 E25.02519
G1 X109.709 Y105.503 E25.09290
G1 X109.499 Y105.857 E25.12041
G1 X109.113 Y106.442 E25.16724
G1 X108.506 Y107.224 E25.23340
G1 X108.233 Y107.533 E25.26091
G1 X107.744 Y108.035 E25.30774
G1 X107.001 Y108.690 E25.37390
G1 X106.676 Y108.942 E25.40140
G1 X106.101 Y109.344 E25.44824
G1 X105.249 Y109.848 E25.51439
G1 X104.620 Y110.158 E25.56122
G1 X103.973 Y110.428 E25.60805
G1 X103.586 Y110.568 E25.63556
G1 X102.915 Y110.772 E25.68240
G1 X101.949 Y110.988 E25.74854
G1 X101.255 Y111.089 E25.79536
G1 X100.845 Y111.127 E25.82289
G1 X99.855 Y111.159 E25.88905
G1 X99.155 Y111.127 E25.93589
G1 X98.745 Y111.089 E25.96339
G1 X97.767 Y110.934 E26.02954
G1 X97.085 Y110.772 E26.07637
G1 X96.689 Y110.657 E26.10388
G1 X96.027 Y110.428 E26.15072
G1 X95.380 Y110.158 E26.19755
G1 X94.498 Y109.709 E26.26371
G1 X94.143 Y109.499 E26.29121
G1 X93.558 Y109.113 E26.33805
G1 X92.776 Y108.506 E26.40420
G1 X92.256 Y108.035 E26.45104
G1 X91.965 Y107.744 E26.47855
G1 X91.310 Y107.001 E26.54470
G1 X91.057 Y106.676 E26.57222
