; generated by Slic3r 1.3.0 on 2021-03-18 at 23:00:44

; external perimeters extrusion width = 0.44mm (2.78mm^3/s)
; perimeters extrusion width = 0.40mm (7.14mm^3/s)
; infill extrusion width = 0.50mm (10.97mm^3/s)
; solid infill extrusion width = 0.60mm (6.68mm^3/s)
; top infill extrusion width = 0.40mm (2.14mm^3/s)

M107
M190 S80 ; set bed temperature and wait for it to be reached
M104 S235 ; set temperature
G28 ; home all axes
G1 Z5 F5000 ; lift nozzle

; Filament gcode

M109 S235 ; set temperature and wait for it to be reached
G21 ; set units to millimeters
G90 ; use absolute coordinates
M82 ; use absolute distances for extrusion
G92 E0
G1 Z0.300 F30000.000
G1 E-2.00000 F2400.00000
G92 E0
G1 X86.978 Y86.393 F30000.000
G1 E2.00000 F2400.00000
G1 F2100
G1 X87.858 Y85.602 E2.07905
G1 X88.786 Y84.869 E2.15807
G1 X90.059 Y84.003 E2.26094
G1 X90.771 Y83.582 E2.31616
G1 X91.820 Y83.035 E2.39521
G1 X93.233 Y82.424 E2.49805
G1 X94.010 Y82.144 E2.55328
G1 X95.144 Y81.803 E2.63237
G1 X96.645 Y81.467 E2.73514
G1 X97.817 Y81.293 E2.81426
G1 X98.640 Y81.215 E2.86950
G1 X100.179 Y81.167 E2.97233
G1 X101.360 Y81.215 E3.05132
G1 X102.538 Y81.338 E3.13044
G1 X103.704 Y81.534 E3.20943
G1 X104.511 Y81.714 E3.26466
G1 X105.990 Y82.144 E3.36754
G1 X106.767 Y82.424 E3.42276
G1 X107.857 Y82.883 E3.50177
G1 X109.229 Y83.582 E3.60464
G1 X109.941 Y84.003 E3.65988
G1 X110.926 Y84.659 E3.73892
G1 X112.142 Y85.602 E3.84176
G1 X112.762 Y86.149 E3.89698
G1 X113.607 Y86.978 E3.97603
G1 X114.398 Y87.858 E4.05509
G1 X115.107 Y88.754 E4.13144
G1 X115.341 Y89.074 E4.15795
G1 X115.997 Y90.059 E4.23699
G1 X116.590 Y91.083 E4.31604
G1 X116.965 Y91.820 E4.37126
G1 X117.576 Y93.233 E4.47410
G1 X117.856 Y94.011 E4.52934
G1 X118.197 Y95.144 E4.60842
G1 X118.533 Y96.646 E4.71119
G1 X118.662 Y97.462 E4.76642
G1 X118.785 Y98.640 E4.84554
G1 X118.833 Y100.179 E4.94838
G1 X118.785 Y101.360 E5.02737
G1 X118.707 Y102.183 E5.08260
G1 X118.466 Y103.704 E5.18548
G1 X118.286 Y104.511 E5.24071
G1 X117.967 Y105.650 E5.31971
G1 X117.576 Y106.767 E5.39881
G1 X117.133 Y107.821 E5.47516
G1 X116.965 Y108.180 E5.50167
G1 X116.418 Y109.229 E5.58072
G1 X115.997 Y109.941 E5.63594
G1 X115.341 Y110.926 E5.71498
G1 X114.398 Y112.142 E5.81782
G1 X113.851 Y112.762 E5.87304
G1 X113.022 Y113.607 E5.95210
G1 X112.142 Y114.398 E6.03115
G1 X111.214 Y115.131 E6.11017
G1 X109.941 Y115.997 E6.21303
G1 X108.917 Y116.590 E6.29208
G1 X108.180 Y116.965 E6.34731
G1 X106.767 Y117.576 E6.45015
G1 X105.990 Y117.856 E6.50537
G1 X104.856 Y118.197 E6.58447
G1 X103.355 Y118.533 E6.68724
G1 X102.183 Y118.707 E6.76636
G1 X101.360 Y118.785 E6.82159
G1 X99.821 Y118.833 E6.92443
G1 X98.640 Y118.785 E7.00341
G1 X97.462 Y118.662 E7.08254
G1 X96.646 Y118.533 E7.13777
G1 X95.489 Y118.286 E7.21676
G1 X94.011 Y117.856 E7.31962
G1 X93.233 Y117.576 E7.37486
G1 X92.143 Y117.117 E7.45387
G1 X90.771 Y116.418 E7.55675
G1 X89.758 Y115.806 E7.63579
G1 X89.074 Y115.341 E7.69101
G1 X87.858 Y114.398 E7.79386
G1 X87.238 Y113.851 E7.84908
G1 X86.393 Y113.022 E7.92813
G1 X85.602 Y112.142 E8.00719
G1 X84.868 Y111.214 E8.08621
G1 X84.003 Y109.941 E8.18907
G1 X83.582 Y109.229 E8.24431
G1 X83.035 Y108.180 E8.32335
G1 X82.424 Y106.767 E8.42619
G1 X82.144 Y105.990 E8.48141
G1 X81.803 Y104.856 E8.56050
G1 X81.467 Y103.354 E8.66328
G1 X81.338 Y102.538 E8.71850
G1 X81.215 Y101.360 E8.79763
G1 X81.167 Y99.821 E8.90046
G1 X81.193 Y98.995 E8.95568
G1 X81.293 Y97.817 E9.03468
G1 X81.534 Y96.296 E9.13757
G1 X81.714 Y95.489 E9.19279
G1 X82.033 Y94.350 E9.27179
G1 X82.555 Y92.901 E9.37468
G1 X82.883 Y92.143 E9.42990
G1 X83.410 Y91.083 E9.50896
G1 X84.194 Y89.758 E9.61182
G1 X84.659 Y89.074 E9.66704
G1 X85.375 Y88.132 E9.74610
G1 X86.149 Y87.238 E9.82511
G1 X86.935 Y86.436 E9.90016
G1 X87.356 Y86.772 F30000.000
G1 F2100
G1 X88.212 Y86.004 E9.97696
G1 X89.114 Y85.292 E10.05374
G1 X90.332 Y84.464 E10.15211
G1 X91.043 Y84.043 E10.20733
G1 X92.063 Y83.512 E10.28413
G1 X93.414 Y82.928 E10.38248
G1 X94.192 Y82.648 E10.43771
G1 X95.294 Y82.317 E10.51455
G1 X96.729 Y81.996 E10.61283
G1 X97.867 Y81.826 E10.68970
G1 X98.690 Y81.748 E10.74493
G1 X100.162 Y81.702 E10.84328
G1 X101.310 Y81.748 E10.92002
G1 X102.454 Y81.867 E10.99689
G1 X103.587 Y82.056 E11.07364
G1 X104.394 Y82.237 E11.12887
G1 X105.808 Y82.648 E11.22725
G1 X106.586 Y82.928 E11.28247
G1 X107.645 Y83.375 E11.35924
G1 X108.957 Y84.043 E11.45761
G1 X109.668 Y84.464 E11.51285
G1 X110.625 Y85.102 E11.58964
G1 X111.788 Y86.004 E11.68799
G1 X112.644 Y86.772 E11.76480
G1 X113.228 Y87.356 E11.82002
G1 X113.996 Y88.212 E11.89682
G1 X114.708 Y89.114 E11.97360
G1 X115.536 Y90.332 E12.07197
G1 X116.112 Y91.326 E12.14877
G1 X116.488 Y92.063 E12.20399
G1 X117.072 Y93.414 E12.30234
G1 X117.352 Y94.192 E12.35757
G1 X117.683 Y95.294 E12.43441
G1 X118.004 Y96.729 E12.53270
G1 X118.133 Y97.546 E12.58792
G1 X118.252 Y98.690 E12.66479
G1 X118.298 Y100.162 E12.76314
G1 X118.252 Y101.310 E12.83988
G1 X118.174 Y102.133 E12.89511
G1 X118.004 Y103.271 E12.97198
G1 X117.763 Y104.394 E13.04873
G1 X117.352 Y105.808 E13.14711
G1 X116.954 Y106.886 E13.22388
G1 X116.625 Y107.645 E13.27910
G1 X115.957 Y108.957 E13.37748
G1 X115.536 Y109.668 E13.43270
G1 X114.898 Y110.625 E13.50950
G1 X113.996 Y111.788 E13.60785
G1 X113.449 Y112.408 E13.66307
G1 X112.644 Y113.228 E13.73988
G1 X111.788 Y113.996 E13.81668
G1 X110.886 Y114.708 E13.89345
G1 X109.668 Y115.536 E13.99182
G1 X108.674 Y116.112 E14.06862
G1 X107.937 Y116.488 E14.12385
G1 X106.586 Y117.072 E14.22220
G1 X105.500 Y117.452 E14.29905
G1 X104.706 Y117.683 E14.35427
G1 X103.271 Y118.004 E14.45255
G1 X102.133 Y118.174 E14.52942
G1 X101.310 Y118.252 E14.58465
G1 X99.838 Y118.298 E14.68299
G1 X98.690 Y118.252 E14.75974
G1 X97.546 Y118.133 E14.83661
G1 X96.729 Y118.004 E14.89183
G1 X95.606 Y117.763 E14.96859
G1 X94.192 Y117.352 E15.06695
G1 X93.414 Y117.072 E15.12219
G1 X92.355 Y116.625 E15.19896
G1 X91.043 Y115.957 E15.29734
G1 X90.059 Y115.363 E15.37413
G1 X89.375 Y114.898 E15.42936
G1 X88.212 Y113.996 E15.52771
G1 X87.592 Y113.449 E15.58293
G1 X86.772 Y112.644 E15.65973
G1 X86.004 Y111.788 E15.73654
G1 X85.292 Y110.886 E15.81332
G1 X84.464 Y109.668 E15.91168
G1 X84.043 Y108.957 E15.96692
G1 X83.512 Y107.937 E16.04371
G1 X82.928 Y106.586 E16.14206
G1 X82.648 Y105.808 E16.19728
G1 X82.317 Y104.706 E16.27413
G1 X81.996 Y103.271 E16.37241
G1 X81.867 Y102.454 E16.42764
G1 X81.748 Y101.310 E16.50451
G1 X81.702 Y99.838 E16.60285
G1 X81.748 Y98.690 E16.67960
G1 X81.826 Y97.867 E16.73483
G1 X82.056 Y96.413 E16.83322
G1 X82.237 Y95.606 E16.88844
G1 X82.548 Y94.500 E16.96520
G1 X83.046 Y93.114 E17.06359
G1 X83.375 Y92.355 E17.11881
G1 X83.888 Y91.326 E17.19562
G1 X84.637 Y90.059 E17.29399
G1 X85.102 Y89.375 E17.34921
G1 X85.798 Y88.461 E17.42602
G1 X86.551 Y87.592 E17.50278
G1 X87.314 Y86.814 E17.57558
G1 X87.735 Y87.151 F30000.000
G1 F2100
G1 X88.566 Y86.406 E17.65014
G1 X89.442 Y85.715 E17.72467
G1 X90.604 Y84.925 E17.81855
G1 X91.316 Y84.504 E17.87377
G1 X92.306 Y83.990 E17.94832
G1 X93.596 Y83.432 E18.04218
G1 X94.373 Y83.152 E18.09741
G1 X95.443 Y82.831 E18.17200
G1 X96.813 Y82.525 E18.26579
G1 X97.918 Y82.359 E18.34041
G1 X98.741 Y82.282 E18.39564
G1 X100.145 Y82.237 E18.48949
G1 X101.259 Y82.282 E18.56399
G1 X102.370 Y82.396 E18.63861
G1 X103.470 Y82.579 E18.71311
G1 X104.277 Y82.760 E18.76834
G1 X105.627 Y83.152 E18.86223
G1 X106.404 Y83.432 E18.91745
G1 X107.432 Y83.866 E18.99197
G1 X108.684 Y84.504 E19.08585
G1 X109.396 Y84.925 E19.14108
G1 X110.324 Y85.545 E19.21563
G1 X111.434 Y86.406 E19.30949
G1 X112.054 Y86.952 E19.36471
G1 X112.849 Y87.735 E19.43927
G1 X113.594 Y88.566 E19.51383
G1 X114.261 Y89.411 E19.58569
G1 X115.075 Y90.604 E19.68222
G1 X115.496 Y91.316 E19.73745
G1 X116.010 Y92.306 E19.81200
G1 X116.568 Y93.596 E19.90586
G1 X116.849 Y94.373 E19.96109
G1 X117.169 Y95.443 E20.03567
G1 X117.475 Y96.813 E20.12948
G1 X117.604 Y97.630 E20.18470
G1 X117.718 Y98.741 E20.25932
G1 X117.763 Y100.145 E20.35317
G1 X117.718 Y101.259 E20.42767
G1 X117.641 Y102.082 E20.48290
G1 X117.421 Y103.470 E20.57679
G1 X117.240 Y104.277 E20.63202
G1 X116.938 Y105.351 E20.70653
G1 X116.568 Y106.404 E20.78113
G1 X116.150 Y107.395 E20.85298
G1 X115.496 Y108.684 E20.94953
G1 X115.075 Y109.396 E21.00476
G1 X114.455 Y110.324 E21.07930
G1 X113.594 Y111.434 E21.17316
G1 X112.849 Y112.265 E21.24772
G1 X112.265 Y112.849 E21.30294
G1 X111.434 Y113.594 E21.37750
G1 X110.558 Y114.285 E21.45203
G1 X109.396 Y115.075 E21.54590
G1 X108.430 Y115.635 E21.62045
G1 X107.694 Y116.010 E21.67568
G1 X106.404 Y116.568 E21.76954
G1 X105.351 Y116.938 E21.84413
G1 X104.557 Y117.169 E21.89935
G1 X103.187 Y117.475 E21.99315
G1 X102.082 Y117.641 E22.06776
G1 X101.259 Y117.718 E22.12299
G1 X99.855 Y117.763 E22.21685
G1 X98.741 Y117.718 E22.29135
G1 X97.630 Y117.604 E22.36597
G1 X96.813 Y117.475 E22.42119
G1 X95.723 Y117.240 E22.49570
G1 X94.373 Y116.849 E22.58957
G1 X93.596 Y116.568 E22.64480
G1 X92.568 Y116.134 E22.71933
G1 X91.316 Y115.496 E22.81322
G1 X90.604 Y115.075 E22.86844
G1 X89.676 Y114.455 E22.94299
G1 X88.566 Y113.594 E23.03684
G1 X87.946 Y113.048 E23.09206
G1 X87.151 Y112.265 E23.16662
G1 X86.406 Y111.434 E23.24118
G1 X85.715 Y110.558 E23.31572
G1 X84.925 Y109.396 E23.40959
G1 X84.504 Y108.684 E23.46482
G1 X83.990 Y107.694 E23.53937
G1 X83.432 Y106.404 E23.63322
G1 X83.152 Y105.627 E23.68844
G1 X82.831 Y104.557 E23.76304
G1 X82.525 Y103.187 E23.85684
G1 X82.396 Y102.370 E23.91206
G1 X82.282 Y101.259 E23.98668
G1 X82.237 Y99.855 E24.08053
G1 X82.282 Y98.741 E24.15503
G1 X82.359 Y97.918 E24.21026
G1 X82.579 Y96.530 E24.30415
G1 X82.760 Y95.723 E24.35938
G1 X83.062 Y94.649 E24.43389
G1 X83.538 Y93.327 E24.52779
G1 X83.866 Y92.568 E24.58301
G1 X84.365 Y91.570 E24.65757
G1 X85.080 Y90.360 E24.75144
G1 X85.545 Y89.676 E24.80666
G1 X86.222 Y88.789 E24.88122
G1 X86.952 Y87.946 E24.95575
G1 X87.693 Y87.193 E25.02630
G1 X88.114 Y87.529 F30000.000
G1 F2100
G1 X88.921 Y86.808 E25.09861
G1 X89.771 Y86.138 E25.17089
G1 X90.877 Y85.386 E25.26027
G1 X91.589 Y84.965 E25.31550
G1 X92.549 Y84.467 E25.38780
G1 X93.777 Y83.936 E25.47717
G1 X94.555 Y83.655 E25.53239
G1 X95.592 Y83.346 E25.60473
G1 X96.897 Y83.054 E25.69404
G1 X97.968 Y82.893 E25.76640
G1 X98.791 Y82.815 E25.82163
G1 X100.128 Y82.773 E25.91099
G1 X101.209 Y82.815 E25.98325
G1 X102.286 Y82.925 E26.05561
G1 X103.354 Y83.102 E26.12788
G1 X104.160 Y83.282 E26.18311
G1 X105.445 Y83.655 E26.27249
G1 X106.223 Y83.936 E26.32772
G1 X107.219 Y84.358 E26.40000
G1 X108.411 Y84.965 E26.48938
G1 X109.123 Y85.386 E26.54461
G1 X110.022 Y85.988 E26.61691
G1 X111.079 Y86.808 E26.70628
G1 X111.886 Y87.529 E26.77859
G1 X112.471 Y88.114 E26.83381
G1 X113.192 Y88.921 E26.90612
G1 X113.837 Y89.739 E26.97574
G1 X114.614 Y90.877 E27.06778
G1 X115.035 Y91.589 E27.12300
G1 X115.533 Y92.549 E27.19531
G1 X116.064 Y93.777 E27.28467
G1 X116.345 Y94.555 E27.33990
G1 X116.654 Y95.592 E27.41223
G1 X116.946 Y96.897 E27.50155
G1 X117.075 Y97.714 E27.55677
G1 X117.185 Y98.791 E27.62913
G1 X117.227 Y100.128 E27.71850
G1 X117.201 Y100.954 E27.77372
G1 X117.107 Y102.032 E27.84599
G1 X116.946 Y103.103 E27.91834
G1 X116.718 Y104.160 E27.99061
G1 X116.345 Y105.445 E28.08000
G1 X116.064 Y106.223 E28.13522
G1 X115.642 Y107.219 E28.20750
G1 X115.035 Y108.411 E28.29689
G1 X114.614 Y109.123 E28.35211
G1 X114.012 Y110.022 E28.42441
G1 X113.192 Y111.079 E28.51378
G1 X112.471 Y111.886 E28.58609
G1 X111.886 Y112.471 E28.64131
G1 X111.079 Y113.192 E28.71362
G1 X110.229 Y113.862 E28.78590
G1 X109.123 Y114.614 E28.87528
G1 X108.187 Y115.158 E28.94759
G1 X107.451 Y115.533 E29.00281
G1 X106.223 Y116.064 E29.09218
G1 X105.445 Y116.345 E29.14740
G1 X104.408 Y116.654 E29.21974
G1 X103.103 Y116.946 E29.30906
G1 X102.032 Y117.107 E29.38141
G1 X101.209 Y117.185 E29.43664
G1 X99.872 Y117.227 E29.52600
G1 X98.791 Y117.185 E29.59826
G1 X97.714 Y117.075 E29.67063
G1 X96.897 Y116.946 E29.72585
G1 X95.840 Y116.718 E29.79812
G1 X94.555 Y116.345 E29.88750
G1 X93.777 Y116.064 E29.94273
G1 X92.781 Y115.642 E30.01501
G1 X91.589 Y115.035 E30.10440
G1 X90.877 Y114.614 E30.15962
G1 X89.978 Y114.012 E30.23192
G1 X88.921 Y113.192 E30.32129
G1 X88.300 Y112.646 E30.37651
G1 X87.529 Y111.886 E30.44882
G1 X86.808 Y111.079 E30.52113
G1 X86.163 Y110.261 E30.59074
G1 X85.386 Y109.123 E30.68279
G1 X84.965 Y108.411 E30.73802
G1 X84.467 Y107.451 E30.81032
G1 X83.936 Y106.223 E30.89968
G1 X83.655 Y105.445 E30.95491
G1 X83.346 Y104.408 E31.02725
G1 X83.054 Y103.103 E31.11656
G1 X82.925 Y102.286 E31.17179
G1 X82.815 Y101.209 E31.24415
G1 X82.773 Y99.872 E31.33351
G1 X82.799 Y99.046 E31.38873
G1 X82.893 Y97.968 E31.46100
G1 X83.102 Y96.646 E31.55039
G1 X83.282 Y95.840 E31.60562
G1 X83.576 Y94.799 E31.67789
G1 X84.030 Y93.539 E31.76729
G1 X84.358 Y92.781 E31.82251
G1 X84.842 Y91.813 E31.89482
G1 X85.523 Y90.661 E31.98420
G1 X85.988 Y89.978 E32.03942
G1 X86.645 Y89.117 E32.11173
G1 X87.354 Y88.300 E32.18401
G1 X88.072 Y87.572 E32.25231
G1 X88.493 Y87.908 F30000.000
G1 F2100
G1 X89.275 Y87.209 E32.32237
G1 X90.099 Y86.561 E32.39241
G1 X91.150 Y85.847 E32.47730
G1 X91.861 Y85.426 E32.53252
G1 X92.792 Y84.944 E32.60258
G1 X93.958 Y84.439 E32.68746
G1 X94.736 Y84.159 E32.74268
G1 X95.742 Y83.860 E32.81276
G1 X96.981 Y83.583 E32.89759
G1 X98.018 Y83.426 E32.96770
G1 X98.841 Y83.348 E33.02293
G1 X100.111 Y83.308 E33.10779
G1 X100.937 Y83.334 E33.16302
G1 X101.981 Y83.426 E33.23304
G1 X103.276 Y83.633 E33.32060
G1 X104.258 Y83.860 E33.38797
G1 X105.264 Y84.159 E33.45806
G1 X106.042 Y84.439 E33.51328
G1 X107.006 Y84.849 E33.58331
G1 X108.139 Y85.426 E33.66820
G1 X108.850 Y85.847 E33.72343
G1 X109.721 Y86.431 E33.79349
G1 X110.725 Y87.209 E33.87836
G1 X111.507 Y87.908 E33.94842
G1 X112.092 Y88.493 E34.00364
G1 X112.791 Y89.275 E34.07370
G1 X113.414 Y90.067 E34.14107
G1 X114.153 Y91.150 E34.22862
G1 X114.681 Y92.056 E34.29868
G1 X115.056 Y92.792 E34.35391
G1 X115.561 Y93.958 E34.43878
G1 X115.841 Y94.736 E34.49401
G1 X116.140 Y95.742 E34.56409
G1 X116.417 Y96.981 E34.64892
G1 X116.546 Y97.797 E34.70414
G1 X116.652 Y98.841 E34.77425
G1 X116.692 Y100.111 E34.85912
G1 X116.666 Y100.937 E34.91434
G1 X116.574 Y101.982 E34.98437
G1 X116.417 Y103.019 E35.05447
G1 X116.195 Y104.044 E35.12449
G1 X115.841 Y105.264 E35.20938
G1 X115.561 Y106.042 E35.26461
G1 X115.151 Y107.007 E35.33465
G1 X114.574 Y108.139 E35.41954
G1 X114.153 Y108.850 E35.47476
G1 X113.569 Y109.721 E35.54481
G1 X112.791 Y110.725 E35.62969
G1 X112.092 Y111.507 E35.69975
G1 X111.507 Y112.092 E35.75497
G1 X110.725 Y112.791 E35.82503
G1 X109.901 Y113.439 E35.89507
G1 X108.850 Y114.153 E35.97996
G1 X107.944 Y114.681 E36.05001
G1 X107.208 Y115.056 E36.10524
G1 X106.042 Y115.561 E36.19011
G1 X105.264 Y115.841 E36.24534
G1 X104.258 Y116.140 E36.31542
G1 X103.019 Y116.417 E36.40025
G1 X101.982 Y116.574 E36.47035
G1 X101.159 Y116.652 E36.52558
G1 X99.889 Y116.692 E36.61045
G1 X98.841 Y116.652 E36.68047
G1 X97.797 Y116.546 E36.75058
G1 X96.763 Y116.375 E36.82060
G1 X95.956 Y116.195 E36.87583
G1 X94.736 Y115.841 E36.96071
G1 X93.958 Y115.561 E37.01594
G1 X92.994 Y115.151 E37.08598
G1 X91.861 Y114.574 E37.17087
G1 X91.150 Y114.153 E37.22610
G1 X90.279 Y113.569 E37.29615
G1 X89.275 Y112.791 E37.38102
G1 X88.655 Y112.244 E37.43624
G1 X87.908 Y111.507 E37.50630
G1 X87.209 Y110.725 E37.57637
G1 X86.561 Y109.901 E37.64641
G1 X85.847 Y108.850 E37.73129
G1 X85.426 Y108.139 E37.78652
G1 X84.944 Y107.208 E37.85658
G1 X84.439 Y106.042 E37.94145
G1 X84.159 Y105.264 E37.99667
G1 X83.860 Y104.258 E38.06676
G1 X83.583 Y103.019 E38.15159
G1 X83.454 Y102.203 E38.20681
G1 X83.348 Y101.159 E38.27692
G1 X83.308 Y99.889 E38.36179
G1 X83.334 Y99.063 E38.41701
G1 X83.426 Y98.018 E38.48703
G1 X83.625 Y96.763 E38.57193
G1 X83.805 Y95.956 E38.62716
G1 X84.091 Y94.948 E38.69719
G1 X84.521 Y93.752 E38.78209
G1 X84.849 Y92.994 E38.83731
G1 X85.319 Y92.056 E38.90737
G1 X85.966 Y90.962 E38.99226
G1 X86.431 Y90.279 E39.04748
G1 X87.068 Y89.446 E39.11754
G1 X87.756 Y88.655 E39.18758
G1 X88.450 Y87.951 E39.25363
G1 X89.049 Y88.464 F30000.000
G1 F2100
G1 X89.894 Y87.716 E39.33810
G1 X90.685 Y87.105 E39.41288
