; generated by Slic3r 1.3.0 on 2021-03-20 at 13:48:21

; external perimeters extrusion width = 0.44mm (2.78mm^3/s)
; perimeters extrusion width = 0.40mm (7.14mm^3/s)
; infill extrusion width = 0.50mm (10.97mm^3/s)
; solid infill extrusion width = 0.60mm (6.68mm^3/s)
; top infill extrusion width = 0.40mm (2.14mm^3/s)

M107
M190 S80 ; set bed temperature and wait for it to be reached
M104 S235 ; set temperature
G28 ; home all axes
G1 Z5 F5000 ; lift nozzle

; Filament gcode

M109 S235 ; set temperature and wait for it to be reached
G21 ; set units to millimeters
G90 ; use absolute coordinates
M82 ; use absolute distances for extrusion
G92 E0
G1 Z0.300 F30000.000
G1 E-2.00000 F2400.00000
G92 E0
G1 X89.586 Y89.695 F30000.000
G1 E2.00000 F2400.00000
G1 F2100
G1 X90.113 Y89.186 E2.04891
G1 X90.811 Y88.587 E2.11041
G1 X91.546 Y88.032 E2.17190
G1 X91.985 Y87.734 E2.20734
G1 X93.113 Y87.067 E2.29488
G1 X93.585 Y86.826 E2.33031
G1 X94.425 Y86.450 E2.39180
G1 X95.658 Y86.006 E2.47935
G1 X96.545 Y85.761 E2.54083
G1 X97.063 Y85.645 E2.57627
G1 X98.357 Y85.440 E2.66382
G1 X98.885 Y85.390 E2.69926
G1 X99.805 Y85.349 E2.76074
G1 X101.115 Y85.390 E2.84829
G1 X101.643 Y85.440 E2.88372
G1 X102.554 Y85.572 E2.94522
G1 X103.832 Y85.858 E3.03276
G1 X104.342 Y86.006 E3.06819
G1 X105.212 Y86.306 E3.12969
G1 X106.062 Y86.660 E3.19118
G1 X106.793 Y87.019 E3.24563
G1 X107.229 Y87.255 E3.27874
G1 X108.015 Y87.734 E3.34024
G1 X108.454 Y88.032 E3.37567
G1 X109.189 Y88.587 E3.43716
G1 X110.172 Y89.453 E3.52471
G1 X110.547 Y89.828 E3.56014
G1 X111.165 Y90.511 E3.62163
G1 X111.968 Y91.546 E3.70918
G1 X112.475 Y92.314 E3.77067
G1 X112.745 Y92.771 E3.80612
G1 X113.340 Y93.938 E3.89365
G1 X113.694 Y94.788 E3.95514
G1 X113.874 Y95.287 E3.99057
G1 X114.142 Y96.168 E4.05208
G1 X114.332 Y96.960 E4.10651
G1 X114.428 Y97.446 E4.13964
G1 X114.560 Y98.357 E4.20113
G1 X114.610 Y98.885 E4.23656
G1 X114.651 Y99.805 E4.29804
G1 X114.610 Y101.115 E4.38560
G1 X114.560 Y101.643 E4.42103
G1 X114.428 Y102.554 E4.48252
G1 X114.142 Y103.832 E4.57005
G1 X113.994 Y104.342 E4.60550
G1 X113.694 Y105.212 E4.66700
G1 X113.340 Y106.062 E4.72849
G1 X112.981 Y106.793 E4.78294
G1 X112.745 Y107.229 E4.81604
G1 X112.266 Y108.015 E4.87754
G1 X111.968 Y108.454 E4.91298
G1 X111.413 Y109.189 E4.97447
G1 X110.547 Y110.172 E5.06202
G1 X109.887 Y110.814 E5.12351
G1 X109.489 Y111.165 E5.15894
G1 X108.454 Y111.968 E5.24648
G1 X107.686 Y112.475 E5.30798
G1 X107.229 Y112.745 E5.34342
G1 X106.062 Y113.340 E5.43096
G1 X105.212 Y113.694 E5.49244
G1 X104.713 Y113.874 E5.52788
G1 X103.832 Y114.142 E5.58939
G1 X103.040 Y114.332 E5.64382
G1 X102.554 Y114.428 E5.67694
G1 X101.643 Y114.560 E5.73843
G1 X101.115 Y114.610 E5.77386
G1 X100.195 Y114.651 E5.83535
G1 X98.885 Y114.610 E5.92290
G1 X98.357 Y114.560 E5.95833
G1 X97.446 Y114.428 E6.01982
G1 X96.168 Y114.142 E6.10736
G1 X95.658 Y113.994 E6.14280
G1 X94.788 Y113.694 E6.20430
G1 X93.585 Y113.174 E6.29185
G1 X92.771 Y112.745 E6.35332
G1 X92.314 Y112.475 E6.38877
G1 X91.546 Y111.968 E6.45026
G1 X90.876 Y111.463 E6.50633
G1 X90.511 Y111.165 E6.53782
G1 X89.828 Y110.547 E6.59932
G1 X89.186 Y109.887 E6.66081
G1 X88.835 Y109.489 E6.69624
G1 X88.032 Y108.454 E6.78378
G1 X87.525 Y107.686 E6.84528
G1 X87.255 Y107.229 E6.88072
G1 X86.826 Y106.415 E6.94220
G1 X86.628 Y105.987 E6.97370
G1 X86.306 Y105.212 E7.02977
G1 X86.006 Y104.342 E7.09126
G1 X85.761 Y103.455 E7.15274
G1 X85.645 Y102.937 E7.18819
G1 X85.440 Y101.643 E7.27573
G1 X85.390 Y101.115 E7.31117
G1 X85.349 Y100.195 E7.37265
G1 X85.365 Y99.275 E7.43415
G1 X85.398 Y98.805 E7.46564
G1 X85.489 Y97.970 E7.52172
G1 X85.645 Y97.063 E7.58321
G1 X85.761 Y96.545 E7.61865
G1 X86.006 Y95.658 E7.68013
G1 X86.450 Y94.425 E7.76769
G1 X86.826 Y93.585 E7.82918
G1 X87.067 Y93.113 E7.86461
G1 X87.734 Y91.985 E7.95215
G1 X88.032 Y91.546 E7.98758
G1 X88.587 Y90.811 E8.04908
G1 X89.186 Y90.113 E8.11057
G1 X89.544 Y89.738 E8.14521
G1 X89.965 Y90.074 F30000.000
G1 F2100
G1 X90.467 Y89.588 E8.19187
G1 X91.140 Y89.010 E8.25112
G1 X91.847 Y88.475 E8.31037
G1 X92.286 Y88.177 E8.34580
G1 X93.356 Y87.544 E8.42885
G1 X93.828 Y87.304 E8.46428
G1 X94.638 Y86.941 E8.52353
G1 X95.808 Y86.520 E8.60658
G1 X96.662 Y86.283 E8.66582
G1 X97.180 Y86.168 E8.70126
G1 X98.408 Y85.973 E8.78431
G1 X98.936 Y85.923 E8.81975
G1 X99.822 Y85.884 E8.87898
G1 X101.064 Y85.923 E8.96204
G1 X101.592 Y85.973 E8.99747
G1 X102.470 Y86.101 E9.05672
G1 X103.683 Y86.372 E9.13976
G1 X104.192 Y86.520 E9.17520
G1 X105.031 Y86.810 E9.23445
G1 X106.172 Y87.304 E9.31750
G1 X106.957 Y87.716 E9.37674
G1 X107.413 Y87.986 E9.41218
G1 X108.441 Y88.685 E9.49523
G1 X109.135 Y89.237 E9.55448
G1 X109.793 Y89.832 E9.61373
G1 X110.412 Y90.467 E9.67297
G1 X110.763 Y90.865 E9.70840
G1 X111.525 Y91.847 E9.79145
G1 X112.014 Y92.587 E9.85070
G1 X112.284 Y93.044 E9.88614
G1 X112.848 Y94.151 E9.96919
G1 X113.190 Y94.969 E10.02843
G1 X113.370 Y95.468 E10.06386
G1 X113.628 Y96.317 E10.12312
G1 X113.809 Y97.077 E10.17530
G1 X113.899 Y97.530 E10.20618
G1 X114.027 Y98.408 E10.26542
G1 X114.077 Y98.936 E10.30085
G1 X114.116 Y99.822 E10.36009
G1 X114.077 Y101.064 E10.44315
G1 X114.027 Y101.592 E10.47858
G1 X113.899 Y102.470 E10.53782
G1 X113.628 Y103.683 E10.62087
G1 X113.480 Y104.192 E10.65631
G1 X113.190 Y105.031 E10.71556
G1 X112.696 Y106.172 E10.79861
G1 X112.284 Y106.957 E10.85785
G1 X112.014 Y107.413 E10.89329
G1 X111.525 Y108.153 E10.95254
G1 X111.040 Y108.796 E11.00635
G1 X110.763 Y109.135 E11.03560
G1 X110.168 Y109.793 E11.09485
G1 X109.533 Y110.412 E11.15410
G1 X109.135 Y110.763 E11.18952
G1 X108.153 Y111.525 E11.27257
G1 X107.413 Y112.014 E11.33182
G1 X106.957 Y112.284 E11.36726
G1 X105.849 Y112.848 E11.45031
G1 X105.031 Y113.190 E11.50955
G1 X104.532 Y113.370 E11.54498
G1 X103.683 Y113.628 E11.60424
G1 X102.923 Y113.809 E11.65643
G1 X102.470 Y113.899 E11.68730
G1 X101.592 Y114.027 E11.74654
G1 X101.064 Y114.077 E11.78197
G1 X100.178 Y114.116 E11.84121
G1 X98.936 Y114.077 E11.92427
G1 X98.408 Y114.027 E11.95970
G1 X97.530 Y113.899 E12.01894
G1 X96.317 Y113.628 E12.10199
G1 X95.808 Y113.480 E12.13743
G1 X94.969 Y113.190 E12.19668
G1 X93.828 Y112.696 E12.27974
G1 X93.044 Y112.284 E12.33897
G1 X92.587 Y112.014 E12.37441
G1 X91.847 Y111.525 E12.43366
G1 X91.204 Y111.040 E12.48747
G1 X90.865 Y110.763 E12.51672
G1 X90.207 Y110.168 E12.57597
G1 X89.588 Y109.533 E12.63521
G1 X89.237 Y109.135 E12.67065
G1 X88.475 Y108.153 E12.75370
G1 X87.986 Y107.413 E12.81295
G1 X87.716 Y106.957 E12.84838
G1 X87.304 Y106.172 E12.90762
G1 X87.119 Y105.774 E12.93687
G1 X86.810 Y105.031 E12.99069
G1 X86.520 Y104.192 E13.04994
G1 X86.283 Y103.338 E13.10917
G1 X86.168 Y102.820 E13.14462
G1 X85.973 Y101.592 E13.22766
G1 X85.923 Y101.064 E13.26310
G1 X85.884 Y100.178 E13.32234
G1 X85.901 Y99.292 E13.38159
G1 X85.931 Y98.855 E13.41083
G1 X86.018 Y98.054 E13.46466
G1 X86.168 Y97.180 E13.52390
G1 X86.283 Y96.662 E13.55935
G1 X86.520 Y95.808 E13.61858
G1 X86.941 Y94.638 E13.70164
G1 X87.304 Y93.828 E13.76088
G1 X87.544 Y93.356 E13.79631
G1 X88.177 Y92.286 E13.87936
G1 X88.475 Y91.847 E13.91479
G1 X89.010 Y91.140 E13.97404
G1 X89.588 Y90.467 E14.03329
G1 X89.923 Y90.116 E14.06568
G1 X90.344 Y90.453 F30000.000
G1 F2100
G1 X90.821 Y89.990 E14.11010
G1 X91.468 Y89.433 E14.16710
G1 X91.887 Y89.108 E14.20252
G1 X92.587 Y88.620 E14.25953
G1 X93.599 Y88.022 E14.33808
G1 X94.072 Y87.781 E14.37351
G1 X94.850 Y87.433 E14.43051
G1 X95.957 Y87.034 E14.50908
G1 X96.779 Y86.806 E14.56606
G1 X97.297 Y86.690 E14.60150
G1 X98.458 Y86.506 E14.68006
G1 X98.986 Y86.456 E14.71550
G1 X99.838 Y86.419 E14.77249
G1 X101.014 Y86.456 E14.85105
G1 X101.542 Y86.506 E14.88648
G1 X102.386 Y86.630 E14.94348
G1 X103.534 Y86.886 E15.02203
G1 X104.043 Y87.034 E15.05747
G1 X104.849 Y87.314 E15.11447
G1 X105.928 Y87.781 E15.19303
G1 X106.684 Y88.177 E15.25002
G1 X107.140 Y88.447 E15.28546
G1 X107.852 Y88.918 E15.34246
G1 X108.196 Y89.173 E15.37108
G1 X108.781 Y89.639 E15.42103
G1 X109.414 Y90.211 E15.47803
G1 X110.010 Y90.821 E15.53503
G1 X110.361 Y91.219 E15.57046
G1 X111.082 Y92.148 E15.64902
G1 X111.553 Y92.860 E15.70601
G1 X111.823 Y93.316 E15.74146
G1 X112.357 Y94.364 E15.82001
G1 X112.686 Y95.151 E15.87700
G1 X112.866 Y95.650 E15.91243
G1 X113.114 Y96.466 E15.96944
G1 X113.287 Y97.194 E16.01938
G1 X113.370 Y97.614 E16.04801
G1 X113.494 Y98.458 E16.10501
G1 X113.544 Y98.986 E16.14043
G1 X113.581 Y99.838 E16.19743
G1 X113.544 Y101.014 E16.27599
G1 X113.494 Y101.542 E16.31142
G1 X113.370 Y102.386 E16.36842
G1 X113.114 Y103.534 E16.44697
G1 X112.966 Y104.043 E16.48241
G1 X112.686 Y104.849 E16.53941
G1 X112.357 Y105.636 E16.59641
G1 X112.026 Y106.307 E16.64636
G1 X111.823 Y106.684 E16.67498
G1 X111.380 Y107.413 E16.73198
G1 X111.082 Y107.852 E16.76741
G1 X110.567 Y108.532 E16.82441
G1 X109.789 Y109.414 E16.90297
G1 X109.179 Y110.010 E16.95997
G1 X108.781 Y110.361 E16.99540
G1 X107.852 Y111.082 E17.07396
G1 X107.140 Y111.553 E17.13096
G1 X106.684 Y111.823 E17.16639
G1 X105.928 Y112.219 E17.22338
G1 X105.562 Y112.389 E17.25039
G1 X104.849 Y112.686 E17.30196
G1 X104.043 Y112.966 E17.35896
G1 X103.534 Y113.114 E17.39440
G1 X102.703 Y113.310 E17.45138
G1 X101.542 Y113.494 E17.52995
G1 X101.014 Y113.544 E17.56538
G1 X100.162 Y113.581 E17.62237
G1 X98.986 Y113.544 E17.70094
G1 X98.458 Y113.494 E17.73637
G1 X97.614 Y113.370 E17.79336
G1 X96.466 Y113.114 E17.87191
G1 X95.957 Y112.966 E17.90735
G1 X95.151 Y112.686 E17.96435
G1 X94.072 Y112.219 E18.04292
G1 X93.316 Y111.823 E18.09990
G1 X92.860 Y111.553 E18.13534
G1 X92.148 Y111.082 E18.19234
G1 X91.532 Y110.617 E18.24391
G1 X91.219 Y110.361 E18.27091
G1 X90.586 Y109.789 E18.32792
G1 X89.990 Y109.179 E18.38491
G1 X89.639 Y108.781 E18.42034
G1 X88.918 Y107.852 E18.49890
G1 X88.620 Y107.413 E18.53433
G1 X88.177 Y106.684 E18.59133
G1 X87.781 Y105.928 E18.64833
G1 X87.611 Y105.562 E18.67533
G1 X87.314 Y104.849 E18.72690
G1 X87.034 Y104.043 E18.78390
G1 X86.806 Y103.221 E18.84089
G1 X86.690 Y102.703 E18.87633
G1 X86.506 Y101.542 E18.95489
G1 X86.456 Y101.014 E18.99032
G1 X86.419 Y100.162 E19.04731
G1 X86.436 Y99.308 E19.10432
G1 X86.464 Y98.905 E19.13132
G1 X86.547 Y98.138 E19.18289
G1 X86.690 Y97.297 E19.23989
G1 X86.806 Y96.779 E19.27533
G1 X87.034 Y95.957 E19.33232
G1 X87.433 Y94.850 E19.41088
G1 X87.781 Y94.072 E19.46788
G1 X88.022 Y93.599 E19.50331
G1 X88.620 Y92.587 E19.58186
G1 X88.918 Y92.148 E19.61730
G1 X89.433 Y91.468 E19.67429
G1 X89.990 Y90.821 E19.73129
G1 X90.301 Y90.495 E19.76144
G1 X90.723 Y90.831 F30000.000
G1 F2100
G1 X91.175 Y90.391 E19.80361
G1 X91.796 Y89.856 E19.85836
G1 X92.215 Y89.531 E19.89379
G1 X92.888 Y89.063 E19.94854
G1 X93.842 Y88.499 E20.02261
G1 X94.315 Y88.258 E20.05804
G1 X95.063 Y87.924 E20.11279
G1 X96.106 Y87.549 E20.18686
G1 X96.896 Y87.329 E20.24160
G1 X97.413 Y87.213 E20.27704
G1 X98.509 Y87.040 E20.35111
G1 X99.037 Y86.990 E20.38654
G1 X99.855 Y86.955 E20.44128
G1 X100.963 Y86.990 E20.51535
G1 X101.491 Y87.040 E20.55078
G1 X102.302 Y87.159 E20.60553
G1 X103.384 Y87.401 E20.67959
G1 X103.894 Y87.549 E20.71503
G1 X104.668 Y87.818 E20.76978
G1 X105.685 Y88.258 E20.84385
G1 X106.411 Y88.638 E20.89859
G1 X106.868 Y88.908 E20.93403
G1 X107.551 Y89.361 E20.98878
G1 X107.868 Y89.596 E21.01515
G1 X108.427 Y90.041 E21.06286
G1 X109.035 Y90.590 E21.11761
G1 X109.410 Y90.964 E21.15304
G1 X109.959 Y91.573 E21.20779
G1 X110.639 Y92.449 E21.28186
G1 X111.092 Y93.132 E21.33661
G1 X111.362 Y93.589 E21.37205
G1 X111.865 Y94.577 E21.44611
G1 X112.182 Y95.332 E21.50085
G1 X112.362 Y95.831 E21.53628
G1 X112.599 Y96.616 E21.59105
G1 X112.764 Y97.310 E21.63874
G1 X112.841 Y97.698 E21.66512
G1 X112.960 Y98.509 E21.71987
G1 X113.010 Y99.037 E21.75529
G1 X113.045 Y99.855 E21.81004
G1 X113.010 Y100.963 E21.88411
G1 X112.960 Y101.491 E21.91954
G1 X112.841 Y102.302 E21.97429
G1 X112.599 Y103.384 E22.04835
G1 X112.451 Y103.894 E22.08379
G1 X112.182 Y104.668 E22.13854
G1 X111.865 Y105.423 E22.19329
G1 X111.549 Y106.064 E22.24100
G1 X111.362 Y106.411 E22.26737
G1 X110.937 Y107.112 E22.32212
G1 X110.639 Y107.551 E22.35755
G1 X110.144 Y108.204 E22.41230
G1 X109.410 Y109.035 E22.48637
G1 X109.035 Y109.410 E22.52180
G1 X108.427 Y109.959 E22.57655
G1 X107.551 Y110.639 E22.65062
G1 X106.868 Y111.092 E22.70537
G1 X106.411 Y111.362 E22.74080
G1 X105.685 Y111.742 E22.79555
G1 X105.349 Y111.897 E22.82031
G1 X104.668 Y112.182 E22.86963
G1 X103.894 Y112.451 E22.92438
G1 X103.384 Y112.599 E22.95982
G1 X102.587 Y112.787 E23.01456
G1 X101.491 Y112.960 E23.08863
G1 X100.963 Y113.010 E23.12406
G1 X100.145 Y113.045 E23.17880
G1 X99.037 Y113.010 E23.25288
G1 X98.509 Y112.960 E23.28830
G1 X97.698 Y112.841 E23.34305
G1 X96.616 Y112.599 E23.41711
G1 X96.106 Y112.451 E23.45255
G1 X95.332 Y112.182 E23.50730
G1 X94.577 Y111.865 E23.56205
G1 X93.936 Y111.549 E23.60976
G1 X93.589 Y111.362 E23.63612
G1 X92.888 Y110.937 E23.69088
G1 X92.449 Y110.639 E23.72631
G1 X91.796 Y110.144 E23.78106
G1 X90.964 Y109.410 E23.85513
G1 X90.391 Y108.825 E23.90988
G1 X90.041 Y108.427 E23.94531
G1 X89.531 Y107.785 E24.00006
G1 X89.109 Y107.179 E24.04938
G1 X88.908 Y106.868 E24.07414
G1 X88.499 Y106.158 E24.12889
G1 X88.135 Y105.423 E24.18365
G1 X87.924 Y104.937 E24.21907
G1 X87.549 Y103.894 E24.29314
G1 X87.329 Y103.104 E24.34788
G1 X87.213 Y102.586 E24.38332
G1 X87.040 Y101.491 E24.45739
G1 X86.990 Y100.963 E24.49282
G1 X86.955 Y100.145 E24.54756
G1 X86.972 Y99.325 E24.60232
G1 X86.997 Y98.956 E24.62707
G1 X87.076 Y98.221 E24.67640
G1 X87.213 Y97.413 E24.73115
G1 X87.329 Y96.896 E24.76659
G1 X87.549 Y96.106 E24.82133
G1 X87.924 Y95.063 E24.89540
G1 X88.258 Y94.315 E24.95015
G1 X88.499 Y93.842 E24.98558
G1 X89.063 Y92.888 E25.05964
G1 X89.361 Y92.449 E25.09507
G1 X89.856 Y91.796 E25.14983
G1 X90.391 Y91.175 E25.20458
G1 X90.680 Y90.874 E25.23247
G1 X91.101 Y91.210 F30000.000
G1 F2100
G1 X91.530 Y90.793 E25.27240
G1 X92.124 Y90.280 E25.32491
G1 X92.750 Y89.804 E25.37741
G1 X93.189 Y89.506 E25.41284
G1 X94.085 Y88.976 E25.48241
G1 X94.558 Y88.735 E25.51784
G1 X95.276 Y88.416 E25.57034
G1 X96.256 Y88.063 E25.63992
G1 X97.013 Y87.851 E25.69241
G1 X97.530 Y87.736 E25.72785
G1 X98.559 Y87.573 E25.79742
G1 X99.087 Y87.523 E25.83286
G1 X99.872 Y87.490 E25.88535
G1 X100.913 Y87.523 E25.95493
G1 X101.441 Y87.573 E25.99036
G1 X102.219 Y87.688 E26.04286
G1 X103.235 Y87.915 E26.11243
G1 X103.744 Y88.063 E26.14787
G1 X104.486 Y88.322 E26.20037
G1 X105.442 Y88.735 E26.26995
G1 X106.139 Y89.099 E26.32244
G1 X106.595 Y89.369 E26.35788
G1 X107.250 Y89.804 E26.41038
G1 X107.811 Y90.230 E26.45746
G1 X108.657 Y90.968 E26.53245
G1 X109.032 Y91.343 E26.56788
G1 X109.557 Y91.927 E26.62038
G1 X110.196 Y92.750 E26.68996
G1 X110.631 Y93.405 E26.74246
G1 X110.901 Y93.861 E26.77790
G1 X111.374 Y94.789 E26.84746
G1 X111.678 Y95.514 E26.89996
G1 X111.858 Y96.013 E26.93539
G1 X112.085 Y96.765 E26.98791
G1 X112.241 Y97.427 E27.03335
G1 X112.312 Y97.782 E27.05749
G1 X112.427 Y98.559 E27.10999
G1 X112.477 Y99.087 E27.14541
G1 X112.510 Y99.872 E27.19791
G1 X112.477 Y100.913 E27.26749
G1 X112.427 Y101.441 E27.30292
G1 X112.312 Y102.218 E27.35542
G1 X112.085 Y103.235 E27.42499
G1 X111.937 Y103.744 E27.46043
G1 X111.678 Y104.486 E27.51293
G1 X111.265 Y105.442 E27.58251
G1 X110.901 Y106.139 E27.63500
G1 X110.631 Y106.595 E27.67044
G1 X110.196 Y107.250 E27.72295
G1 X109.770 Y107.811 E27.77002
G1 X109.032 Y108.657 E27.84501
G1 X108.657 Y109.032 E27.88044
G1 X108.073 Y109.557 E27.93294
G1 X107.250 Y110.196 E28.00252
G1 X106.595 Y110.631 E28.05502
G1 X106.139 Y110.901 E28.09046
G1 X105.136 Y111.406 E28.16544
G1 X104.486 Y111.678 E28.21252
G1 X103.744 Y111.937 E28.26502
G1 X103.235 Y112.085 E28.30046
G1 X102.470 Y112.264 E28.35295
G1 X101.441 Y112.427 E28.42253
G1 X100.913 Y112.477 E28.45796
G1 X100.128 Y112.510 E28.51046
G1 X99.087 Y112.477 E28.58004
G1 X98.559 Y112.427 E28.61546
G1 X97.782 Y112.312 E28.66796
G1 X96.765 Y112.085 E28.73753
G1 X96.256 Y111.937 E28.77297
G1 X95.514 Y111.678 E28.82548
G1 X94.558 Y111.265 E28.89505
G1 X93.861 Y110.901 E28.94755
G1 X93.405 Y110.631 E28.98298
G1 X92.750 Y110.196 E29.03549
G1 X92.189 Y109.770 E29.08256
