; generated by Slic3r 1.3.0 on 2021-03-20 at 12:17:51

; external perimeters extrusion width = 0.44mm (2.78mm^3/s)
; perimeters extrusion width = 0.40mm (7.14mm^3/s)
; infill extrusion width = 0.50mm (10.97mm^3/s)
; solid infill extrusion width = 0.60mm (6.68mm^3/s)
; top infill extrusion width = 0.40mm (2.14mm^3/s)

M107
M190 S80 ; set bed temperature and wait for it to be reached
M104 S235 ; set temperature
G28 ; home all axes
G1 Z5 F5000 ; lift nozzle

; Filament gcode

M109 S235 ; set temperature and wait for it to be reached
G21 ; set units to millimeters
G90 ; use absolute coordinates
M82 ; use absolute distances for extrusion
G92 E0
G1 Z0.300 F30000.000
G1 E-2.00000 F2400.00000
G92 E0
G1 X89.486 Y89.088 F30000.000
G1 E2.00000 F2400.00000
G1 F2100
G1 X90.492 Y88.201 E2.08964
G1 X91.252 Y87.627 E2.15324
G1 X91.716 Y87.311 E2.19078
G1 X92.872 Y86.628 E2.28044
G1 X93.725 Y86.207 E2.34402
G1 X94.604 Y85.840 E2.40762
G1 X95.132 Y85.650 E2.44516
G1 X96.043 Y85.373 E2.50874
G1 X97.352 Y85.080 E2.59839
G1 X97.907 Y84.992 E2.63593
G1 X98.854 Y84.890 E2.69952
G1 X100.195 Y84.848 E2.78917
G1 X101.146 Y84.890 E2.85276
G1 X101.705 Y84.943 E2.89030
G1 X103.031 Y85.153 E2.97994
G1 X103.579 Y85.276 E3.01747
G1 X104.497 Y85.529 E3.08107
G1 X105.759 Y85.984 E3.17073
G1 X106.275 Y86.207 E3.20825
G1 X107.128 Y86.628 E3.27184
G1 X107.954 Y87.102 E3.33544
G1 X108.694 Y87.590 E3.39465
G1 X109.064 Y87.857 E3.42511
G1 X109.809 Y88.450 E3.48870
G1 X110.230 Y88.821 E3.52624
G1 X110.912 Y89.486 E3.58982
G1 X111.799 Y90.492 E3.67948
G1 X112.373 Y91.252 E3.74306
G1 X112.689 Y91.716 E3.78060
G1 X113.372 Y92.872 E3.87026
G1 X113.793 Y93.725 E3.93384
G1 X114.160 Y94.604 E3.99744
G1 X114.350 Y95.132 E4.03498
G1 X114.627 Y96.043 E4.09856
G1 X114.920 Y97.352 E4.18822
G1 X115.008 Y97.907 E4.22574
G1 X115.110 Y98.854 E4.28934
G1 X115.152 Y100.195 E4.37900
G1 X115.134 Y100.757 E4.41652
G1 X115.057 Y101.705 E4.48011
G1 X114.847 Y103.031 E4.56976
G1 X114.724 Y103.579 E4.60729
G1 X114.471 Y104.497 E4.67089
G1 X114.016 Y105.759 E4.76055
G1 X113.793 Y106.275 E4.79808
G1 X113.372 Y107.128 E4.86166
G1 X112.898 Y107.954 E4.92526
G1 X112.410 Y108.694 E4.98448
G1 X112.143 Y109.064 E5.01493
G1 X111.550 Y109.809 E5.07853
G1 X111.179 Y110.230 E5.11606
G1 X110.514 Y110.912 E5.17965
G1 X109.508 Y111.799 E5.26930
G1 X108.748 Y112.373 E5.33289
G1 X108.284 Y112.689 E5.37042
G1 X107.128 Y113.372 E5.46008
G1 X106.275 Y113.793 E5.52366
G1 X105.396 Y114.160 E5.58726
G1 X104.868 Y114.350 E5.62480
G1 X103.957 Y114.627 E5.68838
G1 X102.648 Y114.920 E5.77804
G1 X102.093 Y115.008 E5.81557
G1 X101.146 Y115.110 E5.87916
G1 X99.805 Y115.152 E5.96882
G1 X99.243 Y115.134 E6.00635
G1 X98.295 Y115.057 E6.06994
G1 X96.969 Y114.847 E6.15959
G1 X96.421 Y114.724 E6.19712
G1 X95.503 Y114.471 E6.26072
G1 X94.241 Y114.016 E6.35037
G1 X93.725 Y113.793 E6.38790
G1 X92.872 Y113.372 E6.45148
G1 X92.046 Y112.898 E6.51509
G1 X91.306 Y112.410 E6.57430
G1 X90.936 Y112.144 E6.60475
G1 X90.191 Y111.550 E6.66835
G1 X89.770 Y111.179 E6.70588
G1 X89.088 Y110.514 E6.76947
G1 X88.201 Y109.508 E6.85912
G1 X87.627 Y108.748 E6.92271
G1 X87.311 Y108.284 E6.96025
G1 X86.628 Y107.128 E7.04991
G1 X86.207 Y106.275 E7.11349
G1 X85.840 Y105.396 E7.17709
G1 X85.650 Y104.868 E7.21463
G1 X85.373 Y103.957 E7.27821
G1 X85.080 Y102.648 E7.36786
G1 X84.992 Y102.093 E7.40540
G1 X84.890 Y101.146 E7.46899
G1 X84.848 Y99.805 E7.55864
G1 X84.890 Y98.854 E7.62224
G1 X84.943 Y98.295 E7.65977
G1 X85.153 Y96.969 E7.74941
G1 X85.373 Y96.043 E7.81301
G1 X85.529 Y95.503 E7.85054
G1 X85.984 Y94.241 E7.94020
G1 X86.207 Y93.725 E7.97772
G1 X86.628 Y92.872 E8.04131
G1 X87.311 Y91.716 E8.13097
G1 X87.627 Y91.252 E8.16850
G1 X88.201 Y90.492 E8.23210
G1 X88.821 Y89.770 E8.29569
G1 X89.443 Y89.131 E8.35527
G1 X89.864 Y89.467 F30000.000
G1 F2100
G1 X90.820 Y88.624 E8.44042
G1 X91.553 Y88.070 E8.50177
G1 X92.017 Y87.754 E8.53931
G1 X93.115 Y87.105 E8.62447
G1 X93.938 Y86.699 E8.68581
G1 X94.785 Y86.344 E8.74716
G1 X95.314 Y86.154 E8.78470
G1 X96.192 Y85.887 E8.84604
G1 X97.436 Y85.609 E8.93119
G1 X97.991 Y85.521 E8.96873
G1 X98.904 Y85.423 E9.03007
G1 X100.178 Y85.383 E9.11523
G1 X100.740 Y85.401 E9.15276
G1 X101.655 Y85.476 E9.21411
G1 X102.914 Y85.676 E9.29926
G1 X103.462 Y85.798 E9.33679
G1 X104.347 Y86.044 E9.39814
G1 X105.547 Y86.476 E9.48330
G1 X106.062 Y86.699 E9.52083
G1 X106.885 Y87.105 E9.58217
G1 X107.681 Y87.563 E9.64352
G1 X108.393 Y88.033 E9.70049
G1 X108.736 Y88.280 E9.72870
G1 X109.454 Y88.851 E9.79004
G1 X109.876 Y89.223 E9.82758
G1 X110.533 Y89.864 E9.88892
G1 X111.376 Y90.820 E9.97408
G1 X111.930 Y91.553 E10.03541
G1 X112.246 Y92.017 E10.07295
G1 X112.895 Y93.115 E10.15812
G1 X113.301 Y93.938 E10.21945
G1 X113.656 Y94.785 E10.28080
G1 X113.846 Y95.314 E10.31834
G1 X114.113 Y96.192 E10.37968
G1 X114.391 Y97.436 E10.46484
G1 X114.479 Y97.991 E10.50236
G1 X114.577 Y98.904 E10.56371
G1 X114.617 Y100.178 E10.64888
G1 X114.599 Y100.740 E10.68640
G1 X114.524 Y101.655 E10.74775
G1 X114.324 Y102.914 E10.83290
G1 X114.202 Y103.462 E10.87043
G1 X113.956 Y104.347 E10.93179
G1 X113.524 Y105.547 E11.01695
G1 X113.301 Y106.062 E11.05448
G1 X112.895 Y106.885 E11.11581
G1 X112.437 Y107.681 E11.17717
G1 X111.967 Y108.393 E11.23413
G1 X111.720 Y108.736 E11.26234
G1 X111.149 Y109.454 E11.32369
G1 X110.777 Y109.876 E11.36122
G1 X110.136 Y110.533 E11.42256
G1 X109.180 Y111.376 E11.50772
G1 X108.447 Y111.930 E11.56906
G1 X107.983 Y112.246 E11.60660
G1 X106.885 Y112.895 E11.69176
G1 X106.062 Y113.301 E11.75309
G1 X105.215 Y113.656 E11.81444
G1 X104.686 Y113.846 E11.85198
G1 X103.808 Y114.113 E11.91332
G1 X102.564 Y114.391 E11.99848
G1 X102.009 Y114.479 E12.03601
G1 X101.096 Y114.577 E12.09736
G1 X99.822 Y114.617 E12.18252
G1 X99.260 Y114.599 E12.22005
G1 X98.345 Y114.524 E12.28139
G1 X97.086 Y114.324 E12.36655
G1 X96.538 Y114.202 E12.40408
G1 X95.653 Y113.956 E12.46543
G1 X94.453 Y113.524 E12.55059
G1 X93.938 Y113.301 E12.58812
G1 X93.115 Y112.895 E12.64946
G1 X92.319 Y112.437 E12.71081
G1 X91.607 Y111.967 E12.76779
G1 X91.264 Y111.720 E12.79598
G1 X90.546 Y111.149 E12.85733
G1 X90.124 Y110.777 E12.89486
G1 X89.467 Y110.136 E12.95621
G1 X88.624 Y109.180 E13.04136
G1 X88.070 Y108.447 E13.10270
G1 X87.754 Y107.983 E13.14024
G1 X87.105 Y106.885 E13.22541
G1 X86.699 Y106.062 E13.28674
G1 X86.344 Y105.215 E13.34809
G1 X86.154 Y104.686 E13.38564
G1 X85.887 Y103.808 E13.44697
G1 X85.609 Y102.564 E13.53213
G1 X85.521 Y102.009 E13.56966
G1 X85.423 Y101.096 E13.63100
G1 X85.383 Y99.822 E13.71616
G1 X85.401 Y99.260 E13.75369
G1 X85.476 Y98.345 E13.81504
G1 X85.676 Y97.086 E13.90019
G1 X85.887 Y96.192 E13.96154
G1 X86.044 Y95.653 E13.99908
G1 X86.476 Y94.453 E14.08424
G1 X86.699 Y93.938 E14.12176
G1 X87.105 Y93.115 E14.18310
G1 X87.754 Y92.017 E14.26826
G1 X88.070 Y91.553 E14.30580
G1 X88.624 Y90.820 E14.36715
G1 X89.223 Y90.124 E14.42849
G1 X89.822 Y89.509 E14.48583
G1 X90.243 Y89.846 F30000.000
G1 F2100
G1 X91.149 Y89.047 E14.56649
G1 X91.854 Y88.513 E14.62559
G1 X92.319 Y88.197 E14.66312
G1 X93.358 Y87.583 E14.74379
G1 X94.151 Y87.190 E14.80288
G1 X94.967 Y86.848 E14.86199
G1 X95.495 Y86.658 E14.89952
G1 X96.342 Y86.401 E14.95861
G1 X97.520 Y86.138 E15.03928
G1 X98.075 Y86.050 E15.07681
G1 X98.955 Y85.957 E15.13591
G1 X100.162 Y85.919 E15.21658
G1 X100.723 Y85.936 E15.25410
G1 X101.605 Y86.010 E15.31320
G1 X102.797 Y86.198 E15.39386
G1 X103.345 Y86.321 E15.43139
G1 X104.198 Y86.558 E15.49050
G1 X105.334 Y86.967 E15.57117
G1 X105.849 Y87.190 E15.60869
G1 X106.642 Y87.583 E15.66778
G1 X107.409 Y88.024 E15.72689
G1 X108.092 Y88.476 E15.78161
G1 X108.407 Y88.703 E15.80757
G1 X109.100 Y89.253 E15.86666
G1 X109.522 Y89.625 E15.90420
G1 X110.154 Y90.243 E15.96329
G1 X110.953 Y91.149 E16.04396
G1 X111.487 Y91.854 E16.10305
G1 X111.803 Y92.319 E16.14059
G1 X112.417 Y93.358 E16.22126
G1 X112.810 Y94.151 E16.28035
G1 X113.152 Y94.966 E16.33945
G1 X113.342 Y95.495 E16.37698
G1 X113.599 Y96.342 E16.43608
G1 X113.862 Y97.520 E16.51674
G1 X113.950 Y98.075 E16.55427
G1 X114.043 Y98.955 E16.61337
G1 X114.081 Y100.162 E16.69404
G1 X114.064 Y100.723 E16.73157
G1 X113.990 Y101.605 E16.79067
G1 X113.802 Y102.797 E16.87133
G1 X113.679 Y103.345 E16.90886
G1 X113.442 Y104.198 E16.96796
G1 X113.033 Y105.334 E17.04863
G1 X112.810 Y105.849 E17.08616
G1 X112.417 Y106.642 E17.14525
G1 X111.976 Y107.409 E17.20435
G1 X111.524 Y108.092 E17.25907
G1 X111.297 Y108.407 E17.28503
G1 X110.747 Y109.100 E17.34413
G1 X110.375 Y109.522 E17.38167
G1 X109.757 Y110.154 E17.44076
G1 X108.851 Y110.953 E17.52143
G1 X108.146 Y111.487 E17.58052
G1 X107.681 Y111.803 E17.61805
G1 X106.642 Y112.417 E17.69872
G1 X105.849 Y112.810 E17.75781
G1 X105.034 Y113.152 E17.81691
G1 X104.505 Y113.342 E17.85445
G1 X103.658 Y113.599 E17.91354
G1 X102.480 Y113.862 E17.99421
G1 X101.925 Y113.950 E18.03174
G1 X101.045 Y114.043 E18.09084
G1 X99.838 Y114.081 E18.17151
G1 X99.277 Y114.064 E18.20903
G1 X98.395 Y113.990 E18.26813
G1 X97.203 Y113.802 E18.34879
G1 X96.655 Y113.679 E18.38632
G1 X95.802 Y113.442 E18.44543
G1 X94.666 Y113.033 E18.52610
G1 X94.151 Y112.810 E18.56362
G1 X93.358 Y112.417 E18.62271
G1 X92.591 Y111.976 E18.68182
G1 X91.908 Y111.524 E18.73654
G1 X91.593 Y111.297 E18.76249
G1 X90.900 Y110.747 E18.82160
G1 X90.478 Y110.375 E18.85913
G1 X89.846 Y109.757 E18.91822
G1 X89.047 Y108.851 E18.99889
G1 X88.513 Y108.146 E19.05798
G1 X88.197 Y107.681 E19.09552
G1 X87.583 Y106.642 E19.17619
G1 X87.190 Y105.849 E19.23528
G1 X86.848 Y105.033 E19.29438
G1 X86.658 Y104.505 E19.33192
G1 X86.401 Y103.658 E19.39101
G1 X86.138 Y102.480 E19.47167
G1 X86.050 Y101.925 E19.50921
G1 X85.957 Y101.045 E19.56831
G1 X85.919 Y99.838 E19.64897
G1 X85.936 Y99.277 E19.68650
G1 X86.010 Y98.395 E19.74560
G1 X86.198 Y97.203 E19.82626
G1 X86.401 Y96.342 E19.88536
G1 X86.558 Y95.802 E19.92289
G1 X86.967 Y94.666 E20.00356
G1 X87.190 Y94.151 E20.04109
G1 X87.583 Y93.358 E20.10018
G1 X88.197 Y92.319 E20.18085
G1 X88.513 Y91.854 E20.21838
G1 X89.047 Y91.149 E20.27748
G1 X89.625 Y90.478 E20.33658
G1 X90.201 Y89.888 E20.39167
G1 X90.622 Y90.225 F30000.000
G1 F2100
G1 X91.477 Y89.471 E20.46784
G1 X92.155 Y88.956 E20.52469
G1 X92.620 Y88.640 E20.56222
G1 X93.601 Y88.060 E20.63840
G1 X94.363 Y87.682 E20.69524
G1 X95.148 Y87.352 E20.75210
G1 X95.677 Y87.162 E20.78963
G1 X96.491 Y86.916 E20.84648
G1 X97.604 Y86.667 E20.92265
G1 X98.159 Y86.579 E20.96018
G1 X99.005 Y86.490 E21.01703
G1 X100.145 Y86.454 E21.09321
G1 X100.706 Y86.472 E21.13073
G1 X101.554 Y86.543 E21.18759
G1 X102.680 Y86.721 E21.26375
G1 X103.229 Y86.844 E21.30128
G1 X104.048 Y87.072 E21.35814
G1 X105.121 Y87.459 E21.43431
G1 X105.637 Y87.682 E21.47184
G1 X106.399 Y88.060 E21.52868
G1 X107.136 Y88.485 E21.58554
G1 X107.791 Y88.919 E21.63801
G1 X108.746 Y89.655 E21.71855
G1 X109.167 Y90.027 E21.75609
G1 X109.775 Y90.622 E21.81294
G1 X110.530 Y91.477 E21.88911
G1 X111.044 Y92.155 E21.94596
G1 X111.360 Y92.620 E21.98349
G1 X111.940 Y93.601 E22.05967
G1 X112.318 Y94.363 E22.11651
G1 X112.648 Y95.148 E22.17337
G1 X112.838 Y95.677 E22.21090
G1 X113.084 Y96.491 E22.26774
G1 X113.333 Y97.604 E22.34392
G1 X113.421 Y98.159 E22.38144
G1 X113.510 Y99.005 E22.43830
G1 X113.546 Y100.145 E22.51447
G1 X113.528 Y100.706 E22.55200
G1 X113.457 Y101.554 E22.60885
G1 X113.279 Y102.680 E22.68502
G1 X113.156 Y103.229 E22.72255
G1 X112.928 Y104.048 E22.77941
G1 X112.541 Y105.121 E22.85558
G1 X112.195 Y105.898 E22.91243
G1 X111.801 Y106.653 E22.96928
G1 X111.515 Y107.136 E23.00681
G1 X111.044 Y107.845 E23.06366
G1 X110.345 Y108.746 E23.13983
G1 X109.973 Y109.167 E23.17737
G1 X109.378 Y109.775 E23.23421
G1 X108.523 Y110.530 E23.31039
G1 X107.845 Y111.044 E23.36724
G1 X107.380 Y111.360 E23.40477
G1 X106.399 Y111.940 E23.48094
G1 X105.637 Y112.318 E23.53778
G1 X104.852 Y112.648 E23.59464
G1 X104.323 Y112.838 E23.63217
G1 X103.509 Y113.084 E23.68902
G1 X102.396 Y113.333 E23.76519
G1 X101.841 Y113.421 E23.80272
G1 X100.995 Y113.510 E23.85957
G1 X99.855 Y113.546 E23.93575
G1 X99.294 Y113.528 E23.97328
G1 X98.446 Y113.457 E24.03013
G1 X97.320 Y113.279 E24.10629
G1 X96.771 Y113.156 E24.14382
G1 X95.952 Y112.928 E24.20068
G1 X94.879 Y112.541 E24.27686
G1 X94.363 Y112.318 E24.31438
G1 X93.601 Y111.940 E24.37123
G1 X92.864 Y111.515 E24.42808
G1 X92.209 Y111.081 E24.48055
G1 X91.254 Y110.345 E24.56110
G1 X90.833 Y109.974 E24.59863
G1 X90.225 Y109.378 E24.65548
G1 X89.471 Y108.523 E24.73165
G1 X88.956 Y107.845 E24.78850
G1 X88.640 Y107.380 E24.82603
G1 X88.060 Y106.399 E24.90221
G1 X87.682 Y105.637 E24.95906
G1 X87.352 Y104.852 E25.01591
G1 X87.162 Y104.323 E25.05345
G1 X86.916 Y103.509 E25.11029
G1 X86.667 Y102.396 E25.18646
G1 X86.579 Y101.841 E25.22400
G1 X86.490 Y100.995 E25.28084
G1 X86.454 Y99.855 E25.35702
G1 X86.472 Y99.294 E25.39454
G1 X86.543 Y98.446 E25.45140
G1 X86.721 Y97.320 E25.52756
G1 X86.916 Y96.491 E25.58442
G1 X87.072 Y95.952 E25.62195
G1 X87.459 Y94.879 E25.69812
G1 X87.682 Y94.363 E25.73565
G1 X88.060 Y93.601 E25.79249
G1 X88.640 Y92.620 E25.86867
G1 X88.956 Y92.155 E25.90621
G1 X89.471 Y91.477 E25.96306
G1 X90.026 Y90.833 E26.01991
G1 X90.579 Y90.267 E26.07275
G1 X91.000 Y90.603 F30000.000
G1 F2100
G1 X91.805 Y89.894 E26.14442
G1 X92.456 Y89.399 E26.19903
G1 X92.921 Y89.083 E26.23656
G1 X93.844 Y88.537 E26.30824
G1 X94.576 Y88.173 E26.36284
G1 X95.329 Y87.856 E26.41745
G1 X95.858 Y87.666 E26.45498
G1 X96.641 Y87.430 E26.50958
G1 X97.688 Y87.196 E26.58126
G1 X98.243 Y87.108 E26.61879
G1 X99.055 Y87.023 E26.67339
G1 X100.128 Y86.989 E26.74507
G1 X100.689 Y87.007 E26.78260
G1 X101.504 Y87.076 E26.83721
G1 X102.563 Y87.244 E26.90888
G1 X103.112 Y87.366 E26.94641
G1 X103.899 Y87.587 E27.00102
G1 X104.908 Y87.950 E27.07270
G1 X105.424 Y88.173 E27.11022
G1 X106.156 Y88.537 E27.16482
G1 X106.863 Y88.946 E27.21943
G1 X107.490 Y89.362 E27.26966
G1 X108.392 Y90.057 E27.34571
G1 X108.813 Y90.428 E27.38324
G1 X109.397 Y91.000 E27.43784
G1 X110.106 Y91.805 E27.50952
G1 X110.601 Y92.456 E27.56412
G1 X110.917 Y92.921 E27.60165
G1 X111.463 Y93.844 E27.67333
G1 X111.827 Y94.576 E27.72793
G1 X112.144 Y95.329 E27.78254
G1 X112.334 Y95.858 E27.82007
G1 X112.570 Y96.641 E27.87467
G1 X112.804 Y97.688 E27.94635
G1 X112.892 Y98.242 E27.98388
G1 X112.977 Y99.055 E28.03848
G1 X113.011 Y100.128 E28.11017
G1 X112.993 Y100.689 E28.14769
G1 X112.924 Y101.504 E28.20229
G1 X112.756 Y102.563 E28.27397
G1 X112.634 Y103.112 E28.31150
G1 X112.413 Y103.899 E28.36611
G1 X112.050 Y104.908 E28.43779
G1 X111.827 Y105.424 E28.47532
G1 X111.463 Y106.156 E28.52991
G1 X111.054 Y106.863 E28.58452
G1 X110.638 Y107.490 E28.63475
G1 X109.943 Y108.392 E28.71080
G1 X109.572 Y108.813 E28.74833
G1 X109.000 Y109.397 E28.80293
G1 X108.195 Y110.106 E28.87461
G1 X107.544 Y110.601 E28.92921
G1 X107.079 Y110.917 E28.96674
G1 X106.156 Y111.463 E29.03843
G1 X105.424 Y111.827 E29.09302
G1 X104.671 Y112.144 E29.14763
G1 X104.142 Y112.334 E29.18516
G1 X103.359 Y112.570 E29.23976
G1 X102.312 Y112.804 E29.31144
G1 X101.758 Y112.892 E29.34897
G1 X100.945 Y112.977 E29.40358
G1 X99.872 Y113.011 E29.47526
G1 X99.311 Y112.993 E29.51278
G1 X98.496 Y112.924 E29.56739
G1 X97.437 Y112.756 E29.63906
G1 X96.888 Y112.634 E29.67659
G1 X96.101 Y112.413 E29.73120
G1 X95.092 Y112.050 E29.80288
G1 X94.576 Y111.827 E29.84041
G1 X93.844 Y111.463 E29.89501
G1 X93.137 Y111.054 E29.94962
G1 X92.510 Y110.638 E29.99984
G1 X91.608 Y109.943 E30.07589
G1 X91.187 Y109.572 E30.11342
G1 X90.603 Y109.000 E30.16802
G1 X89.894 Y108.195 E30.23970
G1 X89.399 Y107.544 E30.29430
G1 X89.083 Y107.079 E30.33183
G1 X88.537 Y106.156 E30.40352
G1 X88.173 Y105.424 E30.45812
G1 X87.856 Y104.671 E30.51272
G1 X87.666 Y104.142 E30.55026
G1 X87.430 Y103.359 E30.60485
G1 X87.196 Y102.312 E30.67653
G1 X87.108 Y101.757 E30.71407
G1 X87.023 Y100.945 E30.76867
G1 X86.989 Y99.872 E30.84035
G1 X87.007 Y99.311 E30.87787
G1 X87.076 Y98.496 E30.93248
G1 X87.244 Y97.437 E31.00415
G1 X87.430 Y96.641 E31.05876
G1 X87.587 Y96.101 E31.09629
G1 X87.950 Y95.092 E31.16797
G1 X88.173 Y94.576 E31.20550
G1 X88.537 Y93.844 E31.26010
G1 X89.083 Y92.921 E31.33178
G1 X89.399 Y92.456 E31.36931
