; generated by Slic3r 1.3.0 on 2021-11-29 at 12:58:29

; external perimeters extrusion width = 0.44mm (2.78mm^3/s)
; perimeters extrusion width = 0.40mm (7.14mm^3/s)
; infill extrusion width = 0.50mm (10.97mm^3/s)
; solid infill extrusion width = 0.60mm (6.68mm^3/s)
; top infill extrusion width = 0.40mm (2.14mm^3/s)

M107
M190 S80 ; set bed temperature and wait for it to be reached
M104 S210 ; set temperature
G28 ; home all axes
G1 Z5 F5000 ; lift nozzle

; Filament gcode

M109 S210 ; set temperature and wait for it to be reached
G21 ; set units to millimeters
G90 ; use absolute coordinates
M82 ; use absolute distances for extrusion
G92 E0
G1 Z0.300 F30000.000
G1 E-2.00000 F2400.00000
G92 E0
G1 X38.542 Y46.171 F30000.000
G1 E2.00000 F2400.00000
G1 F2100
G1 X38.920 Y45.878 E2.03191
G1 X39.393 Y45.562 E2.06993
G1 X58.622 Y33.635 E3.58155
G1 X61.050 Y32.943 E3.75023
G1 X68.950 Y32.943 E4.27799
G1 X71.378 Y33.635 E4.44667
G1 X90.607 Y45.562 E5.95829
G1 X91.080 Y45.878 E5.99632
G1 X91.599 Y46.290 E6.04060
G1 X92.150 Y46.818 E6.09156
G1 X92.464 Y47.174 E6.12326
G1 X92.755 Y47.547 E6.15488
G1 X93.121 Y48.098 E6.19906
G1 X93.482 Y48.772 E6.25015
G1 X93.670 Y49.204 E6.28163
G1 X93.833 Y49.653 E6.31354
G1 X94.010 Y50.288 E6.35758
G1 X94.146 Y51.041 E6.40868
G1 X94.205 Y51.793 E6.45906
G1 X94.919 Y74.409 E7.97068
G1 X94.304 Y76.858 E8.13936
G1 X90.354 Y83.700 E8.66719
G1 X88.541 Y85.456 E8.83580
G1 X68.597 Y96.145 E10.34742
G1 X67.915 Y96.471 E10.39797
G1 X67.474 Y96.640 E10.42951
G1 X67.019 Y96.781 E10.46129
G1 X66.273 Y96.948 E10.51235
G1 X65.805 Y97.013 E10.54391
G1 X65.329 Y97.049 E10.57581
G1 X64.856 Y97.055 E10.60744
G1 X64.380 Y97.030 E10.63930
G1 X63.912 Y96.977 E10.67077
G1 X63.444 Y96.894 E10.70250
G1 X62.981 Y96.781 E10.73430
G1 X62.527 Y96.640 E10.76608
G1 X62.085 Y96.471 E10.79767
G1 X61.652 Y96.274 E10.82952
G1 X41.459 Y85.456 E12.35985
G1 X39.646 Y83.699 E12.52853
G1 X38.843 Y82.309 E12.63576
G1 X35.696 Y76.858 E13.05630
G1 X35.081 Y74.409 E13.22497
G1 X35.795 Y51.793 E14.73659
G1 X35.855 Y51.040 E14.78706
G1 X35.990 Y50.287 E14.83814
G1 X36.167 Y49.653 E14.88211
G1 X36.441 Y48.941 E14.93310
G1 X36.735 Y48.347 E14.97735
G1 X37.138 Y47.698 E15.02839
G1 X37.536 Y47.173 E15.07240
G1 X38.054 Y46.610 E15.12357
G1 X38.496 Y46.209 E15.16340
G1 X38.888 Y46.579 F30000.000
G1 F2100
G1 X39.239 Y46.309 E15.19303
G1 X39.675 Y46.017 E15.22808
G1 X58.904 Y34.090 E16.73970
G1 X61.050 Y33.479 E16.88877
G1 X68.950 Y33.479 E17.41653
G1 X71.096 Y34.090 E17.56560
G1 X90.325 Y46.017 E19.07722
G1 X90.761 Y46.309 E19.11226
G1 X91.254 Y46.699 E19.15427
G1 X91.756 Y47.181 E19.20074
G1 X92.048 Y47.511 E19.23020
G1 X92.319 Y47.857 E19.25958
G1 X92.666 Y48.380 E19.30150
G1 X92.995 Y48.995 E19.34810
G1 X93.170 Y49.396 E19.37735
G1 X93.322 Y49.813 E19.40699
G1 X93.490 Y50.416 E19.44879
G1 X93.613 Y51.102 E19.49539
G1 X93.669 Y51.810 E19.54278
G1 X94.384 Y74.426 E21.05441
G1 X93.840 Y76.590 E21.20347
G1 X89.890 Y83.432 E21.73129
G1 X88.288 Y84.984 E21.88030
G1 X68.344 Y95.673 E23.39193
G1 X67.702 Y95.980 E23.43947
G1 X67.292 Y96.136 E23.46878
G1 X66.870 Y96.267 E23.49831
G1 X66.190 Y96.419 E23.54487
G1 X65.755 Y96.480 E23.57421
G1 X65.313 Y96.513 E23.60383
G1 X64.873 Y96.519 E23.63323
G1 X64.430 Y96.497 E23.66282
G1 X63.995 Y96.448 E23.69207
G1 X63.561 Y96.371 E23.72155
G1 X63.131 Y96.267 E23.75110
G1 X62.709 Y96.136 E23.78061
G1 X62.298 Y95.980 E23.80997
G1 X61.895 Y95.796 E23.83955
G1 X41.712 Y84.984 E25.36916
G1 X40.110 Y83.431 E25.51822
G1 X39.307 Y82.041 E25.62545
G1 X36.160 Y76.590 E26.04599
G1 X35.616 Y74.426 E26.19505
G1 X36.331 Y51.810 E27.70667
G1 X36.387 Y51.101 E27.75415
G1 X36.510 Y50.415 E27.80073
G1 X36.678 Y49.813 E27.84246
G1 X36.928 Y49.163 E27.88897
G1 X37.207 Y48.601 E27.93095
G1 X37.574 Y48.008 E27.97749
G1 X37.952 Y47.510 E28.01926
G1 X38.425 Y46.996 E28.06593
G1 X38.842 Y46.618 E28.10353
G1 X39.234 Y46.988 F30000.000
G1 F2100
G1 X39.558 Y46.739 E28.13090
G1 X39.958 Y46.472 E28.16296
G1 X59.186 Y34.545 E29.67459
G1 X61.050 Y34.014 E29.80404
G1 X68.950 Y34.014 E30.33180
G1 X70.814 Y34.545 E30.46126
G1 X90.042 Y46.472 E31.97288
G1 X90.442 Y46.739 E32.00494
G1 X90.908 Y47.108 E32.04468
G1 X91.361 Y47.543 E32.08667
G1 X91.632 Y47.848 E32.11388
G1 X91.882 Y48.168 E32.14102
G1 X92.211 Y48.662 E32.18068
G1 X92.508 Y49.218 E32.22278
G1 X92.670 Y49.588 E32.24981
G1 X92.811 Y49.973 E32.27718
G1 X92.970 Y50.544 E32.31674
G1 X93.081 Y51.164 E32.35883
G1 X93.134 Y51.827 E32.40325
G1 X93.848 Y74.443 E33.91487
G1 X93.376 Y76.322 E34.04432
G1 X89.426 Y83.164 E34.57214
G1 X88.035 Y84.512 E34.70154
G1 X68.091 Y95.201 E36.21317
G1 X67.489 Y95.488 E36.25772
G1 X67.110 Y95.632 E36.28480
G1 X66.720 Y95.752 E36.31207
G1 X66.324 Y95.848 E36.33932
G1 X65.921 Y95.919 E36.36662
G1 X65.519 Y95.964 E36.39365
G1 X65.111 Y95.984 E36.42098
G1 X64.704 Y95.978 E36.44814
G1 X64.296 Y95.946 E36.47547
G1 X63.896 Y95.890 E36.50250
G1 X63.495 Y95.808 E36.52980
G1 X62.890 Y95.632 E36.57189
G1 X62.511 Y95.488 E36.59902
G1 X62.138 Y95.319 E36.62633
G1 X41.965 Y84.512 E38.15520
G1 X40.574 Y83.164 E38.28465
G1 X39.771 Y81.774 E38.39188
G1 X36.624 Y76.322 E38.81242
G1 X36.152 Y74.443 E38.94187
G1 X36.866 Y51.827 E40.45349
G1 X36.897 Y51.348 E40.48554
G1 X36.984 Y50.760 E40.52525
G1 X37.134 Y50.150 E40.56719
G1 X37.330 Y49.589 E40.60692
G1 X37.591 Y49.017 E40.64892
G1 X37.887 Y48.505 E40.68843
G1 X38.252 Y47.992 E40.73047
G1 X38.639 Y47.543 E40.77005
G1 X39.188 Y47.027 E40.82040
G1 E38.82040 F2400.00000
G92 E0
G1 X76.054 Y80.372 F30000.000
G1 E2.00000 F2400.00000
G1 F2100
G1 X75.368 Y80.838 E2.05536
G1 X74.322 Y81.457 E2.13657
G1 X73.239 Y82.009 E2.21777
G1 X72.123 Y82.491 E2.29899
G1 X70.980 Y82.903 E2.38020
G1 X69.812 Y83.242 E2.46140
G1 X68.626 Y83.507 E2.54261
G1 X67.425 Y83.698 E2.62382
G1 X66.215 Y83.812 E2.70503
G1 X65.000 Y83.850 E2.78624
G1 X63.785 Y83.812 E2.86745
G1 X62.575 Y83.698 E2.94866
G1 X61.374 Y83.507 E3.02987
G1 X60.188 Y83.242 E3.11108
G1 X59.020 Y82.903 E3.19229
G1 X57.877 Y82.491 E3.27350
G1 X56.761 Y82.009 E3.35471
G1 X55.678 Y81.457 E3.43592
G1 X54.632 Y80.838 E3.51712
G1 X53.626 Y80.155 E3.59833
G1 X52.666 Y79.410 E3.67954
G1 X51.754 Y78.606 E3.76075
G1 X50.894 Y77.746 E3.84196
G1 X50.090 Y76.834 E3.92319
G1 X49.324 Y75.843 E4.00689
G1 X48.662 Y74.868 E4.08558
G1 X48.043 Y73.822 E4.16679
G1 X47.491 Y72.739 E4.24800
G1 X47.009 Y71.623 E4.32923
G1 X46.586 Y70.443 E4.41293
G1 X46.258 Y69.312 E4.49162
G1 X45.993 Y68.126 E4.57283
G1 X45.802 Y66.925 E4.65404
G1 X45.688 Y65.715 E4.73525
G1 X45.650 Y64.500 E4.81646
G1 X45.688 Y63.286 E4.89762
G1 X45.790 Y62.154 E4.97353
G1 X45.993 Y60.874 E5.06010
G1 X46.258 Y59.688 E5.14131
G1 X46.597 Y58.520 E5.22252
G1 X47.009 Y57.377 E5.30373
G1 X47.491 Y56.262 E5.38486
G1 X47.973 Y55.298 E5.45688
G1 X48.662 Y54.132 E5.54738
G1 X49.345 Y53.126 E5.62858
G1 X50.090 Y52.166 E5.70979
G1 X50.894 Y51.254 E5.79100
G1 X51.754 Y50.394 E5.87221
G1 X52.666 Y49.590 E5.95342
G1 X53.626 Y48.845 E6.03463
G1 X54.632 Y48.162 E6.11584
G1 X55.678 Y47.543 E6.19705
G1 X56.761 Y46.991 E6.27826
G1 X57.877 Y46.509 E6.35947
G1 X59.020 Y46.097 E6.44068
G1 X60.188 Y45.758 E6.52188
G1 X61.374 Y45.493 E6.60309
G1 X62.654 Y45.290 E6.68967
G1 X63.786 Y45.188 E6.76557
G1 X64.962 Y45.151 E6.84422
G1 X66.215 Y45.188 E6.92792
G1 X67.425 Y45.302 E7.00915
G1 X68.626 Y45.493 E7.09035
G1 X69.812 Y45.758 E7.17156
G1 X70.980 Y46.097 E7.25277
G1 X72.123 Y46.509 E7.33398
G1 X73.239 Y46.991 E7.41519
G1 X74.322 Y47.543 E7.49640
G1 X75.368 Y48.162 E7.57761
G1 X76.374 Y48.845 E7.65882
G1 X77.334 Y49.590 E7.74003
G1 X78.246 Y50.394 E7.82124
G1 X79.106 Y51.254 E7.90245
G1 X79.910 Y52.166 E7.98368
G1 X80.676 Y53.157 E8.06738
G1 X81.338 Y54.132 E8.14607
G1 X81.957 Y55.178 E8.22728
G1 X82.509 Y56.261 E8.30849
G1 X82.991 Y57.377 E8.38970
G1 X83.403 Y58.520 E8.47091
G1 X83.742 Y59.688 E8.55212
G1 X84.007 Y60.874 E8.63333
G1 X84.198 Y62.075 E8.71454
G1 X84.312 Y63.285 E8.79574
G1 X84.350 Y64.500 E8.87695
G1 X84.312 Y65.715 E8.95816
G1 X84.198 Y66.925 E9.03937
G1 X84.007 Y68.126 E9.12060
G1 X83.732 Y69.348 E9.20430
G1 X83.403 Y70.480 E9.28299
G1 X82.991 Y71.623 E9.36420
G1 X82.509 Y72.739 E9.44541
G1 X81.957 Y73.822 E9.52662
G1 X81.338 Y74.868 E9.60783
G1 X80.655 Y75.874 E9.68904
G1 X79.910 Y76.834 E9.77025
G1 X79.106 Y77.746 E9.85146
G1 X78.246 Y78.606 E9.93267
G1 X77.334 Y79.410 E10.01388
G1 X76.374 Y80.155 E10.09509
G1 X76.103 Y80.338 E10.11693
G1 X76.089 Y80.771 F30000.000
G1 E8.11693 F2400.00000
G92 E0
G1 X80.563 Y77.038 F30000.000
G1 X68.194 Y44.748 F30000.000
G1 X68.114 Y44.869 F30000.000
G1 E2.00000 F2400.00000
G1 F2100
G1 X67.492 Y44.771 E2.04207
G1 X66.248 Y44.653 E2.12558
G1 X64.962 Y44.615 E2.21153
G1 X63.753 Y44.653 E2.29231
G1 X62.588 Y44.758 E2.37047
G1 X61.886 Y44.869 E2.41798
G1 X61.886 Y41.851 E2.61961
G1 X62.348 Y42.343 E2.66474
G1 X62.906 Y42.776 E2.71187
G1 X63.356 Y43.024 E2.74625
G1 X64.020 Y43.263 E2.79339
G1 X64.513 Y43.357 E2.82688
G1 X65.000 Y43.387 E2.85949
G1 X65.487 Y43.357 E2.89210
G1 X65.980 Y43.263 E2.92559
G1 X66.644 Y43.024 E2.97274
G1 X67.094 Y42.776 E3.00711
G1 X67.652 Y42.343 E3.05425
G1 X68.114 Y41.851 E3.09937
G1 X68.114 Y44.809 E3.29699
G1 E1.29699 F2400.00000
G92 E0
G1 X82.105 Y54.105 F30000.000
G1 X81.902 Y54.033 F30000.000
G1 E2.00000 F2400.00000
G1 F2100
G1 X84.516 Y52.523 E2.20168
G1 X84.549 Y51.780 E2.25134
G1 X84.592 Y51.531 E2.26827
G1 X84.722 Y51.142 E2.29569
G1 X84.918 Y50.795 E2.32223
G1 X85.182 Y50.482 E2.34965
G1 X85.363 Y50.326 E2.36561
G1 X85.712 Y50.110 E2.39303
G1 X86.095 Y49.962 E2.42046
G1 X86.329 Y49.913 E2.43642
G1 X86.752 Y49.891 E2.46473
G1 X87.003 Y49.917 E2.48157
G1 X87.248 Y49.974 E2.49841
G1 X87.628 Y50.130 E2.52583
G1 X87.962 Y50.346 E2.55237
G1 X88.258 Y50.630 E2.57979
G1 X88.410 Y50.831 E2.59664
G1 X88.543 Y51.061 E2.61437
G1 X88.646 Y51.305 E2.63210
G1 X88.713 Y51.545 E2.64869
G1 X88.762 Y51.969 E2.67726
G1 X88.752 Y52.221 E2.69408
G1 X88.708 Y52.482 E2.71181
G1 X88.635 Y52.724 E2.72865
G1 X88.452 Y53.102 E2.75672
G1 X88.306 Y53.313 E2.77382
G1 X88.129 Y53.509 E2.79152
G1 X87.928 Y53.683 E2.80925
G1 X87.707 Y53.830 E2.82697
G1 X87.469 Y53.948 E2.84469
G1 X87.219 Y54.035 E2.86242
G1 X86.959 Y54.090 E2.88014
G1 X86.695 Y54.112 E2.89786
G1 X86.430 Y54.101 E2.91559
G1 X86.168 Y54.057 E2.93331
G1 X85.925 Y53.984 E2.95027
G1 X85.115 Y53.596 E3.01026
G1 X82.516 Y55.096 E3.21075
G1 X81.932 Y54.084 E3.28882
G1 E1.28882 F2400.00000
G92 E0
G1 X82.105 Y54.105 F30000.000
G1 X83.589 Y71.844 F30000.000
G1 X83.562 Y71.620 F30000.000
G1 E2.00000 F2400.00000
G1 F2100
G1 X86.162 Y73.122 E2.20057
G1 X85.307 Y73.351 E2.25968
G1 X84.838 Y73.560 E2.29404
G1 X84.246 Y73.945 E2.34117
G1 X83.873 Y74.280 E2.37467
G1 X83.554 Y74.650 E2.40729
G1 X83.284 Y75.056 E2.43989
G1 X83.067 Y75.494 E2.47250
G1 X82.906 Y75.955 E2.50512
G1 X82.802 Y76.445 E2.53862
G1 X82.765 Y77.150 E2.58574
G1 X82.819 Y77.661 E2.62010
G1 X83.047 Y78.516 E2.67921
G1 X80.447 Y77.015 E2.87978
G1 X81.088 Y76.189 E2.94962
G1 X81.790 Y75.155 E3.03308
G1 X82.426 Y74.080 E3.11653
G1 X82.993 Y72.967 E3.19999
G1 X83.541 Y71.677 E3.29364
G1 E1.29364 F2400.00000
G92 E0
G1 X83.589 Y71.844 F30000.000
G1 X65.447 Y84.528 F30000.000
G1 X65.614 Y84.367 F30000.000
G1 E2.00000 F2400.00000
G1 F2100
G1 X65.614 Y87.372 E2.20079
G1 X66.355 Y87.880 E2.26078
G1 X66.540 Y88.054 E2.27774
G1 X66.701 Y88.248 E2.29458
G1 X66.916 Y88.613 E2.32289
G1 X67.004 Y88.835 E2.33884
G1 X67.094 Y89.235 E2.36627
G1 X67.107 Y89.646 E2.39369
G1 X67.075 Y89.896 E2.41053
G1 X67.013 Y90.140 E2.42738
G1 X66.844 Y90.529 E2.45569
G1 X66.716 Y90.731 E2.47165
G1 X66.436 Y91.049 E2.49995
G1 X66.252 Y91.201 E2.51592
G1 X65.899 Y91.410 E2.54334
G1 X65.525 Y91.544 E2.56988
G1 X65.119 Y91.609 E2.59730
G1 X64.881 Y91.609 E2.61326
G1 X64.475 Y91.544 E2.64068
G1 X64.101 Y91.410 E2.66722
G1 X63.748 Y91.201 E2.69464
G1 X63.564 Y91.049 E2.71060
G1 X63.292 Y90.741 E2.73803
G1 X63.090 Y90.399 E2.76457
G1 X62.956 Y90.025 E2.79111
G1 X62.891 Y89.619 E2.81853
G1 X62.891 Y89.380 E2.83451
G1 X62.957 Y88.965 E2.86257
G1 X63.036 Y88.722 E2.87967
G1 X63.143 Y88.494 E2.89649
G1 X63.374 Y88.155 E2.92390
G1 X63.656 Y87.873 E2.95055
G1 X64.386 Y87.372 E3.00966
G1 X64.386 Y84.367 E3.21045
G1 X65.000 Y84.386 E3.25152
G1 X65.554 Y84.369 E3.28857
G1 E1.28857 F2400.00000
G92 E0
G1 X65.447 Y84.528 F30000.000
G1 X49.498 Y77.102 F30000.000
G1 X49.553 Y77.015 F30000.000
G1 E2.00000 F2400.00000
G1 F2100
G1 X46.952 Y78.516 E2.20065
G1 X47.181 Y77.661 E2.25979
G1 X47.235 Y77.150 E2.29417
G1 X47.198 Y76.445 E2.34129
G1 X47.094 Y75.955 E2.37479
G1 X46.933 Y75.494 E2.40741
G1 X46.716 Y75.056 E2.44002
G1 X46.446 Y74.650 E2.47262
G1 X46.127 Y74.280 E2.50524
G1 X45.754 Y73.945 E2.53874
G1 X45.151 Y73.553 E2.58675
G1 X44.486 Y73.282 E2.63478
G1 X43.828 Y73.127 E2.67990
G1 X46.439 Y71.620 E2.88128
G1 X47.007 Y72.967 E2.97893
G1 X47.574 Y74.080 E3.06238
G1 X48.210 Y75.155 E3.14584
G1 X48.890 Y76.157 E3.22675
G1 X49.516 Y76.967 E3.29513
G1 E1.29513 F2400.00000
G92 E0
G1 X49.498 Y77.102 F30000.000
G1 X47.472 Y54.899 F30000.000
G1 X47.473 Y55.090 F30000.000
G1 E2.00000 F2400.00000
G1 F2100
G1 X44.885 Y53.596 E2.19966
G1 X44.087 Y53.978 E2.25876
G1 X43.689 Y54.084 E2.28629
G1 X43.451 Y54.109 E2.30226
G1 X43.028 Y54.087 E2.33056
G1 X42.794 Y54.038 E2.34652
G1 X42.399 Y53.886 E2.37483
G1 X42.192 Y53.766 E2.39079
G1 X41.873 Y53.508 E2.41821
G1 X41.616 Y53.204 E2.44476
G1 X41.421 Y52.858 E2.47130
G1 X41.290 Y52.470 E2.49871
G1 X41.248 Y52.221 E2.51556
G1 X41.238 Y51.969 E2.53240
G1 X41.285 Y51.561 E2.55982
G1 X41.404 Y51.182 E2.58636
G1 X41.591 Y50.832 E2.61291
G1 X41.850 Y50.513 E2.64032
G1 X42.027 Y50.353 E2.65628
G1 X42.372 Y50.130 E2.68371
G1 X42.739 Y49.979 E2.71025
G1 X43.142 Y49.898 E2.73767
G1 X43.394 Y49.888 E2.75451
G1 X43.645 Y49.909 E2.77136
G1 X44.044 Y50.007 E2.79878
G1 X44.417 Y50.178 E2.82620
G1 X44.616 Y50.310 E2.84216
G1 X44.928 Y50.597 E2.87046
G1 X45.084 Y50.794 E2.88732
G1 X45.215 Y51.010 E2.90416
G1 X45.375 Y51.402 E2.93246
G1 X45.430 Y51.636 E2.94854
G1 X45.499 Y52.532 E3.00852
G1 X48.098 Y54.033 E3.20904
G1 X47.504 Y55.039 E3.28712
G1 X46.578 Y55.192 F30000.000
G1 F2100
G1 X44.861 Y54.201 E3.41956
G1 X44.273 Y54.482 E3.46312
G1 X43.787 Y54.613 E3.49678
G1 X43.465 Y54.647 E3.51838
G1 X42.958 Y54.620 E3.55232
G1 X42.642 Y54.553 E3.57391
G1 X42.167 Y54.371 E3.60785
G1 X41.887 Y54.209 E3.62944
G1 X41.496 Y53.892 E3.66306
G1 X41.174 Y53.512 E3.69637
G1 X40.930 Y53.077 E3.72967
G1 X40.769 Y52.600 E3.76329
G1 X40.714 Y52.277 E3.78520
G1 X40.701 Y51.949 E3.80711
G1 X40.759 Y51.449 E3.84073
G1 X40.908 Y50.974 E3.87404
G1 X41.143 Y50.534 E3.90734
G1 X41.460 Y50.143 E3.94096
G1 X41.700 Y49.927 E3.96256
G1 X42.122 Y49.653 E3.99618
G1 X42.584 Y49.464 E4.02948
G1 X43.077 Y49.365 E4.06310
G1 X43.405 Y49.351 E4.08501
G1 X43.732 Y49.379 E4.10692
G1 X44.220 Y49.499 E4.14055
G1 X44.678 Y49.708 E4.17417
G1 X44.947 Y49.887 E4.19576
G1 X45.321 Y50.231 E4.22970
G1 X45.525 Y50.488 E4.25161
G1 X45.695 Y50.768 E4.27352
G1 X45.887 Y51.239 E4.30746
G1 X45.961 Y51.554 E4.32909
G1 X46.011 Y52.209 E4.37297
G1 X47.726 Y53.199 E4.50521
G1 X48.294 Y52.362 E4.57276
G1 X49.089 Y51.337 E4.65943
G1 X49.947 Y50.364 E4.74609
G1 X50.864 Y49.447 E4.83275
G1 X51.837 Y48.589 E4.91942
G1 X52.862 Y47.794 E5.00608
G1 X53.935 Y47.065 E5.09274
G1 X55.052 Y46.404 E5.17941
G1 X56.208 Y45.815 E5.26607
G1 X57.398 Y45.300 E5.35274
G1 X58.619 Y44.861 E5.43940
G1 X59.865 Y44.499 E5.52606
G1 X61.350 Y44.167 E5.62774
G1 X61.350 Y39.699 E5.92624
G1 X61.661 Y39.689 E5.94704
G1 X61.676 Y39.925 E5.96281
G1 X61.810 Y40.524 E6.00382
G1 X61.968 Y40.926 E6.03273
G1 X62.171 Y41.295 E6.06086
G1 X62.418 Y41.636 E6.08897
G1 X62.710 Y41.946 E6.11740
G1 X63.200 Y42.327 E6.15890
G1 X63.578 Y42.534 E6.18765
G1 X64.162 Y42.745 E6.22916
G1 X64.580 Y42.824 E6.25758
G1 X65.000 Y42.851 E6.28569
G1 X65.420 Y42.824 E6.31380
G1 X65.838 Y42.745 E6.34222
G1 X66.422 Y42.534 E6.38373
G1 X66.799 Y42.327 E6.41247
G1 X67.290 Y41.946 E6.45398
G1 X67.582 Y41.636 E6.48240
G1 X67.829 Y41.295 E6.51052
G1 X68.032 Y40.927 E6.53863
G1 X68.188 Y40.531 E6.56704
G1 X68.323 Y39.932 E6.60805
