; generated by Slic3r 1.3.0 on 2021-11-27 at 23:59:23

; external perimeters extrusion width = 0.44mm (2.78mm^3/s)
; perimeters extrusion width = 0.40mm (7.14mm^3/s)
; infill extrusion width = 0.50mm (10.97mm^3/s)
; solid infill extrusion width = 0.60mm (6.68mm^3/s)
; top infill extrusion width = 0.40mm (2.14mm^3/s)

M107
M190 S80 ; set bed temperature and wait for it to be reached
M104 S210 ; set temperature
G28 ; home all axes
G1 Z5 F5000 ; lift nozzle

; Filament gcode

M109 S210 ; set temperature and wait for it to be reached
G21 ; set units to millimeters
G90 ; use absolute coordinates
M82 ; use absolute distances for extrusion
G92 E0
G1 Z0.300 F30000.000
G1 E-2.00000 F2400.00000
G92 E0
G1 X38.542 Y45.921 F30000.000
G1 E2.00000 F2400.00000
G1 F2100
G1 X38.920 Y45.628 E2.03191
G1 X39.468 Y45.266 E2.07577
G1 X58.697 Y33.840 E3.57006
G1 X61.050 Y33.193 E3.73311
G1 X68.950 Y33.193 E4.26087
G1 X71.303 Y33.840 E4.42392
G1 X90.532 Y45.266 E5.91820
G1 X91.080 Y45.628 E5.96205
G1 X91.599 Y46.040 E6.00635
G1 X92.150 Y46.568 E6.05731
G1 X92.582 Y47.069 E6.10148
G1 X92.862 Y47.448 E6.13300
G1 X93.121 Y47.848 E6.16480
G1 X93.482 Y48.522 E6.21590
G1 X93.670 Y48.954 E6.24738
G1 X93.833 Y49.403 E6.27930
G1 X94.010 Y50.038 E6.32333
G1 X94.146 Y50.791 E6.37444
G1 X94.206 Y51.630 E6.43064
G1 X94.488 Y73.996 E7.92493
G1 X93.871 Y76.358 E8.08798
G1 X89.921 Y83.199 E8.61574
G1 X88.184 Y84.914 E8.77879
G1 X68.674 Y95.853 E10.27307
G1 X67.915 Y96.221 E10.32946
G1 X67.474 Y96.390 E10.36100
G1 X67.019 Y96.531 E10.39278
G1 X66.272 Y96.698 E10.44391
G1 X65.807 Y96.763 E10.47533
G1 X65.329 Y96.799 E10.50730
G1 X64.856 Y96.805 E10.53893
G1 X64.380 Y96.780 E10.57079
G1 X63.912 Y96.727 E10.60226
G1 X63.444 Y96.644 E10.63399
G1 X62.982 Y96.531 E10.66576
G1 X62.526 Y96.390 E10.69763
G1 X62.085 Y96.221 E10.72916
G1 X61.652 Y96.024 E10.76100
G1 X41.816 Y84.914 E12.27985
G1 X40.079 Y83.199 E12.44289
G1 X36.129 Y76.358 E12.97065
G1 X35.512 Y73.996 E13.13370
G1 X35.794 Y51.630 E14.62799
G1 X35.833 Y50.975 E14.67183
G1 X35.930 Y50.320 E14.71605
G1 X36.112 Y49.580 E14.76698
G1 X36.330 Y48.954 E14.81125
G1 X36.647 Y48.261 E14.86221
G1 X36.977 Y47.690 E14.90620
G1 X37.419 Y47.068 E14.95723
G1 X37.850 Y46.568 E15.00130
G1 X38.188 Y46.231 E15.03320
G1 X38.496 Y45.959 E15.06065
G1 X38.888 Y46.329 F30000.000
G1 F2100
G1 X39.239 Y46.059 E15.09029
G1 X39.741 Y45.727 E15.13050
G1 X58.970 Y34.300 E16.62478
G1 X61.050 Y33.729 E16.76887
G1 X68.950 Y33.729 E17.29663
G1 X71.030 Y34.300 E17.44072
G1 X90.259 Y45.727 E18.93501
G1 X90.761 Y46.058 E18.97520
G1 X91.112 Y46.330 E19.00486
G1 X91.440 Y46.617 E19.03401
G1 X91.881 Y47.067 E19.07608
G1 X92.165 Y47.406 E19.10563
G1 X92.426 Y47.758 E19.13492
G1 X92.793 Y48.350 E19.18146
G1 X93.072 Y48.913 E19.22344
G1 X93.322 Y49.563 E19.26995
G1 X93.446 Y49.985 E19.29931
G1 X93.543 Y50.415 E19.32877
G1 X93.635 Y51.037 E19.37074
G1 X93.671 Y51.637 E19.41092
G1 X93.952 Y74.003 E20.90521
G1 X93.407 Y76.090 E21.04930
G1 X89.457 Y82.931 E21.57706
G1 X87.922 Y84.447 E21.72115
G1 X68.412 Y95.386 E23.21544
G1 X67.702 Y95.730 E23.26815
G1 X67.292 Y95.886 E23.29746
G1 X66.870 Y96.017 E23.32698
G1 X66.189 Y96.169 E23.37361
G1 X65.756 Y96.230 E23.40281
G1 X65.313 Y96.263 E23.43250
G1 X64.873 Y96.269 E23.46190
G1 X64.430 Y96.247 E23.49149
G1 X63.995 Y96.198 E23.52074
G1 X63.561 Y96.121 E23.55022
G1 X63.131 Y96.017 E23.57974
G1 X62.708 Y95.886 E23.60934
G1 X62.298 Y95.730 E23.63865
G1 X61.895 Y95.546 E23.66823
G1 X42.078 Y84.447 E25.18565
G1 X40.543 Y82.931 E25.32974
G1 X36.593 Y76.090 E25.85750
G1 X36.048 Y74.003 E26.00159
G1 X36.329 Y51.637 E27.49588
G1 X36.365 Y51.037 E27.53607
G1 X36.457 Y50.415 E27.57802
G1 X36.623 Y49.740 E27.62446
G1 X36.830 Y49.146 E27.66646
G1 X37.119 Y48.514 E27.71294
G1 X37.432 Y47.973 E27.75470
G1 X37.835 Y47.405 E27.80123
G1 X38.244 Y46.931 E27.84306
G1 X38.842 Y46.368 E27.89790
G1 X39.234 Y46.738 F30000.000
G1 F2100
G1 X39.558 Y46.489 E27.92526
G1 X40.015 Y46.187 E27.96181
G1 X59.244 Y34.761 E29.45609
G1 X61.050 Y34.264 E29.58123
G1 X68.950 Y34.264 E30.10899
G1 X70.756 Y34.761 E30.23412
G1 X89.985 Y46.187 E31.72841
G1 X90.441 Y46.489 E31.76494
G1 X90.766 Y46.738 E31.79232
G1 X91.070 Y47.004 E31.81927
G1 X91.487 Y47.430 E31.85906
G1 X91.749 Y47.743 E31.88635
G1 X91.989 Y48.069 E31.91342
G1 X92.321 Y48.604 E31.95546
G1 X92.585 Y49.136 E31.99518
G1 X92.811 Y49.723 E32.03720
G1 X92.925 Y50.113 E32.06432
G1 X93.016 Y50.510 E32.09154
G1 X93.103 Y51.098 E32.13124
G1 X93.135 Y51.644 E32.16776
G1 X93.417 Y74.010 E33.66205
G1 X92.943 Y75.822 E33.78718
G1 X88.993 Y82.664 E34.31494
G1 X87.661 Y83.980 E34.44008
G1 X68.150 Y94.919 E35.93436
G1 X67.489 Y95.238 E35.98340
G1 X67.110 Y95.382 E36.01048
G1 X66.720 Y95.502 E36.03775
G1 X66.324 Y95.598 E36.06500
G1 X65.921 Y95.669 E36.09230
G1 X65.519 Y95.714 E36.11933
G1 X65.111 Y95.734 E36.14666
G1 X64.704 Y95.728 E36.17381
G1 X64.296 Y95.696 E36.20114
G1 X63.896 Y95.640 E36.22818
G1 X63.495 Y95.558 E36.25548
G1 X63.102 Y95.451 E36.28273
G1 X62.715 Y95.319 E36.31000
G1 X62.341 Y95.164 E36.33708
G1 X61.973 Y94.985 E36.36440
G1 X42.339 Y83.980 E37.86804
G1 X41.007 Y82.664 E37.99317
G1 X37.057 Y75.822 E38.52093
G1 X36.583 Y74.010 E38.64607
G1 X36.865 Y51.644 E40.14035
G1 X36.897 Y51.098 E40.17688
G1 X36.984 Y50.510 E40.21657
G1 X37.134 Y49.900 E40.25853
G1 X37.330 Y49.339 E40.29826
G1 X37.591 Y48.767 E40.34026
G1 X37.887 Y48.255 E40.37977
G1 X38.252 Y47.742 E40.42181
G1 X38.639 Y47.293 E40.46139
G1 X39.188 Y46.777 E40.51175
G1 E38.51175 F2400.00000
G92 E0
G1 X47.831 Y47.918 F30000.000
G1 E2.00000 F2400.00000
G1 F2100
G1 X48.808 Y46.944 E2.10321
G1 X49.927 Y45.962 E2.21463
G1 X51.105 Y45.051 E2.32606
G1 X52.338 Y44.217 E2.43748
G1 X53.621 Y43.461 E2.54888
G1 X54.948 Y42.788 E2.66031
G1 X56.316 Y42.199 E2.77172
G1 X57.635 Y41.724 E2.87668
G1 X58.174 Y41.565 E2.91874
G1 X58.301 Y41.396 E2.93447
G1 X58.301 Y36.661 E3.28883
G1 X59.911 Y35.051 E3.45928
G1 X63.857 Y35.051 E3.75457
G1 X64.824 Y36.628 E3.89300
G1 X65.176 Y36.628 E3.91940
G1 X66.143 Y35.051 E4.05783
G1 X70.089 Y35.051 E4.35311
G1 X71.699 Y36.661 E4.52356
G1 X71.699 Y41.396 E4.87793
G1 X71.826 Y41.565 E4.89366
G1 X72.365 Y41.724 E4.93572
G1 X73.684 Y42.199 E5.04068
G1 X75.052 Y42.788 E5.15209
G1 X76.379 Y43.461 E5.26352
G1 X77.662 Y44.217 E5.37492
G1 X78.895 Y45.051 E5.48634
G1 X80.073 Y45.962 E5.59777
G1 X81.192 Y46.944 E5.70919
G1 X82.169 Y47.918 E5.81240
G1 X82.434 Y47.915 E5.83222
G1 X82.894 Y47.464 E5.88045
G1 X83.240 Y47.184 E5.91375
G1 X83.839 Y46.792 E5.96727
G1 X84.402 Y46.513 E6.01433
G1 X84.736 Y46.382 E6.04117
G1 X85.160 Y46.249 E6.07442
G1 X85.775 Y46.118 E6.12148
G1 X86.218 Y46.067 E6.15484
G1 X86.845 Y46.054 E6.20183
G1 X87.290 Y46.086 E6.23517
G1 X87.910 Y46.191 E6.28227
G1 X88.340 Y46.307 E6.31557
G1 X89.008 Y46.561 E6.36907
G1 X89.566 Y46.853 E6.41617
G1 X89.938 Y47.094 E6.44940
G1 X90.432 Y47.486 E6.49657
G1 X90.937 Y47.993 E6.55013
G1 X91.374 Y48.560 E6.60365
G1 X91.737 Y49.177 E6.65727
G1 X92.019 Y49.834 E6.71077
G1 X92.205 Y50.477 E6.76082
G1 X92.295 Y50.961 E6.79765
G1 X92.350 Y51.674 E6.85120
G1 X92.314 Y52.389 E6.90478
G1 X92.190 Y53.094 E6.95833
G1 X92.023 Y53.651 E7.00189
G1 X91.875 Y54.029 E7.03222
G1 X91.721 Y54.353 E7.05908
G1 X91.503 Y54.739 E7.09227
G1 X91.306 Y55.038 E7.11905
G1 X90.916 Y55.531 E7.16611
G1 X90.408 Y56.036 E7.21971
G1 X90.131 Y56.264 E7.24655
G1 X89.769 Y56.521 E7.27978
G1 X89.223 Y56.836 E7.32690
G1 X88.819 Y57.021 E7.36017
G1 X88.225 Y57.228 E7.40725
G1 X87.857 Y57.321 E7.43563
G1 X87.723 Y57.554 E7.45574
G1 X87.965 Y58.398 E7.52149
G1 X88.271 Y59.767 E7.62645
G1 X88.507 Y61.237 E7.73786
G1 X88.650 Y62.719 E7.84927
G1 X88.699 Y64.207 E7.96069
G1 X88.655 Y65.695 E8.07212
G1 X88.518 Y67.178 E8.18355
G1 X88.288 Y68.648 E8.29495
G1 X88.059 Y69.686 E8.37446
G1 X88.142 Y69.875 E8.38992
G1 X92.242 Y72.243 E8.74428
G1 X92.832 Y74.443 E8.91474
G1 X90.859 Y77.860 E9.21004
G1 X89.010 Y77.908 E9.34845
G1 X88.833 Y78.214 E9.37486
G1 X89.716 Y79.839 E9.51327
G1 X87.743 Y83.257 E9.80859
G1 X85.543 Y83.846 E9.97904
G1 X81.452 Y81.484 E10.33256
G1 X81.250 Y81.504 E10.34775
G1 X80.140 Y82.483 E10.45849
G1 X79.382 Y83.075 E10.53044
G1 X79.321 Y83.159 E10.53824
G1 X77.735 Y84.237 E10.68173
G1 X76.379 Y85.039 E10.79960
G1 X75.052 Y85.712 E10.91104
G1 X73.684 Y86.301 E11.02244
G1 X72.282 Y86.803 E11.13387
G1 X70.935 Y87.194 E11.23883
G1 X70.568 Y87.279 E11.26706
G1 X70.429 Y87.514 E11.28747
G1 X70.590 Y88.140 E11.33584
G1 X70.685 Y88.849 E11.38937
G1 X70.691 Y89.565 E11.44296
G1 X70.607 Y90.275 E11.49648
G1 X70.510 Y90.709 E11.52979
G1 X70.283 Y91.388 E11.58337
G1 X69.974 Y92.034 E11.63691
G1 X69.636 Y92.565 E11.68402
G1 X69.184 Y93.120 E11.73759
G1 X68.834 Y93.465 E11.77438
G1 X68.315 Y93.887 E11.82443
G1 X67.708 Y94.265 E11.87795
G1 X67.058 Y94.565 E11.93151
G1 X66.376 Y94.781 E11.98509
G1 X65.673 Y94.910 E12.03857
G1 X65.043 Y94.949 E12.08578
G1 X64.328 Y94.910 E12.13939
G1 X63.625 Y94.781 E12.19287
G1 X63.197 Y94.657 E12.22621
G1 X62.534 Y94.388 E12.27973
G1 X61.910 Y94.039 E12.33323
G1 X61.400 Y93.668 E12.38045
G1 X60.875 Y93.183 E12.43395
G1 X60.414 Y92.635 E12.48753
G1 X60.026 Y92.033 E12.54112
G1 X59.736 Y91.432 E12.59110
G1 X59.566 Y90.970 E12.62789
G1 X59.394 Y90.276 E12.68145
G1 X59.309 Y89.565 E12.73501
G1 X59.315 Y88.849 E12.78859
G1 X59.410 Y88.140 E12.84213
G1 X59.571 Y87.514 E12.89052
G1 X59.432 Y87.279 E12.91092
G1 X59.064 Y87.194 E12.93917
G1 X57.718 Y86.803 E13.04412
G1 X56.316 Y86.301 E13.15554
G1 X54.948 Y85.712 E13.26696
G1 X53.621 Y85.039 E13.37838
G1 X52.338 Y84.283 E13.48978
G1 X51.105 Y83.449 E13.60121
G1 X49.927 Y82.538 E13.71263
G1 X48.750 Y81.504 E13.82984
G1 X48.548 Y81.484 E13.84503
G1 X44.457 Y83.846 E14.19855
G1 X42.257 Y83.257 E14.36900
G1 X40.284 Y79.839 E14.66432
G1 X41.167 Y78.214 E14.80273
G1 X40.990 Y77.908 E14.82914
G1 X39.141 Y77.860 E14.96755
G1 X37.168 Y74.443 E15.26285
G1 X37.758 Y72.243 E15.43330
G1 X41.858 Y69.875 E15.78767
G1 X41.941 Y69.686 E15.80313
G1 X41.712 Y68.648 E15.88263
G1 X41.482 Y67.178 E15.99405
G1 X41.345 Y65.695 E16.10547
G1 X41.301 Y64.207 E16.21688
G1 X41.350 Y62.719 E16.32831
G1 X41.493 Y61.237 E16.43973
G1 X41.729 Y59.767 E16.55114
G1 X42.035 Y58.398 E16.65610
G1 X42.277 Y57.554 E16.72185
G1 X42.143 Y57.321 E16.74195
G1 X41.516 Y57.146 E16.79066
G1 X41.100 Y56.987 E16.82394
G1 X40.463 Y56.664 E16.87744
G1 X39.938 Y56.316 E16.92459
G1 X39.593 Y56.036 E16.95783
G1 X39.143 Y55.596 E17.00492
G1 X38.909 Y55.323 E17.03181
G1 X38.645 Y54.967 E17.06499
G1 X38.319 Y54.429 E17.11210
G1 X38.125 Y54.029 E17.14535
G1 X37.906 Y53.439 E17.19246
G1 X37.791 Y53.009 E17.22576
G1 X37.686 Y52.389 E17.27281
G1 X37.653 Y51.946 E17.30607
G1 X37.666 Y51.316 E17.35324
G1 X37.717 Y50.875 E17.38646
G1 X37.784 Y50.522 E17.41327
G1 X37.953 Y49.916 E17.46037
G1 X38.112 Y49.502 E17.49358
G1 X38.264 Y49.177 E17.52042
G1 X38.578 Y48.632 E17.56750
G1 X38.784 Y48.338 E17.59433
G1 X39.063 Y47.994 E17.62754
G1 X39.327 Y47.712 E17.65640
G1 X39.398 Y47.587 E17.66717
G1 X40.132 Y47.045 E17.73544
G1 X40.671 Y46.719 E17.78259
G1 X41.322 Y46.423 E17.83609
G1 X41.744 Y46.281 E17.86943
G1 X42.441 Y46.123 E17.92292
G1 X43.154 Y46.054 E17.97653
G1 X43.870 Y46.074 E18.03010
G1 X44.225 Y46.118 E18.05693
G1 X44.840 Y46.249 E18.10394
G1 X45.518 Y46.479 E18.15753
G1 X46.161 Y46.792 E18.21106
G1 X46.468 Y46.979 E18.23791
G1 X46.830 Y47.237 E18.27118
G1 X47.306 Y47.648 E18.31825
G1 X47.566 Y47.915 E18.34617
G1 X47.771 Y47.917 E18.36150
G1 X47.818 Y48.825 F30000.000
G1 F2100
G1 X48.184 Y48.413 E18.40278
G1 X49.163 Y47.434 E18.50632
G1 X50.250 Y46.473 E18.61491
G1 X51.395 Y45.582 E18.72351
G1 X52.651 Y44.728 E18.83717
G1 X53.901 Y43.992 E18.94575
G1 X55.195 Y43.335 E19.05436
G1 X56.528 Y42.760 E19.16295
G1 X57.830 Y42.292 E19.26650
G1 X58.774 Y42.015 E19.34016
G1 X58.901 Y41.847 E19.35589
G1 X58.901 Y36.910 E19.72537
G1 X60.160 Y35.651 E19.85862
G1 X63.521 Y35.651 E20.11016
G1 X64.779 Y37.703 E20.29030
G1 X64.146 Y38.967 E20.39610
G1 X64.101 Y39.245 E20.41717
G1 X64.146 Y39.533 E20.43896
G1 X64.275 Y39.783 E20.46003
G1 X64.476 Y39.981 E20.48110
G1 X64.727 Y40.107 E20.50217
G1 X64.995 Y40.149 E20.52247
G1 X65.273 Y40.107 E20.54349
G1 X65.524 Y39.981 E20.56456
G1 X65.725 Y39.783 E20.58564
G1 X65.854 Y39.533 E20.60670
G1 X65.899 Y39.255 E20.62776
G1 X65.854 Y38.967 E20.64956
G1 X65.221 Y37.703 E20.75536
G1 X66.479 Y35.651 E20.93550
G1 X69.840 Y35.651 E21.18704
G1 X71.099 Y36.910 E21.32030
G1 X71.099 Y41.847 E21.68977
G1 X71.226 Y42.015 E21.70550
G1 X72.170 Y42.292 E21.77916
G1 X73.472 Y42.760 E21.88271
G1 X74.805 Y43.335 E21.99130
G1 X76.099 Y43.992 E22.09991
G1 X77.349 Y44.728 E22.20849
G1 X78.550 Y45.542 E22.31709
G1 X79.750 Y46.473 E22.43075
G1 X80.837 Y47.434 E22.53934
G1 X81.816 Y48.413 E22.64288
G1 X82.182 Y48.825 E22.68416
G1 X82.482 Y48.813 E22.70665
G1 X82.883 Y48.313 E22.75460
G1 X83.293 Y47.912 E22.79752
G1 X83.595 Y47.667 E22.82658
G1 X84.130 Y47.317 E22.87447
G1 X84.705 Y47.036 E22.92236
G1 X85.247 Y46.848 E22.96525
G1 X85.623 Y46.755 E22.99426
G1 X86.190 Y46.671 E23.03716
G1 X86.577 Y46.651 E23.06614
G1 X87.150 Y46.675 E23.10907
G1 X87.535 Y46.728 E23.13812
G1 X88.157 Y46.878 E23.18607
G1 X88.755 Y47.105 E23.23394
G1 X89.263 Y47.371 E23.27681
G1 X89.588 Y47.582 E23.30582
G1 X90.038 Y47.938 E23.34874
G1 X90.489 Y48.393 E23.39666
G1 X90.879 Y48.900 E23.44456
G1 X91.203 Y49.453 E23.49252
G1 X91.455 Y50.041 E23.54040
G1 X91.622 Y50.620 E23.58551
G1 X91.700 Y51.039 E23.61740
G1 X91.750 Y51.677 E23.66530
G1 X91.718 Y52.317 E23.71325
G1 X91.623 Y52.881 E23.75607
G1 X91.542 Y53.192 E23.78010
G1 X91.295 Y53.855 E23.83307
G1 X91.030 Y54.363 E23.87593
G1 X90.819 Y54.688 E23.90494
G1 X90.463 Y55.137 E23.94778
G1 X90.242 Y55.370 E23.97183
G1 X89.707 Y55.832 E24.02476
G1 X89.445 Y56.016 E24.04873
G1 X88.948 Y56.303 E24.09162
G1 X88.595 Y56.464 E24.12066
G1 X88.055 Y56.652 E24.16352
G1 X87.678 Y56.745 E24.19251
G1 X87.120 Y56.828 E24.23475
G1 X86.958 Y57.071 E24.25664
G1 X87.382 Y58.538 E24.37091
G1 X87.696 Y59.955 E24.47950
G1 X87.921 Y61.388 E24.58810
G1 X88.056 Y62.833 E24.69670
G1 X88.099 Y64.216 E24.80023
G1 X88.058 Y65.595 E24.90346
G1 X87.921 Y67.112 E25.01744
G1 X87.696 Y68.545 E25.12603
G1 X87.377 Y69.985 E25.23640
G1 X87.460 Y70.174 E25.25186
G1 X91.727 Y72.638 E25.62061
G1 X92.188 Y74.358 E25.75386
G1 X90.507 Y77.269 E26.00541
G1 X88.101 Y77.332 E26.18557
G1 X87.322 Y76.152 E26.29135
G1 X87.105 Y75.974 E26.31240
G1 X86.833 Y75.869 E26.33420
G1 X86.552 Y75.856 E26.35527
G1 X86.280 Y75.930 E26.37633
G1 X86.045 Y76.085 E26.39739
G1 X85.874 Y76.296 E26.41771
G1 X85.772 Y76.558 E26.43875
G1 X85.756 Y76.840 E26.45986
G1 X85.827 Y77.112 E26.48090
G1 X85.979 Y77.349 E26.50198
G1 X86.205 Y77.531 E26.52372
G1 X86.468 Y77.631 E26.54478
G1 X87.879 Y77.714 E26.65055
G1 X89.028 Y79.830 E26.83074
G1 X87.348 Y82.741 E27.08231
G1 X85.628 Y83.202 E27.21556
G1 X81.353 Y80.734 E27.58498
G1 X81.141 Y80.762 E27.60099
G1 X80.788 Y81.112 E27.63815
G1 X79.750 Y82.027 E27.74169
G1 X78.912 Y82.680 E27.82119
G1 X78.861 Y82.747 E27.82752
G1 X77.406 Y83.735 E27.95916
G1 X76.099 Y84.508 E28.07280
G1 X74.805 Y85.165 E28.18141
G1 X73.472 Y85.740 E28.28999
G1 X72.106 Y86.229 E28.39860
G1 X70.777 Y86.615 E28.50214
G1 X69.763 Y86.844 E28.57998
G1 X69.628 Y87.108 E28.60217
G1 X69.860 Y87.706 E28.65017
G1 X70.015 Y88.328 E28.69810
G1 X70.091 Y88.963 E28.74601
G1 X70.087 Y89.604 E28.79395
G1 X70.003 Y90.238 E28.84184
G1 X69.839 Y90.858 E28.88980
G1 X69.600 Y91.451 E28.93770
G1 X69.288 Y92.011 E28.98563
G1 X68.907 Y92.527 E29.03359
G1 X68.466 Y92.990 E29.08149
G1 X67.970 Y93.396 E29.12944
G1 X67.427 Y93.735 E29.17733
G1 X66.846 Y94.004 E29.22525
G1 X66.235 Y94.198 E29.27319
G1 X65.607 Y94.313 E29.32105
G1 X64.966 Y94.349 E29.36903
G1 X64.327 Y94.305 E29.41699
G1 X63.699 Y94.181 E29.46486
G1 X63.092 Y93.979 E29.51280
G1 X62.514 Y93.702 E29.56071
G1 X61.975 Y93.355 E29.60868
G1 X61.484 Y92.944 E29.65662
G1 X61.049 Y92.474 E29.70451
G1 X60.676 Y91.954 E29.75242
G1 X60.400 Y91.452 E29.79533
G1 X60.161 Y90.858 E29.84323
G1 X59.997 Y90.239 E29.89115
G1 X59.913 Y89.604 E29.93905
