; generated by Slic3r 1.3.0 on 2020-06-05 at 21:52:25

; external perimeters extrusion width = 0.44mm (2.78mm^3/s)
; perimeters extrusion width = 0.40mm (7.14mm^3/s)
; infill extrusion width = 0.50mm (10.97mm^3/s)
; solid infill extrusion width = 0.60mm (6.68mm^3/s)
; top infill extrusion width = 0.40mm (2.14mm^3/s)

M107
M190 S80 ; set bed temperature and wait for it to be reached
M104 S200 ; set temperature
G28 ; home all axes
G1 Z5 F5000 ; lift nozzle

; Filament gcode

M109 S200 ; set temperature and wait for it to be reached
G21 ; set units to millimeters
G90 ; use absolute coordinates
M82 ; use absolute distances for extrusion
G92 E0
G1 Z0.300 F30000.000
G1 E-2.00000 F2400.00000
G92 E0
G1 X68.557 Y75.271 F30000.000
G1 E2.00000 F2400.00000
G1 F2100
G1 X75.271 Y68.557 E2.63432
G1 X75.751 Y68.138 E2.67690
G1 X76.414 Y67.694 E2.73020
G1 X76.622 Y67.584 E2.74591
G1 X77.359 Y67.278 E2.79923
G1 X78.619 Y67.079 E2.88444
G1 X120.619 Y67.079 E5.69027
G1 X122.369 Y67.474 E5.81009
G1 X123.482 Y68.256 E5.90095
G1 X131.744 Y76.518 E6.68158
G1 X132.694 Y78.040 E6.80140
G1 X132.921 Y79.381 E6.89227
G1 X132.921 Y121.381 E9.69809
G1 X132.722 Y122.641 E9.78331
G1 X132.416 Y123.378 E9.83663
G1 X132.306 Y123.586 E9.85234
G1 X131.862 Y124.249 E9.90563
G1 X131.443 Y124.729 E9.94821
G1 X124.729 Y131.443 E10.58253
G1 X124.433 Y131.711 E10.60922
G1 X124.249 Y131.862 E10.62510
G1 X123.586 Y132.306 E10.67842
G1 X123.378 Y132.416 E10.69413
G1 X122.641 Y132.722 E10.74745
G1 X121.381 Y132.921 E10.83266
G1 X79.381 Y132.921 E13.63849
G1 X77.631 Y132.526 E13.75831
G1 X76.518 Y131.744 E13.84918
G1 X68.256 Y123.482 E14.62981
G1 X67.306 Y121.960 E14.74963
G1 X67.079 Y120.619 E14.84049
G1 X67.079 Y78.619 E17.64632
G1 X67.254 Y77.437 E17.72613
G1 X67.584 Y76.622 E17.78488
G1 X67.694 Y76.414 E17.80059
G1 X68.138 Y75.751 E17.85391
G1 X68.517 Y75.315 E17.89246
G1 X68.936 Y75.650 F30000.000
G1 F2100
G1 X75.650 Y68.936 E18.52678
G1 X75.907 Y68.703 E18.54996
G1 X76.091 Y68.552 E18.56586
G1 X76.667 Y68.167 E18.61214
G1 X76.874 Y68.056 E18.62785
G1 X77.515 Y67.791 E18.67416
G1 X78.619 Y67.615 E18.74887
G1 X120.619 Y67.615 E21.55470
G1 X122.242 Y68.009 E21.66626
G1 X123.105 Y68.636 E21.73756
G1 X131.364 Y76.895 E22.51779
G1 X132.224 Y78.326 E22.62935
G1 X132.385 Y79.381 E22.70065
G1 X132.385 Y121.381 E25.50648
G1 X132.209 Y122.486 E25.58120
G1 X131.944 Y123.126 E25.62750
G1 X131.833 Y123.333 E25.64321
G1 X131.448 Y123.909 E25.68949
G1 X131.064 Y124.350 E25.72856
G1 X124.350 Y131.064 E26.36288
G1 X124.093 Y131.297 E26.38606
G1 X123.910 Y131.448 E26.40193
G1 X123.333 Y131.833 E26.44824
G1 X123.126 Y131.944 E26.46395
G1 X122.485 Y132.209 E26.51025
G1 X121.381 Y132.385 E26.58497
G1 X79.381 Y132.385 E29.39080
G1 X77.758 Y131.991 E29.50235
G1 X76.895 Y131.364 E29.57366
G1 X68.636 Y123.105 E30.35389
G1 X67.776 Y121.674 E30.46545
G1 X67.615 Y120.619 E30.53675
G1 X67.615 Y78.619 E33.34258
G1 X67.767 Y77.593 E33.41189
G1 X68.056 Y76.874 E33.46363
G1 X68.167 Y76.667 E33.47934
G1 X68.552 Y76.090 E33.52564
G1 X68.895 Y75.694 E33.56068
G1 E31.56068 F2400.00000
G92 E0
G1 X73.026 Y82.620 F30000.000
G1 E2.00000 F2400.00000
G1 F2100
G1 X71.278 Y82.627 E2.13083
G1 X68.663 Y80.014 E2.40740
G1 X68.300 Y78.545 E2.52066
G1 X68.582 Y77.614 E2.59351
G1 X68.686 Y77.364 E2.61373
G1 X68.924 Y76.918 E2.65155
G1 X69.074 Y76.694 E2.67177
G1 X69.444 Y76.253 E2.71480
G1 X76.253 Y69.444 E3.43547
G1 X76.694 Y69.074 E3.47852
G1 X76.918 Y68.924 E3.49873
G1 X77.364 Y68.686 E3.53654
G1 X77.614 Y68.582 E3.55675
G1 X78.545 Y68.300 E3.62960
G1 X80.014 Y68.663 E3.74287
G1 X82.627 Y71.278 E4.01944
G1 X82.620 Y73.026 E4.15027
G1 X83.009 Y73.188 E4.18184
G1 X86.753 Y69.444 E4.57808
G1 X87.194 Y69.074 E4.62111
G1 X87.418 Y68.924 E4.64133
G1 X87.864 Y68.686 E4.67915
G1 X88.114 Y68.582 E4.69937
G1 X89.045 Y68.300 E4.77222
G1 X90.514 Y68.663 E4.88548
G1 X93.127 Y71.278 E5.16206
G1 X93.120 Y73.026 E5.29288
G1 X93.509 Y73.188 E5.32445
G1 X97.253 Y69.444 E5.72070
G1 X97.694 Y69.074 E5.76373
G1 X97.918 Y68.924 E5.78395
G1 X98.364 Y68.686 E5.82177
G1 X98.614 Y68.582 E5.84198
G1 X99.545 Y68.300 E5.91483
G1 X101.014 Y68.663 E6.02809
G1 X103.627 Y71.278 E6.30467
G1 X103.620 Y73.026 E6.43550
G1 X104.009 Y73.188 E6.46706
G1 X107.753 Y69.444 E6.86331
G1 X108.193 Y69.074 E6.90633
G1 X108.418 Y68.924 E6.92656
G1 X108.864 Y68.686 E6.96438
G1 X109.114 Y68.582 E6.98460
G1 X110.045 Y68.300 E7.05745
G1 X111.514 Y68.663 E7.17071
G1 X114.127 Y71.278 E7.44729
G1 X114.120 Y73.026 E7.57811
G1 X114.509 Y73.188 E7.60968
G1 X118.253 Y69.444 E8.00592
G1 X118.694 Y69.074 E8.04896
G1 X118.918 Y68.924 E8.06918
G1 X119.364 Y68.686 E8.10700
G1 X119.614 Y68.582 E8.12721
G1 X120.545 Y68.300 E8.20006
G1 X122.014 Y68.663 E8.31332
G1 X124.627 Y71.278 E8.58990
G1 X124.618 Y73.543 E8.75942
G1 X122.827 Y75.334 E8.94899
G1 X122.827 Y75.595 E8.96851
G1 X124.405 Y77.173 E9.13556
G1 X124.666 Y77.173 E9.15509
G1 X126.457 Y75.382 E9.34466
G1 X128.722 Y75.373 E9.51418
G1 X131.337 Y77.986 E9.79075
G1 X131.700 Y79.455 E9.90402
G1 X131.418 Y80.387 E9.97687
G1 X131.314 Y80.636 E9.99709
G1 X131.076 Y81.082 E10.03490
G1 X130.926 Y81.306 E10.05510
G1 X130.556 Y81.747 E10.09815
G1 X126.812 Y85.491 E10.49440
G1 X126.974 Y85.880 E10.52597
G1 X128.722 Y85.873 E10.65679
G1 X131.337 Y88.486 E10.93337
G1 X131.700 Y89.955 E11.04663
G1 X131.418 Y90.887 E11.11948
G1 X131.314 Y91.136 E11.13970
G1 X131.076 Y91.582 E11.17751
G1 X130.926 Y91.806 E11.19772
G1 X130.556 Y92.247 E11.24076
G1 X126.812 Y95.991 E11.63701
G1 X126.974 Y96.380 E11.66858
G1 X128.722 Y96.373 E11.79941
G1 X131.337 Y98.986 E12.07598
G1 X131.700 Y100.455 E12.18924
G1 X131.418 Y101.387 E12.26210
G1 X131.314 Y101.636 E12.28231
G1 X131.076 Y102.082 E12.32013
G1 X130.926 Y102.306 E12.34035
G1 X130.556 Y102.747 E12.38338
G1 X126.812 Y106.491 E12.77963
G1 X126.974 Y106.880 E12.81119
G1 X128.722 Y106.873 E12.94202
G1 X131.337 Y109.486 E13.21860
G1 X131.700 Y110.955 E13.33186
G1 X131.418 Y111.887 E13.40471
G1 X131.314 Y112.136 E13.42493
G1 X131.076 Y112.582 E13.46274
G1 X130.926 Y112.806 E13.48294
G1 X130.556 Y113.247 E13.52600
G1 X126.812 Y116.991 E13.92224
G1 X126.974 Y117.380 E13.95381
G1 X128.722 Y117.373 E14.08463
G1 X131.337 Y119.986 E14.36121
G1 X131.700 Y121.455 E14.47448
G1 X131.418 Y122.387 E14.54733
G1 X131.314 Y122.636 E14.56754
G1 X131.076 Y123.082 E14.60535
G1 X130.926 Y123.306 E14.62556
G1 X130.556 Y123.747 E14.66861
G1 X123.647 Y130.647 E15.39937
G1 X123.306 Y130.926 E15.43231
G1 X123.082 Y131.076 E15.45253
G1 X122.636 Y131.314 E15.49034
G1 X122.386 Y131.418 E15.51056
G1 X121.455 Y131.700 E15.58341
G1 X119.986 Y131.337 E15.69667
G1 X117.373 Y128.722 E15.97325
G1 X117.380 Y126.974 E16.10407
G1 X116.991 Y126.812 E16.13564
G1 X113.247 Y130.556 E16.53189
G1 X112.806 Y130.926 E16.57492
G1 X112.582 Y131.076 E16.59514
G1 X112.136 Y131.314 E16.63296
G1 X111.886 Y131.418 E16.65317
G1 X110.955 Y131.700 E16.72602
G1 X109.486 Y131.337 E16.83929
G1 X106.873 Y128.722 E17.11586
G1 X106.880 Y126.974 E17.24669
G1 X106.491 Y126.812 E17.27826
G1 X102.747 Y130.556 E17.67451
G1 X102.306 Y130.926 E17.71755
G1 X102.082 Y131.076 E17.73776
G1 X101.636 Y131.314 E17.77557
G1 X101.386 Y131.418 E17.79579
G1 X100.455 Y131.700 E17.86864
G1 X98.986 Y131.337 E17.98190
G1 X96.373 Y128.722 E18.25848
G1 X96.380 Y126.974 E18.38930
G1 X95.991 Y126.812 E18.42087
G1 X92.247 Y130.556 E18.81712
G1 X91.806 Y130.926 E18.86017
G1 X91.582 Y131.076 E18.88037
G1 X91.136 Y131.314 E18.91818
G1 X90.886 Y131.418 E18.93840
G1 X89.955 Y131.700 E19.01125
G1 X88.486 Y131.337 E19.12452
G1 X85.873 Y128.722 E19.40109
G1 X85.880 Y126.974 E19.53192
G1 X85.491 Y126.812 E19.56348
G1 X81.747 Y130.556 E19.95973
G1 X81.306 Y130.926 E20.00278
G1 X81.082 Y131.076 E20.02298
G1 X80.636 Y131.314 E20.06080
G1 X80.386 Y131.418 E20.08101
G1 X79.455 Y131.700 E20.15387
G1 X77.986 Y131.337 E20.26713
G1 X75.373 Y128.722 E20.54371
G1 X75.382 Y126.457 E20.71322
G1 X77.173 Y124.666 E20.90279
G1 X77.173 Y124.405 E20.92232
G1 X75.595 Y122.827 E21.08937
G1 X75.334 Y122.827 E21.10890
G1 X73.543 Y124.618 E21.29847
G1 X71.278 Y124.627 E21.46798
G1 X68.663 Y122.014 E21.74456
G1 X68.300 Y120.545 E21.85782
G1 X68.582 Y119.614 E21.93067
G1 X68.686 Y119.364 E21.95089
G1 X68.924 Y118.918 E21.98869
G1 X69.074 Y118.694 E22.00889
G1 X69.444 Y118.253 E22.05196
G1 X73.188 Y114.509 E22.44820
G1 X73.026 Y114.120 E22.47977
G1 X71.278 Y114.127 E22.61060
G1 X68.663 Y111.514 E22.88717
G1 X68.300 Y110.045 E23.00044
G1 X68.582 Y109.114 E23.07329
G1 X68.686 Y108.864 E23.09350
G1 X68.924 Y108.418 E23.13131
G1 X69.074 Y108.194 E23.15151
G1 X69.444 Y107.753 E23.19457
G1 X73.188 Y104.009 E23.59082
G1 X73.026 Y103.620 E23.62239
G1 X71.278 Y103.627 E23.75321
G1 X68.663 Y101.014 E24.02979
G1 X68.300 Y99.545 E24.14305
G1 X68.582 Y98.614 E24.21590
G1 X68.686 Y98.364 E24.23612
G1 X68.924 Y97.918 E24.27393
G1 X69.074 Y97.694 E24.29415
G1 X69.444 Y97.253 E24.33718
G1 X73.188 Y93.509 E24.73343
G1 X73.026 Y93.120 E24.76500
G1 X71.278 Y93.127 E24.89582
G1 X68.663 Y90.514 E25.17240
G1 X68.300 Y89.045 E25.28566
G1 X68.582 Y88.114 E25.35851
G1 X68.686 Y87.864 E25.37873
G1 X68.924 Y87.418 E25.41655
G1 X69.074 Y87.194 E25.43677
G1 X69.444 Y86.753 E25.47980
G1 X73.188 Y83.009 E25.87605
G1 X73.049 Y82.675 E25.90312
G1 E23.90312 F2400.00000
G92 E0
G1 X73.007 Y84.250 F30000.000
G1 X75.334 Y79.978 F30000.000
G1 E2.00000 F2400.00000
G1 F2100
G1 X73.293 Y82.019 E2.21597
G1 X71.522 Y82.026 E2.34850
G1 X69.206 Y79.710 E2.59362
G1 X68.922 Y78.561 E2.68217
G1 X69.148 Y77.816 E2.74045
G1 X69.229 Y77.621 E2.75626
G1 X69.439 Y77.227 E2.78966
G1 X69.556 Y77.051 E2.80547
G1 X69.879 Y76.667 E2.84299
G1 X76.745 Y69.808 E3.56934
G1 X77.052 Y69.556 E3.59899
G1 X77.227 Y69.439 E3.61479
G1 X77.621 Y69.229 E3.64819
G1 X77.816 Y69.148 E3.66399
G1 X78.561 Y68.922 E3.72228
G1 X79.710 Y69.206 E3.81082
G1 X82.026 Y71.522 E4.05595
G1 X82.019 Y73.293 E4.18847
G1 X79.978 Y75.334 E4.40444
G1 X79.978 Y75.595 E4.42397
G1 X80.584 Y76.201 E4.48809
G1 X80.845 Y76.201 E4.50762
G1 X87.245 Y69.808 E5.18461
G1 X87.551 Y69.556 E5.21425
G1 X87.727 Y69.439 E5.23005
G1 X88.121 Y69.229 E5.26346
G1 X88.316 Y69.148 E5.27926
G1 X89.061 Y68.922 E5.33755
G1 X90.210 Y69.206 E5.42609
G1 X92.526 Y71.522 E5.67122
G1 X92.519 Y73.293 E5.80374
G1 X90.478 Y75.334 E6.01972
G1 X90.478 Y75.595 E6.03924
G1 X91.084 Y76.201 E6.10336
G1 X91.345 Y76.201 E6.12289
G1 X97.745 Y69.808 E6.79989
G1 X98.051 Y69.556 E6.82952
G1 X98.227 Y69.439 E6.84532
G1 X98.621 Y69.229 E6.87873
G1 X98.816 Y69.148 E6.89453
G1 X99.561 Y68.922 E6.95282
G1 X100.710 Y69.206 E7.04136
G1 X103.026 Y71.522 E7.28649
G1 X103.019 Y73.293 E7.41901
G1 X100.978 Y75.334 E7.63499
G1 X100.978 Y75.595 E7.65451
G1 X101.584 Y76.201 E7.71863
G1 X101.845 Y76.201 E7.73816
G1 X108.167 Y69.879 E8.40727
G1 X108.551 Y69.557 E8.44478
G1 X108.727 Y69.439 E8.46059
G1 X109.121 Y69.229 E8.49400
G1 X109.316 Y69.148 E8.50981
G1 X110.061 Y68.922 E8.56809
G1 X111.210 Y69.206 E8.65664
G1 X113.526 Y71.522 E8.90176
G1 X113.519 Y73.293 E9.03428
G1 X111.478 Y75.334 E9.25026
G1 X111.478 Y75.595 E9.26979
G1 X112.084 Y76.201 E9.33391
G1 X112.345 Y76.201 E9.35344
G1 X118.667 Y69.879 E10.02254
G1 X119.052 Y69.556 E10.06006
G1 X119.227 Y69.439 E10.07587
G1 X119.621 Y69.229 E10.10928
G1 X119.816 Y69.148 E10.12508
G1 X120.561 Y68.922 E10.18336
G1 X121.710 Y69.206 E10.27191
G1 X124.026 Y71.522 E10.51703
G1 X124.019 Y73.293 E10.64956
G1 X121.978 Y75.334 E10.86553
G1 X121.978 Y75.595 E10.88506
G1 X124.405 Y78.022 E11.14191
G1 X124.666 Y78.022 E11.16144
G1 X126.707 Y75.981 E11.37741
G1 X128.478 Y75.974 E11.50993
G1 X130.794 Y78.290 E11.75506
G1 X131.078 Y79.439 E11.84360
G1 X130.852 Y80.184 E11.90189
G1 X130.771 Y80.379 E11.91770
G1 X130.561 Y80.773 E11.95110
G1 X130.444 Y80.948 E11.96689
G1 X130.192 Y81.255 E11.99654
G1 X123.799 Y87.655 E12.67353
G1 X123.799 Y87.916 E12.69306
G1 X124.405 Y88.522 E12.75718
G1 X124.666 Y88.522 E12.77671
G1 X126.707 Y86.481 E12.99268
G1 X128.478 Y86.474 E13.12520
G1 X130.794 Y88.790 E13.37033
G1 X131.078 Y89.939 E13.45888
G1 X130.852 Y90.684 E13.51716
G1 X130.771 Y90.879 E13.53297
G1 X130.561 Y91.273 E13.56637
G1 X130.444 Y91.448 E13.58217
G1 X130.192 Y91.755 E13.61181
G1 X123.799 Y98.155 E14.28880
G1 X123.799 Y98.416 E14.30833
G1 X124.405 Y99.022 E14.37245
G1 X124.666 Y99.022 E14.39198
G1 X126.707 Y96.981 E14.60795
G1 X128.478 Y96.974 E14.74048
G1 X130.794 Y99.290 E14.98560
G1 X131.078 Y100.439 E15.07415
G1 X130.852 Y101.184 E15.13243
G1 X130.771 Y101.379 E15.14824
G1 X130.561 Y101.773 E15.18164
G1 X130.444 Y101.949 E15.19745
G1 X130.121 Y102.333 E15.23497
G1 X123.799 Y108.655 E15.90407
G1 X123.799 Y108.916 E15.92360
G1 X124.405 Y109.522 E15.98772
G1 X124.666 Y109.522 E16.00725
G1 X126.707 Y107.481 E16.22322
G1 X128.478 Y107.474 E16.35575
G1 X130.794 Y109.790 E16.60087
G1 X131.078 Y110.939 E16.68942
G1 X130.852 Y111.684 E16.74771
G1 X130.771 Y111.879 E16.76351
G1 X130.561 Y112.273 E16.79691
G1 X130.444 Y112.448 E16.81271
G1 X130.121 Y112.833 E16.85024
G1 X123.799 Y119.155 E17.51935
G1 X123.799 Y119.416 E17.53887
G1 X124.405 Y120.022 E17.60300
G1 X124.666 Y120.022 E17.62252
G1 X126.707 Y117.981 E17.83850
G1 X128.478 Y117.974 E17.97102
G1 X130.794 Y120.290 E18.21615
G1 X131.078 Y121.439 E18.30469
G1 X130.852 Y122.184 E18.36298
G1 X130.771 Y122.379 E18.37878
G1 X130.561 Y122.773 E18.41218
G1 X130.444 Y122.948 E18.42798
G1 X130.121 Y123.333 E18.46552
G1 X123.255 Y130.192 E19.19187
G1 X122.948 Y130.444 E19.22150
G1 X122.773 Y130.561 E19.23731
G1 X122.379 Y130.771 E19.27071
G1 X122.184 Y130.852 E19.28652
G1 X121.439 Y131.078 E19.34480
G1 X120.290 Y130.794 E19.43335
G1 X117.974 Y128.478 E19.67847
G1 X117.981 Y126.707 E19.81100
G1 X120.022 Y124.666 E20.02697
G1 X120.022 Y124.405 E20.04650
G1 X119.416 Y123.799 E20.11062
G1 X119.155 Y123.799 E20.13015
G1 X112.755 Y130.192 E20.80714
G1 X112.448 Y130.444 E20.83677
G1 X112.273 Y130.561 E20.85258
G1 X111.879 Y130.771 E20.88598
G1 X111.684 Y130.852 E20.90179
G1 X110.939 Y131.078 E20.96007
G1 X109.790 Y130.794 E21.04862
G1 X107.474 Y128.478 E21.29374
G1 X107.481 Y126.707 E21.42627
G1 X109.522 Y124.666 E21.64224
G1 X109.522 Y124.405 E21.66177
G1 X108.916 Y123.799 E21.72589
G1 X108.655 Y123.799 E21.74542
G1 X102.255 Y130.192 E22.42241
G1 X101.948 Y130.444 E22.45205
G1 X101.773 Y130.561 E22.46785
G1 X101.379 Y130.771 E22.50125
G1 X101.184 Y130.852 E22.51706
G1 X100.439 Y131.078 E22.57534
G1 X99.290 Y130.794 E22.66389
G1 X96.974 Y128.478 E22.90901
G1 X96.981 Y126.707 E23.04154
G1 X99.022 Y124.666 E23.25751
G1 X99.022 Y124.405 E23.27704
G1 X98.416 Y123.799 E23.34116
G1 X98.155 Y123.799 E23.36069
G1 X91.833 Y130.121 E24.02980
G1 X91.448 Y130.444 E24.06733
G1 X91.273 Y130.561 E24.08312
G1 X90.879 Y130.771 E24.11652
G1 X90.684 Y130.852 E24.13233
G1 X89.939 Y131.078 E24.19062
G1 X88.790 Y130.794 E24.27916
G1 X86.474 Y128.478 E24.52429
G1 X86.481 Y126.707 E24.65681
G1 X88.522 Y124.666 E24.87278
G1 X88.522 Y124.405 E24.89231
G1 X87.916 Y123.799 E24.95643
G1 X87.655 Y123.799 E24.97596
G1 X81.333 Y130.121 E25.64506
G1 X80.948 Y130.444 E25.68260
G1 X80.773 Y130.561 E25.69839
G1 X80.379 Y130.771 E25.73180
G1 X80.184 Y130.852 E25.74760
G1 X79.439 Y131.078 E25.80589
G1 X78.290 Y130.794 E25.89443
G1 X75.974 Y128.478 E26.13956
G1 X75.981 Y126.707 E26.27208
G1 X78.022 Y124.666 E26.48805
G1 X78.022 Y124.405 E26.50758
G1 X75.595 Y121.978 E26.76443
G1 X75.334 Y121.978 E26.78396
G1 X73.293 Y124.019 E26.99993
G1 X71.522 Y124.026 E27.13246
G1 X69.206 Y121.710 E27.37758
G1 X68.922 Y120.561 E27.46613
G1 X69.148 Y119.816 E27.52441
G1 X69.229 Y119.621 E27.54022
G1 X69.439 Y119.227 E27.57361
G1 X69.556 Y119.052 E27.58940
G1 X69.808 Y118.745 E27.61906
G1 X76.201 Y112.345 E28.29605
G1 X76.201 Y112.084 E28.31558
G1 X75.595 Y111.478 E28.37970
G1 X75.334 Y111.478 E28.39923
G1 X73.293 Y113.519 E28.61520
G1 X71.522 Y113.526 E28.74773
G1 X69.206 Y111.210 E28.99285
G1 X68.922 Y110.061 E29.08140
G1 X69.148 Y109.316 E29.13968
G1 X69.229 Y109.121 E29.15549
G1 X69.439 Y108.727 E29.18889
G1 X69.556 Y108.552 E29.20467
G1 X69.808 Y108.245 E29.23433
G1 X76.201 Y101.845 E29.91132
G1 X76.201 Y101.584 E29.93085
