; generated by Slic3r 1.3.0 on 2022-06-30 at 16:45:46

; external perimeters extrusion width = 0.44mm (3.38mm^3/s)
; perimeters extrusion width = 0.48mm (7.54mm^3/s)
; infill extrusion width = 0.48mm (10.05mm^3/s)
; solid infill extrusion width = 0.48mm (2.51mm^3/s)
; top infill extrusion width = 0.48mm (1.88mm^3/s)

M107
M104 S205 ; set temperature
G28 ; home all axes
G1 Z5 F5000 ; lift nozzle

; Filament gcode

M109 S205 ; set temperature and wait for it to be reached
G21 ; set units to millimeters
G90 ; use absolute coordinates
M82 ; use absolute distances for extrusion
G92 E0
G1 Z0.350 F7800.000
G1 E-2.00000 F2400.00000
G92 E0
G1 X52.915 Y61.753 F7800.000
G1 E2.00000 F2400.00000
G1 F1800
G1 X54.668 Y60.274 E2.20854
G1 X56.820 Y59.481 E2.41708
G1 X58.000 Y59.375 E2.52479
G1 X82.000 Y59.375 E4.70710
G1 X84.259 Y59.772 E4.91565
G1 X86.247 Y60.915 E5.12419
G1 X87.726 Y62.668 E5.33273
G1 X88.519 Y64.820 E5.54127
G1 X88.625 Y66.000 E5.64898
G1 X88.625 Y74.000 E6.37642
G1 X88.228 Y76.259 E6.58496
G1 X87.085 Y78.247 E6.79350
G1 X85.332 Y79.726 E7.00205
G1 X83.180 Y80.519 E7.21059
G1 X82.000 Y80.625 E7.31830
G1 X58.000 Y80.625 E9.50061
G1 X55.741 Y80.228 E9.70915
G1 X53.753 Y79.085 E9.91769
G1 X52.274 Y77.332 E10.12623
G1 X51.481 Y75.180 E10.33478
G1 X51.375 Y74.000 E10.44249
G1 X51.375 Y66.000 E11.16992
G1 X51.772 Y63.741 E11.37846
G1 X52.886 Y61.805 E11.58155
G1 E9.58155 F2400.00000
G92 E0
G1 X80.400 Y72.400 F7800.000
G1 E2.00000 F2400.00000
G1 F1800
G1 X59.600 Y72.400 E3.89138
G1 X59.600 Y67.600 E4.32788
G1 X80.400 Y67.600 E6.21925
G1 X80.400 Y72.340 E6.65030
G1 X81.025 Y73.025 F7800.000
G1 F1800
G1 X58.975 Y73.025 E8.65532
G1 X58.975 Y66.975 E9.20546
G1 X81.025 Y66.975 E11.21048
G1 X81.025 Y72.965 E11.75517
G1 X81.650 Y73.650 F7800.000
G1 F1800
G1 X58.350 Y73.650 E13.87383
G1 X58.350 Y66.350 E14.53761
G1 X81.650 Y66.350 E16.65627
G1 X81.650 Y73.590 E17.31460
G1 X81.252 Y73.610 F7800.000
G1 E15.31460 F2400.00000
G92 E0
G1 X79.532 Y72.018 F7800.000
G1 E2.00000 F2400.00000
G1 F1800
G1 X80.018 Y71.532 E2.06286
G1 X80.018 Y70.644 E2.14409
G1 X78.644 Y72.018 E2.32182
G1 X77.755 Y72.018 E2.40305
G1 X80.018 Y69.755 E2.69566
G1 X80.018 Y68.867 E2.77688
G1 X76.867 Y72.018 E3.18437
G1 X75.978 Y72.018 E3.26559
G1 X80.015 Y67.982 E3.78750
G1 X79.126 Y67.982 E3.86873
G1 X75.090 Y72.018 E4.39064
G1 X74.201 Y72.018 E4.47187
G1 X78.238 Y67.982 E4.99378
G1 X77.349 Y67.982 E5.07501
G1 X73.313 Y72.018 E5.59691
G1 X72.424 Y72.018 E5.67814
G1 X76.461 Y67.982 E6.20005
G1 X75.572 Y67.982 E6.28128
G1 X71.536 Y72.018 E6.80319
G1 X70.647 Y72.018 E6.88442
G1 X74.684 Y67.982 E7.40633
G1 X73.795 Y67.982 E7.48756
G1 X69.759 Y72.018 E8.00946
G1 X68.870 Y72.018 E8.09069
G1 X72.907 Y67.982 E8.61260
G1 X72.018 Y67.982 E8.69383
G1 X67.982 Y72.018 E9.21574
G1 X67.093 Y72.018 E9.29697
G1 X71.130 Y67.982 E9.81888
G1 X70.241 Y67.982 E9.90011
G1 X66.205 Y72.018 E10.42201
G1 X65.316 Y72.018 E10.50324
G1 X69.353 Y67.982 E11.02515
G1 X68.464 Y67.982 E11.10638
G1 X64.428 Y72.018 E11.62829
G1 X63.539 Y72.018 E11.70952
G1 X67.576 Y67.982 E12.23143
G1 X66.687 Y67.982 E12.31265
G1 X62.651 Y72.018 E12.83456
G1 X61.762 Y72.018 E12.91579
G1 X65.799 Y67.982 E13.43770
G1 X64.910 Y67.982 E13.51893
G1 X60.874 Y72.018 E14.04084
G1 X59.985 Y72.018 E14.12207
G1 X64.022 Y67.982 E14.64398
G1 X63.133 Y67.982 E14.72520
G1 X59.982 Y71.133 E15.13269
G1 X59.982 Y70.245 E15.21391
G1 X62.245 Y67.982 E15.50652
G1 X61.356 Y67.982 E15.58775
G1 X59.982 Y69.356 E15.76548
G1 X59.982 Y68.468 E15.84671
G1 X60.468 Y67.982 E15.90957
M104 S200 ; set temperature
G1 Z0.650 F7800.000
G1 X80.964 Y72.964 F7800.000
G1 F3600
G1 X59.036 Y72.964 E17.05518
G1 X59.036 Y67.036 E17.36488
G1 X80.964 Y67.036 E18.51049
G1 X80.964 Y72.904 E18.81705
G1 X81.383 Y73.383 F7800.000
G1 F3600
G1 X58.617 Y73.383 E20.00643
G1 X58.617 Y66.617 E20.35989
G1 X81.383 Y66.617 E21.54928
G1 X81.383 Y73.323 E21.89960
G1 X81.780 Y73.780 F7800.000
G1 F1800
G1 X58.220 Y73.780 E23.00337
G1 X58.220 Y66.220 E23.35756
G1 X81.780 Y66.220 E24.46133
G1 X81.780 Y73.720 E24.81270
G1 X81.382 Y73.739 F7800.000
G1 X80.708 Y67.618 F7800.000
G1 F1200
G1 X80.382 Y67.292 E24.83689
G1 X79.787 Y67.292 E24.86811
G1 X80.708 Y68.213 E24.93645
G1 X80.708 Y68.808 E24.96768
G1 X79.192 Y67.292 E25.08017
G1 X78.597 Y67.292 E25.11140
G1 X80.708 Y69.403 E25.26805
G1 X80.708 Y69.998 E25.29927
G1 X78.002 Y67.292 E25.50008
G1 X77.407 Y67.292 E25.53131
G1 X80.708 Y70.593 E25.77627
G1 X80.708 Y71.188 E25.80750
G1 X76.812 Y67.292 E26.09662
G1 X76.217 Y67.292 E26.12784
G1 X80.708 Y71.783 E26.46111
G1 X80.708 Y72.378 E26.49234
G1 X75.622 Y67.292 E26.86977
G1 X75.027 Y67.292 E26.90099
G1 X80.443 Y72.708 E27.30291
G1 X79.848 Y72.708 E27.33413
G1 X74.432 Y67.292 E27.73605
G1 X73.837 Y67.292 E27.76727
G1 X79.253 Y72.708 E28.16919
G1 X78.658 Y72.708 E28.20041
G1 X73.242 Y67.292 E28.60232
G1 X72.647 Y67.292 E28.63355
G1 X78.063 Y72.708 E29.03546
G1 X77.468 Y72.708 E29.06669
G1 X72.052 Y67.292 E29.46860
G1 X71.457 Y67.292 E29.49983
G1 X76.873 Y72.708 E29.90174
G1 X76.278 Y72.708 E29.93297
G1 X70.862 Y67.292 E30.33488
G1 X70.267 Y67.292 E30.36610
G1 X75.683 Y72.708 E30.76802
G1 X75.088 Y72.708 E30.79924
G1 X69.672 Y67.292 E31.20116
G1 X69.077 Y67.292 E31.23238
G1 X74.493 Y72.708 E31.63430
G1 X73.898 Y72.708 E31.66552
G1 X68.482 Y67.292 E32.06744
G1 X67.887 Y67.292 E32.09866
G1 X73.303 Y72.708 E32.50058
G1 X72.708 Y72.708 E32.53180
G1 X67.292 Y67.292 E32.93372
G1 X66.697 Y67.292 E32.96494
G1 X72.113 Y72.708 E33.36686
G1 X71.518 Y72.708 E33.39808
G1 X66.102 Y67.292 E33.80000
G1 X65.507 Y67.292 E33.83122
G1 X70.923 Y72.708 E34.23314
G1 X70.328 Y72.708 E34.26436
G1 X64.912 Y67.292 E34.66627
G1 X64.317 Y67.292 E34.69750
G1 X69.733 Y72.708 E35.09941
G1 X69.138 Y72.708 E35.13064
G1 X63.722 Y67.292 E35.53255
G1 X63.127 Y67.292 E35.56378
G1 X68.543 Y72.708 E35.96569
G1 X67.948 Y72.708 E35.99691
G1 X62.532 Y67.292 E36.39883
G1 X61.937 Y67.292 E36.43005
G1 X67.353 Y72.708 E36.83197
G1 X66.758 Y72.708 E36.86319
G1 X61.342 Y67.292 E37.26511
G1 X60.747 Y67.292 E37.29633
G1 X66.163 Y72.708 E37.69825
G1 X65.568 Y72.708 E37.72947
G1 X60.152 Y67.292 E38.13139
G1 X59.557 Y67.292 E38.16261
G1 X64.973 Y72.708 E38.56453
G1 X64.378 Y72.708 E38.59575
G1 X59.292 Y67.622 E38.97318
G1 X59.292 Y68.217 E39.00441
G1 X63.783 Y72.708 E39.33768
G1 X63.188 Y72.708 E39.36891
G1 X59.292 Y68.812 E39.65803
G1 X59.292 Y69.407 E39.68925
G1 X62.593 Y72.708 E39.93422
G1 X61.998 Y72.708 E39.96544
G1 X59.292 Y70.002 E40.16626
G1 X59.292 Y70.597 E40.19748
G1 X61.403 Y72.708 E40.35414
G1 X60.808 Y72.708 E40.38536
G1 X59.292 Y71.192 E40.49786
G1 X59.292 Y71.787 E40.52908
G1 X60.213 Y72.708 E40.59743
G1 X59.618 Y72.708 E40.62865
G1 X59.292 Y72.382 E40.65284
G1 Z0.950 F7800.000
G1 E38.65284 F2400.00000
G92 E0
G1 X80.964 Y72.964 F7800.000
G1 E2.00000 F2400.00000
G1 F3600
G1 X59.036 Y72.964 E3.14561
G1 X59.036 Y67.036 E3.45531
G1 X80.964 Y67.036 E4.60092
G1 X80.964 Y72.904 E4.90748
G1 X81.383 Y73.383 F7800.000
G1 F3600
G1 X58.617 Y73.383 E6.09686
G1 X58.617 Y66.617 E6.45032
G1 X81.383 Y66.617 E7.63971
G1 X81.383 Y73.323 E7.99003
G1 X81.780 Y73.780 F7800.000
G1 F1800
G1 X58.220 Y73.780 E9.09380
G1 X58.220 Y66.220 E9.44799
G1 X81.780 Y66.220 E10.55176
G1 X81.780 Y73.720 E10.90313
G1 X81.382 Y73.739 F7800.000
G1 X80.382 Y72.708 F7800.000
G1 F900
G1 X80.708 Y72.382 E10.92732
G1 X80.708 Y71.787 E10.95854
G1 X79.787 Y72.708 E11.02688
G1 X79.192 Y72.708 E11.05810
G1 X80.708 Y71.192 E11.17060
G1 X80.708 Y70.597 E11.20183
G1 X78.597 Y72.708 E11.35848
G1 X78.002 Y72.708 E11.38970
G1 X80.708 Y70.002 E11.59051
G1 X80.708 Y69.407 E11.62173
G1 X77.407 Y72.708 E11.86670
G1 X76.812 Y72.708 E11.89792
G1 X80.708 Y68.812 E12.18704
G1 X80.708 Y68.217 E12.21826
G1 X76.217 Y72.708 E12.55154
G1 X75.622 Y72.708 E12.58276
G1 X80.708 Y67.622 E12.96019
G1 X80.708 Y67.292 E12.97750
G1 X80.443 Y67.292 E12.99141
G1 X75.027 Y72.708 E13.39332
G1 X74.432 Y72.708 E13.42455
G1 X79.848 Y67.292 E13.82646
G1 X79.253 Y67.292 E13.85768
G1 X73.837 Y72.708 E14.25960
G1 X73.242 Y72.708 E14.29082
G1 X78.658 Y67.292 E14.69273
G1 X78.063 Y67.292 E14.72396
G1 X72.647 Y72.708 E15.12587
G1 X72.052 Y72.708 E15.15709
G1 X77.468 Y67.292 E15.55901
G1 X76.873 Y67.292 E15.59023
G1 X71.457 Y72.708 E15.99214
G1 X70.862 Y72.708 E16.02337
G1 X76.278 Y67.292 E16.42528
G1 X75.683 Y67.292 E16.45650
G1 X70.267 Y72.708 E16.85842
G1 X69.672 Y72.708 E16.88964
G1 X75.088 Y67.292 E17.29155
G1 X74.493 Y67.292 E17.32278
G1 X69.077 Y72.708 E17.72469
G1 X68.482 Y72.708 E17.75591
G1 X73.898 Y67.292 E18.15783
G1 X73.303 Y67.292 E18.18905
G1 X67.887 Y72.708 E18.59096
G1 X67.292 Y72.708 E18.62219
G1 X72.708 Y67.292 E19.02410
G1 X72.113 Y67.292 E19.05532
G1 X66.697 Y72.708 E19.45724
G1 X66.102 Y72.708 E19.48846
G1 X71.518 Y67.292 E19.89038
G1 X70.923 Y67.292 E19.92160
G1 X65.507 Y72.708 E20.32351
G1 X64.912 Y72.708 E20.35473
G1 X70.328 Y67.292 E20.75665
G1 X69.733 Y67.292 E20.78787
G1 X64.317 Y72.708 E21.18979
G1 X63.722 Y72.708 E21.22101
G1 X69.138 Y67.292 E21.62292
G1 X68.543 Y67.292 E21.65414
G1 X63.127 Y72.708 E22.05606
G1 X62.532 Y72.708 E22.08728
G1 X67.948 Y67.292 E22.48920
G1 X67.353 Y67.292 E22.52042
G1 X61.937 Y72.708 E22.92233
G1 X61.342 Y72.708 E22.95355
G1 X66.758 Y67.292 E23.35547
G1 X66.163 Y67.292 E23.38669
G1 X60.747 Y72.708 E23.78860
G1 X60.152 Y72.708 E23.81983
G1 X65.568 Y67.292 E24.22174
G1 X64.973 Y67.292 E24.25296
G1 X59.557 Y72.708 E24.65488
G1 X59.292 Y72.708 E24.66879
G1 X59.292 Y72.378 E24.68610
G1 X64.378 Y67.292 E25.06353
G1 X63.783 Y67.292 E25.09476
G1 X59.292 Y71.783 E25.42803
G1 X59.292 Y71.188 E25.45926
G1 X63.188 Y67.292 E25.74838
G1 X62.593 Y67.292 E25.77960
G1 X59.292 Y70.593 E26.02457
G1 X59.292 Y69.998 E26.05579
G1 X61.998 Y67.292 E26.25661
G1 X61.403 Y67.292 E26.28783
G1 X59.292 Y69.403 E26.44449
G1 X59.292 Y68.808 E26.47571
G1 X60.808 Y67.292 E26.58821
G1 X60.213 Y67.292 E26.61944
G1 X59.292 Y68.213 E26.68778
G1 X59.292 Y67.618 E26.71901
G1 X59.618 Y67.292 E26.74320
M106 S255
G1 Z1.250 F7800.000
G1 E24.74320 F2400.00000
G92 E0
G1 X62.492 Y69.195 F7800.000
G1 E2.00000 F2400.00000
G1 F622.364
G1 X62.276 Y68.877 E2.01458
G1 X62.064 Y68.699 E2.02507
G1 X61.809 Y68.577 E2.03578
G1 X61.495 Y68.522 E2.04786
G1 F622.364
G1 X61.159 Y68.544 E2.05837
G1 X60.855 Y68.640 E2.06836
G1 F622.364
G1 X60.551 Y68.860 E2.08254
G1 X60.399 Y69.065 E2.09219
G1 X60.319 Y69.232 E2.09919
G1 X60.224 Y69.621 E2.11432
G1 X60.209 Y69.844 E2.12276
G1 X60.233 Y70.147 E2.13426
G1 X60.317 Y70.457 E2.14638
G1 X60.384 Y70.597 E2.15228
G1 X60.513 Y70.787 E2.16094
G1 X60.753 Y70.984 E2.17268
G1 X60.950 Y71.075 E2.18086
G1 X61.105 Y71.117 E2.18696
G1 F622.364
G1 X61.406 Y71.150 E2.19648
G1 X61.636 Y71.133 E2.20373
G1 X61.843 Y71.086 E2.21042
G1 X62.121 Y70.947 E2.22019
G1 F622.364
G1 X62.312 Y70.762 E2.23052
G1 X62.439 Y70.538 E2.24050
G1 X63.309 Y69.891 F7800.000
G1 F622.364
G1 X63.275 Y69.728 E2.24864
G1 F622.364
G1 X63.275 Y68.400 E2.30236
G1 X63.309 Y69.891 F7800.000
G1 F622.364
G1 X63.362 Y69.891 E2.30497
G1 F622.364
G1 X65.072 Y69.891 E2.37001
G1 F622.364
G1 X65.179 Y69.891 E2.37523
G1 F622.364
G1 X65.213 Y69.728 E2.38337
G1 F622.364
G1 X65.213 Y68.400 E2.43709
G1 X65.179 Y69.891 F7800.000
G1 F622.364
G1 X65.196 Y69.973 E2.44116
G1 F622.364
G1 X65.213 Y70.054 E2.44452
G1 X65.213 Y71.266 E2.49355
G1 X63.275 Y71.266 F7800.000
G1 F622.364
G1 X63.275 Y70.054 E2.54257
G1 F622.364
G1 X63.309 Y69.891 E2.55071
G1 E0.55071 F2400.00000
G92 E0
G1 X76.248 Y70.622 F7800.000
G1 E2.00000 F2400.00000
G1 F600
G1 X76.123 Y70.789 E2.00727
G1 X75.914 Y70.965 E2.01679
G1 X75.725 Y71.060 E2.02415
G1 X75.466 Y71.132 E2.03350
G1 X75.218 Y71.150 E2.04215
G1 X74.903 Y71.120 E2.05318
G1 X74.675 Y71.050 E2.06147
G1 X74.543 Y70.988 E2.06655
G1 F600
G1 X74.304 Y70.795 E2.07923
G1 X74.151 Y70.580 E2.09007
G1 X74.052 Y70.335 E2.10093
G1 X74.017 Y70.183 E2.10733
G1 X73.989 Y69.844 E2.12135
G1 F600
G1 X74.016 Y69.542 E2.13383
G1 X74.090 Y69.254 E2.14606
G1 F600
G1 X74.220 Y69.001 E2.15593
G1 X74.404 Y68.790 E2.16565
G1 X74.675 Y68.621 E2.17673
G1 X74.902 Y68.552 E2.18495
G1 X75.221 Y68.519 E2.19606
G1 X75.532 Y68.553 E2.20692
G1 X75.794 Y68.638 E2.21646
G1 X76.015 Y68.779 E2.22554
G1 F600
G1 X76.151 Y68.919 E2.23364
G1 X76.258 Y69.074 E2.24143
G1 X76.362 Y69.324 E2.25264
G1 X76.404 Y69.500 E2.26015
G1 X76.436 Y69.861 E2.27515
G1 X76.409 Y70.179 E2.28833
G1 X76.337 Y70.432 E2.29922
G1 F600
G1 X76.276 Y70.569 E2.30446
G1 X76.248 Y70.622 F7800.000
G1 E0.30446 F2400.00000
G92 E0
G1 X80.069 Y68.559 F7800.000
G1 E2.00000 F2400.00000
G1 F622.364
G1 X78.620 Y68.559 E2.04570
G1 X78.561 Y68.576 E2.04766
G1 F622.364
G1 X78.441 Y68.609 E2.05263
G1 X78.426 Y68.717 E2.05699
G1 X78.426 Y71.266 E2.15888
G1 X77.338 Y71.266 F7800.000
G1 F622.364
G1 X77.338 Y68.400 E2.27477
G1 E0.27477 F2400.00000
G92 E0
G1 X71.912 Y71.266 F7800.000
G1 E2.00000 F2400.00000
G1 F622.364
G1 X71.912 Y68.400 E2.11590
G1 X71.249 Y68.559 F7800.000
G1 F622.364
G1 X69.801 Y68.559 E2.16160
G1 X69.741 Y68.576 E2.16356
G1 F622.364
G1 X69.622 Y68.609 E2.16852
G1 X69.607 Y68.717 E2.17288
G1 X69.607 Y71.266 E2.27477
G1 E0.27477 F2400.00000
G92 E0
G1 X68.986 Y68.559 F7800.000
G1 E2.00000 F2400.00000
G1 F622.364
G1 X67.538 Y68.559 E2.04570
G1 X67.478 Y68.576 E2.04766
G1 F622.364
G1 X67.359 Y68.609 E2.05262
G1 X67.344 Y68.717 E2.05698
G1 X67.344 Y71.266 E2.15887
G1 X66.256 Y71.266 F7800.000
G1 F622.364
G1 X66.256 Y68.400 E2.27477
G1 Z1.550 F7800.000
G1 E0.27477 F2400.00000
G92 E0
G1 X62.492 Y69.195 F7800.000
G1 E2.00000 F2400.00000
G1 F620.073
G1 X62.276 Y68.877 E2.01458
G1 X62.064 Y68.699 E2.02507
G1 X61.809 Y68.577 E2.03578
G1 X61.619 Y68.533 E2.04314
G1 X61.439 Y68.520 E2.04999
G1 F620.073
G1 X61.194 Y68.538 E2.05773
G1 X61.015 Y68.580 E2.06353
G1 X60.734 Y68.709 E2.07328
G1 F620.073
G1 X60.524 Y68.893 E2.08434
G1 X60.396 Y69.068 E2.09294
G1 X60.319 Y69.224 E2.09982
G1 X60.232 Y69.547 E2.11307
G1 X60.219 Y70.018 E2.13173
G1 X60.302 Y70.427 E2.14827
G1 X60.440 Y70.688 E2.15998
G1 X60.610 Y70.879 E2.17012
G1 X60.764 Y70.989 E2.17758
G1 X60.969 Y71.084 E2.18655
G1 F620.073
G1 X61.282 Y71.143 E2.19709
G1 X61.610 Y71.136 E2.20797
G1 X61.825 Y71.094 E2.21523
G1 X62.006 Y71.018 E2.22173
G1 X62.149 Y70.927 E2.22735
G1 X62.268 Y70.816 E2.23273
G1 X62.350 Y70.707 E2.23725
G1 X63.309 Y69.891 F7800.000
G1 F620.073
G1 X63.275 Y69.728 E2.24538
G1 F620.073
G1 X63.275 Y68.400 E2.29910
G1 X63.309 Y69.891 F7800.000
G1 F620.073
G1 X63.362 Y69.891 E2.30171
G1 F620.073
G1 X65.072 Y69.891 E2.36675
G1 F620.073
G1 X65.179 Y69.891 E2.37198
G1 F620.073
G1 X65.213 Y69.728 E2.38011
G1 F620.073
G1 X65.213 Y68.400 E2.43383
G1 X65.179 Y69.891 F7800.000
G1 F620.073
G1 X65.196 Y69.973 E2.43790
G1 F620.073
G1 X65.213 Y70.054 E2.44126
G1 X65.213 Y71.266 E2.49029
G1 X63.275 Y71.266 F7800.000
G1 F620.073
G1 X63.275 Y70.054 E2.53932
G1 F620.073
G1 X63.309 Y69.891 E2.54746
G1 E0.54746 F2400.00000
G92 E0
G1 X76.246 Y70.621 F7800.000
G1 E2.00000 F2400.00000
G1 F600
G1 X76.204 Y70.692 E2.00282
G1 X76.026 Y70.886 E2.01182
G1 X75.893 Y70.978 E2.01733
G1 X75.635 Y71.094 E2.02700
G1 X75.351 Y71.144 E2.03684
G1 X75.042 Y71.141 E2.04739
G1 X74.766 Y71.082 E2.05702
G1 X74.525 Y70.974 E2.06604
G1 F600
G1 X74.395 Y70.882 E2.07260
G1 X74.215 Y70.687 E2.08349
G1 X74.155 Y70.585 E2.08837
G1 X74.052 Y70.324 E2.09987
G1 X73.995 Y69.997 E2.11354
G1 F600
G1 X73.996 Y69.697 E2.12588
G1 X74.039 Y69.412 E2.13774
G1 X74.149 Y69.123 E2.15045
G1 F600
G1 X74.243 Y68.963 E2.15680
G1 X74.460 Y68.744 E2.16729
G1 X74.701 Y68.610 E2.17670
G1 X74.936 Y68.544 E2.18502
G1 X75.256 Y68.520 E2.19597
G1 X75.532 Y68.552 E2.20543
G1 X75.794 Y68.638 E2.21483
G1 X75.986 Y68.759 E2.22257
G1 F600
G1 X76.149 Y68.916 E2.23189
G1 X76.294 Y69.147 E2.24310
G1 X76.411 Y69.526 E2.25944
G1 X76.429 Y69.692 E2.26632
G1 X76.428 Y70.026 E2.28009
G1 X76.380 Y70.294 E2.29129
G1 X76.279 Y70.560 E2.30302
G1 F600
G1 X76.275 Y70.568 E2.30334
G1 X76.319 Y70.655 F7800.000
G1 E0.30334 F2400.00000
G92 E0
G1 X80.069 Y68.559 F7800.000
G1 E2.00000 F2400.00000
G1 F620.073
G1 X78.620 Y68.559 E2.04570
G1 X78.561 Y68.576 E2.04766
G1 F620.073
