; generated by Slic3r 1.3.0 on 2022-07-03 at 06:50:02

; external perimeters extrusion width = 0.44mm (3.38mm^3/s)
; perimeters extrusion width = 0.48mm (7.54mm^3/s)
; infill extrusion width = 0.48mm (10.05mm^3/s)
; solid infill extrusion width = 0.48mm (2.51mm^3/s)
; top infill extrusion width = 0.48mm (1.88mm^3/s)

M107
M104 S205 ; set temperature
G28 ; home all axes
G1 Z5 F5000 ; lift nozzle

; Filament gcode

M109 S205 ; set temperature and wait for it to be reached
G21 ; set units to millimeters
G90 ; use absolute coordinates
M82 ; use absolute distances for extrusion
G92 E0
G1 Z0.350 F7800.000
G1 E-2.00000 F2400.00000
G92 E0
G1 X65.310 Y60.345 F7800.000
G1 E2.00000 F2400.00000
G1 F1790.97
G1 X67.194 Y59.022 E2.20938
G1 X69.409 Y58.425 E2.41793
G1 X71.694 Y58.619 E2.62647
G1 X73.776 Y59.580 E2.83501
G1 X74.685 Y60.339 E2.94262
G1 X79.661 Y65.315 E3.58259
G1 X80.978 Y67.193 E3.79113
G1 X81.575 Y69.408 E3.99967
G1 X81.382 Y71.693 E4.20821
G1 X80.421 Y73.775 E4.41675
G1 X79.661 Y74.685 E4.52446
G1 X74.685 Y79.661 E5.16443
G1 X72.807 Y80.978 E5.37297
G1 X70.592 Y81.575 E5.58152
G1 X68.307 Y81.382 E5.79006
G1 X66.225 Y80.421 E5.99860
G1 X65.315 Y79.661 E6.10631
G1 X60.339 Y74.685 E6.74628
G1 X59.022 Y72.807 E6.95482
G1 X58.425 Y70.592 E7.16336
G1 X58.618 Y68.307 E7.37191
G1 X59.579 Y66.225 E7.58045
G1 X60.339 Y65.315 E7.68816
G1 X65.267 Y60.387 E8.32192
G1 E6.32192 F2400.00000
G92 E0
G1 X72.714 Y70.000 F7800.000
G1 E2.00000 F2400.00000
G1 F1790.97
G1 X70.000 Y72.714 E2.34903
G1 X67.286 Y70.000 E2.69807
G1 X70.000 Y67.286 E3.04710
G1 X72.672 Y69.958 E3.39068
G1 X73.598 Y70.000 F7800.000
G1 F1790.97
G1 X70.000 Y73.598 E3.85336
G1 X66.402 Y70.000 E4.31604
G1 X70.000 Y66.402 E4.77871
G1 X73.556 Y69.958 E5.23593
G1 X74.482 Y70.000 F7800.000
G1 F1800
G1 X70.000 Y74.482 E5.81225
G1 X65.518 Y70.000 E6.38857
G1 X70.000 Y65.518 E6.96489
G1 X74.439 Y69.958 E7.53575
G1 X74.135 Y70.200 F7800.000
G1 E5.53575 F2400.00000
G92 E0
G1 X70.243 Y67.926 F7800.000
G1 E2.00000 F2400.00000
G1 F1790.97
G1 X67.926 Y70.243 E2.30851
G1 X68.384 Y70.701 E2.36945
G1 X70.701 Y68.384 E2.67796
G1 X71.158 Y68.842 E2.73890
G1 X68.842 Y71.158 E3.04741
G1 X69.299 Y71.616 E3.10835
G1 X71.616 Y69.299 E3.41686
G1 X72.073 Y69.757 E3.47780
G1 X69.757 Y72.073 E3.78631
M104 S200 ; set temperature
G1 Z0.650 F7800.000
G1 X73.468 Y70.000 F7800.000
G1 F900
G1 X70.000 Y73.468 E4.04255
G1 X66.532 Y70.000 E4.29878
G1 X70.000 Y66.532 E4.55502
G1 X73.426 Y69.958 E4.80812
G1 X74.060 Y70.000 F7800.000
G1 F900
G1 X70.000 Y74.060 E5.10813
G1 X65.940 Y70.000 E5.40813
G1 X70.000 Y65.940 E5.70814
G1 X74.018 Y69.958 E6.00501
G1 X74.622 Y70.000 F7800.000
G1 F900
G1 X70.000 Y74.622 E6.31125
G1 X65.378 Y70.000 E6.61750
G1 X70.000 Y65.378 E6.92374
G1 X74.580 Y69.958 E7.22717
G1 X74.276 Y70.200 F7800.000
G1 X73.039 Y70.163 F7800.000
G1 F1200
G1 X69.837 Y66.961 E7.48233
G1 X69.518 Y67.281 E7.50780
G1 X72.719 Y70.482 E7.76296
G1 X72.399 Y70.802 E7.78842
G1 X69.198 Y67.600 E8.04358
G1 X68.879 Y67.920 E8.06905
G1 X72.080 Y71.121 E8.32421
G1 X71.760 Y71.441 E8.34967
G1 X68.559 Y68.239 E8.60483
G1 X68.240 Y68.559 E8.63030
G1 X71.441 Y71.760 E8.88546
G1 X71.121 Y72.080 E8.91092
G1 X67.920 Y68.879 E9.16608
G1 X67.600 Y69.198 E9.19154
G1 X70.802 Y72.399 E9.44670
G1 X70.482 Y72.719 E9.47217
G1 X67.281 Y69.518 E9.72733
G1 X66.961 Y69.837 E9.75279
G1 X70.163 Y73.039 E10.00795
G1 X67.287 Y70.163 E10.23715
G1 Z0.950 F7800.000
G1 X73.428 Y70.000 F7800.000
G1 F900
G1 X70.000 Y73.428 E10.49043
G1 X66.572 Y70.000 E10.74371
G1 X70.000 Y66.572 E10.99699
G1 X73.386 Y69.958 E11.24714
G1 X74.020 Y70.000 F7800.000
G1 F900
G1 X70.000 Y74.020 E11.54419
G1 X65.980 Y70.000 E11.84124
G1 X70.000 Y65.980 E12.13829
G1 X73.978 Y69.958 E12.43220
G1 X74.582 Y70.000 F7800.000
G1 F900
G1 X70.000 Y74.582 E12.73580
G1 X65.418 Y70.000 E13.03939
G1 X70.000 Y65.418 E13.34298
G1 X74.540 Y69.958 E13.64377
G1 X74.236 Y70.200 F7800.000
G1 X69.837 Y67.327 F7800.000
G1 F1200
G1 X67.001 Y70.163 E13.86663
G1 X70.163 Y67.001 E14.11510
G1 X70.478 Y67.317 E14.13986
G1 X67.317 Y70.478 E14.38832
G1 X67.632 Y70.793 E14.41308
G1 X70.793 Y67.632 E14.66155
G1 X71.108 Y67.947 E14.68631
G1 X67.947 Y71.108 E14.93478
G1 X68.262 Y71.423 E14.95954
G1 X71.423 Y68.262 E15.20801
G1 X71.738 Y68.577 E15.23277
G1 X68.577 Y71.738 E15.48124
G1 X68.892 Y72.053 E15.50600
G1 X72.053 Y68.892 E15.75446
G1 X72.368 Y69.207 E15.77922
G1 X69.207 Y72.368 E16.02769
G1 X69.522 Y72.683 E16.05245
G1 X72.683 Y69.522 E16.30092
G1 X72.999 Y69.837 E16.32568
G1 X69.837 Y72.999 E16.57415
M106 S247.35
G1 Z1.250 F7800.000
G1 X73.388 Y70.000 F7800.000
G1 F900
G1 X70.000 Y73.388 E16.82447
G1 X66.612 Y70.000 E17.07480
G1 X70.000 Y66.612 E17.32513
G1 X73.346 Y69.958 E17.57232
G1 X73.980 Y70.000 F7800.000
G1 F900
G1 X70.000 Y73.980 E17.86641
G1 X66.020 Y70.000 E18.16051
G1 X70.000 Y66.020 E18.45460
G1 X73.938 Y69.958 E18.74556
G1 X74.542 Y70.000 F7800.000
G1 F900
G1 X70.000 Y74.542 E19.04650
G1 X65.458 Y70.000 E19.34745
G1 X70.000 Y65.458 E19.64839
G1 X74.500 Y69.958 E19.94653
G1 X74.196 Y70.200 F7800.000
G1 X72.958 Y70.163 F7800.000
G1 F1200
G1 X69.837 Y67.042 E20.18839
G1 X69.526 Y67.352 E20.21245
G1 X72.648 Y70.474 E20.45431
G1 X72.337 Y70.784 E20.47838
G1 X69.216 Y67.663 E20.72024
G1 X68.905 Y67.973 E20.74431
G1 X72.027 Y71.095 E20.98617
G1 X71.716 Y71.405 E21.01023
G1 X68.595 Y68.284 E21.25209
G1 X68.284 Y68.595 E21.27616
G1 X71.405 Y71.716 E21.51802
G1 X71.095 Y72.027 E21.54209
G1 X67.973 Y68.905 E21.78395
G1 X67.663 Y69.216 E21.80802
G1 X70.784 Y72.337 E22.04988
G1 X70.474 Y72.648 E22.07394
G1 X67.352 Y69.526 E22.31580
G1 X67.042 Y69.837 E22.33987
G1 X70.163 Y72.959 E22.58173
G1 X67.367 Y70.163 E22.79835
G1 Z1.550 F7800.000
G1 X73.348 Y70.000 F7800.000
G1 F900
G1 X70.000 Y73.348 E23.04572
G1 X66.652 Y70.000 E23.29309
G1 X70.000 Y66.652 E23.54046
G1 X73.306 Y69.958 E23.78469
G1 X73.940 Y70.000 F7800.000
G1 F900
G1 X70.000 Y73.940 E24.07583
G1 X66.060 Y70.000 E24.36697
G1 X70.000 Y66.060 E24.65811
G1 X73.898 Y69.958 E24.94612
G1 X74.502 Y70.000 F7800.000
G1 F900
G1 X70.000 Y74.502 E25.24441
G1 X65.498 Y70.000 E25.54270
G1 X70.000 Y65.498 E25.84100
G1 X74.460 Y69.958 E26.13648
G1 X74.156 Y70.200 F7800.000
G1 X69.837 Y67.407 F7800.000
G1 F1200
G1 X67.081 Y70.163 E26.34694
G1 X70.163 Y67.082 E26.58228
G1 X70.469 Y67.388 E26.60567
G1 X67.388 Y70.469 E26.84101
G1 X67.694 Y70.775 E26.86440
G1 X70.775 Y67.694 E27.09974
G1 X71.081 Y68.000 E27.12312
G1 X68.000 Y71.081 E27.35847
G1 X68.306 Y71.388 E27.38185
G1 X71.388 Y68.306 E27.61720
G1 X71.694 Y68.612 E27.64058
G1 X68.612 Y71.694 E27.87592
G1 X68.919 Y72.000 E27.89931
G1 X72.000 Y68.919 E28.13465
G1 X72.306 Y69.225 E28.15804
G1 X69.225 Y72.306 E28.39338
G1 X69.531 Y72.612 E28.41676
G1 X72.612 Y69.531 E28.65211
G1 X72.918 Y69.837 E28.67549
G1 X69.837 Y72.918 E28.91084
G1 Z1.850 F7800.000
G1 X73.308 Y70.000 F7800.000
G1 F900
G1 X70.000 Y73.308 E29.15525
G1 X66.692 Y70.000 E29.39967
G1 X70.000 Y66.692 E29.64408
G1 X73.266 Y69.958 E29.88536
G1 X73.900 Y70.000 F7800.000
G1 F900
G1 X70.000 Y73.900 E30.17355
G1 X66.100 Y70.000 E30.46173
G1 X70.000 Y66.100 E30.74991
G1 X73.858 Y69.958 E31.03496
G1 X74.462 Y70.000 F7800.000
G1 F900
G1 X70.000 Y74.462 E31.33061
G1 X65.538 Y70.000 E31.62625
G1 X70.000 Y65.538 E31.92189
G1 X74.420 Y69.958 E32.21473
G1 X74.116 Y70.200 F7800.000
G1 X72.878 Y70.163 F7800.000
G1 F1200
G1 X69.837 Y67.122 E32.44364
G1 X69.535 Y67.423 E32.46635
G1 X72.577 Y70.465 E32.69527
G1 X72.275 Y70.766 E32.71798
G1 X69.234 Y67.725 E32.94690
G1 X68.932 Y68.027 E32.96961
G1 X71.973 Y71.068 E33.19852
G1 X71.672 Y71.370 E33.22123
G1 X68.630 Y68.328 E33.45015
G1 X68.328 Y68.630 E33.47286
G1 X71.370 Y71.672 E33.70178
G1 X71.068 Y71.973 E33.72449
G1 X68.027 Y68.932 E33.95340
G1 X67.725 Y69.234 E33.97611
G1 X70.766 Y72.275 E34.20503
G1 X70.465 Y72.577 E34.22774
G1 X67.423 Y69.535 E34.45666
G1 X67.122 Y69.837 E34.47937
G1 X70.163 Y72.879 E34.70828
G1 X67.447 Y70.163 E34.91268
G1 Z2.150 F7800.000
G1 X73.268 Y70.000 F7800.000
G1 F900
G1 X70.000 Y73.268 E35.15414
G1 X66.732 Y70.000 E35.39560
G1 X70.000 Y66.732 E35.63706
G1 X73.226 Y69.958 E35.87538
G1 X73.860 Y70.000 F7800.000
G1 F900
G1 X70.000 Y73.860 E36.16061
G1 X66.140 Y70.000 E36.44584
G1 X70.000 Y66.140 E36.73107
G1 X73.818 Y69.958 E37.01316
G1 X74.422 Y70.000 F7800.000
G1 F900
G1 X70.000 Y74.422 E37.30615
G1 X65.578 Y70.000 E37.59915
G1 X70.000 Y65.578 E37.89214
G1 X74.380 Y69.958 E38.18232
G1 X74.076 Y70.200 F7800.000
G1 X69.837 Y67.487 F7800.000
G1 F1200
G1 X67.161 Y70.163 E38.38074
G1 X70.163 Y67.162 E38.60332
G1 X70.460 Y67.459 E38.62537
G1 X67.459 Y70.460 E38.84795
G1 X67.756 Y70.758 E38.86999
G1 X70.758 Y67.756 E39.09257
G1 X71.055 Y68.053 E39.11462
G1 X68.053 Y71.055 E39.33719
G1 X68.351 Y71.352 E39.35924
G1 X71.352 Y68.351 E39.58182
G1 X71.649 Y68.648 E39.60386
G1 X68.648 Y71.649 E39.82644
G1 X68.945 Y71.947 E39.84849
G1 X71.947 Y68.945 E40.07107
G1 X72.244 Y69.242 E40.09311
G1 X69.242 Y72.244 E40.31569
G1 X69.540 Y72.541 E40.33774
G1 X72.541 Y69.540 E40.56032
G1 X72.838 Y69.837 E40.58236
G1 X69.837 Y72.838 E40.80494
M106 S249.9
G1 Z2.450 F7800.000
G1 X73.228 Y70.000 F7800.000
G1 F900
G1 X70.000 Y73.228 E41.04345
G1 X66.772 Y70.000 E41.28195
G1 X70.000 Y66.772 E41.52046
G1 X73.186 Y69.958 E41.75582
G1 X73.820 Y70.000 F7800.000
G1 F900
G1 X70.000 Y73.820 E42.03810
G1 X66.180 Y70.000 E42.32037
G1 X70.000 Y66.180 E42.60264
G1 X73.778 Y69.958 E42.88178
G1 X74.382 Y70.000 F7800.000
G1 F900
G1 X70.000 Y74.382 E43.17212
G1 X65.618 Y70.000 E43.46247
G1 X70.000 Y65.618 E43.75281
G1 X74.340 Y69.958 E44.04034
G1 X74.036 Y70.200 F7800.000
G1 X72.798 Y70.163 F7800.000
G1 F1200
G1 X69.837 Y67.202 E44.28371
G1 X69.508 Y67.531 E44.31079
G1 X72.469 Y70.492 E44.55416
G1 X72.140 Y70.822 E44.58123
G1 X69.178 Y67.860 E44.82460
G1 X68.849 Y68.190 E44.85167
G1 X71.810 Y71.151 E45.09505
G1 X71.481 Y71.481 E45.12212
G1 X68.519 Y68.519 E45.36549
G1 X68.190 Y68.849 E45.39256
G1 X71.151 Y71.810 E45.63593
G1 X70.822 Y72.140 E45.66301
G1 X67.860 Y69.178 E45.90638
G1 X67.531 Y69.508 E45.93345
G1 X70.492 Y72.469 E46.17682
G1 X70.163 Y72.798 E46.20389
G1 X67.202 Y69.837 E46.44727
G1 Z2.750 F7800.000
G1 X73.188 Y70.000 F7800.000
G1 F900
G1 X70.000 Y73.188 E46.68281
G1 X66.812 Y70.000 E46.91836
G1 X70.000 Y66.812 E47.15391
G1 X73.146 Y69.958 E47.38633
G1 X73.780 Y70.000 F7800.000
G1 F900
G1 X70.000 Y73.780 E47.66564
G1 X66.220 Y70.000 E47.94496
G1 X70.000 Y66.220 E48.22428
G1 X73.738 Y69.958 E48.50046
G1 X74.342 Y70.000 F7800.000
G1 F900
G1 X70.000 Y74.342 E48.78816
G1 X65.658 Y70.000 E49.07585
G1 X70.000 Y65.658 E49.36354
G1 X74.300 Y69.958 E49.64842
G1 X73.996 Y70.200 F7800.000
G1 X70.163 Y67.242 F7800.000
G1 F1200
G1 X67.242 Y70.163 E49.88486
G1 X67.566 Y70.487 E49.91112
G1 X70.487 Y67.566 E50.14756
G1 X70.812 Y67.890 E50.17382
G1 X67.890 Y70.812 E50.41026
G1 X68.215 Y71.136 E50.43651
G1 X71.136 Y68.215 E50.67295
G1 X71.461 Y68.539 E50.69921
G1 X68.539 Y71.461 E50.93565
G1 X68.864 Y71.785 E50.96191
G1 X71.785 Y68.864 E51.19835
G1 X72.110 Y69.188 E51.22461
G1 X69.188 Y72.110 E51.46105
G1 X69.513 Y72.434 E51.48730
G1 X72.434 Y69.513 E51.72374
G1 X72.758 Y69.837 E51.75000
G1 X69.837 Y72.758 E51.98644
G1 Z3.050 F7800.000
G1 X73.148 Y70.000 F7800.000
G1 F900
G1 X70.000 Y73.148 E52.21904
G1 X66.852 Y70.000 E52.45163
G1 X70.000 Y66.852 E52.68422
G1 X73.106 Y69.958 E52.91368
G1 X73.740 Y70.000 F7800.000
G1 F900
G1 X70.000 Y73.740 E53.19004
G1 X66.260 Y70.000 E53.46641
G1 X70.000 Y66.260 E53.74277
G1 X73.698 Y69.958 E54.01599
G1 X74.302 Y70.000 F7800.000
G1 F900
G1 X70.000 Y74.302 E54.30104
G1 X65.698 Y70.000 E54.58608
G1 X70.000 Y65.698 E54.87112
G1 X74.260 Y69.958 E55.15335
G1 X73.956 Y70.200 F7800.000
G1 X72.718 Y70.163 F7800.000
G1 F1200
G1 X69.837 Y67.282 E55.38296
G1 X69.518 Y67.601 E55.40842
G1 X72.399 Y70.482 E55.63803
G1 X72.080 Y70.802 E55.66348
G1 X69.198 Y67.920 E55.89309
G1 X68.879 Y68.240 E55.91854
G1 X71.760 Y71.121 E56.14815
G1 X71.441 Y71.441 E56.17361
G1 X68.559 Y68.559 E56.40322
G1 X68.240 Y68.879 E56.42867
G1 X71.121 Y71.760 E56.65828
G1 X70.802 Y72.080 E56.68373
G1 X67.920 Y69.198 E56.91334
G1 X67.601 Y69.518 E56.93880
G1 X70.482 Y72.399 E57.16841
G1 X70.163 Y72.718 E57.19386
G1 X67.282 Y69.837 E57.42347
G1 Z3.350 F7800.000
G1 X73.108 Y70.000 F7800.000
G1 F900
G1 X70.000 Y73.108 E57.65311
G1 X66.892 Y70.000 E57.88275
G1 X70.000 Y66.892 E58.11238
G1 X73.066 Y69.958 E58.33889
G1 X73.700 Y70.000 F7800.000
G1 F900
G1 X70.000 Y73.700 E58.61229
G1 X66.300 Y70.000 E58.88570
G1 X70.000 Y66.300 E59.15911
G1 X73.658 Y69.958 E59.42938
G1 X74.262 Y70.000 F7800.000
G1 F900
G1 X70.000 Y74.262 E59.71177
G1 X65.738 Y70.000 E59.99416
G1 X70.000 Y65.738 E60.27656
G1 X74.220 Y69.958 E60.55614
G1 X73.916 Y70.200 F7800.000
G1 X70.163 Y67.322 F7800.000
G1 F1200
G1 X67.322 Y70.163 E60.77901
G1 X67.636 Y70.477 E60.80368
G1 X70.477 Y67.636 E61.02656
G1 X70.792 Y67.950 E61.05122
G1 X67.950 Y70.792 E61.27410
G1 X68.265 Y71.106 E61.29876
G1 X71.106 Y68.265 E61.52164
G1 X71.421 Y68.579 E61.54630
G1 X68.579 Y71.421 E61.76918
G1 X68.894 Y71.735 E61.79384
G1 X71.735 Y68.894 E62.01672
G1 X72.050 Y69.208 E62.04138
G1 X69.208 Y72.050 E62.26426
G1 X69.523 Y72.364 E62.28893
G1 X72.364 Y69.523 E62.51180
G1 X72.678 Y69.837 E62.53647
G1 X69.837 Y72.678 E62.75934
G1 Z3.650 F7800.000
G1 X73.068 Y70.000 F7800.000
G1 F900
G1 X70.000 Y73.068 E62.98603
G1 X66.932 Y70.000 E63.21271
G1 X70.000 Y66.932 E63.43939
G1 X73.026 Y69.958 E63.66294
G1 X73.660 Y70.000 F7800.000
G1 F900
G1 X70.000 Y73.660 E63.93339
G1 X66.340 Y70.000 E64.20384
G1 X70.000 Y66.340 E64.47429
G1 X73.618 Y69.958 E64.74161
G1 X74.222 Y70.000 F7800.000
G1 F900
G1 X70.000 Y74.222 E65.02135
G1 X65.778 Y70.000 E65.30110
G1 X70.000 Y65.778 E65.58084
G1 X74.180 Y69.958 E65.85777
G1 X73.876 Y70.200 F7800.000
G1 X72.638 Y70.163 F7800.000
G1 F1200
G1 X69.837 Y67.362 E66.07401
G1 X69.528 Y67.671 E66.09790
G1 X72.329 Y70.472 E66.31415
G1 X72.020 Y70.782 E66.33803
G1 X69.218 Y67.980 E66.55428
G1 X68.909 Y68.290 E66.57816
G1 X71.710 Y71.091 E66.79441
G1 X71.401 Y71.401 E66.81830
G1 X68.599 Y68.599 E67.03454
G1 X68.290 Y68.909 E67.05843
G1 X71.091 Y71.710 E67.27467
G1 X70.782 Y72.020 E67.29856
G1 X67.980 Y69.218 E67.51480
G1 X67.671 Y69.528 E67.53869
G1 X70.472 Y72.329 E67.75494
G1 X70.163 Y72.638 E67.77882
G1 X67.362 Y69.837 E67.99507
G1 Z3.950 F7800.000
G1 X73.028 Y70.000 F7800.000
G1 F900
G1 X70.000 Y73.028 E68.21879
G1 X66.972 Y70.000 E68.44252
G1 X70.000 Y66.972 E68.66625
G1 X72.986 Y69.958 E68.88684
G1 X73.620 Y70.000 F7800.000
G1 F900
G1 X70.000 Y73.620 E69.15434
G1 X66.380 Y70.000 E69.42183
G1 X70.000 Y66.380 E69.68933
G1 X73.578 Y69.958 E69.95369
G1 X74.182 Y70.000 F7800.000
G1 F900
G1 X70.000 Y74.182 E70.23078
G1 X65.818 Y70.000 E70.50787
G1 X70.000 Y65.818 E70.78497
G1 X74.140 Y69.958 E71.05925
G1 X73.836 Y70.200 F7800.000
G1 X70.163 Y67.402 F7800.000
G1 F1200
G1 X67.402 Y70.163 E71.26896
G1 X67.706 Y70.467 E71.29208
G1 X70.467 Y67.706 E71.50180
G1 X70.772 Y68.010 E71.52492
G1 X68.010 Y70.772 E71.73463
G1 X68.315 Y71.076 E71.75775
G1 X71.076 Y68.315 E71.96746
G1 X71.381 Y68.619 E71.99058
G1 X68.619 Y71.381 E72.20030
G1 X68.924 Y71.685 E72.22342
G1 X71.685 Y68.924 E72.43313
G1 X71.990 Y69.228 E72.45625
G1 X69.228 Y71.990 E72.66597
G1 X69.533 Y72.294 E72.68909
G1 X72.294 Y69.533 E72.89880
G1 X72.598 Y69.837 E72.92192
G1 X69.837 Y72.598 E73.13163
G1 Z4.250 F7800.000
G1 X72.988 Y70.000 F7800.000
G1 F900
G1 X70.000 Y72.988 E73.35241
G1 X67.012 Y70.000 E73.57318
G1 X70.000 Y67.012 E73.79395
G1 X72.946 Y69.958 E74.01159
G1 X73.580 Y70.000 F7800.000
G1 F900
G1 X70.000 Y73.580 E74.27613
G1 X66.420 Y70.000 E74.54067
G1 X70.000 Y66.420 E74.80521
G1 X73.538 Y69.958 E75.06661
G1 X74.142 Y70.000 F7800.000
G1 F900
G1 X70.000 Y74.142 E75.34105
G1 X65.858 Y70.000 E75.61550
G1 X70.000 Y65.858 E75.88994
G1 X74.100 Y69.958 E76.16157
G1 X73.796 Y70.200 F7800.000
G1 X72.558 Y70.163 F7800.000
G1 F1200
G1 X69.837 Y67.442 E76.36485
G1 X69.538 Y67.741 E76.38722
G1 X72.259 Y70.462 E76.59050
G1 X71.960 Y70.762 E76.61287
G1 X69.238 Y68.040 E76.81615
G1 X68.939 Y68.340 E76.83852
