; generated by Slic3r 1.3.0 on 2022-07-09 at 11:13:34

; external perimeters extrusion width = 0.44mm (3.38mm^3/s)
; perimeters extrusion width = 0.48mm (7.54mm^3/s)
; infill extrusion width = 0.48mm (10.05mm^3/s)
; solid infill extrusion width = 0.48mm (2.51mm^3/s)
; top infill extrusion width = 0.48mm (1.88mm^3/s)
; support material extrusion width = 0.44mm (6.76mm^3/s)

M107
M104 S205 ; set temperature
G28 ; home all axes
G1 Z5 F5000 ; lift nozzle

; Filament gcode

M109 S205 ; set temperature and wait for it to be reached
G21 ; set units to millimeters
G90 ; use absolute coordinates
M82 ; use absolute distances for extrusion
G92 E0
G1 Z0.350 F7800.000
G1 E-2.00000 F2400.00000
G92 E0
G1 X24.811 Y38.427 F7800.000
G1 E2.00000 F2400.00000
G1 F1800
G1 X25.961 Y37.817 E2.11837
G1 X32.210 Y34.907 E2.74516
G1 X33.049 Y34.584 E2.82700
G1 X33.645 Y34.399 E2.88368
G1 X34.714 Y34.164 E2.98323
G1 X35.535 Y34.068 E3.05836
G1 X36.828 Y34.054 E3.17593
G1 X38.077 Y34.162 E3.29000
G1 X38.940 Y34.294 E3.36933
G1 X39.811 Y34.500 E3.45076
G1 X116.096 Y56.351 E10.66623
G1 X118.158 Y57.355 E10.87477
G1 X119.754 Y59.002 E11.08332
G1 X120.694 Y61.094 E11.29186
G1 X120.896 Y62.720 E11.44087
G1 X120.896 Y77.493 E12.78420
G1 X120.499 Y79.752 E12.99275
G1 X119.356 Y81.740 E13.20129
G1 X117.218 Y83.427 E13.44890
G1 X105.235 Y89.365 E14.66496
G1 X102.790 Y90.445 E14.90802
G1 X100.509 Y91.334 E15.13061
G1 X98.336 Y92.069 E15.33915
G1 X56.982 Y105.015 E19.27946
G1 X55.946 Y105.250 E19.37602
G1 X54.770 Y105.418 E19.48408
G1 X53.555 Y105.566 E19.59535
G1 X52.578 Y105.613 E19.68433
G1 X52.366 Y105.607 E19.70362
G1 X51.312 Y105.513 E19.79978
G1 X50.006 Y105.231 E19.92131
G1 X48.207 Y104.648 E20.09328
G1 X46.181 Y103.573 E20.30182
G1 X45.141 Y102.563 E20.43359
G1 X29.554 Y83.680 E22.66007
G1 X28.599 Y82.497 E22.79832
G1 X28.251 Y82.023 E22.85183
G1 X25.751 Y78.288 E23.26047
G1 X25.438 Y77.770 E23.31546
G1 X25.148 Y77.234 E23.37092
G1 X24.662 Y76.043 E23.48786
G1 X18.423 Y55.148 E25.47072
G1 X18.221 Y54.288 E25.55105
G1 X18.101 Y53.614 E25.61328
G1 X18.009 Y52.933 E25.67580
G1 X17.955 Y52.324 E25.73141
G1 X17.920 Y51.504 E25.80601
G1 X17.923 Y50.909 E25.86013
G1 X17.968 Y50.006 E25.94230
G1 X18.023 Y49.448 E25.99331
G1 X18.142 Y48.607 E26.07060
G1 X18.264 Y47.955 E26.13091
G1 X18.532 Y46.853 E26.23403
G1 X18.673 Y46.393 E26.27776
G1 X18.961 Y45.559 E26.35797
G1 X19.148 Y45.077 E26.40497
G1 X19.509 Y44.295 E26.48334
G1 X19.877 Y43.616 E26.55354
G1 X20.674 Y42.331 E26.69101
G1 X21.159 Y41.649 E26.76714
G1 X21.758 Y40.925 E26.85257
G1 X22.210 Y40.457 E26.91174
G1 X22.963 Y39.754 E27.00538
G1 X23.619 Y39.234 E27.08149
G1 X24.259 Y38.779 E27.15290
G1 X24.760 Y38.459 E27.20697
G1 E25.20697 F2400.00000
G92 E0
G1 X51.976 Y70.617 F7800.000
G1 E2.00000 F2400.00000
G1 F1800
G1 X54.510 Y72.659 E2.29596
G1 X56.366 Y73.994 E2.50378
G1 X58.316 Y75.220 E2.71324
G1 X60.512 Y76.370 E2.93864
G1 X61.768 Y76.895 E3.06245
G1 X63.055 Y77.309 E3.18539
G1 X64.363 Y77.597 E3.30717
G1 X65.685 Y77.772 E3.42843
G1 X66.955 Y77.850 E3.54413
G1 X68.231 Y77.858 E3.66018
G1 X70.733 Y77.759 E3.88783
G1 X74.661 Y77.531 E4.24559
G1 X78.518 Y77.447 E4.59637
G1 X82.364 Y77.606 E4.94645
G1 X84.295 Y77.739 E5.12238
G1 X86.274 Y77.819 E5.30248
G1 X88.238 Y77.749 E5.48124
G1 X90.173 Y77.447 E5.65930
G1 X91.224 Y77.165 E5.75825
G1 X92.239 Y76.810 E5.85603
G1 X94.101 Y75.937 E6.04301
G1 X95.876 Y74.851 E6.23219
G1 X97.544 Y73.634 E6.41994
G1 X99.169 Y72.304 E6.61091
G1 X100.733 Y70.932 E6.80008
G1 X102.529 Y69.303 E7.02057
G1 X104.798 Y67.289 E7.29642
G1 X105.740 Y66.517 E7.40722
G1 X106.709 Y65.799 E7.51684
G1 X107.786 Y65.134 E7.63198
G1 X108.304 Y64.882 E7.68429
G1 X108.849 Y64.674 E7.73734
G1 X109.410 Y64.521 E7.79027
G1 X109.975 Y64.422 E7.84240
G1 X111.229 Y64.326 E7.95679
G1 X112.672 Y64.316 E8.08795
G1 X112.672 Y76.420 E9.18861
G1 X109.846 Y77.754 E9.47269
G1 X104.383 Y80.618 E10.03356
G1 X101.634 Y81.970 E10.31221
G1 X99.750 Y82.803 E10.49951
G1 X97.831 Y83.557 E10.68694
G1 X95.882 Y84.218 E10.87406
G1 X93.907 Y84.776 E11.06070
G1 X91.909 Y85.221 E11.24684
G1 X89.897 Y85.540 E11.43210
G1 X87.849 Y85.725 E11.61903
G1 X85.782 Y85.770 E11.80702
G1 X84.158 Y85.728 E11.95476
G1 X82.509 Y85.650 E12.10486
G1 X79.884 Y85.569 E12.34370
G1 X77.251 Y85.678 E12.58331
G1 X74.673 Y86.019 E12.81978
G1 X72.113 Y86.554 E13.05754
G1 X69.839 Y87.137 E13.27099
G1 X62.951 Y89.032 E13.92066
G1 X61.400 Y89.550 E14.06934
G1 X60.343 Y89.936 E14.17167
G1 X59.320 Y90.384 E14.27319
G1 X58.297 Y90.873 E14.37626
G1 X56.933 Y91.792 E14.52584
G1 X56.482 Y92.119 E14.57644
G1 X55.638 Y92.770 E14.67343
G1 X54.061 Y94.043 E14.85769
G1 X53.366 Y94.557 E14.93633
G1 X53.077 Y94.743 E14.96756
G1 X52.781 Y94.901 E14.99803
G1 X50.695 Y93.577 E15.22271
G1 X45.682 Y84.982 E16.12742
G1 X45.143 Y83.885 E16.23865
G1 X44.808 Y82.860 E16.33665
G1 X44.586 Y81.622 E16.45102
G1 X44.551 Y80.521 E16.55114
G1 X44.597 Y79.883 E16.60932
G1 X44.640 Y79.617 E16.63387
G1 X51.938 Y70.663 E17.68423
G1 X51.867 Y69.782 F7800.000
G1 F1800
G1 X52.456 Y70.201 E17.75000
G1 X54.889 Y72.162 E18.03412
G1 X56.715 Y73.475 E18.23861
G1 X58.628 Y74.678 E18.44406
G1 X60.777 Y75.804 E18.66475
G1 X61.985 Y76.308 E18.78369
G1 X63.218 Y76.705 E18.90155
G1 X64.472 Y76.981 E19.01823
G1 X65.745 Y77.150 E19.13506
G1 X66.976 Y77.225 E19.24720
G1 X68.221 Y77.233 E19.36039
G1 X70.702 Y77.135 E19.58621
G1 X74.636 Y76.906 E19.94448
G1 X78.524 Y76.821 E20.29808
G1 X82.399 Y76.982 E20.65073
G1 X84.329 Y77.115 E20.82664
G1 X86.275 Y77.193 E21.00377
G1 X88.179 Y77.125 E21.17699
G1 X90.044 Y76.835 E21.34860
G1 X91.040 Y76.567 E21.44237
G1 X92.003 Y76.230 E21.53515
G1 X93.805 Y75.386 E21.71609
G1 X95.528 Y74.331 E21.89980
G1 X97.161 Y73.139 E22.08368
G1 X98.765 Y71.827 E22.27209
G1 X100.317 Y70.466 E22.45982
G1 X102.112 Y68.838 E22.68013
G1 X104.392 Y66.814 E22.95740
G1 X105.356 Y66.024 E23.07072
G1 X106.358 Y65.281 E23.18414
G1 X107.485 Y64.586 E23.30453
G1 X108.055 Y64.308 E23.36215
G1 X108.654 Y64.079 E23.42055
G1 X109.274 Y63.910 E23.47892
G1 X109.897 Y63.801 E23.53643
G1 X111.203 Y63.701 E23.65558
G1 X113.297 Y63.691 E23.84592
G1 X113.297 Y76.840 E25.04159
G1 X112.911 Y76.998 E25.07944
G1 X110.125 Y78.313 E25.35963
G1 X104.666 Y81.175 E25.92003
G1 X101.898 Y82.537 E26.20057
G1 X99.990 Y83.380 E26.39023
G1 X98.046 Y84.144 E26.58019
G1 X96.068 Y84.815 E26.77012
G1 X94.060 Y85.382 E26.95984
G1 X92.026 Y85.835 E27.14933
G1 X89.974 Y86.160 E27.33826
G1 X87.884 Y86.349 E27.52903
G1 X85.781 Y86.395 E27.72033
G1 X84.135 Y86.352 E27.87002
G1 X82.485 Y86.275 E28.02026
G1 X79.887 Y86.194 E28.25659
G1 X77.305 Y86.301 E28.49157
G1 X74.778 Y86.636 E28.72337
G1 X72.255 Y87.163 E28.95774
G1 X70.000 Y87.741 E29.16941
G1 X63.133 Y89.630 E29.81705
G1 X61.606 Y90.140 E29.96340
G1 X60.575 Y90.517 E30.06318
G1 X59.580 Y90.952 E30.16198
G1 X58.608 Y91.417 E30.25990
G1 X57.291 Y92.304 E30.40434
G1 X56.857 Y92.619 E30.45314
G1 X56.025 Y93.260 E30.54864
G1 X54.443 Y94.537 E30.73346
G1 X53.721 Y95.071 E30.81514
G1 X53.394 Y95.282 E30.85050
G1 X53.022 Y95.481 E30.88887
G1 X52.916 Y95.523 E30.89929
G1 X52.887 Y95.506 E30.90230
G1 X52.640 Y95.552 E30.92520
G1 X50.236 Y94.030 E31.18388
G1 X45.131 Y85.278 E32.10518
G1 X44.563 Y84.120 E32.22245
G1 X44.201 Y83.013 E32.32840
G1 X43.963 Y81.688 E32.45083
G1 X43.925 Y80.509 E32.55806
G1 X43.976 Y79.812 E32.62163
G1 X44.049 Y79.352 E32.66391
G1 X51.826 Y69.825 E33.78220
G1 X51.719 Y69.146 F7800.000
G1 F1800
G1 X51.931 Y69.140 E33.80155
G1 X52.176 Y69.237 E33.82546
G1 X52.389 Y69.372 E33.84838
G1 X52.839 Y69.707 E33.89944
G1 X55.268 Y71.665 E34.18309
G1 X57.064 Y72.957 E34.38424
G1 X58.939 Y74.135 E34.58568
G1 X61.043 Y75.238 E34.80167
G1 X62.201 Y75.721 E34.91574
G1 X63.382 Y76.101 E35.02852
G1 X64.580 Y76.365 E35.14010
G1 X65.805 Y76.527 E35.25249
G1 X66.997 Y76.600 E35.36107
G1 X68.211 Y76.608 E35.47141
G1 X70.672 Y76.510 E35.69540
G1 X74.611 Y76.282 E36.05417
G1 X78.530 Y76.196 E36.41059
G1 X82.433 Y76.358 E36.76581
G1 X84.363 Y76.490 E36.94170
G1 X86.277 Y76.568 E37.11586
G1 X88.119 Y76.502 E37.28353
G1 X89.914 Y76.223 E37.44870
G1 X90.855 Y75.970 E37.53729
G1 X91.766 Y75.651 E37.62507
G1 X93.508 Y74.835 E37.79997
G1 X95.180 Y73.812 E37.97821
G1 X96.779 Y72.645 E38.15822
G1 X98.361 Y71.351 E38.34408
G1 X99.901 Y70.000 E38.53035
G1 X101.694 Y68.373 E38.75050
G1 X103.986 Y66.338 E39.02919
G1 X104.972 Y65.531 E39.14502
G1 X106.007 Y64.763 E39.26225
G1 X107.183 Y64.038 E39.38788
G1 X107.806 Y63.735 E39.45082
G1 X108.460 Y63.484 E39.51455
G1 X109.137 Y63.300 E39.57837
G1 X109.819 Y63.180 E39.64127
G1 X111.177 Y63.077 E39.76516
G1 X113.921 Y63.069 E40.01469
G1 X113.921 Y77.259 E41.30501
G1 X113.164 Y77.570 E41.37949
G1 X110.403 Y78.873 E41.65703
G1 X104.949 Y81.732 E42.21697
G1 X102.162 Y83.103 E42.49941
G1 X100.231 Y83.957 E42.69141
G1 X98.261 Y84.731 E42.88391
G1 X96.253 Y85.412 E43.07667
G1 X94.213 Y85.988 E43.26946
G1 X92.143 Y86.449 E43.46230
G1 X90.051 Y86.781 E43.65488
G1 X87.919 Y86.973 E43.84950
G1 X85.780 Y87.020 E44.04410
G1 X84.112 Y86.977 E44.19575
G1 X82.460 Y86.899 E44.34614
G1 X79.890 Y86.819 E44.57996
G1 X77.359 Y86.924 E44.81031
G1 X74.883 Y87.252 E45.03743
G1 X72.396 Y87.772 E45.26841
G1 X70.160 Y88.345 E45.47831
G1 X63.315 Y90.228 E46.12391
G1 X61.812 Y90.730 E46.26794
G1 X60.808 Y91.097 E46.36517
G1 X59.840 Y91.520 E46.46125
G1 X58.919 Y91.960 E46.55403
G1 X57.649 Y92.817 E46.69332
G1 X57.231 Y93.120 E46.74031
G1 X56.412 Y93.751 E46.83432
G1 X54.825 Y95.032 E47.01971
G1 X54.076 Y95.586 E47.10443
G1 X53.711 Y95.821 E47.14391
G1 X53.286 Y96.049 E47.18780
G1 X53.031 Y96.150 E47.21268
G1 X52.816 Y96.195 E47.23269
G1 X52.766 Y96.164 E47.23806
G1 X52.511 Y96.211 E47.26162
G1 X50.261 Y94.774 E47.50439
G1 X49.777 Y94.483 E47.55572
G1 X44.580 Y85.574 E48.49361
G1 X43.982 Y84.356 E48.61693
G1 X43.594 Y83.166 E48.73081
G1 X43.340 Y81.753 E48.86131
G1 X43.300 Y80.496 E48.97566
G1 X43.355 Y79.740 E49.04463
G1 X43.458 Y79.088 E49.10463
G1 X51.270 Y69.504 E50.22892
G1 X51.527 Y69.231 E50.26302
G1 X51.664 Y69.170 E50.27663
G1 X51.762 Y69.182 F7800.000
G1 E48.27663 F2400.00000
G92 E0
G1 X52.311 Y71.250 F7800.000
G1 E2.00000 F2400.00000
G1 F1800
G1 X51.824 Y71.737 E2.06350
G1 X47.872 Y76.585 E2.64005
G1 X52.807 Y71.650 E3.28341
G1 X53.303 Y72.050 E3.34215
G1 X44.961 Y80.392 E4.42970
G1 X44.933 Y80.777 E4.46533
G1 X44.950 Y81.299 E4.51345
G1 X53.799 Y72.450 E5.66714
G1 X54.295 Y72.850 E5.72588
G1 X45.024 Y82.121 E6.93462
G1 X45.160 Y82.881 E7.00577
G1 X54.812 Y73.229 E8.26416
G1 X55.333 Y73.604 E8.32334
G1 X45.373 Y83.564 E9.62192
G1 X45.480 Y83.892 E9.65371
G1 X45.632 Y84.201 E9.68547
G1 X55.855 Y73.978 E11.01824
G1 X56.382 Y74.347 E11.07756
G1 X45.927 Y84.802 E12.44063
G1 X46.250 Y85.375 E12.50128
G1 X56.932 Y74.693 E13.89403
G1 X57.483 Y75.038 E13.95394
G1 X46.580 Y85.941 E15.37538
G1 X46.910 Y86.507 E15.43577
G1 X58.033 Y75.384 E16.88591
G1 X58.606 Y75.707 E16.94656
G1 X47.240 Y87.073 E18.42840
G1 X47.570 Y87.639 E18.48879
G1 X59.194 Y76.015 E20.00425
G1 X59.782 Y76.323 E20.06544
G1 X47.900 Y88.204 E21.61451
G1 X48.230 Y88.770 E21.67490
G1 X60.370 Y76.631 E23.25759
G1 X60.993 Y76.904 E23.32030
G1 X48.560 Y89.336 E24.94118
G1 X48.891 Y89.902 E25.00158
G1 X61.625 Y77.168 E26.66183
G1 X62.291 Y77.398 E26.72676
G1 X49.221 Y90.468 E28.43075
G1 X49.551 Y91.034 E28.49115
G1 X62.968 Y77.616 E30.24048
G1 X63.135 Y77.670 E30.25660
G1 X63.689 Y77.792 E30.30889
G1 X49.881 Y91.600 E32.10910
G1 X50.211 Y92.166 E32.16950
G1 X64.423 Y77.954 E34.02240
G1 X65.208 Y78.064 E34.09551
G1 X50.541 Y92.731 E36.00777
G1 X50.871 Y93.297 E36.06816
G1 X66.008 Y78.160 E38.04168
G1 X66.853 Y78.212 E38.11968
G1 X51.390 Y93.675 E40.13568
G1 X51.938 Y94.023 E40.19553
G1 X67.726 Y78.235 E42.25386
G1 X68.622 Y78.234 E42.33650
G1 X52.486 Y94.371 E44.44026
G1 X52.561 Y94.418 E44.44848
G1 X53.436 Y93.791 E44.54770
G1 X55.008 Y92.522 E44.73393
G1 X55.960 Y91.793 E44.84451
G1 X69.555 Y78.197 E46.61700
G1 X70.488 Y78.160 E46.70307
G1 X58.382 Y90.266 E48.28138
G1 X58.817 Y90.058 E48.32581
G1 X59.990 Y89.554 E48.44353
G1 X71.429 Y78.115 E49.93488
G1 X72.380 Y78.060 E50.02271
G1 X61.381 Y89.060 E51.45676
G1 X62.710 Y88.626 E51.58566
G1 X73.331 Y78.005 E52.97040
G1 X74.282 Y77.950 E53.05823
G1 X63.946 Y88.286 E54.40583
G1 X65.182 Y87.946 E54.52400
G1 X75.222 Y77.906 E55.83300
G1 X76.138 Y77.886 E55.91747
G1 X66.418 Y87.606 E57.18475
G1 X67.654 Y87.266 E57.30293
G1 X77.054 Y77.866 E58.52849
G1 X77.970 Y77.846 E58.61296
G1 X68.890 Y86.926 E59.79682
G1 X70.108 Y86.604 E59.91303
G1 X78.878 Y77.834 E61.05639
G1 X79.739 Y77.869 E61.13578
G1 X71.313 Y86.295 E62.23423
G1 X72.471 Y86.033 E62.34362
G1 X80.599 Y77.905 E63.40335
G1 X81.459 Y77.941 E63.48273
G1 X73.603 Y85.797 E64.50699
G1 X74.325 Y85.646 E64.57495
G1 X74.699 Y85.596 E64.60979
G1 X82.320 Y77.976 E65.60329
G1 X83.164 Y78.027 E65.68131
G1 X75.732 Y85.460 E66.65029
G1 X76.765 Y85.323 E66.74634
G1 X84.003 Y78.085 E67.68996
G1 X84.850 Y78.134 E67.76821
G1 X77.718 Y85.266 E68.69811
G1 X78.653 Y85.227 E68.78437
G1 X85.711 Y78.168 E69.70465
G1 X86.577 Y78.199 E69.78450
G1 X79.587 Y85.188 E70.69576
G1 X80.460 Y85.212 E70.77621
G1 X87.506 Y78.166 E71.69487
G1 X88.435 Y78.133 E71.78058
G1 X81.329 Y85.239 E72.70709
G1 X82.197 Y85.266 E72.78723
G1 X89.481 Y77.982 E73.73688
G1 X90.543 Y77.817 E73.83591
G1 X83.055 Y85.305 E74.81217
G1 X83.911 Y85.345 E74.89116
G1 X91.782 Y77.474 E75.91736
G1 X92.719 Y77.146 E76.00886
G1 X93.259 Y76.893 E76.06387
G1 X84.783 Y85.368 E77.16887
G1 X85.662 Y85.385 E77.24991
G1 X95.057 Y75.990 E78.47481
G1 X96.466 Y75.128 E78.62712
G1 X97.758 Y74.185 E78.77452
G1 X86.578 Y85.365 E80.23210
G1 X87.494 Y85.345 E80.31657
G1 X104.300 Y68.539 E82.50763
G1 X105.446 Y67.522 E82.64896
G1 X106.367 Y66.767 E82.75875
G1 X107.303 Y66.074 E82.86603
G1 X108.240 Y65.495 E82.96759
G1 X88.473 Y85.262 E85.54468
G1 X89.458 Y85.173 E85.63585
G1 X109.726 Y64.906 E88.27820
G1 X110.296 Y64.799 E88.33167
G1 X110.764 Y64.764 E88.37493
G1 X90.514 Y85.014 E91.01503
G1 X91.581 Y84.842 E91.11468
G1 X111.717 Y64.706 E93.73994
G1 X112.290 Y64.702 E93.79273
G1 X112.290 Y65.029 E93.82291
G1 X92.733 Y84.586 E96.37260
G1 X93.511 Y84.413 E96.44607
G1 X93.917 Y84.298 E96.48492
G1 X112.290 Y65.925 E98.88030
G1 X112.290 Y66.821 E98.96290
G1 X95.166 Y83.946 E101.19548
G1 X96.497 Y83.511 E101.32458
G1 X112.290 Y67.717 E103.38362
G1 X112.290 Y68.613 E103.46622
G1 X97.895 Y83.008 E105.34295
G1 X99.381 Y82.418 E105.49031
G1 X112.290 Y69.509 E107.17334
G1 X112.290 Y70.405 E107.25594
G1 X100.986 Y81.709 E108.72965
G1 X102.736 Y80.855 E108.90914
G1 X112.290 Y71.301 E110.15472
G1 X112.290 Y72.197 E110.23732
G1 X104.543 Y79.944 E111.24730
G1 X106.426 Y78.957 E111.44331
G1 X112.290 Y73.093 E112.20778
G1 X112.290 Y73.989 E112.29038
G1 X108.309 Y77.970 E112.80933
G1 X109.325 Y77.437 E112.91504
G1 X110.107 Y77.068 E112.99474
G1 X112.290 Y74.885 E113.27937
G1 X112.290 Y75.781 E113.36197
G1 X111.803 Y76.267 E113.42537
G1 Z0.350 F7800.000
G1 E111.42537 F2400.00000
G92 E0
G1 X66.638 Y91.302 F7800.000
G1 E2.00000 F2400.00000
G1 F1800
G1 X66.498 Y90.798 E2.02775
G1 X66.235 Y90.870 E2.04226
G1 X66.325 Y91.026 E2.05183
G1 X65.995 Y91.598 E2.08688
G1 X65.335 Y91.598 E2.12192
G1 X65.095 Y91.183 E2.14739
G1 X64.325 Y91.394 E2.18978
G1 X64.415 Y91.550 E2.19935
G1 X64.085 Y92.121 E2.23439
G1 X63.425 Y92.121 E2.26944
G1 X63.201 Y91.733 E2.29323
G1 X62.500 Y91.963 E2.33243
G1 X62.659 Y92.240 E2.34939
G1 X62.329 Y92.811 E2.38443
G1 X62.181 Y92.811 E2.39229
G1 X62.374 Y93.416 F7800.000
G1 F1800
G1 X62.390 Y93.444 E2.39401
G1 X62.505 Y93.410 E2.40037
G1 X62.407 Y93.240 E2.41075
G1 X62.737 Y92.669 E2.44579
G1 X63.397 Y92.669 E2.48084
G1 X63.629 Y93.071 E2.50550
G1 X64.397 Y92.840 E2.54808
G1 X64.307 Y92.683 E2.55770
G1 X64.637 Y92.112 E2.59274
G1 X65.297 Y92.112 E2.62778
G1 X65.535 Y92.525 E2.65312
G1 X66.305 Y92.308 E2.69560
G1 X66.213 Y92.148 E2.70539
G1 X66.254 Y92.077 E2.70977
G1 X66.137 Y91.873 E2.72225
G1 X66.467 Y91.302 E2.75730
G1 X66.638 Y91.302 E2.76639
G1 E0.76639 F2400.00000
G92 E0
G1 X60.774 Y93.051 F7800.000
G1 E2.00000 F2400.00000
G1 F1800
G1 X60.577 Y92.710 E2.02092
