; generated by Slic3r 1.3.0 on 2022-07-09 at 11:50:49

; external perimeters extrusion width = 0.44mm (3.38mm^3/s)
; perimeters extrusion width = 0.48mm (7.54mm^3/s)
; infill extrusion width = 0.48mm (10.05mm^3/s)
; solid infill extrusion width = 0.48mm (2.51mm^3/s)
; top infill extrusion width = 0.48mm (1.88mm^3/s)
; support material extrusion width = 0.44mm (6.76mm^3/s)

M107
M104 S205 ; set temperature
G28 ; home all axes
G1 Z5 F5000 ; lift nozzle

; Filament gcode

M109 S205 ; set temperature and wait for it to be reached
G21 ; set units to millimeters
G90 ; use absolute coordinates
M82 ; use absolute distances for extrusion
G92 E0
G1 Z0.350 F7800.000
G1 E-2.00000 F2400.00000
G92 E0
G1 X42.553 Y24.217 F7800.000
G1 E2.00000 F2400.00000
G1 F1800
G1 X43.302 Y23.133 E2.11982
G1 X44.182 Y22.101 E2.24316
G1 X46.682 Y19.718 E2.55718
G1 X48.175 Y18.647 E2.72424
G1 X49.808 Y17.789 E2.89201
G1 X51.301 Y17.223 E3.03721
G1 X53.558 Y16.671 E3.24851
G1 X66.897 Y13.691 E4.49130
G1 X69.444 Y13.149 E4.72803
G1 X70.821 Y13.005 E4.85396
G1 X73.904 Y13.065 E5.13432
G1 X75.127 Y13.208 E5.24627
G1 X77.671 Y13.753 E5.48285
G1 X79.099 Y14.108 E5.61665
G1 X80.566 Y14.665 E5.75939
G1 X91.814 Y20.541 E6.91334
G1 X92.328 Y20.840 E6.96739
G1 X93.824 Y21.801 E7.12909
G1 X95.249 Y23.036 E7.30055
G1 X96.253 Y24.194 E7.43990
G1 X97.432 Y26.162 E7.64844
G1 X97.871 Y28.533 E7.86772
G1 X97.861 Y29.402 E7.94676
G1 X93.289 Y112.744 E15.53645
G1 X93.231 Y113.324 E15.58943
G1 X93.025 Y114.759 E15.72123
G1 X92.494 Y116.568 E15.89269
G1 X91.838 Y118.004 E16.03618
G1 X90.819 Y119.590 E16.20763
G1 X89.930 Y120.616 E16.33109
G1 X89.078 Y121.438 E16.43872
G1 X88.623 Y121.804 E16.49180
G1 X88.051 Y122.216 E16.55592
G1 X87.481 Y122.583 E16.61758
G1 X86.919 Y122.906 E16.67647
G1 X86.205 Y123.272 E16.74949
G1 X85.051 Y123.732 E16.86245
G1 X83.804 Y124.098 E16.98061
G1 X81.937 Y124.367 E17.15207
G1 X80.359 Y124.367 E17.29562
G1 X78.492 Y124.098 E17.46708
G1 X77.246 Y123.732 E17.58523
G1 X76.092 Y123.272 E17.69820
G1 X75.377 Y122.906 E17.77121
G1 X74.816 Y122.583 E17.83010
G1 X74.246 Y122.217 E17.89167
G1 X73.673 Y121.804 E17.95588
G1 X73.218 Y121.438 E18.00896
G1 X72.366 Y120.616 E18.11661
G1 X71.477 Y119.590 E18.24005
G1 X70.458 Y118.004 E18.41151
G1 X69.802 Y116.568 E18.55500
G1 X69.596 Y116.063 E18.60462
G1 X40.987 Y36.702 E26.27549
G1 X40.642 Y35.253 E26.41085
G1 X40.375 Y33.052 E26.61245
G1 X40.375 Y31.456 E26.75766
G1 X40.643 Y29.255 E26.95926
G1 X41.025 Y27.704 E27.10447
G1 X41.811 Y25.631 E27.30605
G1 X42.525 Y24.270 E27.44582
G1 E25.44582 F2400.00000
G92 E0
G1 X84.648 Y42.933 F7800.000
G1 E2.00000 F2400.00000
G1 F1800
G1 X81.251 Y110.031 E8.10901
G1 X80.907 Y110.042 E8.14036
G1 X73.168 Y44.267 E14.16251
G1 X73.254 Y44.168 E14.17445
G1 X78.517 Y39.343 E14.82367
G1 X79.023 Y40.478 E14.93660
G1 X80.980 Y42.241 E15.17615
G1 X83.486 Y43.055 E15.41570
G1 X84.589 Y42.939 E15.51654
G1 X85.309 Y42.235 F7800.000
G1 F1800
G1 X81.769 Y112.160 E21.88293
G1 X81.731 Y112.425 E21.90731
G1 X81.659 Y112.582 E21.92302
G1 X81.546 Y112.713 E21.93874
G1 X81.400 Y112.807 E21.95446
G1 X81.235 Y112.855 E21.97018
G1 X81.062 Y112.855 E21.98589
G1 X80.896 Y112.807 E22.00161
G1 X80.750 Y112.713 E22.01733
G1 X80.637 Y112.582 E22.03305
G1 X80.565 Y112.425 E22.04876
G1 X80.523 Y112.128 E22.07609
G1 X72.539 Y44.267 E28.28922
G1 X72.565 Y44.083 E28.30610
G1 X72.637 Y43.926 E28.32181
G1 X72.806 Y43.732 E28.34518
G1 X78.735 Y38.296 E29.07661
G1 X79.539 Y40.103 E29.25641
G1 X81.300 Y41.688 E29.47181
G1 X83.553 Y42.420 E29.68720
G1 X85.250 Y42.241 E29.84237
G1 X85.977 Y41.411 F7800.000
G1 F1800
G1 X82.392 Y112.220 E36.28929
G1 X82.337 Y112.603 E36.32445
G1 X82.190 Y112.924 E36.35651
G1 X81.959 Y113.190 E36.38856
G1 X81.663 Y113.381 E36.42062
G1 X81.324 Y113.480 E36.45268
G1 X80.972 Y113.480 E36.48473
G1 X80.634 Y113.381 E36.51679
G1 X80.337 Y113.190 E36.54885
G1 X80.106 Y112.924 E36.58090
G1 X79.960 Y112.603 E36.61296
G1 X79.903 Y112.209 E36.64918
G1 X71.909 Y44.259 E42.87047
G1 X71.960 Y43.905 E42.90294
G1 X72.106 Y43.584 E42.93500
G1 X72.357 Y43.295 E42.96980
G1 X79.201 Y37.022 E43.81403
G1 X79.201 Y37.806 E43.88533
G1 X80.056 Y39.727 E44.07657
G1 X81.619 Y41.134 E44.26781
G1 X83.619 Y41.784 E44.45905
G1 X85.711 Y41.564 E44.65029
G1 X85.925 Y41.441 E44.67274
G1 X85.783 Y41.761 F7800.000
G1 E42.67274 F2400.00000
G92 E0
G1 X73.584 Y44.734 F7800.000
G1 E2.00000 F2400.00000
G1 F1800
G1 X74.070 Y44.248 E2.06294
G1 X78.543 Y40.148 E2.61853
G1 X78.702 Y40.505 E2.65439
G1 X73.675 Y45.533 E3.30538
G1 X73.768 Y46.329 E3.37878
G1 X79.137 Y40.960 E4.07398
G1 X79.605 Y41.382 E4.13168
G1 X73.862 Y47.125 E4.87539
G1 X73.956 Y47.921 E4.94879
G1 X80.074 Y41.803 E5.74100
G1 X80.542 Y42.225 E5.79870
G1 X74.049 Y48.718 E6.63942
G1 X74.143 Y49.514 E6.71282
G1 X81.056 Y42.601 E7.60802
G1 X81.728 Y42.819 E7.67268
G1 X74.237 Y50.310 E8.64272
G1 X74.330 Y51.106 E8.71613
G1 X82.400 Y43.037 E9.76101
G1 X83.071 Y43.255 E9.82568
G1 X74.424 Y51.902 E10.94540
G1 X74.518 Y52.699 E11.01881
G1 X83.782 Y43.435 E12.21841
G1 X84.230 Y43.387 E12.25972
G1 X84.204 Y43.902 E12.30688
G1 X74.611 Y53.495 E13.54907
G1 X74.705 Y54.291 E13.62248
G1 X84.157 Y44.839 E14.84640
G1 X84.110 Y45.777 E14.93233
G1 X74.799 Y55.087 E16.13797
G1 X74.892 Y55.884 E16.21138
G1 X84.062 Y46.714 E17.39875
G1 X84.015 Y47.651 E17.48468
G1 X74.986 Y56.680 E18.65378
G1 X75.080 Y57.476 E18.72718
G1 X83.967 Y48.589 E19.87800
G1 X83.920 Y49.526 E19.96394
G1 X75.173 Y58.272 E21.09648
G1 X75.267 Y59.068 E21.16988
G1 X83.872 Y50.463 E22.28415
G1 X83.825 Y51.401 E22.37009
G1 X75.361 Y59.865 E23.46608
G1 X75.455 Y60.661 E23.53948
G1 X83.777 Y52.338 E24.61720
G1 X83.730 Y53.275 E24.70313
G1 X75.548 Y61.457 E25.76257
G1 X75.642 Y62.253 E25.83598
G1 X83.682 Y54.213 E26.87715
G1 X83.635 Y55.150 E26.96308
G1 X75.736 Y63.049 E27.98597
G1 X75.829 Y63.846 E28.05938
G1 X83.587 Y56.087 E29.06399
G1 X83.540 Y57.025 E29.14993
G1 X75.923 Y64.642 E30.13627
G1 X76.017 Y65.438 E30.20967
G1 X83.493 Y57.962 E31.17774
G1 X83.445 Y58.899 E31.26368
G1 X76.110 Y66.234 E32.21346
G1 X76.204 Y67.031 E32.28687
G1 X83.398 Y59.837 E33.21838
G1 X83.350 Y60.774 E33.30432
G1 X76.298 Y67.827 E34.21756
G1 X76.391 Y68.623 E34.29097
G1 X83.303 Y61.711 E35.18593
G1 X83.255 Y62.649 E35.27186
G1 X76.485 Y69.419 E36.14855
G1 X76.579 Y70.215 E36.22196
G1 X83.208 Y63.586 E37.08037
G1 X83.160 Y64.524 E37.16631
G1 X76.672 Y71.012 E38.00644
G1 X76.766 Y71.808 E38.07985
G1 X83.113 Y65.461 E38.90171
G1 X83.065 Y66.398 E38.98765
G1 X76.860 Y72.604 E39.79124
G1 X76.953 Y73.400 E39.86464
G1 X83.018 Y67.336 E40.64995
G1 X82.970 Y68.273 E40.73589
G1 X77.047 Y74.196 E41.50293
G1 X77.141 Y74.993 E41.57633
G1 X82.923 Y69.210 E42.32509
G1 X82.876 Y70.148 E42.41103
G1 X77.234 Y75.789 E43.14152
G1 X77.328 Y76.585 E43.21492
G1 X82.828 Y71.085 E43.92713
G1 X82.781 Y72.022 E44.01307
G1 X77.422 Y77.381 E44.70700
G1 X77.515 Y78.177 E44.78041
G1 X82.733 Y72.960 E45.45607
G1 X82.686 Y73.897 E45.54201
G1 X77.609 Y78.974 E46.19939
G1 X77.703 Y79.770 E46.27280
G1 X82.638 Y74.834 E46.91191
G1 X82.591 Y75.772 E46.99784
G1 X77.796 Y80.566 E47.61868
G1 X77.890 Y81.362 E47.69208
G1 X82.543 Y76.709 E48.29464
G1 X82.496 Y77.646 E48.38058
G1 X77.984 Y82.159 E48.96486
G1 X78.077 Y82.955 E49.03827
G1 X82.448 Y78.584 E49.60428
G1 X82.401 Y79.521 E49.69021
G1 X78.171 Y83.751 E50.23795
G1 X78.265 Y84.547 E50.31135
G1 X82.353 Y80.458 E50.84081
G1 X82.306 Y81.396 E50.92675
G1 X78.358 Y85.343 E51.43793
G1 X78.452 Y86.140 E51.51133
G1 X82.259 Y82.333 E52.00424
G1 X82.211 Y83.270 E52.09018
G1 X78.546 Y86.936 E52.56481
G1 X78.639 Y87.732 E52.63822
G1 X82.164 Y84.208 E53.09457
G1 X82.116 Y85.145 E53.18051
G1 X78.733 Y88.528 E53.61859
G1 X78.827 Y89.324 E53.69200
G1 X82.069 Y86.082 E54.11180
G1 X82.021 Y87.020 E54.19774
G1 X78.920 Y90.121 E54.59927
G1 X79.014 Y90.917 E54.67268
G1 X81.974 Y87.957 E55.05593
G1 X81.926 Y88.895 E55.14187
G1 X79.108 Y91.713 E55.50685
G1 X79.201 Y92.509 E55.58025
G1 X81.879 Y89.832 E55.92696
G1 X81.831 Y90.769 E56.01290
G1 X79.295 Y93.306 E56.34133
G1 X79.389 Y94.102 E56.41473
G1 X81.784 Y91.707 E56.72489
G1 X81.736 Y92.644 E56.81082
G1 X79.482 Y94.898 E57.10270
G1 X79.576 Y95.694 E57.17611
G1 X81.689 Y93.581 E57.44971
G1 X81.642 Y94.519 E57.53565
G1 X79.670 Y96.490 E57.79098
G1 X79.763 Y97.287 E57.86438
G1 X81.594 Y95.456 E58.10144
G1 X81.547 Y96.393 E58.18737
G1 X79.857 Y98.083 E58.40615
G1 X79.951 Y98.879 E58.47956
G1 X81.499 Y97.331 E58.68006
G1 X81.452 Y98.268 E58.76600
G1 X80.044 Y99.675 E58.94822
G1 X80.138 Y100.471 E59.02163
G1 X81.404 Y99.205 E59.18558
G1 X81.357 Y100.143 E59.27152
G1 X80.232 Y101.268 E59.41720
G1 X80.325 Y102.064 E59.49060
G1 X81.309 Y101.080 E59.61801
G1 X81.262 Y102.017 E59.70394
G1 X80.776 Y102.504 E59.76690
G1 X80.841 Y102.892 F7800.000
G1 F1800
G1 X80.862 Y103.518 E59.83708
G1 F1800
G1 X80.883 Y104.143 E59.89859
G1 F1800
G1 X80.904 Y104.769 E59.95142
G1 F1800
G1 X80.924 Y105.395 E59.99559
G1 F1800
G1 X80.945 Y106.021 E60.03108
G1 F1800
G1 X80.966 Y106.647 E60.05791
G1 F1800
G1 X80.987 Y107.273 E60.07606
G1 F1800
G1 X81.008 Y107.898 E60.08554
G1 E58.08554 F2400.00000
G92 E0
G1 X81.089 Y110.349 F7800.000
G1 E2.00000 F2400.00000
G1 F1800
G1 X81.100 Y110.688 E2.03807
G1 F1800
G1 X81.123 Y111.367 E2.10576
G1 F1800
G1 X81.146 Y112.046 E2.16500
G1 F1800
G1 X81.148 Y112.254 E2.18151
G1 E0.18151 F2400.00000
G92 E0
G1 X86.656 Y32.762 F7800.000
G1 E2.00000 F2400.00000
G1 F1800
G1 X86.236 Y32.415 E2.02667
G1 F1800
G1 X86.026 Y32.241 E2.04348
G1 X85.701 Y32.044 E2.06694
G1 X85.628 Y32.025 E2.07160
G1 F1800
G1 X85.333 Y31.966 E2.09231
G1 X84.960 Y31.947 E2.11809
G1 X84.759 Y31.965 E2.13205
G1 F1800
G1 X84.355 Y32.002 E2.15703
G1 F1800
G1 X84.154 Y32.020 E2.16727
G1 Z0.350 F7800.000
G1 E0.16727 F2400.00000
G92 E0
G1 X86.175 Y34.275 F7800.000
G1 E2.00000 F2400.00000
G1 F1800
G1 X86.468 Y33.769 E2.03103
G1 X86.246 Y33.385 E2.05460
G1 X86.341 Y33.220 E2.06470
G1 X87.010 Y33.621 E2.10613
G1 X86.718 Y34.127 E2.13716
G1 X87.048 Y34.698 E2.17220
G1 X87.708 Y34.698 E2.20725
G1 X87.872 Y34.415 E2.22464
G1 X88.234 Y34.307 E2.24473
G1 X88.252 Y33.964 E2.26296
G1 X88.611 Y33.964 E2.28201
G1 X88.941 Y33.393 E2.31706
G1 X88.611 Y32.821 E2.35210
G1 X88.229 Y32.821 E2.37235
G1 X88.164 Y32.368 E2.39662
G1 X88.036 Y32.087 E2.41306
G1 X88.089 Y32.087 E2.41587
G1 X88.419 Y31.515 E2.45091
G1 X88.089 Y30.944 E2.48595
G1 X87.429 Y30.944 E2.52100
G1 X87.362 Y31.058 E2.52802
G1 X87.207 Y30.878 E2.54064
G1 X86.737 Y30.576 E2.57030
G1 X86.881 Y30.326 E2.58563
G1 X86.551 Y29.755 E2.62068
G1 X85.891 Y29.755 E2.65572
G1 X85.657 Y30.161 E2.68060
G1 X85.596 Y30.143 E2.68400
G1 X84.927 Y30.143 E2.71949
G1 X85.015 Y29.990 E2.72885
G1 X84.685 Y29.418 E2.76390
G1 X84.025 Y29.418 E2.79894
G1 X83.937 Y29.571 E2.80833
G1 X83.695 Y29.330 E2.82648
G1 X83.945 Y29.330 E2.83974
G1 X84.275 Y28.758 E2.87478
G1 X84.179 Y28.592 E2.88494
G1 X84.899 Y28.508 F7800.000
G1 F1800
G1 X85.229 Y29.080 E2.91998
G1 F1800
G1 X85.889 Y29.080 E2.95502
G1 X86.050 Y28.800 E2.97218
G1 X86.357 Y29.331 E3.00476
G1 X87.017 Y29.331 E3.03980
G1 X87.235 Y28.954 E3.06295
G1 X87.921 Y29.395 E3.10622
G1 X87.722 Y29.739 E3.12734
G1 X88.052 Y30.311 E3.16238
G1 X88.712 Y30.311 E3.19742
G1 X88.778 Y30.196 E3.20444
G1 X88.877 Y30.311 F7800.000
G1 F1800
G1 X89.182 Y30.662 E3.22913
G1 X89.236 Y30.780 E3.23605
G1 X89.167 Y30.780 E3.23971
G1 X88.837 Y31.352 E3.27476
G1 X89.167 Y31.924 E3.30980
G1 X89.752 Y31.924 E3.34084
G1 X89.862 Y32.692 E3.38208
G1 X89.599 Y32.692 E3.39606
G1 X89.269 Y33.264 E3.43111
G1 X89.599 Y33.836 E3.46615
G1 X89.900 Y33.836 E3.48213
G1 X89.858 Y34.670 E3.52649
G1 X89.499 Y34.670 E3.54555
G1 X89.169 Y35.241 E3.58059
G1 X89.499 Y35.813 E3.61563
G1 X89.633 Y35.813 E3.62276
G1 X88.968 Y36.011 E3.65959
G1 X88.735 Y35.606 E3.68437
G1 X88.075 Y35.606 E3.71941
G1 X87.745 Y36.178 E3.75446
G1 X87.841 Y36.345 E3.76472
G1 X87.708 Y36.385 E3.77208
G1 X87.339 Y35.877 F7800.000
G1 F1800
G1 X87.632 Y35.371 E3.80312
G1 X87.302 Y34.799 E3.83816
G1 X86.642 Y34.799 E3.87320
G1 X86.604 Y34.865 E3.87721
G1 E1.87721 F2400.00000
G92 E0
G1 X87.559 Y37.754 F7800.000
G1 E2.00000 F2400.00000
G1 F1800
G1 X87.714 Y38.024 E2.01652
G1 X87.384 Y38.595 E2.05156
G1 X86.724 Y38.595 E2.08661
G1 X86.687 Y38.530 E2.09062
G1 X86.258 Y39.119 F7800.000
G1 F1800
G1 X86.526 Y39.583 E2.11907
G1 X86.682 Y39.314 E2.13559
G1 X87.342 Y39.314 E2.17064
G1 X87.380 Y39.379 E2.17465
G1 X87.455 Y39.276 E2.18146
G1 X87.901 Y39.721 E2.21492
G1 X88.261 Y39.721 E2.23408
G1 X88.591 Y40.293 E2.26912
G1 X88.261 Y40.864 E2.30417
G1 X87.902 Y40.864 E2.32322
G1 X87.860 Y41.699 E2.36758
G1 X88.161 Y41.699 E2.38356
G1 X88.491 Y42.270 E2.41861
G1 X88.161 Y42.842 E2.45365
G1 X87.802 Y42.842 E2.47271
G1 X87.760 Y43.676 E2.51707
G1 X88.061 Y43.676 E2.53305
G1 X88.391 Y44.248 E2.56809
G1 X88.061 Y44.819 E2.60314
G1 X87.702 Y44.819 E2.62220
G1 X87.660 Y45.654 E2.66655
G1 X87.961 Y45.654 E2.68254
G1 X88.291 Y46.225 E2.71758
G1 X87.961 Y46.797 E2.75262
G1 X87.602 Y46.797 E2.77168
G1 X87.560 Y47.631 E2.81604
G1 X87.861 Y47.631 E2.83202
G1 X88.191 Y48.203 E2.86706
G1 X87.861 Y48.774 E2.90211
G1 X87.502 Y48.774 E2.92117
G1 X87.460 Y49.608 E2.96552
G1 X87.761 Y49.608 E2.98151
G1 X88.091 Y50.180 E3.01655
G1 X87.761 Y50.752 E3.05159
G1 X87.402 Y50.752 E3.07065
G1 X87.360 Y51.586 E3.11501
G1 X87.661 Y51.586 E3.13099
G1 X87.991 Y52.157 E3.16604
G1 X87.661 Y52.729 E3.20108
G1 X87.302 Y52.729 E3.22014
G1 X87.259 Y53.563 E3.26449
G1 X87.560 Y53.563 E3.28048
G1 X87.890 Y54.135 E3.31552
G1 X87.560 Y54.707 E3.35056
G1 X87.202 Y54.707 E3.36962
G1 X87.159 Y55.541 E3.41398
G1 X87.460 Y55.541 E3.42996
G1 X87.790 Y56.112 E3.46501
G1 X87.460 Y56.684 E3.50005
G1 X87.101 Y56.684 E3.51911
G1 X87.059 Y57.518 E3.56346
G1 X87.360 Y57.518 E3.57945
G1 X87.690 Y58.090 E3.61449
G1 X87.360 Y58.661 E3.64954
G1 X87.001 Y58.661 E3.66859
G1 X86.959 Y59.496 E3.71295
G1 X87.260 Y59.496 E3.72893
G1 X87.590 Y60.067 E3.76398
G1 X87.260 Y60.639 E3.79902
G1 X86.901 Y60.639 E3.81808
G1 X86.859 Y61.473 E3.86244
G1 X87.160 Y61.473 E3.87842
G1 X87.490 Y62.045 E3.91346
G1 X87.160 Y62.616 E3.94851
G1 X86.801 Y62.616 E3.96757
G1 X86.759 Y63.451 E4.01192
G1 X87.060 Y63.451 E4.02791
G1 X87.390 Y64.022 E4.06295
G1 X87.060 Y64.594 E4.09799
G1 X86.701 Y64.594 E4.11705
G1 X86.659 Y65.428 E4.16141
G1 X86.960 Y65.428 E4.17739
G1 X87.290 Y66.000 E4.21244
G1 X86.960 Y66.571 E4.24748
G1 X86.601 Y66.571 E4.26654
G1 X86.559 Y67.406 E4.31089
G1 X86.860 Y67.406 E4.32688
G1 X87.190 Y67.977 E4.36192
G1 X86.860 Y68.549 E4.39696
G1 X86.501 Y68.549 E4.41602
G1 X86.458 Y69.383 E4.46038
G1 X86.759 Y69.383 E4.47636
G1 X87.089 Y69.955 E4.51141
G1 X86.759 Y70.526 E4.54645
G1 X86.401 Y70.526 E4.56551
G1 X86.358 Y71.361 E4.60986
G1 X86.659 Y71.361 E4.62585
G1 X86.989 Y71.932 E4.66089
G1 X86.659 Y72.504 E4.69594
G1 X86.300 Y72.504 E4.71499
G1 X86.258 Y73.338 E4.75935
G1 X86.559 Y73.338 E4.77533
G1 X86.889 Y73.910 E4.81038
G1 X86.559 Y74.481 E4.84542
G1 X86.200 Y74.481 E4.86448
G1 X86.158 Y75.315 E4.90883
G1 X86.459 Y75.315 E4.92482
G1 X86.789 Y75.887 E4.95986
G1 X86.459 Y76.459 E4.99491
G1 X86.100 Y76.459 E5.01396
G1 X86.058 Y77.293 E5.05832
G1 X86.359 Y77.293 E5.07431
G1 X86.689 Y77.864 E5.10935
G1 X86.359 Y78.436 E5.14439
G1 X86.000 Y78.436 E5.16345
G1 X85.958 Y79.270 E5.20781
G1 X86.259 Y79.270 E5.22379
G1 X86.589 Y79.842 E5.25883
G1 X86.259 Y80.414 E5.29388
G1 X85.900 Y80.414 E5.31294
G1 X85.858 Y81.248 E5.35729
G1 X86.159 Y81.248 E5.37328
G1 X86.489 Y81.819 E5.40832
G1 X86.159 Y82.391 E5.44336
G1 X85.800 Y82.391 E5.46242
G1 X85.758 Y83.225 E5.50678
G1 X86.059 Y83.225 E5.52276
G1 X86.389 Y83.797 E5.55781
G1 X86.059 Y84.368 E5.59285
G1 X85.700 Y84.368 E5.61191
G1 X85.657 Y85.203 E5.65626
G1 X85.958 Y85.203 E5.67225
G1 X86.288 Y85.774 E5.70729
G1 X85.958 Y86.346 E5.74233
G1 X85.600 Y86.346 E5.76139
G1 X85.557 Y87.180 E5.80575
G1 X85.858 Y87.180 E5.82173
G1 X86.188 Y87.752 E5.85678
G1 X85.858 Y88.323 E5.89182
G1 X85.499 Y88.323 E5.91088
G1 X85.457 Y89.158 E5.95523
G1 X85.758 Y89.158 E5.97122
G1 X86.088 Y89.729 E6.00626
G1 X85.758 Y90.301 E6.04131
G1 X85.399 Y90.301 E6.06036
