; generated by Slic3r 1.3.0 on 2020-05-28 at 12:14:18

; external perimeters extrusion width = 0.44mm (2.78mm^3/s)
; perimeters extrusion width = 0.40mm (7.14mm^3/s)
; infill extrusion width = 0.50mm (10.97mm^3/s)
; solid infill extrusion width = 0.60mm (6.68mm^3/s)
; top infill extrusion width = 0.40mm (2.14mm^3/s)

M107
M190 S80 ; set bed temperature and wait for it to be reached
M104 S200 ; set temperature
G28 ; home all axes
G1 Z5 F5000 ; lift nozzle

; Filament gcode

M109 S200 ; set temperature and wait for it to be reached
G21 ; set units to millimeters
G90 ; use absolute coordinates
M82 ; use absolute distances for extrusion
G92 E0
G1 Z0.300 F30000.000
G1 E-2.00000 F2400.00000
G92 E0
G1 X92.603 Y66.182 F30000.000
G1 E2.00000 F2400.00000
G1 F2100
G1 X93.722 Y64.635 E2.12755
G1 X95.373 Y63.675 E2.25511
G1 X96.815 Y63.443 E2.35267
G1 X101.728 Y63.443 E2.68094
G1 X103.596 Y63.839 E2.80849
G1 X105.143 Y64.958 E2.93604
G1 X106.104 Y66.608 E3.06359
G1 X106.321 Y67.689 E3.13723
G1 X107.090 Y77.494 E3.79430
G1 X107.616 Y88.633 E4.53931
G1 X107.796 Y99.928 E5.29392
G1 X107.621 Y111.222 E6.04849
G1 X107.090 Y122.506 E6.80318
G1 X106.321 Y132.311 E7.46026
G1 X105.780 Y134.142 E7.58781
G1 X104.543 Y135.597 E7.71536
G1 X102.823 Y136.425 E7.84291
G1 X101.728 Y136.557 E7.91655
G1 X96.815 Y136.557 E8.24481
G1 X94.947 Y136.161 E8.37237
G1 X93.400 Y135.042 E8.49992
G1 X92.439 Y133.392 E8.62747
G1 X92.208 Y131.950 E8.72504
G1 X92.208 Y68.050 E12.99391
G1 X92.591 Y66.241 E13.11745
G1 X93.138 Y66.300 F30000.000
G1 F2100
G1 X94.247 Y64.890 E13.23727
G1 X95.854 Y64.094 E13.35710
G1 X96.815 Y63.979 E13.42173
G1 X101.728 Y63.979 E13.74999
G1 X103.478 Y64.374 E13.86981
G1 X104.888 Y65.482 E13.98964
G1 X105.787 Y67.731 E14.15140
G1 X106.555 Y77.519 E14.80736
G1 X107.081 Y88.659 E15.55235
G1 X107.260 Y99.936 E16.30583
G1 X107.085 Y111.213 E17.05929
G1 X106.555 Y122.480 E17.81284
G1 X105.787 Y132.269 E18.46880
G1 X105.256 Y133.983 E18.58862
G1 X104.040 Y135.301 E18.70845
G1 X101.728 Y136.021 E18.87020
G1 X96.815 Y136.021 E19.19847
G1 X95.065 Y135.626 E19.31829
G1 X93.655 Y134.518 E19.43811
G1 X92.858 Y132.911 E19.55793
G1 X92.743 Y131.950 E19.62257
G1 X92.743 Y68.050 E23.89143
G1 X93.125 Y66.359 E24.00725
G1 X93.673 Y66.427 F30000.000
G1 F2100
G1 X94.768 Y65.167 E24.11880
G1 X96.815 Y64.514 E24.26228
G1 X101.728 Y64.514 E24.59054
G1 X103.351 Y64.909 E24.70210
G1 X104.612 Y66.004 E24.81365
G1 X105.253 Y67.773 E24.93935
G1 X106.020 Y77.545 E25.59420
G1 X106.546 Y88.684 E26.33918
G1 X106.725 Y99.945 E27.09154
G1 X106.550 Y111.205 E27.84387
G1 X106.020 Y122.455 E28.59629
G1 X105.253 Y132.227 E29.25114
G1 X104.733 Y133.814 E29.36270
G1 X103.542 Y134.985 E29.47425
G1 X101.728 Y135.486 E29.59995
G1 X96.815 Y135.486 E29.92821
G1 X95.192 Y135.091 E30.03977
G1 X93.931 Y133.996 E30.15133
G1 X93.279 Y131.950 E30.29480
G1 X93.279 Y68.050 E34.56367
G1 X93.659 Y66.486 E34.67122
G1 X94.157 Y66.875 F30000.000
G1 F2100
G1 X95.612 Y65.301 E34.83162
G1 X102.804 Y65.301 E35.36986
G1 X104.385 Y66.762 E35.53092
G1 X105.234 Y77.561 E36.34159
G1 X105.763 Y88.786 E37.18257
G1 X105.939 Y100.022 E38.02349
G1 X105.763 Y111.214 E38.86117
G1 X105.234 Y122.439 E39.70214
G1 X104.385 Y133.238 E40.51280
G1 X102.804 Y134.699 E40.67386
G1 X95.612 Y134.699 E41.21211
G1 X93.979 Y132.933 E41.39209
G1 X94.854 Y121.805 E42.22747
G1 X95.368 Y110.912 E43.04357
G1 X95.540 Y100.003 E43.86006
G1 X95.368 Y89.088 E44.67692
G1 X94.854 Y78.195 E45.49301
G1 X93.979 Y67.067 E46.32840
G1 X94.116 Y66.919 E46.34349
G1 X94.598 Y67.281 F30000.000
G1 F2100
G1 X95.874 Y65.901 E46.48419
G1 X102.570 Y65.901 E46.98522
G1 X103.805 Y67.043 E47.11113
G1 X104.635 Y77.594 E47.90318
G1 X105.163 Y88.800 E48.74273
G1 X105.339 Y99.983 E49.57970
G1 X105.163 Y111.200 E50.41922
G1 X104.635 Y122.406 E51.25877
G1 X103.805 Y132.957 E52.05081
G1 X102.570 Y134.099 E52.17673
G1 X95.874 Y134.099 E52.67775
G1 X94.598 Y132.719 E52.81846
G1 X95.453 Y121.847 E53.63454
G1 X95.968 Y110.930 E54.45241
G1 X96.140 Y100.003 E55.27031
G1 X95.968 Y89.070 E56.08858
G1 X95.453 Y78.158 E56.90609
G1 X94.603 Y67.341 E57.71805
G1 X95.217 Y67.496 F30000.000
G1 F2100
G1 X96.137 Y66.501 E57.81947
G1 X102.335 Y66.501 E58.28329
G1 X103.225 Y67.324 E58.37405
G1 X104.036 Y77.627 E59.14747
G1 X104.563 Y88.790 E59.98377
G1 X104.739 Y100.012 E60.82371
G1 X104.564 Y111.186 E61.65998
G1 X104.034 Y122.397 E62.49991
G1 X103.225 Y132.676 E63.27153
G1 X102.335 Y133.499 E63.36230
G1 X96.137 Y133.499 E63.82611
G1 X95.217 Y132.504 E63.92754
G1 X96.052 Y121.880 E64.72505
G1 X96.568 Y110.949 E65.54397
G1 X96.740 Y100.003 E66.36327
G1 X96.568 Y89.051 E67.18295
G1 X96.052 Y78.120 E68.00187
G1 X95.222 Y67.556 E68.79489
G1 X95.836 Y67.710 F30000.000
G1 F2100
G1 X96.399 Y67.101 E68.85704
G1 X102.100 Y67.101 E69.28364
G1 X102.646 Y67.605 E69.33926
G1 X103.437 Y77.660 E70.09406
G1 X103.963 Y88.813 E70.92965
G1 X104.139 Y100.007 E71.76746
G1 X103.964 Y111.172 E72.60303
G1 X103.437 Y122.340 E73.43974
G1 X102.646 Y132.395 E74.19454
G1 X102.100 Y132.899 E74.25016
G1 X96.399 Y132.899 E74.67676
G1 X95.836 Y132.290 E74.73891
G1 X96.651 Y121.918 E75.51748
G1 X97.167 Y110.968 E76.33782
G1 X97.340 Y100.003 E77.15853
G1 X97.167 Y89.032 E77.97961
G1 X96.651 Y78.082 E78.79995
G1 X95.840 Y67.770 E79.57403
G1 E77.57403 F2400.00000
G92 E0
G1 X103.579 Y66.077 F30000.000
G1 X102.066 Y67.886 F30000.000
G1 E2.00000 F2400.00000
G1 F2100
G1 X102.837 Y77.693 E2.73618
G1 X103.364 Y88.837 E3.57105
G1 X103.539 Y99.997 E4.40633
G1 X103.364 Y111.163 E5.24203
G1 X102.837 Y122.307 E6.07690
G1 X102.066 Y132.114 E6.81308
G1 X101.865 Y132.299 E6.83355
G1 X96.662 Y132.299 E7.22294
G1 X96.454 Y132.075 E7.24581
G1 X97.250 Y121.955 E8.00544
G1 X97.767 Y110.987 E8.82719
G1 X97.940 Y99.998 E9.64968
G1 X97.767 Y89.013 E10.47180
G1 X97.250 Y78.045 E11.29356
G1 X96.454 Y67.925 E12.05319
G1 X96.662 Y67.701 E12.07606
G1 X101.865 Y67.701 E12.46545
G1 X102.022 Y67.846 E12.48142
G1 E10.48142 F2400.00000
G92 E0
G1 X101.451 Y131.650 F30000.000
G1 E2.00000 F2400.00000
G1 F2100
G1 X97.139 Y131.650 E2.28806
G1 X97.898 Y121.999 E2.93481
G1 X98.416 Y111.005 E3.67007
G1 X98.590 Y100.000 E4.40534
G1 X98.416 Y88.995 E5.14062
G1 X97.898 Y78.001 E5.87588
G1 X97.139 Y68.350 E6.52263
G1 X101.451 Y68.350 E6.81069
G1 X102.186 Y77.690 E7.43661
G1 X102.715 Y88.860 E8.18365
G1 X102.889 Y100.000 E8.92794
G1 X102.715 Y111.140 E9.67223
G1 X102.189 Y122.269 E10.41652
G1 X101.456 Y131.590 E11.04118
G1 X101.109 Y131.443 F30000.000
G1 X100.956 Y131.114 F30000.000
G1 F2100
G1 X97.718 Y131.114 E11.25745
G1 X98.432 Y122.032 E11.86605
G1 X98.952 Y111.022 E12.60244
G1 X99.125 Y100.000 E13.33884
G1 X98.952 Y88.978 E14.07524
G1 X98.432 Y77.968 E14.81162
G1 X97.718 Y68.886 E15.42023
G1 X100.956 Y68.886 E15.63650
G1 X101.651 Y77.724 E16.22879
G1 X102.179 Y88.877 E16.97470
G1 X102.354 Y100.000 E17.71786
G1 X102.179 Y111.123 E18.46103
G1 X101.655 Y122.235 E19.20420
G1 X100.961 Y131.055 E19.79522
G1 X100.404 Y130.636 F30000.000
G1 F2100
G1 X100.518 Y130.522 E19.80604
G1 X100.583 Y129.694 E19.86193
G1 X99.641 Y130.636 E19.95154
G1 X98.878 Y130.636 E20.00287
G1 X100.648 Y128.866 E20.17128
G1 X100.713 Y128.038 E20.22717
G1 X98.252 Y130.499 E20.46136
G1 X98.317 Y129.671 E20.51724
G1 X100.778 Y127.210 E20.75144
G1 X100.843 Y126.382 E20.80733
G1 X98.382 Y128.843 E21.04154
G1 X98.447 Y128.015 E21.09742
G1 X100.908 Y125.554 E21.33163
G1 X100.974 Y124.725 E21.38751
G1 X98.512 Y127.187 E21.62173
G1 X98.577 Y126.359 E21.67761
G1 X101.039 Y123.897 E21.91184
G1 X101.104 Y123.069 E21.96773
G1 X98.642 Y125.531 E22.20196
G1 X98.707 Y124.703 E22.25784
G1 X101.169 Y122.241 E22.49207
G1 X101.210 Y121.437 E22.54623
G1 X98.773 Y123.875 E22.77818
G1 X98.838 Y123.047 E22.83406
G1 X101.248 Y120.637 E23.06341
G1 X101.286 Y119.836 E23.11734
G1 X98.903 Y122.219 E23.34409
G1 X98.944 Y121.415 E23.39825
G1 X101.324 Y119.035 E23.62470
G1 X101.361 Y118.235 E23.67864
G1 X98.981 Y120.615 E23.90509
G1 X99.019 Y119.814 E23.95902
G1 X101.399 Y117.434 E24.18549
G1 X101.437 Y116.633 E24.23942
G1 X99.057 Y119.013 E24.46589
G1 X99.095 Y118.213 E24.51982
G1 X101.475 Y115.833 E24.74629
G1 X101.513 Y115.032 E24.80022
G1 X99.132 Y117.412 E25.02670
G1 X99.170 Y116.611 E25.08063
G1 X101.550 Y114.231 E25.30711
G1 X101.588 Y113.430 E25.36104
G1 X99.208 Y115.811 E25.58752
G1 X99.246 Y115.010 E25.64145
G1 X101.626 Y112.630 E25.86794
G1 X101.664 Y111.829 E25.92188
G1 X99.283 Y114.209 E26.14837
G1 X99.321 Y113.409 E26.20230
G1 X101.701 Y111.029 E26.42873
G1 X101.713 Y110.254 E26.48088
G1 X99.359 Y112.608 E26.70488
G1 X99.397 Y111.807 E26.75881
G1 X101.725 Y109.479 E26.98037
G1 X101.737 Y108.704 E27.03253
G1 X99.432 Y111.010 E27.25192
G1 X99.444 Y110.234 E27.30408
G1 X101.750 Y107.929 E27.52347
G1 X101.762 Y107.154 E27.57562
G1 X99.456 Y109.459 E27.79501
G1 X99.468 Y108.684 E27.84717
G1 X101.774 Y106.379 E28.06655
G1 X101.786 Y105.604 E28.11870
G1 X99.481 Y107.909 E28.33809
G1 X99.493 Y107.134 E28.39024
G1 X101.798 Y104.829 E28.60962
G1 X101.810 Y104.053 E28.66177
G1 X99.505 Y106.359 E28.88115
G1 X99.517 Y105.584 E28.93331
G1 X101.823 Y103.278 E29.15268
G1 X101.835 Y102.503 E29.20483
G1 X99.529 Y104.809 E29.42420
G1 X99.541 Y104.034 E29.47636
G1 X101.847 Y101.728 E29.69572
G1 X101.859 Y100.953 E29.74787
G1 X99.554 Y103.259 E29.96724
G1 X99.566 Y102.484 E30.01939
G1 X101.871 Y100.178 E30.23875
G1 X101.867 Y99.420 E30.28978
G1 X99.578 Y101.708 E30.50754
G1 X99.590 Y100.933 E30.55970
G1 X101.855 Y98.669 E30.77519
G1 X101.843 Y97.918 E30.82573
G1 X99.602 Y100.158 E31.03893
G1 X99.594 Y99.404 E31.08968
G1 X101.831 Y97.167 E31.30259
G1 X101.820 Y96.415 E31.35313
G1 X99.582 Y98.653 E31.56604
G1 X99.570 Y97.902 E31.61658
G1 X101.808 Y95.664 E31.82949
G1 X101.796 Y94.913 E31.88003
G1 X99.558 Y97.151 E32.09295
G1 X99.547 Y96.400 E32.14349
G1 X101.784 Y94.162 E32.35641
G1 X101.772 Y93.411 E32.40695
G1 X99.535 Y95.649 E32.61987
G1 X99.523 Y94.898 E32.67042
G1 X101.761 Y92.660 E32.88334
G1 X101.749 Y91.909 E32.93388
G1 X99.511 Y94.147 E33.14681
G1 X99.499 Y93.395 E33.19735
G1 X101.737 Y91.158 E33.41028
G1 X101.725 Y90.407 E33.46083
G1 X99.487 Y92.644 E33.67376
G1 X99.476 Y91.893 E33.72430
G1 X101.713 Y89.655 E33.93724
G1 X101.702 Y88.904 E33.98778
G1 X99.464 Y91.142 E34.20072
G1 X99.452 Y90.391 E34.25126
G1 X101.669 Y88.174 E34.46224
G1 X101.635 Y87.445 E34.51130
G1 X99.440 Y89.640 E34.72012
G1 X99.424 Y88.893 E34.77041
G1 X101.600 Y86.717 E34.97744
G1 X101.566 Y85.989 E35.02651
G1 X99.390 Y88.164 E35.23353
G1 X99.356 Y87.436 E35.28260
G1 X101.531 Y85.260 E35.48962
G1 X101.497 Y84.532 E35.53868
G1 X99.321 Y86.707 E35.74568
G1 X99.287 Y85.979 E35.79475
G1 X101.462 Y83.803 E36.00174
G1 X101.428 Y83.075 E36.05081
G1 X99.253 Y85.250 E36.25779
G1 X99.218 Y84.522 E36.30686
G1 X101.393 Y82.347 E36.51383
G1 X101.359 Y81.618 E36.56289
G1 X99.184 Y83.793 E36.76985
G1 X99.150 Y83.065 E36.81892
G1 X101.324 Y80.890 E37.02587
G1 X101.290 Y80.161 E37.07493
G1 X99.115 Y82.336 E37.28187
G1 X99.081 Y81.608 E37.33094
G1 X101.255 Y79.433 E37.53786
G1 X101.221 Y78.705 E37.58693
G1 X99.046 Y80.879 E37.79384
G1 X99.012 Y80.151 E37.84291
G1 X101.187 Y77.976 E38.04981
G1 X101.174 Y77.701 E38.06834
G1 X101.139 Y77.261 E38.09805
G1 X98.978 Y79.422 E38.30368
G1 X98.943 Y78.693 E38.35275
G1 X101.083 Y76.554 E38.55636
G1 X101.028 Y75.846 E38.60410
G1 X98.908 Y77.966 E38.80575
G1 X98.853 Y77.258 E38.85349
G1 X100.972 Y75.139 E39.05514
G1 X100.916 Y74.432 E39.10287
G1 X98.797 Y76.551 E39.30452
G1 X98.741 Y75.844 E39.35225
G1 X100.861 Y73.725 E39.55390
G1 X100.805 Y73.017 E39.60163
G1 X98.686 Y75.137 E39.80327
G1 X98.630 Y74.429 E39.85100
G1 X100.749 Y72.310 E40.05264
G1 X100.694 Y71.603 E40.10037
G1 X98.575 Y73.722 E40.30200
G1 X98.519 Y73.015 E40.34973
G1 X100.638 Y70.896 E40.55136
G1 X100.582 Y70.188 E40.59909
G1 X98.463 Y72.307 E40.80071
G1 X98.408 Y71.600 E40.84845
G1 X100.527 Y69.481 E41.05006
G1 X100.518 Y69.364 E41.05795
G1 X99.881 Y69.364 E41.10080
G1 X98.352 Y70.893 E41.24623
G1 X98.297 Y70.185 E41.29396
G1 X99.118 Y69.364 E41.37209
G1 X98.355 Y69.364 E41.42342
G1 X98.241 Y69.478 E41.43423
G1 Z0.500 F30000.000
G1 X101.176 Y131.353 F30000.000
G1 F6000
G1 X97.460 Y131.353 E41.54456
G1 X98.194 Y122.017 E41.82260
G1 X98.713 Y111.014 E42.14967
G1 X98.887 Y100.000 E42.47673
G1 X98.713 Y88.986 E42.80379
G1 X98.194 Y77.983 E43.13086
G1 X97.460 Y68.647 E43.40890
G1 X101.176 Y68.647 E43.51923
G1 X101.884 Y77.640 E43.78705
G1 X102.418 Y88.870 E44.12086
G1 X102.592 Y100.000 E44.45138
G1 X102.418 Y111.130 E44.78190
G1 X101.893 Y122.250 E45.11242
G1 X101.181 Y131.293 E45.38175
G1 X101.525 Y131.730 F30000.000
G1 F2100
G1 X97.053 Y131.730 E45.52942
G1 X97.818 Y121.994 E45.85188
G1 X98.336 Y111.002 E46.21518
G1 X98.510 Y100.000 E46.57849
G1 X98.336 Y88.998 E46.94181
G1 X97.818 Y78.006 E47.30511
G1 X97.053 Y68.270 E47.62757
G1 X101.525 Y68.270 E47.77524
G1 X102.260 Y77.616 E48.08477
G1 X102.795 Y88.858 E48.45636
G1 X102.969 Y100.000 E48.82430
G1 X102.795 Y111.142 E49.19223
G1 X102.269 Y122.274 E49.56017
G1 X101.530 Y131.670 E49.87137
G1 X101.183 Y131.523 F30000.000
G1 X98.003 Y130.944 F30000.000
G1 F3600
G1 X97.906 Y130.847 E49.87780
G1 X97.964 Y130.108 E49.91257
G1 X98.801 Y130.944 E49.96803
G1 X99.598 Y130.944 E50.00542
G1 X98.023 Y129.369 E50.10989
G1 X98.081 Y128.629 E50.14466
G1 X100.396 Y130.944 E50.29815
G1 X100.802 Y130.944 E50.31722
G1 X100.831 Y130.582 E50.33426
G1 X98.139 Y127.890 E50.51275
G1 X98.197 Y127.151 E50.54752
G1 X100.889 Y129.843 E50.72601
G1 X100.947 Y129.104 E50.76078
G1 X98.255 Y126.411 E50.93928
G1 X98.313 Y125.672 E50.97404
G1 X101.005 Y128.364 E51.15255
G1 X101.064 Y127.625 E51.18731
G1 X98.371 Y124.933 E51.36582
G1 X98.429 Y124.194 E51.40058
G1 X101.122 Y126.886 E51.57909
G1 X101.180 Y126.147 E51.61386
G1 X98.488 Y123.454 E51.79237
G1 X98.546 Y122.715 E51.82714
G1 X101.238 Y125.407 E52.00565
G1 X101.296 Y124.668 E52.04042
G1 X98.603 Y121.975 E52.21898
G1 X98.639 Y121.214 E52.25472
G1 X101.354 Y123.929 E52.43476
G1 X101.413 Y123.190 E52.46952
G1 X98.675 Y120.452 E52.65104
G1 X98.711 Y119.691 E52.68678
G1 X101.471 Y122.450 E52.86976
G1 X101.485 Y122.270 E52.87826
G1 X101.512 Y121.694 E52.90527
G1 X98.747 Y118.929 E53.08862
G1 X98.783 Y118.168 E53.12436
G1 X101.548 Y120.933 E53.30771
G1 X101.584 Y120.171 E53.34345
G1 X98.819 Y117.406 E53.52681
G1 X98.855 Y116.645 E53.56255
G1 X101.620 Y119.410 E53.74591
G1 X101.656 Y118.648 E53.78165
G1 X98.890 Y115.883 E53.96501
G1 X98.926 Y115.122 E54.00075
G1 X101.692 Y117.887 E54.18411
G1 X101.728 Y117.126 E54.21985
G1 X98.962 Y114.360 E54.40322
G1 X98.998 Y113.599 E54.43896
G1 X101.764 Y116.364 E54.62233
G1 X101.800 Y115.603 E54.65807
G1 X99.034 Y112.837 E54.84144
G1 X99.070 Y112.076 E54.87718
G1 X101.836 Y114.841 E55.06055
G1 X101.872 Y114.080 E55.09629
G1 X99.106 Y111.314 E55.27967
G1 X99.129 Y110.539 E55.31601
G1 X101.908 Y113.318 E55.50026
G1 X101.944 Y112.557 E55.53600
G1 X99.141 Y109.754 E55.72182
G1 X99.153 Y108.969 E55.75863
G1 X101.979 Y111.795 E55.94602
G1 X102.009 Y111.165 E55.97563
G1 X102.011 Y111.030 E55.98194
G1 X99.166 Y108.184 E56.17062
G1 X99.178 Y107.399 E56.20744
G1 X102.024 Y110.245 E56.39612
G1 X102.036 Y109.460 E56.43293
G1 X99.190 Y106.614 E56.62160
G1 X99.203 Y105.829 E56.65842
G1 X102.048 Y108.675 E56.84709
G1 X102.061 Y107.889 E56.88390
G1 X99.215 Y105.044 E57.07258
G1 X99.228 Y104.259 E57.10939
G1 X102.073 Y107.104 E57.29806
G1 X102.085 Y106.319 E57.33487
G1 X99.240 Y103.474 E57.52354
G1 X99.252 Y102.689 E57.56035
G1 X102.098 Y105.534 E57.74901
G1 X102.110 Y104.749 E57.78583
G1 X99.265 Y101.904 E57.97449
G1 X99.277 Y101.119 E58.01130
G1 X102.122 Y103.964 E58.19996
G1 X102.135 Y103.179 E58.23678
G1 X99.289 Y100.334 E58.42544
G1 X99.289 Y99.536 E58.46285
G1 X102.147 Y102.394 E58.65236
G1 X102.159 Y101.609 E58.68917
G1 X99.276 Y98.726 E58.88034
G1 X99.263 Y97.915 E58.91833
G1 X102.172 Y100.824 E59.11117
G1 X102.184 Y100.038 E59.14800
G1 X99.250 Y97.105 E59.34247
G1 X99.238 Y96.295 E59.38046
G1 X102.171 Y99.228 E59.57494
G1 X102.158 Y98.418 E59.61293
G1 X99.225 Y95.485 E59.80741
G1 X99.212 Y94.675 E59.84540
G1 X102.145 Y97.608 E60.03988
