; generated by Slic3r 1.3.0 on 2020-09-06 at 19:40:01

; external perimeters extrusion width = 0.44mm (2.78mm^3/s)
; perimeters extrusion width = 0.40mm (7.14mm^3/s)
; infill extrusion width = 0.50mm (10.97mm^3/s)
; solid infill extrusion width = 0.60mm (6.68mm^3/s)
; top infill extrusion width = 0.40mm (2.14mm^3/s)

M107
M190 S80 ; set bed temperature and wait for it to be reached
M104 S200 ; set temperature
G28 ; home all axes
G1 Z5 F5000 ; lift nozzle

; Filament gcode

M109 S200 ; set temperature and wait for it to be reached
G21 ; set units to millimeters
G90 ; use absolute coordinates
M82 ; use absolute distances for extrusion
G92 E0
G1 Z0.300 F30000.000
G1 E-2.00000 F2400.00000
G92 E0
G1 X54.077 Y40.912 F30000.000
G1 E2.00000 F2400.00000
G1 F2100
G1 X54.558 Y40.327 E2.05055
G1 X54.878 Y39.976 E2.08228
G1 X55.626 Y39.258 E2.15158
G1 X56.438 Y38.613 E2.22088
G1 X57.306 Y38.045 E2.29018
G1 X58.223 Y37.559 E2.35948
G1 X58.738 Y37.332 E2.39707
G1 X59.714 Y36.982 E2.46637
G1 X60.719 Y36.723 E2.53569
G1 X61.743 Y36.558 E2.60499
G1 X62.779 Y36.488 E2.67433
G1 X63.815 Y36.514 E2.74357
G1 X64.288 Y36.558 E2.77530
G1 X65.312 Y36.723 E2.84460
G1 X66.316 Y36.982 E2.91390
G1 X67.293 Y37.332 E2.98320
G1 X68.233 Y37.771 E3.05250
G1 X68.724 Y38.045 E3.09011
G1 X69.592 Y38.613 E3.15939
G1 X70.404 Y39.258 E3.22869
G1 X71.154 Y39.977 E3.29806
G1 X71.833 Y40.760 E3.36731
G1 X72.437 Y41.604 E3.43662
G1 X72.958 Y42.494 E3.50551
G1 X73.172 Y42.924 E3.53762
G1 X73.571 Y43.881 E3.60692
G1 X73.880 Y44.872 E3.67622
G1 X74.096 Y45.886 E3.74552
G1 X74.217 Y46.916 E3.81482
G1 X74.249 Y47.717 E3.86835
G1 X74.249 Y56.713 E4.46935
G1 X74.193 Y57.503 E4.52222
G1 X73.964 Y58.544 E4.59344
G1 X73.866 Y58.826 E4.61340
G1 X73.390 Y59.826 E4.68734
G1 X73.084 Y60.296 E4.72485
G1 X63.802 Y73.296 E5.79199
G1 X63.253 Y73.944 E5.84871
G1 X63.102 Y74.095 E5.86294
G1 X62.202 Y74.813 E5.93987
G1 X61.985 Y74.949 E5.95695
G1 X60.984 Y75.426 E6.03102
G1 X60.702 Y75.524 E6.05099
G1 X59.661 Y75.752 E6.12220
G1 X58.871 Y75.809 E6.17507
G1 X40.877 Y75.809 E7.37723
G1 X40.087 Y75.752 E7.43010
G1 X39.046 Y75.524 E7.50132
G1 X38.764 Y75.426 E7.52128
G1 X37.765 Y74.950 E7.59517
G1 X37.546 Y74.813 E7.61243
G1 X36.646 Y74.095 E7.68936
G1 X36.495 Y73.944 E7.70359
G1 X35.777 Y73.044 E7.78052
G1 X35.642 Y72.829 E7.79746
G1 X35.164 Y71.826 E7.87167
G1 X35.067 Y71.546 E7.89147
G1 X34.838 Y70.503 E7.96285
G1 X34.808 Y70.234 E7.98091
G1 X34.782 Y69.714 E8.01574
G1 X34.782 Y67.766 E8.14584
G1 X35.178 Y65.787 E8.28068
G1 X35.847 Y64.632 E8.36982
G1 X54.040 Y40.959 E10.36442
G1 X54.502 Y41.238 F30000.000
G1 F2100
G1 X54.970 Y40.669 E10.41362
G1 X55.256 Y40.355 E10.44205
G1 X55.969 Y39.670 E10.50804
G1 X56.402 Y39.311 E10.54564
G1 X57.200 Y38.740 E10.61121
G1 X58.059 Y38.238 E10.67767
G1 X58.954 Y37.822 E10.74362
G1 X59.351 Y37.668 E10.77204
G1 X60.294 Y37.373 E10.83804
G1 X61.260 Y37.166 E10.90404
G1 X62.240 Y37.049 E10.97003
G1 X62.803 Y37.023 E11.00768
G1 X63.790 Y37.049 E11.07361
G1 X64.771 Y37.166 E11.13961
G1 X65.737 Y37.373 E11.20562
G1 X66.680 Y37.668 E11.27160
G1 X67.591 Y38.049 E11.33760
G1 X68.464 Y38.513 E11.40361
G1 X69.290 Y39.055 E11.46959
G1 X69.629 Y39.311 E11.49802
G1 X70.376 Y39.957 E11.56401
G1 X70.775 Y40.356 E11.60167
G1 X71.421 Y41.102 E11.66762
G1 X71.995 Y41.906 E11.73363
G1 X72.493 Y42.760 E11.79962
G1 X72.909 Y43.655 E11.86558
G1 X73.242 Y44.586 E11.93163
G1 X73.487 Y45.542 E11.99758
G1 X73.643 Y46.518 E12.06358
G1 X73.682 Y46.941 E12.09200
G1 X73.713 Y47.717 E12.14388
G1 X73.713 Y56.713 E12.74488
G1 X73.689 Y57.184 E12.77633
G1 X73.660 Y57.443 E12.79376
G1 X73.456 Y58.376 E12.85756
G1 X73.361 Y58.649 E12.87692
G1 X72.934 Y59.545 E12.94316
G1 X72.648 Y59.985 E12.97824
G1 X63.366 Y72.985 E14.04538
G1 X62.874 Y73.566 E14.09620
G1 X62.724 Y73.716 E14.11042
G1 X61.917 Y74.359 E14.17934
G1 X61.704 Y74.493 E14.19612
G1 X60.808 Y74.920 E14.26248
G1 X60.534 Y75.015 E14.28185
G1 X59.601 Y75.220 E14.34564
G1 X58.871 Y75.273 E14.39450
G1 X40.877 Y75.273 E15.59666
G1 X40.147 Y75.220 E15.64552
G1 X39.214 Y75.015 E15.70932
G1 X38.941 Y74.920 E15.72868
G1 X38.046 Y74.494 E15.79487
G1 X37.831 Y74.359 E15.81182
G1 X37.024 Y73.716 E15.88074
G1 X36.874 Y73.566 E15.89496
G1 X36.231 Y72.759 E15.96388
G1 X36.098 Y72.548 E15.98054
G1 X35.670 Y71.649 E16.04702
G1 X35.576 Y71.378 E16.06624
G1 X35.370 Y70.443 E16.13018
G1 X35.341 Y70.180 E16.14786
G1 X35.317 Y69.714 E16.17906
G1 X35.317 Y67.766 E16.30916
G1 X35.713 Y65.898 E16.43671
G1 X36.271 Y64.959 E16.50972
G1 X54.465 Y41.286 E18.50432
G1 X54.926 Y41.564 F30000.000
G1 F2100
G1 X55.635 Y40.734 E18.57727
G1 X56.311 Y40.082 E18.63997
G1 X56.744 Y39.723 E18.67756
G1 X57.503 Y39.182 E18.73983
G1 X58.320 Y38.706 E18.80298
G1 X59.170 Y38.312 E18.86563
G1 X59.521 Y38.176 E18.89075
G1 X60.416 Y37.894 E18.95344
G1 X61.334 Y37.696 E19.01613
G1 X62.265 Y37.584 E19.07882
G1 X62.828 Y37.558 E19.11646
G1 X63.765 Y37.584 E19.17910
G1 X64.697 Y37.696 E19.24180
G1 X65.614 Y37.894 E19.30450
G1 X66.509 Y38.176 E19.36718
G1 X66.860 Y38.312 E19.39230
G1 X67.375 Y38.539 E19.42989
G1 X68.198 Y38.978 E19.49218
G1 X68.987 Y39.496 E19.55527
G1 X69.720 Y40.082 E19.61796
G1 X70.396 Y40.734 E19.68072
G1 X71.008 Y41.445 E19.74336
G1 X71.549 Y42.204 E19.80563
G1 X71.751 Y42.528 E19.83116
G1 X72.192 Y43.357 E19.89385
G1 X72.555 Y44.222 E19.95655
G1 X72.734 Y44.756 E19.99418
G1 X72.966 Y45.665 E20.05682
G1 X73.113 Y46.592 E20.11952
G1 X73.147 Y46.966 E20.14464
G1 X73.178 Y47.717 E20.19486
G1 X73.178 Y56.713 E20.79587
G1 X73.128 Y57.383 E20.84071
G1 X72.947 Y58.207 E20.89709
G1 X72.855 Y58.473 E20.91586
G1 X72.478 Y59.264 E20.97439
G1 X72.212 Y59.674 E21.00705
G1 X62.930 Y72.674 E22.07419
G1 X62.495 Y73.187 E22.11910
G1 X62.345 Y73.337 E22.13332
G1 X61.632 Y73.906 E22.19423
G1 X61.423 Y74.037 E22.21071
G1 X60.631 Y74.415 E22.26935
G1 X60.365 Y74.507 E22.28812
G1 X59.541 Y74.688 E22.34450
G1 X58.871 Y74.737 E22.38935
G1 X40.877 Y74.737 E23.59150
G1 X40.207 Y74.688 E23.63635
G1 X39.383 Y74.507 E23.69273
G1 X39.117 Y74.415 E23.71150
G1 X38.327 Y74.038 E23.76999
G1 X38.116 Y73.906 E23.78662
G1 X37.403 Y73.337 E23.84753
G1 X37.253 Y73.187 E23.86175
G1 X36.684 Y72.474 E23.92266
G1 X36.554 Y72.266 E23.93903
G1 X36.176 Y71.473 E23.99778
G1 X36.084 Y71.209 E24.01642
G1 X35.902 Y70.383 E24.07292
G1 X35.853 Y69.714 E24.11777
G1 X35.853 Y67.766 E24.24787
G1 X36.696 Y65.285 E24.42292
G1 X54.890 Y41.612 E26.41752
G1 X55.351 Y41.891 F30000.000
G1 F2100
G1 X56.014 Y41.112 E26.48582
G1 X56.653 Y40.495 E26.54521
G1 X57.086 Y40.135 E26.58280
G1 X57.805 Y39.624 E26.64177
G1 X58.580 Y39.174 E26.70161
G1 X59.387 Y38.802 E26.76096
G1 X59.691 Y38.684 E26.78277
G1 X60.539 Y38.416 E26.84216
G1 X61.408 Y38.227 E26.90155
G1 X62.290 Y38.119 E26.96094
G1 X62.853 Y38.093 E26.99857
G1 X63.741 Y38.119 E27.05791
G1 X64.623 Y38.227 E27.11730
G1 X65.492 Y38.416 E27.17670
G1 X66.339 Y38.684 E27.23608
G1 X66.644 Y38.802 E27.25790
G1 X67.451 Y39.175 E27.31728
G1 X67.942 Y39.449 E27.35488
G1 X68.684 Y39.938 E27.41426
G1 X69.378 Y40.495 E27.47365
G1 X70.017 Y41.113 E27.53309
G1 X70.596 Y41.787 E27.59244
G1 X71.107 Y42.506 E27.65140
G1 X71.283 Y42.789 E27.67363
G1 X71.702 Y43.573 E27.73302
G1 X72.047 Y44.392 E27.79241
G1 X72.226 Y44.926 E27.83003
G1 X72.444 Y45.787 E27.88938
G1 X72.582 Y46.666 E27.94877
G1 X72.642 Y47.717 E28.01914
G1 X72.642 Y56.713 E28.62014
G1 X72.596 Y57.323 E28.66098
G1 X72.439 Y58.039 E28.70994
G1 X72.349 Y58.296 E28.72810
G1 X72.022 Y58.983 E28.77894
G1 X71.776 Y59.363 E28.80917
G1 X62.494 Y72.363 E29.87631
G1 X62.117 Y72.808 E29.91531
G1 X61.966 Y72.959 E29.92953
G1 X61.347 Y73.452 E29.98242
G1 X61.142 Y73.581 E29.99861
G1 X60.454 Y73.909 E30.04954
G1 X60.197 Y73.998 E30.06770
G1 X59.481 Y74.155 E30.11666
G1 X58.871 Y74.202 E30.15750
G1 X40.877 Y74.202 E31.35966
G1 X40.267 Y74.155 E31.40049
G1 X39.551 Y73.998 E31.44946
G1 X39.294 Y73.909 E31.46762
G1 X38.608 Y73.582 E31.51842
G1 X38.401 Y73.452 E31.53473
G1 X37.782 Y72.959 E31.58762
G1 X37.631 Y72.808 E31.60185
G1 X37.138 Y72.189 E31.65474
G1 X37.010 Y71.985 E31.67083
G1 X36.681 Y71.296 E31.72185
G1 X36.592 Y71.040 E31.73991
G1 X36.435 Y70.323 E31.78898
G1 X36.388 Y69.714 E31.82982
G1 X36.388 Y67.766 E31.95992
G1 X37.121 Y65.612 E32.11193
G1 X55.314 Y41.938 E34.10654
G1 E32.10654 F2400.00000
G92 E0
G1 X62.715 Y47.401 F30000.000
G1 E2.00000 F2400.00000
G1 F2100
G1 X62.609 Y47.559 E2.01423
G1 X62.573 Y47.810 E2.03317
G1 X62.573 Y69.784 E3.67762
G1 X62.516 Y70.377 E3.72221
G1 X62.455 Y70.656 E3.74360
G1 X62.276 Y71.176 E3.78477
G1 X62.060 Y71.587 E3.81949
G1 X61.862 Y71.902 E3.84729
G1 X61.670 Y72.143 E3.87040
G1 X61.301 Y72.512 E3.90944
G1 X61.060 Y72.704 E3.93255
G1 X60.603 Y72.990 E3.97287
G1 X60.334 Y73.118 E3.99511
G1 X59.814 Y73.297 E4.03629
G1 X59.535 Y73.358 E4.05767
G1 X58.942 Y73.415 E4.10227
G1 X40.806 Y73.415 E5.45944
G1 X40.213 Y73.358 E5.50404
G1 X39.934 Y73.297 E5.52542
G1 X39.414 Y73.118 E5.56657
G1 X39.003 Y72.902 E5.60128
G1 X38.689 Y72.704 E5.62911
G1 X38.447 Y72.512 E5.65222
G1 X38.078 Y72.143 E5.69127
G1 X37.886 Y71.902 E5.71438
G1 X37.601 Y71.445 E5.75463
G1 X37.472 Y71.177 E5.77692
G1 X37.350 Y70.826 E5.80472
G1 X37.232 Y70.377 E5.83943
G1 X37.175 Y69.783 E5.88409
G1 X37.175 Y66.627 E6.12027
G1 X38.785 Y65.017 E6.29072
G1 X53.990 Y65.017 E7.42859
G1 X54.175 Y64.832 E7.44812
G1 X54.175 Y47.686 E8.73128
G1 X54.218 Y46.837 E8.79487
G1 X54.337 Y46.029 E8.85598
G1 X54.495 Y45.358 E8.90760
G1 X54.749 Y44.582 E8.96868
G1 X55.073 Y43.832 E9.02983
G1 X55.532 Y43.008 E9.10042
G1 X55.922 Y42.439 E9.15201
G1 X56.395 Y41.861 E9.20792
G1 X57.012 Y41.226 E9.27423
G1 X57.738 Y40.623 E9.34484
G1 X58.307 Y40.233 E9.39645
G1 X58.957 Y39.864 E9.45235
G1 X59.762 Y39.495 E9.51865
G1 X60.535 Y39.230 E9.57975
G1 X61.329 Y39.038 E9.64088
G1 X62.136 Y38.919 E9.70199
G1 X62.952 Y38.875 E9.76312
G1 X63.768 Y38.907 E9.82419
G1 X64.577 Y39.014 E9.88530
G1 X65.374 Y39.196 E9.94643
G1 X66.150 Y39.450 E10.00753
G1 X66.899 Y39.774 E10.06863
G1 X67.615 Y40.166 E10.12976
G1 X68.292 Y40.623 E10.19086
G1 X68.924 Y41.140 E10.25197
G1 X69.506 Y41.714 E10.31312
G1 X69.987 Y42.284 E10.36898
G1 X70.565 Y43.116 E10.44478
G1 X70.901 Y43.719 E10.49640
G1 X71.236 Y44.463 E10.55749
G1 X71.501 Y45.236 E10.61863
G1 X71.717 Y46.154 E10.68921
G1 X71.812 Y46.837 E10.74080
G1 X71.854 Y47.622 E10.79966
G1 X71.849 Y56.924 E11.49578
G1 X71.799 Y57.377 E11.52987
G1 X71.737 Y57.656 E11.55125
G1 X71.558 Y58.176 E11.59241
G1 X71.343 Y58.587 E11.62712
G1 X71.145 Y58.902 E11.65495
G1 X70.952 Y59.143 E11.67805
G1 X70.583 Y59.512 E11.71710
G1 X70.342 Y59.704 E11.74021
G1 X70.017 Y59.908 E11.76889
G1 X69.617 Y60.118 E11.80273
G1 X69.096 Y60.297 E11.84390
G1 X68.817 Y60.358 E11.86528
G1 X68.364 Y60.408 E11.89941
G1 X67.089 Y60.415 E11.99486
G1 X66.495 Y60.358 E12.03949
G1 X66.215 Y60.296 E12.06095
G1 X65.696 Y60.118 E12.10201
G1 X65.428 Y59.990 E12.12426
G1 X64.971 Y59.704 E12.16458
G1 X64.730 Y59.512 E12.18769
G1 X64.361 Y59.144 E12.22665
G1 X64.168 Y58.902 E12.24981
G1 X63.882 Y58.444 E12.29018
G1 X63.755 Y58.176 E12.31241
G1 X63.576 Y57.656 E12.35358
G1 X63.514 Y57.377 E12.37496
G1 X63.464 Y56.923 E12.40915
G1 X63.448 Y47.669 E13.10163
G1 X63.421 Y47.559 E13.11014
G1 X63.367 Y47.459 E13.11865
G1 X63.288 Y47.377 E13.12716
G1 X63.191 Y47.318 E13.13567
G1 X63.082 Y47.286 E13.14417
G1 X62.969 Y47.283 E13.15268
G1 X62.858 Y47.310 E13.16119
G1 X62.761 Y47.363 E13.16947
G1 X63.294 Y46.717 F30000.000
G1 F2100
G1 X63.140 Y46.687 E13.18116
G1 X62.890 Y46.687 E13.19988
G1 X62.628 Y46.754 E13.22014
G1 X62.488 Y46.823 E13.23182
G1 X62.290 Y46.976 E13.25055
G1 X62.123 Y47.189 E13.27080
G1 X62.054 Y47.329 E13.28249
G1 X61.986 Y47.591 E13.30274
G1 X61.973 Y47.790 E13.31766
G1 X61.973 Y69.768 E14.96243
G1 X61.923 Y70.279 E15.00081
G1 X61.875 Y70.497 E15.01752
G1 X61.720 Y70.948 E15.05319
G1 X61.551 Y71.269 E15.08035
G1 X61.372 Y71.554 E15.10553
G1 X61.222 Y71.743 E15.12360
G1 X60.901 Y72.064 E15.15760
G1 X60.712 Y72.214 E15.17566
G1 X60.315 Y72.462 E15.21066
G1 X60.106 Y72.562 E15.22805
G1 X59.655 Y72.717 E15.26371
G1 X59.437 Y72.765 E15.28043
G1 X58.926 Y72.815 E15.31880
G1 X40.822 Y72.815 E16.67368
G1 X40.311 Y72.765 E16.71206
G1 X40.093 Y72.717 E16.72878
G1 X39.643 Y72.562 E16.76442
G1 X39.322 Y72.394 E16.79158
G1 X39.036 Y72.214 E16.81679
G1 X38.848 Y72.064 E16.83485
G1 X38.526 Y71.743 E16.86885
G1 X38.376 Y71.554 E16.88692
G1 X38.128 Y71.158 E16.92186
G1 X38.028 Y70.948 E16.93929
G1 X37.917 Y70.630 E16.96447
G1 X37.825 Y70.279 E16.99163
G1 X37.775 Y69.768 E17.03006
G1 X37.775 Y66.876 E17.24650
G1 X39.034 Y65.617 E17.37975
G1 X54.590 Y65.617 E18.54392
G1 X54.775 Y65.432 E18.56345
G1 X54.775 Y47.693 E19.89100
G1 X54.814 Y46.906 E19.94991
G1 X54.924 Y46.153 E20.00688
G1 X55.076 Y45.509 E20.05642
G1 X55.313 Y44.786 E20.11336
G1 X55.617 Y44.087 E20.17035
G1 X56.035 Y43.336 E20.23472
G1 X56.409 Y42.790 E20.28425
G1 X56.856 Y42.244 E20.33704
G1 X57.427 Y41.660 E20.39817
G1 X58.089 Y41.110 E20.46256
G1 X58.635 Y40.736 E20.51209
G1 X59.249 Y40.389 E20.56488
G1 X59.992 Y40.050 E20.62600
G1 X60.712 Y39.804 E20.68295
G1 X61.452 Y39.625 E20.73994
G1 X62.206 Y39.515 E20.79690
G1 X62.966 Y39.475 E20.85387
G1 X63.726 Y39.506 E20.91081
G1 X64.481 Y39.607 E20.96777
G1 X65.223 Y39.776 E21.02474
G1 X65.893 Y39.996 E21.07752
G1 X66.733 Y40.362 E21.14607
G1 X67.396 Y40.736 E21.20303
G1 X68.021 Y41.170 E21.25999
G1 X68.604 Y41.660 E21.31695
G1 X69.139 Y42.201 E21.37393
G1 X69.621 Y42.790 E21.43088
G1 X70.048 Y43.420 E21.48785
G1 X70.370 Y43.999 E21.53739
G1 X70.681 Y44.693 E21.59433
G1 X70.928 Y45.413 E21.65132
G1 X71.125 Y46.251 E21.71568
G1 X71.216 Y46.906 E21.76521
G1 X71.255 Y47.643 E21.82043
G1 X71.250 Y56.878 E22.51155
G1 X71.206 Y57.279 E22.54172
G1 X71.158 Y57.497 E22.55843
G1 X71.003 Y57.947 E22.59408
G1 X70.834 Y58.269 E22.62124
G1 X70.655 Y58.554 E22.64645
G1 X70.504 Y58.743 E22.66451
G1 X70.183 Y59.064 E22.69851
G1 X69.994 Y59.214 E22.71658
G1 X69.701 Y59.398 E22.74246
G1 X69.388 Y59.562 E22.76893
G1 X68.937 Y59.717 E22.80459
G1 X68.719 Y59.765 E22.82131
G1 X68.209 Y59.815 E22.85969
G1 X66.994 Y59.810 E22.95057
G1 X66.593 Y59.765 E22.98077
G1 X66.374 Y59.717 E22.99754
G1 X65.925 Y59.562 E23.03312
G1 X65.715 Y59.462 E23.05051
G1 X65.319 Y59.214 E23.08550
G1 X65.130 Y59.064 E23.10357
G1 X64.809 Y58.743 E23.13750
G1 X64.658 Y58.554 E23.15561
G1 X64.410 Y58.157 E23.19064
G1 X64.310 Y57.947 E23.20802
G1 X64.155 Y57.497 E23.24368
G1 X64.107 Y57.279 E23.26040
G1 X64.057 Y56.768 E23.29880
G1 X64.044 Y47.591 E23.98558
G1 X63.977 Y47.329 E24.00583
G1 X63.831 Y47.077 E24.02761
G1 X63.638 Y46.887 E24.04786
G1 X63.525 Y46.813 E24.05801
G1 X63.350 Y46.737 E24.07226
G1 E22.07226 F2400.00000
G92 E0
G1 X55.375 Y66.032 F30000.000
G1 E2.00000 F2400.00000
G1 F2100
G1 X55.375 Y47.664 E3.37459
G1 X55.411 Y46.975 E3.42618
G1 X55.511 Y46.277 E3.47900
G1 X55.676 Y45.591 E3.53181
G1 X55.904 Y44.923 E3.58462
G1 X56.192 Y44.278 E3.63744
G1 X56.538 Y43.663 E3.69026
G1 X56.940 Y43.083 E3.74307
G1 X57.393 Y42.542 E3.79588
G1 X57.894 Y42.045 E3.84870
G1 X58.382 Y41.640 E3.89616
G1 X58.928 Y41.262 E3.94583
G1 X59.578 Y40.892 E4.00179
G1 X60.222 Y40.604 E4.05459
G1 X60.890 Y40.377 E4.10740
G1 X61.576 Y40.212 E4.16023
G1 X62.275 Y40.111 E4.21304
G1 X62.980 Y40.075 E4.26587
G1 X63.756 Y40.111 E4.32401
G1 X64.454 Y40.212 E4.37683
G1 X65.141 Y40.377 E4.42964
G1 X65.809 Y40.604 E4.48246
G1 X66.453 Y40.892 E4.53527
G1 X67.007 Y41.201 E4.58274
G1 X67.591 Y41.597 E4.63555
G1 X68.136 Y42.045 E4.68836
G1 X68.638 Y42.542 E4.74120
G1 X69.091 Y43.083 E4.79400
G1 X69.530 Y43.724 E4.85216
G1 X69.839 Y44.278 E4.89963
G1 X70.127 Y44.923 E4.95243
G1 X70.354 Y45.591 E5.00526
G1 X70.532 Y46.347 E5.06341
G1 X70.627 Y47.047 E5.11622
G1 X70.656 Y47.699 E5.16512
G1 X70.656 Y56.753 E5.84266
G1 X70.613 Y57.181 E5.87481
G1 X70.547 Y57.434 E5.89442
G1 X70.375 Y57.870 E5.92945
G1 X70.165 Y58.206 E5.95915
G1 X69.845 Y58.553 E5.99446
G1 X69.646 Y58.724 E6.01407
G1 X69.310 Y58.935 E6.04375
G1 X68.874 Y59.106 E6.07880
G1 X68.621 Y59.173 E6.09840
G1 X68.193 Y59.215 E6.13057
G1 X67.119 Y59.215 E6.21094
G1 X66.692 Y59.173 E6.24312
