; generated by Slic3r 1.3.0 on 2023-04-01 at 01:51:43

; external perimeters extrusion width = 0.44mm (2.78mm^3/s)
; perimeters extrusion width = 0.40mm (7.14mm^3/s)
; infill extrusion width = 0.50mm (10.97mm^3/s)
; solid infill extrusion width = 0.60mm (6.68mm^3/s)
; top infill extrusion width = 0.40mm (2.14mm^3/s)

M107
M190 S80 ; set bed temperature and wait for it to be reached
M104 S210 ; set temperature
G28 ; home all axes
G1 Z5 F5000 ; lift nozzle

; Filament gcode

M109 S210 ; set temperature and wait for it to be reached
G21 ; set units to millimeters
G90 ; use absolute coordinates
M82 ; use absolute distances for extrusion
G92 E0
G1 Z0.300 F30000.000
G1 E-2.00000 F2400.00000
G92 E0
G1 X60.902 Y61.172 F30000.000
G1 E2.00000 F2400.00000
G1 F2100
G1 X62.616 Y59.920 E2.14175
G1 X65.050 Y59.372 E2.30845
G1 X84.950 Y59.372 E3.63788
G1 X87.035 Y59.768 E3.77963
G1 X88.828 Y60.902 E3.92139
G1 X90.080 Y62.616 E4.06314
G1 X90.628 Y65.050 E4.22984
G1 X90.628 Y84.950 E5.55927
G1 X90.232 Y87.035 E5.70102
G1 X89.098 Y88.828 E5.84278
G1 X87.384 Y90.080 E5.98453
G1 X84.950 Y90.628 E6.15123
G1 X65.050 Y90.628 E7.48066
G1 X62.965 Y90.232 E7.62241
G1 X61.172 Y89.098 E7.76417
G1 X59.920 Y87.384 E7.90592
G1 X59.372 Y84.950 E8.07262
G1 X59.372 Y65.050 E9.40204
G1 X59.768 Y62.965 E9.54380
G1 X60.870 Y61.223 E9.68155
G1 X61.431 Y61.397 F30000.000
G1 F2100
G1 X63.116 Y60.285 E9.81639
G1 X65.050 Y59.908 E9.94804
G1 X84.950 Y59.908 E11.27747
G1 X86.929 Y60.304 E11.41231
G1 X88.603 Y61.431 E11.54715
G1 X89.715 Y63.116 E11.68199
G1 X90.092 Y65.050 E11.81365
G1 X90.092 Y84.950 E13.14308
G1 X89.696 Y86.929 E13.27792
G1 X88.569 Y88.603 E13.41276
G1 X86.884 Y89.715 E13.54760
G1 X84.950 Y90.092 E13.67925
G1 X65.050 Y90.092 E15.00868
G1 X63.071 Y89.696 E15.14352
G1 X61.397 Y88.569 E15.27836
G1 X60.285 Y86.884 E15.41320
G1 X59.908 Y84.950 E15.54486
G1 X59.908 Y65.050 E16.87429
G1 X60.304 Y63.071 E17.00913
G1 X61.397 Y61.446 E17.13996
G1 X61.958 Y61.635 F30000.000
G1 F2100
G1 X63.608 Y60.675 E17.26751
G1 X65.050 Y60.443 E17.36508
G1 X84.950 Y60.443 E18.69451
G1 X86.818 Y60.839 E18.82206
G1 X88.365 Y61.958 E18.94961
G1 X89.325 Y63.608 E19.07717
G1 X89.557 Y65.050 E19.17474
G1 X89.557 Y84.950 E20.50416
G1 X89.161 Y86.818 E20.63172
G1 X88.042 Y88.365 E20.75927
G1 X86.392 Y89.325 E20.88682
G1 X84.950 Y89.557 E20.98439
G1 X65.050 Y89.557 E22.31382
G1 X63.182 Y89.161 E22.44137
G1 X61.635 Y88.042 E22.56892
G1 X60.675 Y86.392 E22.69648
G1 X60.443 Y84.950 E22.79404
G1 X60.443 Y65.050 E24.12347
G1 X60.839 Y63.182 E24.25102
G1 X61.923 Y61.684 E24.37457
G1 X62.482 Y61.890 F30000.000
G1 F2100
G1 X64.089 Y61.094 E24.49439
G1 X65.050 Y60.979 E24.55903
G1 X84.950 Y60.979 E25.88845
G1 X86.700 Y61.374 E26.00828
G1 X88.110 Y62.482 E26.12810
G1 X88.906 Y64.089 E26.24792
G1 X89.021 Y65.050 E26.31255
G1 X89.021 Y84.950 E27.64198
G1 X88.626 Y86.700 E27.76180
G1 X87.518 Y88.110 E27.88163
G1 X85.911 Y88.906 E28.00145
G1 X84.950 Y89.021 E28.06608
G1 X65.050 Y89.021 E29.39551
G1 X63.300 Y88.626 E29.51533
G1 X61.890 Y87.518 E29.63515
G1 X61.094 Y85.911 E29.75498
G1 X60.979 Y84.950 E29.81961
G1 X60.979 Y65.050 E31.14904
G1 X61.374 Y63.300 E31.26886
G1 X62.445 Y61.938 E31.38468
G1 X63.004 Y62.167 F30000.000
G1 F2100
G1 X65.050 Y61.514 E31.52815
G1 X84.950 Y61.514 E32.85758
G1 X86.573 Y61.909 E32.96914
G1 X87.833 Y63.004 E33.08069
G1 X88.486 Y65.050 E33.22417
G1 X88.486 Y84.950 E34.55360
G1 X88.091 Y86.573 E34.66515
G1 X86.996 Y87.833 E34.77671
G1 X84.950 Y88.486 E34.92018
G1 X65.050 Y88.486 E36.24961
G1 X63.427 Y88.091 E36.36117
G1 X62.167 Y86.996 E36.47273
G1 X61.514 Y84.950 E36.61620
G1 X61.514 Y65.050 E37.94563
G1 X61.909 Y63.427 E38.05719
G1 X62.964 Y62.212 E38.16474
G1 E36.16474 F2400.00000
G92 E0
G1 X84.114 Y84.114 F30000.000
G1 E2.00000 F2400.00000
G1 F2100
G1 X65.886 Y84.114 E3.21778
G1 X65.886 Y65.886 E4.43556
G1 X84.114 Y65.886 E5.65334
G1 X84.114 Y84.054 E6.86711
G1 X84.650 Y84.650 F30000.000
G1 F2100
G1 X65.350 Y84.650 E8.15646
G1 X65.350 Y65.350 E9.44580
G1 X84.650 Y65.350 E10.73514
G1 X84.650 Y84.590 E12.02048
G1 X84.264 Y84.546 F30000.000
G1 X83.522 Y83.636 F30000.000
G1 F2100
G1 X83.636 Y83.522 E12.03130
G1 X83.636 Y82.759 E12.08258
G1 X82.759 Y83.636 E12.16593
G1 X81.997 Y83.636 E12.21721
G1 X83.636 Y81.997 E12.37308
G1 X83.636 Y81.234 E12.42437
G1 X81.234 Y83.636 E12.65277
G1 X80.472 Y83.636 E12.70405
G1 X83.636 Y80.472 E13.00497
G1 X83.636 Y79.709 E13.05626
G1 X79.709 Y83.636 E13.42971
G1 X78.947 Y83.636 E13.48099
G1 X83.636 Y78.947 E13.92696
G1 X83.636 Y78.184 E13.97825
G1 X78.184 Y83.636 E14.49675
G1 X77.421 Y83.636 E14.54803
G1 X83.636 Y77.421 E15.13906
G1 X83.636 Y76.659 E15.19034
G1 X76.659 Y83.636 E15.85390
G1 X75.896 Y83.636 E15.90518
G1 X83.636 Y75.896 E16.64126
G1 X83.636 Y75.134 E16.69254
G1 X75.134 Y83.636 E17.50115
G1 X74.371 Y83.636 E17.55243
G1 X83.636 Y74.371 E18.43356
G1 X83.636 Y73.609 E18.48484
G1 X73.609 Y83.636 E19.43850
G1 X72.846 Y83.636 E19.48979
G1 X83.636 Y72.846 E20.51597
G1 X83.636 Y72.084 E20.56725
G1 X72.084 Y83.636 E21.66596
G1 X71.321 Y83.636 E21.71724
G1 X83.636 Y71.321 E22.88848
G1 X83.636 Y70.558 E22.93976
G1 X70.558 Y83.636 E24.18352
G1 X69.796 Y83.636 E24.23480
G1 X83.636 Y69.796 E25.55109
G1 X83.636 Y69.033 E25.60237
G1 X69.033 Y83.636 E26.99119
G1 X68.271 Y83.636 E27.04247
G1 X83.636 Y68.271 E28.50381
G1 X83.636 Y67.508 E28.55509
G1 X67.508 Y83.636 E30.08895
G1 X66.746 Y83.636 E30.14024
G1 X83.636 Y66.746 E31.74663
G1 X83.636 Y66.364 E31.77227
G1 X83.254 Y66.364 E31.79791
G1 X66.364 Y83.254 E33.40431
G1 X66.364 Y82.492 E33.45559
G1 X82.492 Y66.364 E34.98946
G1 X81.729 Y66.364 E35.04074
G1 X66.364 Y81.729 E36.50208
G1 X66.364 Y80.967 E36.55337
G1 X80.967 Y66.364 E37.94219
G1 X80.204 Y66.364 E37.99347
G1 X66.364 Y80.204 E39.30976
G1 X66.364 Y79.442 E39.36104
G1 X79.442 Y66.364 E40.60481
G1 X78.679 Y66.364 E40.65609
G1 X66.364 Y78.679 E41.82733
G1 X66.364 Y77.916 E41.87861
G1 X77.916 Y66.364 E42.97733
G1 X77.154 Y66.364 E43.02861
G1 X66.364 Y77.154 E44.05480
G1 X66.364 Y76.391 E44.10608
G1 X76.391 Y66.364 E45.05974
G1 X75.629 Y66.364 E45.11103
G1 X66.364 Y75.629 E45.99216
G1 X66.364 Y74.866 E46.04345
G1 X74.866 Y66.364 E46.85206
G1 X74.104 Y66.364 E46.90334
G1 X66.364 Y74.104 E47.63942
G1 X66.364 Y73.341 E47.69071
G1 X73.341 Y66.364 E48.35427
G1 X72.579 Y66.364 E48.40555
G1 X66.364 Y72.579 E48.99658
G1 X66.364 Y71.816 E49.04787
G1 X71.816 Y66.364 E49.56637
G1 X71.054 Y66.364 E49.61766
G1 X66.364 Y71.054 E50.06364
G1 X66.364 Y70.291 E50.11492
G1 X70.291 Y66.364 E50.48837
G1 X69.528 Y66.364 E50.53966
G1 X66.364 Y69.528 E50.84059
G1 X66.364 Y68.766 E50.89187
G1 X68.766 Y66.364 E51.12027
G1 X68.003 Y66.364 E51.17155
G1 X66.364 Y68.003 E51.32743
G1 X66.364 Y67.241 E51.37872
G1 X67.241 Y66.364 E51.46207
G1 X66.478 Y66.364 E51.51335
G1 X66.365 Y66.478 E51.52416
G1 Z0.500 F30000.000
G1 X84.353 Y84.353 F30000.000
G1 F6000
G1 X65.647 Y84.353 E52.07956
G1 X65.647 Y65.647 E52.63496
G1 X84.353 Y65.647 E53.19036
G1 X84.353 Y84.293 E53.74398
G1 X84.730 Y84.730 F30000.000
G1 F2100
G1 X65.270 Y84.730 E54.38649
G1 X65.270 Y65.270 E55.02901
G1 X84.730 Y65.270 E55.67153
G1 X84.730 Y84.670 E56.31206
G1 X84.344 Y84.626 F30000.000
G1 X83.944 Y66.153 F30000.000
G1 F3600
G1 X83.847 Y66.056 E56.31845
G1 X83.057 Y66.056 E56.35521
G1 X83.944 Y66.943 E56.41359
G1 X83.944 Y67.734 E56.45035
G1 X82.266 Y66.056 E56.56072
G1 X81.475 Y66.056 E56.59748
G1 X83.944 Y68.525 E56.75984
G1 X83.944 Y69.316 E56.79660
G1 X80.684 Y66.056 E57.01095
G1 X79.894 Y66.056 E57.04771
G1 X83.944 Y70.106 E57.31405
G1 X83.944 Y70.897 E57.35081
G1 X79.103 Y66.056 E57.66914
G1 X78.312 Y66.056 E57.70591
G1 X83.944 Y71.688 E58.07623
G1 X83.944 Y72.479 E58.11299
G1 X77.521 Y66.056 E58.53530
G1 X76.731 Y66.056 E58.57206
G1 X83.944 Y73.269 E59.04637
G1 X83.944 Y74.060 E59.08313
G1 X75.940 Y66.056 E59.60942
G1 X75.149 Y66.056 E59.64619
G1 X83.944 Y74.851 E60.22447
G1 X83.944 Y75.642 E60.26123
G1 X74.358 Y66.056 E60.89151
G1 X73.568 Y66.056 E60.92827
G1 X83.944 Y76.432 E61.61054
G1 X83.944 Y77.223 E61.64730
G1 X72.777 Y66.056 E62.38156
G1 X71.986 Y66.056 E62.41832
G1 X83.944 Y78.014 E63.20457
G1 X83.944 Y78.805 E63.24133
G1 X71.195 Y66.056 E64.07957
G1 X70.405 Y66.056 E64.11634
G1 X83.944 Y79.595 E65.00657
G1 X83.944 Y80.386 E65.04333
G1 X69.614 Y66.056 E65.98555
G1 X68.823 Y66.056 E66.02231
G1 X83.944 Y81.177 E67.01652
G1 X83.944 Y81.967 E67.05329
G1 X68.033 Y66.056 E68.09949
G1 X67.242 Y66.056 E68.13625
G1 X83.944 Y82.758 E69.23445
G1 X83.944 Y83.549 E69.27121
G1 X66.451 Y66.056 E70.42139
G1 X66.056 Y66.056 E70.43978
G1 X66.056 Y66.451 E70.45816
G1 X83.549 Y83.944 E71.60834
G1 X82.758 Y83.944 E71.64511
G1 X66.056 Y67.242 E72.74330
G1 X66.056 Y68.032 E72.78007
G1 X81.968 Y83.944 E73.82627
G1 X81.177 Y83.944 E73.86304
G1 X66.056 Y68.823 E74.85725
G1 X66.056 Y69.614 E74.89401
G1 X80.386 Y83.944 E75.83624
G1 X79.595 Y83.944 E75.87300
G1 X66.056 Y70.405 E76.76323
G1 X66.056 Y71.195 E76.79999
G1 X78.805 Y83.944 E77.63824
G1 X78.014 Y83.944 E77.67500
G1 X66.056 Y71.986 E78.46125
G1 X66.056 Y72.777 E78.49801
G1 X77.223 Y83.944 E79.23227
G1 X76.432 Y83.944 E79.26904
G1 X66.056 Y73.568 E79.95131
G1 X66.056 Y74.358 E79.98807
G1 X75.642 Y83.944 E80.61835
G1 X74.851 Y83.944 E80.65511
G1 X66.056 Y75.149 E81.23340
G1 X66.056 Y75.940 E81.27016
G1 X74.060 Y83.944 E81.79646
G1 X73.269 Y83.944 E81.83322
G1 X66.056 Y76.731 E82.30752
G1 X66.056 Y77.521 E82.34429
G1 X72.479 Y83.944 E82.76660
G1 X71.688 Y83.944 E82.80337
G1 X66.056 Y78.312 E83.17369
G1 X66.056 Y79.103 E83.21045
G1 X70.897 Y83.944 E83.52878
G1 X70.106 Y83.944 E83.56555
G1 X66.056 Y79.894 E83.83189
G1 X66.056 Y80.684 E83.86865
G1 X69.316 Y83.944 E84.08300
G1 X68.525 Y83.944 E84.11977
G1 X66.056 Y81.475 E84.28213
G1 X66.056 Y82.266 E84.31889
G1 X67.734 Y83.944 E84.42926
G1 X66.944 Y83.944 E84.46602
G1 X66.056 Y83.056 E84.52440
G1 X66.056 Y83.847 E84.56116
G1 X66.153 Y83.944 E84.56754
G1 Z0.700 F30000.000
G1 X84.353 Y84.353 F30000.000
G1 F6000
G1 X65.647 Y84.353 E85.12294
G1 X65.647 Y65.647 E85.67834
G1 X84.353 Y65.647 E86.23374
G1 X84.353 Y84.293 E86.78736
G1 X84.730 Y84.730 F30000.000
G1 F2100
G1 X65.270 Y84.730 E87.42988
G1 X65.270 Y65.270 E88.07239
G1 X84.730 Y65.270 E88.71491
G1 X84.730 Y84.670 E89.35545
G1 X84.344 Y84.626 F30000.000
G1 X83.847 Y83.944 F30000.000
G1 F3600
G1 X83.944 Y83.847 E89.36183
G1 X83.944 Y83.057 E89.39859
G1 X83.057 Y83.944 E89.45697
G1 X82.266 Y83.944 E89.49373
G1 X83.944 Y82.266 E89.60410
G1 X83.944 Y81.475 E89.64086
G1 X81.475 Y83.944 E89.80322
G1 X80.684 Y83.944 E89.83998
G1 X83.944 Y80.684 E90.05433
G1 X83.944 Y79.894 E90.09109
G1 X79.894 Y83.944 E90.35743
G1 X79.103 Y83.944 E90.39419
G1 X83.944 Y79.103 E90.71252
G1 X83.944 Y78.312 E90.74929
G1 X78.312 Y83.944 E91.11961
G1 X77.521 Y83.944 E91.15637
G1 X83.944 Y77.521 E91.57868
G1 X83.944 Y76.731 E91.61545
G1 X76.731 Y83.944 E92.08975
G1 X75.940 Y83.944 E92.12651
G1 X83.944 Y75.940 E92.65280
G1 X83.944 Y75.149 E92.68957
G1 X75.149 Y83.944 E93.26785
G1 X74.358 Y83.944 E93.30462
G1 X83.944 Y74.358 E93.93489
G1 X83.944 Y73.568 E93.97165
G1 X73.568 Y83.944 E94.65392
G1 X72.777 Y83.944 E94.69068
G1 X83.944 Y72.777 E95.42494
G1 X83.944 Y71.986 E95.46170
G1 X71.986 Y83.944 E96.24795
G1 X71.195 Y83.944 E96.28471
G1 X83.944 Y71.195 E97.12295
G1 X83.944 Y70.405 E97.15972
G1 X70.405 Y83.944 E98.04995
G1 X69.614 Y83.944 E98.08671
G1 X83.944 Y69.614 E99.02893
G1 X83.944 Y68.823 E99.06569
G1 X68.823 Y83.944 E100.05990
G1 X68.033 Y83.944 E100.09667
G1 X83.944 Y68.033 E101.14287
G1 X83.944 Y67.242 E101.17963
G1 X67.242 Y83.944 E102.27783
G1 X66.451 Y83.944 E102.31459
G1 X83.944 Y66.451 E103.46477
G1 X83.944 Y66.056 E103.48316
G1 X83.549 Y66.056 E103.50154
G1 X66.056 Y83.549 E104.65172
G1 X66.056 Y82.758 E104.68849
G1 X82.758 Y66.056 E105.78668
G1 X81.968 Y66.056 E105.82345
G1 X66.056 Y81.968 E106.86965
G1 X66.056 Y81.177 E106.90642
G1 X81.177 Y66.056 E107.90063
G1 X80.386 Y66.056 E107.93739
G1 X66.056 Y80.386 E108.87962
G1 X66.056 Y79.595 E108.91638
G1 X79.595 Y66.056 E109.80661
G1 X78.805 Y66.056 E109.84337
G1 X66.056 Y78.805 E110.68162
G1 X66.056 Y78.014 E110.71838
G1 X78.014 Y66.056 E111.50463
G1 X77.223 Y66.056 E111.54139
G1 X66.056 Y77.223 E112.27565
G1 X66.056 Y76.432 E112.31242
G1 X76.432 Y66.056 E112.99468
G1 X75.642 Y66.056 E113.03145
G1 X66.056 Y75.642 E113.66173
G1 X66.056 Y74.851 E113.69849
G1 X74.851 Y66.056 E114.27678
G1 X74.060 Y66.056 E114.31354
G1 X66.056 Y74.060 E114.83984
G1 X66.056 Y73.269 E114.87660
G1 X73.269 Y66.056 E115.35090
G1 X72.479 Y66.056 E115.38767
G1 X66.056 Y72.479 E115.80998
G1 X66.056 Y71.688 E115.84674
G1 X71.688 Y66.056 E116.21707
G1 X70.897 Y66.056 E116.25383
G1 X66.056 Y70.897 E116.57216
G1 X66.056 Y70.106 E116.60893
G1 X70.106 Y66.056 E116.87527
G1 X69.316 Y66.056 E116.91203
G1 X66.056 Y69.316 E117.12638
G1 X66.056 Y68.525 E117.16314
G1 X68.525 Y66.056 E117.32550
G1 X67.734 Y66.056 E117.36227
G1 X66.056 Y67.734 E117.47264
G1 X66.056 Y66.944 E117.50940
G1 X66.944 Y66.056 E117.56778
G1 X66.153 Y66.056 E117.60454
G1 X66.056 Y66.153 E117.61092
M106 S255
G1 Z0.900 F30000.000
G1 X84.353 Y84.353 F30000.000
G1 F5312.6
G1 X65.647 Y84.353 E118.16632
G1 X65.647 Y65.647 E118.72172
G1 X84.353 Y65.647 E119.27712
G1 X84.353 Y84.293 E119.83074
G1 X84.730 Y84.730 F30000.000
G1 F1859.41
G1 X65.270 Y84.730 E120.47325
G1 X65.270 Y65.270 E121.11577
G1 X84.730 Y65.270 E121.75829
G1 X84.730 Y84.670 E122.39882
G1 X84.344 Y84.626 F30000.000
G1 X83.989 Y67.829 F30000.000
G1 F6375.12
G1 X82.171 Y66.011 E122.49653
G1 X78.939 Y66.011 E122.61937
G1 X83.989 Y71.061 E122.89080
G1 X83.989 Y74.293 E123.01364
G1 X75.707 Y66.011 E123.45878
G1 X72.475 Y66.011 E123.58162
G1 X83.989 Y77.525 E124.20049
G1 X83.989 Y80.757 E124.32333
G1 X69.243 Y66.011 E125.11591
G1 X66.011 Y66.011 E125.23875
G1 X83.989 Y83.989 E126.20505
G1 X80.757 Y83.989 E126.32789
G1 X66.011 Y69.243 E127.12048
G1 X66.011 Y72.475 E127.24331
G1 X77.525 Y83.989 E127.86218
G1 X74.293 Y83.989 E127.98502
G1 X66.011 Y75.707 E128.43017
G1 X66.011 Y78.939 E128.55300
G1 X71.061 Y83.989 E128.82443
G1 X67.829 Y83.989 E128.94727
G1 X66.011 Y82.171 E129.04498
G1 Z1.100 F30000.000
G1 X84.353 Y84.353 F30000.000
G1 F5312.6
G1 X65.647 Y84.353 E129.60038
G1 X65.647 Y65.647 E130.15578
G1 X84.353 Y65.647 E130.71118
G1 X84.353 Y84.293 E131.26480
G1 X84.730 Y84.730 F30000.000
G1 F1859.41
G1 X65.270 Y84.730 E131.90732
G1 X65.270 Y65.270 E132.54983
G1 X84.730 Y65.270 E133.19235
G1 X84.730 Y84.670 E133.83289
G1 X84.344 Y84.626 F30000.000
G1 X82.171 Y83.989 F30000.000
G1 F6375.12
G1 X83.989 Y82.171 E133.93060
G1 X83.989 Y78.939 E134.05343
G1 X78.939 Y83.989 E134.32486
G1 X75.707 Y83.989 E134.44770
G1 X83.989 Y75.707 E134.89285
G1 X83.989 Y72.475 E135.01569
G1 X72.475 Y83.989 E135.63455
G1 X69.243 Y83.989 E135.75739
G1 X83.989 Y69.243 E136.54997
G1 X83.989 Y66.011 E136.67281
G1 X66.011 Y83.989 E137.63912
G1 X66.011 Y80.757 E137.76195
G1 X80.757 Y66.011 E138.55454
G1 X77.525 Y66.011 E138.67738
G1 X66.011 Y77.525 E139.29624
G1 X66.011 Y74.293 E139.41908
G1 X74.293 Y66.011 E139.86423
G1 X71.061 Y66.011 E139.98707
G1 X66.011 Y71.061 E140.25849
G1 X66.011 Y67.829 E140.38133
G1 X67.829 Y66.011 E140.47904
G1 Z1.300 F30000.000
G1 X84.353 Y84.353 F30000.000
G1 F5312.6
G1 X65.647 Y84.353 E141.03444
G1 X65.647 Y65.647 E141.58984
G1 X84.353 Y65.647 E142.14524
G1 X84.353 Y84.293 E142.69886
G1 X84.730 Y84.730 F30000.000
G1 F1859.41
G1 X65.270 Y84.730 E143.34138
G1 X65.270 Y65.270 E143.98390
G1 X84.730 Y65.270 E144.62641
G1 X84.730 Y84.670 E145.26695
G1 X84.344 Y84.626 F30000.000
G1 X83.989 Y67.829 F30000.000
G1 F6375.12
G1 X82.171 Y66.011 E145.36466
G1 X78.939 Y66.011 E145.48750
G1 X83.989 Y71.061 E145.75893
G1 X83.989 Y74.293 E145.88176
G1 X75.707 Y66.011 E146.32691
G1 X72.475 Y66.011 E146.44975
G1 X83.989 Y77.525 E147.06862
G1 X83.989 Y80.757 E147.19145
G1 X69.243 Y66.011 E147.98404
G1 X66.011 Y66.011 E148.10688
G1 X83.989 Y83.989 E149.07318
G1 X80.757 Y83.989 E149.19602
G1 X66.011 Y69.243 E149.98860
G1 X66.011 Y72.475 E150.11144
G1 X77.525 Y83.989 E150.73031
G1 X74.293 Y83.989 E150.85314
G1 X66.011 Y75.707 E151.29829
