; generated by Slic3r 1.3.0 on 2023-03-02 at 20:30:18

; external perimeters extrusion width = 0.44mm (2.78mm^3/s)
; perimeters extrusion width = 0.40mm (7.14mm^3/s)
; infill extrusion width = 0.50mm (10.97mm^3/s)
; solid infill extrusion width = 0.60mm (6.68mm^3/s)
; top infill extrusion width = 0.40mm (2.14mm^3/s)

M107
M190 S80 ; set bed temperature and wait for it to be reached
M104 S210 ; set temperature
G28 ; home all axes
G1 Z5 F5000 ; lift nozzle

; Filament gcode

M109 S210 ; set temperature and wait for it to be reached
G21 ; set units to millimeters
G90 ; use absolute coordinates
M82 ; use absolute distances for extrusion
G92 E0
G1 Z0.300 F30000.000
G1 E-2.00000 F2400.00000
G92 E0
G1 X48.943 Y48.814 F30000.000
G1 E2.00000 F2400.00000
G1 F2100
G1 X49.230 Y48.531 E2.02698
G1 X50.854 Y47.059 E2.17338
G1 X51.420 Y46.602 E2.22198
G1 X52.771 Y45.630 E2.33311
G1 X53.243 Y45.325 E2.37071
G1 X53.780 Y45.027 E2.41174
G1 X55.460 Y44.200 E2.53681
G1 X55.961 Y43.981 E2.57334
G1 X57.088 Y43.555 E2.65385
G1 X58.181 Y43.172 E2.73124
G1 X59.194 Y42.865 E2.80193
G1 X59.988 Y42.662 E2.85670
G1 X61.082 Y42.443 E2.93120
G1 X62.264 Y42.254 E3.01119
G1 X64.194 Y42.114 E3.14047
G1 X64.909 Y42.097 E3.18822
G1 X67.007 Y42.197 E3.32855
G1 X67.768 Y42.276 E3.37963
G1 X68.659 Y42.426 E3.43999
G1 X69.991 Y42.706 E3.53096
G1 X70.790 Y42.909 E3.58603
G1 X71.506 Y43.128 E3.63601
G1 X72.937 Y43.641 E3.73757
G1 X74.049 Y44.071 E3.81722
G1 X74.819 Y44.432 E3.87404
G1 X76.221 Y45.197 E3.98073
G1 X76.790 Y45.528 E4.02475
G1 X77.301 Y45.858 E4.06533
G1 X78.688 Y46.867 E4.17997
G1 X79.144 Y47.224 E4.21864
G1 X79.645 Y47.652 E4.26268
G1 X80.869 Y48.771 E4.37345
G1 X81.433 Y49.340 E4.42695
G1 X82.677 Y50.764 E4.55325
G1 X83.180 Y51.396 E4.60723
G1 X83.751 Y52.191 E4.67264
G1 X84.274 Y52.994 E4.73666
G1 X84.706 Y53.735 E4.79396
G1 X86.679 Y57.345 E5.06880
G1 X86.868 Y57.732 E5.09755
G1 X87.058 Y58.165 E5.12919
G1 X87.390 Y59.210 E5.20243
G1 X87.477 Y59.641 E5.23178
G1 X87.546 Y60.075 E5.26115
G1 X87.850 Y62.724 E5.43928
G1 X87.882 Y63.320 E5.47917
G1 X87.842 Y66.612 E5.69910
G1 X87.812 Y67.209 E5.73904
G1 X87.650 Y69.258 E5.87629
G1 X87.472 Y70.902 E5.98681
G1 X87.359 Y71.620 E6.03533
G1 X86.953 Y72.928 E6.12683
G1 X86.632 Y73.602 E6.17670
G1 X84.979 Y76.721 E6.41253
G1 X84.638 Y77.325 E6.45890
G1 X84.430 Y77.648 E6.48455
G1 X84.070 Y78.149 E6.52580
G1 X82.604 Y80.057 E6.68649
G1 X81.866 Y80.899 E6.76132
G1 X81.210 Y81.529 E6.82210
G1 X80.018 Y82.610 E6.92954
G1 X79.473 Y83.056 E6.97661
G1 X78.758 Y83.567 E7.03535
G1 X76.816 Y84.804 E7.18913
G1 X76.235 Y85.134 E7.23376
G1 X75.888 Y85.308 E7.25969
G1 X73.323 Y86.469 E7.44777
G1 X72.723 Y86.693 E7.49057
G1 X71.636 Y87.024 E7.56652
G1 X69.368 Y87.553 E7.72210
G1 X68.742 Y87.658 E7.76446
G1 X68.029 Y87.740 E7.81246
G1 X66.132 Y87.872 E7.93948
G1 X65.286 Y87.902 E7.99599
G1 X62.467 Y87.775 E8.18454
G1 X61.856 Y87.721 E8.22550
G1 X61.401 Y87.655 E8.25620
G1 X60.698 Y87.517 E8.30411
G1 X58.062 Y86.878 E8.48529
G1 X57.260 Y86.612 E8.54171
G1 X55.431 Y85.808 E8.67521
G1 X54.631 Y85.424 E8.73449
G1 X52.902 Y84.391 E8.86903
G1 X51.582 Y83.507 E8.97515
G1 X51.041 Y83.111 E9.01995
G1 X48.643 Y81.002 E9.23330
G1 X48.068 Y80.435 E9.28726
G1 X47.462 Y79.771 E9.34730
G1 X46.811 Y78.980 E9.41571
G1 X46.215 Y78.154 E9.48379
G1 X45.474 Y77.014 E9.57463
G1 X45.067 Y76.342 E9.62711
G1 X44.077 Y74.374 E9.77427
G1 X43.785 Y73.728 E9.82163
G1 X43.019 Y71.622 E9.97131
G1 X42.920 Y71.311 E9.99316
G1 X42.727 Y70.483 E10.04992
G1 X42.458 Y69.129 E10.14217
G1 X42.349 Y68.413 E10.19052
G1 X42.149 Y66.441 E10.32299
G1 X42.118 Y65.570 E10.38116
G1 X42.126 Y65.207 E10.40544
G1 X42.245 Y63.330 E10.53111
G1 X42.530 Y61.259 E10.67073
G1 X42.647 Y60.601 E10.71538
G1 X42.964 Y59.134 E10.81564
G1 X43.132 Y58.479 E10.86084
G1 X43.433 Y57.568 E10.92492
G1 X43.823 Y56.574 E10.99627
G1 X44.150 Y55.829 E11.05061
G1 X44.522 Y55.107 E11.10485
G1 X45.850 Y52.812 E11.28200
G1 X46.192 Y52.277 E11.32442
G1 X47.145 Y50.892 E11.43675
G1 X47.562 Y50.340 E11.48295
G1 X48.023 Y49.797 E11.53051
G1 X48.902 Y48.858 E11.61647
G1 X49.333 Y49.180 F30000.000
G1 F2100
G1 X51.039 Y47.608 E11.77142
G1 X51.502 Y47.217 E11.81198
G1 X53.082 Y46.066 E11.94256
G1 X53.524 Y45.780 E11.97771
G1 X54.032 Y45.499 E12.01646
G1 X55.695 Y44.681 E12.14025
G1 X56.168 Y44.474 E12.17479
G1 X57.272 Y44.058 E12.25362
G1 X58.341 Y43.683 E12.32927
G1 X59.340 Y43.381 E12.39898
G1 X60.097 Y43.186 E12.45120
G1 X61.176 Y42.970 E12.52472
G1 X62.318 Y42.787 E12.60202
G1 X64.230 Y42.648 E12.73009
G1 X64.916 Y42.632 E12.77589
G1 X66.979 Y42.732 E12.91386
G1 X67.705 Y42.808 E12.96267
G1 X68.549 Y42.951 E13.01984
G1 X69.880 Y43.230 E13.11071
G1 X70.642 Y43.424 E13.16320
G1 X71.328 Y43.633 E13.21114
G1 X72.748 Y44.142 E13.31187
G1 X73.844 Y44.566 E13.39038
G1 X74.571 Y44.907 E13.44401
G1 X75.964 Y45.667 E13.55004
G1 X76.520 Y45.990 E13.59301
G1 X77.004 Y46.303 E13.63151
G1 X78.372 Y47.299 E13.74457
G1 X78.811 Y47.644 E13.78185
G1 X79.285 Y48.049 E13.82348
G1 X80.494 Y49.153 E13.93287
G1 X81.034 Y49.697 E13.98411
G1 X82.268 Y51.110 E14.10942
G1 X82.755 Y51.722 E14.16169
G1 X83.304 Y52.486 E14.22450
G1 X83.818 Y53.275 E14.28744
G1 X84.241 Y54.000 E14.34350
G1 X86.208 Y57.601 E14.61761
G1 X86.378 Y57.947 E14.64337
G1 X86.568 Y58.381 E14.67500
G1 X86.865 Y59.317 E14.74062
G1 X86.952 Y59.747 E14.76997
G1 X87.014 Y60.136 E14.79627
G1 X87.318 Y62.784 E14.97432
G1 X87.346 Y63.318 E15.01005
G1 X87.307 Y66.588 E15.22849
G1 X87.278 Y67.168 E15.26731
G1 X87.117 Y69.209 E15.40408
G1 X86.940 Y70.843 E15.51386
G1 X86.831 Y71.530 E15.56037
G1 X86.468 Y72.702 E15.64235
G1 X86.159 Y73.351 E15.69032
G1 X84.508 Y76.466 E15.92585
G1 X84.176 Y77.053 E15.97088
G1 X83.990 Y77.343 E15.99389
G1 X83.549 Y77.952 E16.04413
G1 X82.181 Y79.729 E16.19396
G1 X81.478 Y80.530 E16.26513
G1 X80.845 Y81.138 E16.32379
G1 X79.675 Y82.198 E16.42927
G1 X79.151 Y82.627 E16.47450
G1 X78.464 Y83.119 E16.53093
G1 X76.598 Y84.309 E16.67881
G1 X75.977 Y84.665 E16.72662
G1 X75.666 Y84.821 E16.74986
G1 X73.115 Y85.975 E16.93692
G1 X72.556 Y86.184 E16.97676
G1 X71.491 Y86.508 E17.05117
G1 X69.276 Y87.025 E17.20311
G1 X68.670 Y87.127 E17.24415
G1 X67.985 Y87.206 E17.29021
G1 X66.102 Y87.337 E17.41630
G1 X65.300 Y87.366 E17.46995
G1 X62.500 Y87.241 E17.65721
G1 X61.914 Y87.189 E17.69650
G1 X61.500 Y87.129 E17.72446
G1 X60.824 Y86.996 E17.77047
G1 X58.188 Y86.357 E17.95164
G1 X57.470 Y86.119 E18.00219
G1 X55.648 Y85.318 E18.13515
G1 X54.886 Y84.953 E18.19159
G1 X53.200 Y83.946 E18.32278
G1 X51.880 Y83.062 E18.42891
G1 X51.377 Y82.693 E18.47064
G1 X49.017 Y80.618 E18.68054
G1 X48.458 Y80.068 E18.73294
G1 X47.870 Y79.423 E18.79124
G1 X47.241 Y78.660 E18.85728
G1 X46.661 Y77.857 E18.92344
G1 X45.927 Y76.728 E19.01343
G1 X45.535 Y76.081 E19.06400
G1 X44.556 Y74.135 E19.20951
G1 X44.274 Y73.511 E19.25526
G1 X43.524 Y71.443 E19.40222
G1 X43.434 Y71.162 E19.42189
G1 X43.252 Y70.377 E19.47575
G1 X42.984 Y69.025 E19.56786
G1 X42.879 Y68.338 E19.61422
G1 X42.682 Y66.388 E19.74519
G1 X42.654 Y65.563 E19.80034
G1 X42.779 Y63.373 E19.94689
G1 X43.060 Y61.335 E20.08433
G1 X43.174 Y60.700 E20.12741
G1 X43.487 Y59.248 E20.22663
G1 X43.650 Y58.615 E20.27027
G1 X43.935 Y57.754 E20.33089
G1 X44.321 Y56.772 E20.40138
G1 X44.634 Y56.059 E20.45338
G1 X44.990 Y55.367 E20.50541
G1 X46.313 Y53.082 E20.68178
G1 X46.640 Y52.570 E20.72241
G1 X47.586 Y51.196 E20.83380
G1 X47.972 Y50.684 E20.87661
G1 X48.423 Y50.153 E20.92320
G1 X49.292 Y49.224 E21.00817
G1 X49.724 Y49.547 F30000.000
G1 F2100
G1 X51.399 Y48.004 E21.16031
G1 X51.845 Y47.628 E21.19924
G1 X53.394 Y46.501 E21.32726
G1 X53.806 Y46.236 E21.35997
G1 X54.284 Y45.972 E21.39644
G1 X55.929 Y45.163 E21.51895
G1 X56.376 Y44.968 E21.55151
G1 X57.457 Y44.561 E21.62866
G1 X58.500 Y44.195 E21.70255
G1 X59.485 Y43.896 E21.77129
G1 X60.205 Y43.711 E21.82095
G1 X61.255 Y43.500 E21.89251
G1 X62.373 Y43.320 E21.96811
G1 X64.267 Y43.183 E22.09497
G1 X64.923 Y43.168 E22.13883
G1 X66.950 Y43.267 E22.27443
G1 X67.643 Y43.340 E22.32098
G1 X68.440 Y43.475 E22.37496
G1 X69.770 Y43.754 E22.46572
G1 X70.493 Y43.939 E22.51562
G1 X71.151 Y44.138 E22.56153
G1 X72.558 Y44.643 E22.66143
G1 X73.639 Y45.061 E22.73880
G1 X74.322 Y45.381 E22.78924
G1 X75.707 Y46.137 E22.89461
G1 X76.249 Y46.453 E22.93653
G1 X76.707 Y46.749 E22.97296
G1 X78.055 Y47.732 E23.08443
G1 X78.478 Y48.063 E23.12032
G1 X78.924 Y48.445 E23.15954
G1 X80.118 Y49.535 E23.26755
G1 X80.635 Y50.055 E23.31653
G1 X81.860 Y51.456 E23.44085
G1 X82.331 Y52.049 E23.49142
G1 X82.857 Y52.780 E23.55162
G1 X83.362 Y53.556 E23.61347
G1 X83.775 Y54.265 E23.66830
G1 X85.737 Y57.856 E23.94168
G1 X85.887 Y58.162 E23.96444
G1 X86.078 Y58.596 E23.99608
G1 X86.340 Y59.423 E24.05407
G1 X86.427 Y59.854 E24.08341
G1 X86.482 Y60.198 E24.10666
G1 X86.785 Y62.844 E24.28462
G1 X86.811 Y63.316 E24.31620
G1 X86.772 Y66.563 E24.53314
G1 X86.603 Y68.942 E24.69243
G1 X86.408 Y70.783 E24.81616
G1 X86.303 Y71.441 E24.86066
G1 X85.982 Y72.477 E24.93311
G1 X85.686 Y73.100 E24.97919
G1 X84.037 Y76.211 E25.21443
G1 X83.715 Y76.780 E25.25810
G1 X83.125 Y77.625 E25.32694
G1 X81.757 Y79.401 E25.47665
G1 X81.090 Y80.160 E25.54418
G1 X80.480 Y80.746 E25.60070
G1 X79.332 Y81.787 E25.70423
G1 X78.830 Y82.199 E25.74761
G1 X78.171 Y82.671 E25.80174
G1 X76.312 Y83.856 E25.94907
G1 X75.719 Y84.195 E25.99471
G1 X72.907 Y85.482 E26.20129
G1 X71.951 Y85.819 E26.26895
G1 X71.346 Y85.992 E26.31104
G1 X69.184 Y86.497 E26.45933
G1 X68.598 Y86.596 E26.49905
G1 X67.942 Y86.672 E26.54317
G1 X66.073 Y86.803 E26.66832
G1 X65.314 Y86.831 E26.71911
G1 X62.532 Y86.706 E26.90510
G1 X61.598 Y86.602 E26.96790
G1 X60.950 Y86.476 E27.01201
G1 X58.314 Y85.837 E27.19318
G1 X57.680 Y85.626 E27.23785
G1 X55.865 Y84.829 E27.37027
G1 X55.141 Y84.483 E27.42389
G1 X53.498 Y83.501 E27.55172
G1 X52.179 Y82.617 E27.65785
G1 X51.712 Y82.275 E27.69652
G1 X49.390 Y80.235 E27.90297
G1 X48.848 Y79.701 E27.95382
G1 X48.305 Y79.108 E28.00755
G1 X47.671 Y78.340 E28.07404
G1 X47.107 Y77.561 E28.13829
G1 X46.380 Y76.442 E28.22743
G1 X46.002 Y75.820 E28.27608
G1 X45.036 Y73.895 E28.41995
G1 X44.764 Y73.293 E28.46408
G1 X44.029 Y71.263 E28.60831
G1 X43.885 Y70.762 E28.64315
G1 X43.777 Y70.271 E28.67675
G1 X43.509 Y68.920 E28.76872
G1 X43.410 Y68.263 E28.81310
G1 X43.215 Y66.335 E28.94258
G1 X43.190 Y65.555 E28.99469
G1 X43.313 Y63.416 E29.13787
G1 X43.590 Y61.410 E29.27313
G1 X43.700 Y60.799 E29.31464
G1 X44.011 Y59.362 E29.41283
G1 X44.168 Y58.752 E29.45490
G1 X44.438 Y57.940 E29.51206
G1 X44.819 Y56.970 E29.58170
G1 X45.117 Y56.289 E29.63135
G1 X45.459 Y55.626 E29.68117
G1 X46.776 Y53.352 E29.85675
G1 X47.089 Y52.862 E29.89559
G1 X48.027 Y51.501 E30.00605
G1 X48.382 Y51.029 E30.04547
G1 X48.824 Y50.508 E30.09110
G1 X49.683 Y49.591 E30.17507
G1 X50.115 Y49.913 F30000.000
G1 F2100
G1 X51.760 Y48.400 E30.32441
G1 X52.187 Y48.040 E30.36171
G1 X53.706 Y46.937 E30.48716
G1 X54.087 Y46.692 E30.51743
G1 X54.536 Y46.445 E30.55161
G1 X56.164 Y45.644 E30.67285
G1 X56.584 Y45.462 E30.70342
G1 X57.641 Y45.063 E30.77889
G1 X58.660 Y44.706 E30.85104
G1 X59.631 Y44.412 E30.91880
G1 X60.313 Y44.235 E30.96591
G1 X61.351 Y44.027 E31.03662
G1 X62.427 Y43.853 E31.10940
G1 X64.303 Y43.717 E31.23505
G1 X64.930 Y43.704 E31.27697
G1 X66.922 Y43.802 E31.41020
G1 X67.581 Y43.872 E31.45448
G1 X68.330 Y43.999 E31.50527
G1 X69.659 Y44.278 E31.59593
G1 X70.345 Y44.453 E31.64325
G1 X70.973 Y44.644 E31.68712
G1 X72.369 Y45.144 E31.78619
G1 X73.434 Y45.556 E31.86242
G1 X74.074 Y45.856 E31.90967
G1 X75.450 Y46.607 E32.01438
G1 X75.979 Y46.915 E32.05526
G1 X76.410 Y47.195 E32.08961
G1 X77.739 Y48.164 E32.19949
G1 X78.145 Y48.483 E32.23399
G1 X78.564 Y48.841 E32.27080
G1 X79.743 Y49.917 E32.37743
G1 X80.236 Y50.412 E32.42414
G1 X81.451 Y51.803 E32.54748
G1 X81.906 Y52.375 E32.59634
G1 X82.409 Y53.075 E32.65394
G1 X82.899 Y53.827 E32.71391
G1 X83.310 Y54.530 E32.76830
G1 X85.397 Y58.378 E33.06070
G1 X85.587 Y58.811 E33.09234
G1 X85.815 Y59.530 E33.14269
G1 X85.902 Y59.960 E33.17204
G1 X86.253 Y62.904 E33.37009
G1 X86.275 Y63.314 E33.39752
G1 X86.237 Y66.539 E33.61295
G1 X86.070 Y68.893 E33.77065
G1 X85.875 Y70.724 E33.89364
G1 X85.775 Y71.352 E33.93613
G1 X85.496 Y72.252 E33.99905
G1 X85.212 Y72.849 E34.04324
G1 X83.565 Y75.957 E34.27818
G1 X83.254 Y76.508 E34.32051
G1 X82.700 Y77.298 E34.38495
G1 X81.334 Y79.072 E34.53454
G1 X80.703 Y79.790 E34.59842
G1 X80.115 Y80.354 E34.65282
G1 X78.989 Y81.376 E34.75439
G1 X78.508 Y81.770 E34.79592
G1 X77.878 Y82.223 E34.84775
G1 X76.026 Y83.404 E34.99452
G1 X75.460 Y83.726 E35.03800
G1 X72.698 Y84.988 E35.24088
G1 X71.785 Y85.310 E35.30557
G1 X71.201 Y85.477 E35.34612
G1 X69.093 Y85.970 E35.49077
G1 X68.526 Y86.066 E35.52917
G1 X67.899 Y86.138 E35.57135
G1 X66.085 Y86.265 E35.69285
G1 X65.327 Y86.296 E35.74349
G1 X62.568 Y86.172 E35.92802
G1 X61.696 Y86.076 E35.98659
G1 X61.076 Y85.955 E36.02880
G1 X58.440 Y85.316 E36.20997
G1 X57.889 Y85.134 E36.24877
G1 X57.545 Y84.987 E36.27378
G1 X56.014 Y84.308 E36.38567
G1 X55.309 Y83.964 E36.43808
G1 X53.927 Y83.139 E36.54557
G1 X52.477 Y82.172 E36.66204
G1 X52.047 Y81.857 E36.69764
G1 X51.675 Y81.541 E36.73024
G1 X49.906 Y79.984 E36.88764
G1 X49.346 Y79.444 E36.93967
G1 X48.712 Y78.760 E37.00193
G1 X48.100 Y78.021 E37.06606
G1 X47.570 Y77.289 E37.12638
G1 X46.833 Y76.156 E37.21667
G1 X46.397 Y75.420 E37.27385
G1 X45.515 Y73.656 E37.40563
G1 X45.153 Y72.825 E37.46614
G1 X44.463 Y70.865 E37.60495
G1 X44.302 Y70.164 E37.65301
G1 X44.034 Y68.816 E37.74484
G1 X43.923 Y68.042 E37.79707
G1 X43.748 Y66.282 E37.91523
G1 X43.731 Y65.298 E37.98097
G1 X43.806 Y63.979 E38.06927
G1 X43.870 Y63.245 E38.11850
G1 X44.121 Y61.486 E38.23719
G1 X44.227 Y60.897 E38.27713
G1 X44.534 Y59.476 E38.37428
G1 X44.686 Y58.889 E38.41479
G1 X44.940 Y58.126 E38.46849
G1 X45.352 Y57.082 E38.54348
G1 X45.601 Y56.520 E38.58457
G1 X46.087 Y55.597 E38.65423
G1 X47.238 Y53.622 E38.80698
G1 X47.538 Y53.155 E38.84402
G1 X48.468 Y51.805 E38.95355
G1 X48.792 Y51.374 E38.98958
G1 X49.225 Y50.864 E39.03424
G1 X50.073 Y49.957 E39.11723
G1 E37.11723 F2400.00000
G92 E0
G1 X77.547 Y76.765 F30000.000
G1 E2.00000 F2400.00000
G1 F2100
G1 X76.173 Y78.032 E2.12488
G1 X75.873 Y78.282 E2.15093
G1 X75.484 Y78.565 E2.18308
G1 X73.703 Y79.700 E2.32417
G1 X73.377 Y79.883 E2.34914
G1 X72.993 Y80.058 E2.37736
G1 X72.093 Y80.411 E2.44192
G1 X71.205 Y80.868 E2.50864
G1 X70.841 Y81.018 E2.53497
G1 X70.028 Y81.266 E2.59174
G1 X68.332 Y81.664 E2.70814
G1 X67.525 Y81.783 E2.76262
G1 X65.400 Y81.925 E2.90490
G1 X65.028 Y81.915 E2.92975
G1 X64.139 Y81.837 E2.98936
G1 X63.253 Y81.830 E3.04856
G1 X62.453 Y81.771 E3.10212
G1 X62.096 Y81.704 E3.12639
G1 X60.796 Y81.347 E3.21647
G1 X59.536 Y81.084 E3.30243
G1 X59.302 Y80.984 E3.31948
G1 X58.768 Y80.678 E3.36056
G1 X58.355 Y80.508 E3.39038
G1 X57.827 Y80.330 E3.42762
G1 X57.472 Y80.164 E3.45383
G1 X56.213 Y79.413 E3.55177
G1 X54.766 Y78.433 E3.66847
G1 X53.878 Y77.597 E3.74999
G1 X52.809 Y76.715 E3.84254
G1 X52.412 Y76.329 E3.87955
G1 X52.003 Y75.882 E3.92000
G1 X51.597 Y75.397 E3.96227
G1 X51.087 Y74.684 E4.02086
G1 X50.288 Y73.428 E4.12030
G1 X49.662 Y72.132 E4.21647
G1 X49.427 Y71.705 E4.24902
G1 X49.265 Y71.339 E4.27574
G1 X48.982 Y70.480 E4.33614
G1 X48.667 Y69.657 E4.39506
G1 X48.585 Y69.288 E4.42029
G1 X48.429 Y68.393 E4.48095
G1 X48.324 Y67.969 E4.51018
G1 X48.274 Y67.619 E4.53379
G1 X48.240 Y66.729 E4.59325
G1 X48.101 Y65.861 E4.65198
G1 X48.096 Y65.519 E4.67482
G1 X48.202 Y63.840 E4.78725
G1 X48.349 Y62.983 E4.84529
G1 X48.448 Y62.107 E4.90422
G1 X48.519 Y61.723 E4.93029
G1 X48.683 Y61.048 E4.97670
G1 X48.804 Y60.412 E5.01995
G1 X48.904 Y60.037 E5.04591
G1 X49.086 Y59.519 E5.08258
G1 X49.373 Y58.798 E5.13442
G1 X49.546 Y58.404 E5.16317
G1 X49.905 Y57.728 E5.21430
G1 X50.339 Y57.029 E5.26927
G1 X51.008 Y55.836 E5.36065
G1 X51.192 Y55.553 E5.38318
G1 X52.162 Y54.158 E5.49672
G1 X52.493 Y53.767 E5.53093
G1 X53.274 Y52.934 E5.60721
G1 X54.136 Y52.180 E5.68370
G1 X54.699 Y51.637 E5.73596
G1 X54.958 Y51.421 E5.75851
G1 X56.217 Y50.516 E5.86207
G1 X56.583 Y50.308 E5.89019
G1 X58.262 Y49.498 E6.01474
