; generated by Slic3r 1.3.0 on 2023-03-15 at 15:52:48

; external perimeters extrusion width = 0.44mm (2.78mm^3/s)
; perimeters extrusion width = 0.40mm (7.14mm^3/s)
; infill extrusion width = 0.50mm (10.97mm^3/s)
; solid infill extrusion width = 0.60mm (6.68mm^3/s)
; top infill extrusion width = 0.40mm (2.14mm^3/s)

M107
M190 S80 ; set bed temperature and wait for it to be reached
M104 S210 ; set temperature
G28 ; home all axes
G1 Z5 F5000 ; lift nozzle

; Filament gcode

M109 S210 ; set temperature and wait for it to be reached
G21 ; set units to millimeters
G90 ; use absolute coordinates
M82 ; use absolute distances for extrusion
G92 E0
G1 Z0.300 F30000.000
G1 E-2.00000 F2400.00000
G92 E0
G1 X46.101 Y52.597 F30000.000
G1 E2.00000 F2400.00000
G1 F2100
G1 X54.674 Y47.647 E2.66137
G1 X56.490 Y47.056 E2.78893
G1 X58.122 Y47.174 E2.89822
G1 X101.726 Y58.349 E5.90535
G1 X103.437 Y59.196 E6.03290
G1 X104.658 Y60.664 E6.16045
G1 X105.189 Y62.812 E6.30825
G1 X105.189 Y72.712 E6.96962
G1 X104.793 Y74.580 E7.09718
G1 X103.875 Y75.934 E7.20647
G1 X72.395 Y108.108 E10.21360
G1 X70.806 Y109.167 E10.34115
G1 X68.924 Y109.490 E10.46870
G1 X66.799 Y108.876 E10.61650
G1 X58.225 Y103.926 E11.27787
G1 X56.805 Y102.650 E11.40543
G1 X56.092 Y101.178 E11.51472
G1 X43.968 Y57.828 E14.52185
G1 X43.846 Y55.922 E14.64940
G1 X44.507 Y54.131 E14.77695
G1 X46.058 Y52.639 E14.92074
G1 X46.369 Y53.061 F30000.000
G1 F2100
G1 X54.942 Y48.111 E15.58211
G1 X56.655 Y47.579 E15.70194
G1 X57.989 Y47.693 E15.79136
G1 X101.593 Y58.868 E18.79849
G1 X103.189 Y59.685 E18.91831
G1 X104.280 Y61.109 E19.03814
G1 X104.653 Y62.812 E19.15459
G1 X104.653 Y72.712 E19.81597
G1 X104.258 Y74.461 E19.93579
G1 X103.492 Y75.559 E20.02521
G1 X72.012 Y107.734 E23.03235
G1 X70.506 Y108.708 E23.15217
G1 X68.728 Y108.941 E23.27199
G1 X67.067 Y108.412 E23.38845
G1 X58.493 Y103.462 E24.04982
G1 X57.175 Y102.246 E24.16964
G1 X56.608 Y101.033 E24.25907
G1 X44.483 Y57.684 E27.26620
G1 X44.393 Y55.892 E27.38602
G1 X45.081 Y54.236 E27.50584
G1 X46.324 Y53.102 E27.61829
G1 X46.636 Y53.525 F30000.000
G1 F2100
G1 X55.210 Y48.575 E28.27966
G1 X56.812 Y48.105 E28.39122
G1 X57.856 Y48.212 E28.46127
G1 X101.460 Y59.387 E31.46841
G1 X102.934 Y60.172 E31.57996
G1 X103.883 Y61.545 E31.69152
G1 X104.118 Y62.812 E31.77756
G1 X104.118 Y72.712 E32.43893
G1 X103.723 Y74.334 E32.55049
G1 X103.109 Y75.184 E32.62054
G1 X71.629 Y107.359 E35.62767
G1 X70.213 Y108.243 E35.73923
G1 X68.548 Y108.379 E35.85078
G1 X67.334 Y107.949 E35.93682
G1 X58.761 Y102.999 E36.59820
G1 X57.553 Y101.846 E36.70975
G1 X57.124 Y100.889 E36.77980
G1 X44.999 Y57.539 E39.78694
G1 X44.942 Y55.870 E39.89849
G1 X45.657 Y54.361 E40.01005
G1 X46.591 Y53.564 E40.09208
G1 E38.09208 F2400.00000
G92 E0
G1 X75.153 Y77.378 F30000.000
G1 E2.00000 F2400.00000
G1 F2100
G1 X74.619 Y77.792 E2.04513
G1 X74.017 Y78.099 E2.09026
G1 X73.369 Y78.288 E2.13540
G1 X72.696 Y78.351 E2.18053
G1 X72.037 Y78.289 E2.22478
G1 X71.588 Y78.174 E2.25576
G1 X71.156 Y78.003 E2.28673
G1 X70.586 Y77.666 E2.33098
G1 X70.080 Y77.219 E2.37611
G1 X69.666 Y76.685 E2.42125
G1 X69.359 Y76.083 E2.46638
G1 X69.170 Y75.434 E2.51151
G1 X69.107 Y74.762 E2.55664
G1 X69.170 Y74.089 E2.60177
G1 X69.359 Y73.441 E2.64691
G1 X69.666 Y72.839 E2.69204
G1 X70.080 Y72.305 E2.73717
G1 X70.586 Y71.858 E2.78230
G1 X71.168 Y71.514 E2.82744
G1 X71.791 Y71.290 E2.87168
G1 X72.246 Y71.203 E2.90265
G1 X72.703 Y71.174 E2.93320
G1 X73.368 Y71.236 E2.97785
G1 X74.017 Y71.425 E3.02302
G1 X74.619 Y71.731 E3.06815
G1 X75.153 Y72.145 E3.11328
G1 X75.600 Y72.653 E3.15845
G1 X75.940 Y73.228 E3.20310
G1 X76.108 Y73.654 E3.23365
G1 X76.223 Y74.102 E3.26461
G1 X76.286 Y74.762 E3.30886
G1 X76.223 Y75.421 E3.35311
G1 X76.108 Y75.870 E3.38409
G1 X75.937 Y76.302 E3.41507
G1 X75.600 Y76.872 E3.45932
G1 X75.193 Y77.333 E3.50044
G1 X74.785 Y76.986 F30000.000
G1 F2100
G1 X74.331 Y77.338 E3.53881
G1 X73.819 Y77.599 E3.57717
G1 X73.268 Y77.759 E3.61554
G1 X72.696 Y77.813 E3.65391
G1 X72.129 Y77.760 E3.69196
G1 X71.753 Y77.663 E3.71787
G1 X71.393 Y77.520 E3.74378
G1 X70.903 Y77.230 E3.78183
G1 X70.472 Y76.851 E3.82020
G1 X70.120 Y76.397 E3.85856
G1 X69.859 Y75.885 E3.89693
G1 X69.699 Y75.334 E3.93530
G1 X69.645 Y74.762 E3.97367
G1 X69.699 Y74.190 E4.01203
G1 X69.859 Y73.639 E4.05040
G1 X70.120 Y73.127 E4.08877
G1 X70.472 Y72.673 E4.12714
G1 X70.903 Y72.293 E4.16550
G1 X71.397 Y72.001 E4.20387
G1 X71.933 Y71.808 E4.24192
G1 X72.314 Y71.735 E4.26783
G1 X72.695 Y71.711 E4.29333
G1 X73.268 Y71.764 E4.33177
G1 X73.819 Y71.925 E4.37016
G1 X74.331 Y72.185 E4.40852
G1 X74.785 Y72.537 E4.44689
G1 X75.165 Y72.968 E4.48527
G1 X75.457 Y73.464 E4.52371
G1 X75.597 Y73.819 E4.54922
G1 X75.694 Y74.195 E4.57512
G1 X75.748 Y74.762 E4.61318
G1 X75.694 Y75.329 E4.65123
G1 X75.597 Y75.705 E4.67713
G1 X75.455 Y76.065 E4.70304
G1 X75.165 Y76.555 E4.74109
G1 X74.825 Y76.941 E4.77545
G1 X74.785 Y76.986 F30000.000
G1 E2.77545 F2400.00000
G92 E0
G1 X73.256 Y87.563 F30000.000
G1 E2.00000 F2400.00000
G1 F2100
G1 X61.890 Y81.001 E2.87677
G1 X61.890 Y78.275 E3.05889
G1 X49.546 Y56.893 E4.70827
G1 X53.208 Y54.778 E4.99078
G1 X61.330 Y68.847 E6.07600
G1 X72.696 Y62.284 E6.95278
G1 X75.057 Y63.647 E7.13489
G1 X99.746 Y63.647 E8.78428
G1 X99.746 Y67.876 E9.06678
G1 X83.502 Y67.876 E10.15200
G1 X83.502 Y81.001 E11.02878
G1 X81.141 Y82.364 E11.21089
G1 X68.796 Y103.745 E12.86028
G1 X65.134 Y101.631 E13.14278
G1 X73.226 Y87.615 E14.22399
G1 X72.525 Y87.759 F30000.000
G1 F2100
G1 X61.355 Y81.310 E15.08564
G1 X61.355 Y78.418 E15.27883
G1 X48.814 Y56.697 E16.95441
G1 X56.868 Y52.047 E17.57570
G1 X57.454 Y53.062 E17.65398
G1 X53.990 Y55.062 E17.92120
G1 X61.526 Y68.115 E18.92814
G1 X72.696 Y61.666 E19.78980
G1 X75.200 Y63.112 E19.98298
G1 X100.282 Y63.112 E21.65856
G1 X100.282 Y72.412 E22.27985
G1 X99.110 Y72.412 E22.35813
G1 X99.110 Y68.412 E22.62535
G1 X84.037 Y68.412 E23.63229
G1 X84.037 Y81.310 E24.49395
G1 X81.533 Y82.756 E24.68713
G1 X68.992 Y104.477 E26.36271
G1 X60.938 Y99.827 E26.98400
G1 X61.524 Y98.812 E27.06228
G1 X64.988 Y100.812 E27.32950
G1 X72.495 Y87.811 E28.33244
G1 X72.754 Y87.431 F30000.000
G1 E26.33244 F2400.00000
G92 E0
G1 X75.723 Y77.534 F30000.000
G1 E2.00000 F2400.00000
G1 F2100
G1 X83.023 Y70.234 E2.69641
G1 X83.023 Y69.469 E2.74800
G1 X76.617 Y75.875 E3.35908
G1 X76.696 Y75.570 E3.38030
G1 X76.752 Y74.976 E3.42058
G1 X83.023 Y68.705 E4.01884
G1 X83.023 Y67.940 E4.07043
G1 X76.713 Y74.250 E4.67240
G1 X76.696 Y74.067 E4.68480
G1 X76.580 Y73.618 E4.71608
G1 E2.71608 F2400.00000
G92 E0
G1 X83.023 Y79.412 F30000.000
G1 E2.00000 F2400.00000
G1 F2100
G1 X83.023 Y80.177 E2.05159
G1 X81.828 Y81.373 E2.16561
G1 E0.16561 F2400.00000
G92 E0
G1 X76.894 Y64.126 F30000.000
G1 E2.00000 F2400.00000
G1 F2100
G1 X77.658 Y64.126 E2.05159
G1 X70.438 Y71.347 E2.74040
G1 X70.882 Y71.084 E2.77520
G1 X71.592 Y70.828 E2.82614
G1 X71.752 Y70.798 E2.83706
G1 X78.423 Y64.126 E3.47352
G1 X79.188 Y64.126 E3.52511
G1 X72.619 Y70.696 E4.15182
G1 X73.323 Y70.756 E4.19953
G1 X79.953 Y64.126 E4.83197
G1 X80.718 Y64.126 E4.88357
G1 X73.930 Y70.915 E5.53114
G1 X74.159 Y70.981 E5.54724
G1 X74.469 Y71.139 E5.57077
G1 X81.483 Y64.126 E6.23980
G1 X82.248 Y64.126 E6.29140
G1 X74.957 Y71.416 E6.98685
G1 X75.388 Y71.751 E7.02362
G1 X83.012 Y64.126 E7.75094
G1 X83.777 Y64.126 E7.80254
G1 X75.759 Y72.144 E8.56741
G1 X75.979 Y72.393 E8.58983
G1 X76.089 Y72.579 E8.60440
G1 X84.542 Y64.126 E9.41081
G1 X85.307 Y64.126 E9.46240
G1 X76.371 Y73.062 E10.31487
G1 X76.580 Y73.618 E10.35491
G1 X86.072 Y64.126 E11.26035
G1 X86.837 Y64.126 E11.31195
G1 X83.565 Y67.397 E11.62401
G1 X84.330 Y67.397 E11.67560
G1 X87.601 Y64.126 E11.98766
G1 X88.366 Y64.126 E12.03925
G1 X85.095 Y67.397 E12.35131
G1 X85.860 Y67.397 E12.40290
G1 X89.131 Y64.126 E12.71496
G1 X89.896 Y64.126 E12.76656
G1 X86.625 Y67.397 E13.07862
G1 X87.390 Y67.397 E13.13021
G1 X90.661 Y64.126 E13.44227
G1 X91.426 Y64.126 E13.49386
G1 X88.155 Y67.397 E13.80592
G1 X88.919 Y67.397 E13.85751
G1 X92.191 Y64.126 E14.16957
G1 X92.955 Y64.126 E14.22116
G1 X89.684 Y67.397 E14.53322
G1 X90.449 Y67.397 E14.58482
G1 X93.720 Y64.126 E14.89688
G1 X94.485 Y64.126 E14.94847
G1 X91.214 Y67.397 E15.26053
G1 X91.979 Y67.397 E15.31212
G1 X95.250 Y64.126 E15.62418
G1 X96.015 Y64.126 E15.67577
G1 X92.744 Y67.397 E15.98783
G1 X93.508 Y67.397 E16.03942
G1 X96.780 Y64.126 E16.35148
G1 X97.544 Y64.126 E16.40308
G1 X94.273 Y67.397 E16.71514
G1 X95.038 Y67.397 E16.76673
G1 X98.309 Y64.126 E17.07879
G1 X99.074 Y64.126 E17.13038
G1 X95.803 Y67.397 E17.44244
G1 X96.568 Y67.397 E17.49403
G1 X99.268 Y64.698 E17.75158
G1 X99.268 Y65.463 E17.80317
G1 X97.333 Y67.397 E17.98775
G1 X98.098 Y67.397 E18.03935
G1 X99.268 Y66.227 E18.15097
G1 X99.268 Y66.992 E18.20256
G1 X98.862 Y67.397 E18.24121
G1 E16.24121 F2400.00000
G92 E0
G1 X99.582 Y67.712 F30000.000
G1 X97.632 Y65.762 F30000.000
G1 X83.338 Y65.762 F30000.000
G1 X79.437 Y67.712 F30000.000
G1 X78.573 Y68.576 F30000.000
G1 X79.348 Y70.836 F30000.000
G1 X79.861 Y73.992 F30000.000
G1 X79.733 Y76.851 F30000.000
G1 X79.426 Y78.373 F30000.000
G1 X77.373 Y80.784 F30000.000
G1 X75.110 Y82.929 F30000.000
G1 X75.431 Y84.125 F30000.000
G1 X75.170 Y88.478 F30000.000
G1 X68.022 Y100.857 F30000.000
G1 X68.736 Y103.521 F30000.000
G1 X68.543 Y103.070 F30000.000
G1 E2.00000 F2400.00000
G1 F2100
G1 X68.657 Y102.956 E2.01087
G1 X69.702 Y101.147 E2.15182
G1 X68.059 Y102.790 E2.30861
G1 X67.574 Y102.510 E2.34638
G1 X70.747 Y99.337 E2.64910
G1 X71.792 Y97.527 E2.79006
G1 X67.089 Y102.230 E3.23871
G1 X66.604 Y101.951 E3.27647
G1 X72.837 Y95.718 E3.87105
G1 X73.881 Y93.908 E4.01200
G1 X66.119 Y101.671 E4.75251
G1 X65.809 Y101.492 E4.77665
G1 X66.186 Y100.839 E4.82750
G1 X74.926 Y92.099 E5.66129
G1 X75.971 Y90.289 E5.80224
G1 X67.231 Y99.029 E6.63603
G1 X68.275 Y97.219 E6.77698
G1 X77.016 Y88.479 E7.61077
G1 X78.061 Y86.670 E7.75172
G1 X69.320 Y95.410 E8.58551
G1 X70.365 Y93.600 E8.72647
G1 X79.105 Y84.860 E9.56025
G1 X80.150 Y83.050 E9.70121
G1 X71.410 Y91.791 E10.53499
G1 X72.455 Y89.981 E10.67595
G1 X83.023 Y79.412 E11.68413
G1 X83.023 Y78.648 E11.73572
G1 X73.500 Y88.171 E12.64424
G1 X73.931 Y87.423 E12.70248
G1 X73.647 Y87.259 E12.72464
G1 X83.023 Y77.883 E13.61911
G1 X83.023 Y77.118 E13.67071
G1 X73.162 Y86.979 E14.61143
G1 X72.677 Y86.699 E14.64920
G1 X83.023 Y76.353 E15.63619
G1 X83.023 Y75.588 E15.68778
G1 X72.192 Y86.419 E16.72102
G1 X71.707 Y86.139 E16.75879
G1 X83.023 Y74.823 E17.83829
G1 X83.023 Y74.059 E17.88988
G1 X71.222 Y85.859 E19.01564
G1 X70.737 Y85.579 E19.05341
G1 X83.023 Y73.294 E20.22542
G1 X83.023 Y72.529 E20.27702
G1 X70.252 Y85.299 E21.49529
G1 X69.768 Y85.020 E21.53306
G1 X83.023 Y71.764 E22.79758
G1 X83.023 Y70.999 E22.84918
G1 X69.283 Y84.740 E24.15996
G1 X68.798 Y84.460 E24.19773
G1 X75.424 Y77.834 E24.82982
G1 X74.965 Y78.190 E24.86903
G1 X74.272 Y78.543 E24.92143
G1 X73.818 Y78.675 E24.95335
G1 X68.313 Y84.180 E25.47852
G1 X67.828 Y83.900 E25.51628
G1 X72.910 Y78.818 E26.00111
G1 X72.753 Y78.832 E26.01176
G1 X72.184 Y78.779 E26.05029
G1 X67.343 Y83.620 E26.51212
G1 X66.858 Y83.340 E26.54989
G1 X71.552 Y78.646 E26.99766
G1 X70.997 Y78.436 E27.03770
G1 X66.373 Y83.060 E27.47876
G1 X65.888 Y82.780 E27.51653
G1 X70.514 Y78.155 E27.95777
G1 X70.327 Y78.044 E27.97240
G1 X70.078 Y77.825 E27.99475
G1 X65.403 Y82.500 E28.44072
G1 X64.919 Y82.220 E28.47849
G1 X69.685 Y77.454 E28.93317
G1 X69.351 Y77.023 E28.96994
G1 X64.434 Y81.940 E29.43901
G1 X63.949 Y81.660 E29.47678
G1 X69.074 Y76.535 E29.96568
G1 X68.915 Y76.224 E29.98920
G1 X68.849 Y75.995 E30.00530
G1 X63.464 Y81.380 E30.51900
G1 X62.979 Y81.100 E30.55677
G1 X68.690 Y75.389 E31.10160
G1 X68.627 Y74.687 E31.14914
G1 X62.494 Y80.820 E31.73422
G1 X62.369 Y80.748 E31.74395
G1 X62.369 Y80.180 E31.78225
G1 X68.732 Y73.818 E32.38922
G1 X68.915 Y73.186 E32.43362
G1 X69.244 Y72.540 E32.48246
G1 X62.369 Y79.415 E33.13831
G1 X62.369 Y78.651 E33.18990
G1 X76.894 Y64.126 E34.57547
G1 X76.129 Y64.126 E34.62706
G1 X62.259 Y77.996 E35.95021
G1 X61.979 Y77.511 E35.98798
G1 X75.364 Y64.126 E37.26487
G1 X74.970 Y64.126 E37.29143
G1 X74.735 Y63.990 E37.30976
G1 X61.699 Y77.027 E38.55336
G1 X61.419 Y76.542 E38.59113
G1 X74.250 Y63.710 E39.81517
G1 X73.765 Y63.430 E39.85294
G1 X61.139 Y76.057 E41.05744
G1 X60.859 Y75.572 E41.09521
G1 X73.280 Y63.151 E42.28016
G1 X72.795 Y62.871 E42.31793
G1 X60.579 Y75.087 E43.48332
G1 X60.299 Y74.602 E43.52109
G1 X71.101 Y63.800 E44.55160
G1 X69.292 Y64.844 E44.69255
G1 X60.019 Y74.117 E45.57713
G1 X59.739 Y73.632 E45.61490
G1 X67.482 Y65.889 E46.35355
G1 X65.672 Y66.934 E46.49451
G1 X59.459 Y73.147 E47.08723
G1 X59.179 Y72.662 E47.12500
G1 X63.863 Y67.979 E47.57180
G1 X62.053 Y69.024 E47.71275
G1 X58.899 Y72.178 E48.01362
G1 X58.619 Y71.693 E48.05139
G1 X61.044 Y69.268 E48.28274
G1 X60.764 Y68.783 E48.32051
G1 X58.339 Y71.208 E48.55185
G1 X58.059 Y70.723 E48.58962
G1 X60.484 Y68.298 E48.82097
G1 X60.204 Y67.813 E48.85874
G1 X57.779 Y70.238 E49.09008
G1 X57.499 Y69.753 E49.12785
G1 X59.925 Y67.328 E49.35920
G1 X59.645 Y66.843 E49.39697
G1 X57.219 Y69.268 E49.62832
G1 X56.940 Y68.783 E49.66609
G1 X59.365 Y66.358 E49.89743
G1 X59.085 Y65.873 E49.93520
G1 X56.660 Y68.298 E50.16655
G1 X56.380 Y67.814 E50.20432
G1 X58.805 Y65.388 E50.43566
G1 X58.525 Y64.904 E50.47343
G1 X56.100 Y67.329 E50.70478
G1 X55.820 Y66.844 E50.74255
G1 X58.245 Y64.419 E50.97390
G1 X57.965 Y63.934 E51.01167
G1 X55.540 Y66.359 E51.24301
G1 X55.260 Y65.874 E51.28078
G1 X57.685 Y63.449 E51.51213
G1 X57.405 Y62.964 E51.54990
G1 X54.980 Y65.389 E51.78124
G1 X54.700 Y64.904 E51.81901
G1 X57.125 Y62.479 E52.05036
G1 X56.845 Y61.994 E52.08813
G1 X54.420 Y64.419 E52.31948
G1 X54.140 Y63.934 E52.35725
G1 X56.565 Y61.509 E52.58859
G1 X56.285 Y61.024 E52.62636
G1 X53.860 Y63.449 E52.85771
G1 X53.580 Y62.965 E52.89548
G1 X56.005 Y60.539 E53.12683
G1 X55.725 Y60.055 E53.16459
G1 X53.300 Y62.480 E53.39594
G1 X53.020 Y61.995 E53.43371
G1 X55.445 Y59.570 E53.66506
G1 X55.165 Y59.085 E53.70283
G1 X52.740 Y61.510 E53.93417
G1 X52.460 Y61.025 E53.97194
G1 X54.885 Y58.600 E54.20329
G1 X54.605 Y58.115 E54.24106
G1 X52.180 Y60.540 E54.47241
G1 X51.900 Y60.055 E54.51018
G1 X54.325 Y57.630 E54.74152
G1 X54.045 Y57.145 E54.77929
G1 X51.620 Y59.570 E55.01064
G1 X51.340 Y59.085 E55.04841
G1 X53.766 Y56.660 E55.27975
G1 X53.486 Y56.175 E55.31752
G1 X51.060 Y58.601 E55.54887
G1 X50.781 Y58.116 E55.58664
G1 X53.206 Y55.691 E55.81799
G1 X53.069 Y55.453 E55.83646
G1 X52.144 Y55.987 E55.90846
G1 X50.501 Y57.631 E56.06527
G1 X50.221 Y57.146 E56.10304
G1 X50.335 Y57.032 E56.11392
G1 E54.11392 F2400.00000
G92 E0
G1 X49.770 Y56.953 F30000.000
G1 X52.434 Y57.667 F30000.000
G1 X59.581 Y70.046 F30000.000
G1 X63.220 Y72.449 F30000.000
G1 X64.433 Y72.774 F30000.000
G1 X65.045 Y75.503 F30000.000
G1 X66.037 Y78.607 F30000.000
G1 X67.876 Y80.194 F30000.000
G1 X70.336 Y81.619 F30000.000
G1 X71.858 Y82.212 F30000.000
G1 X75.110 Y82.929 F30000.000
G1 X75.431 Y84.125 F30000.000
G1 X75.170 Y88.478 F30000.000
G1 X68.022 Y100.857 F30000.000
G1 X65.359 Y101.571 F30000.000
G1 X61.463 Y99.453 F30000.000
G1 E2.00000 F2400.00000
G1 F2100
G1 X64.927 Y101.453 E2.28523
G1 E0.28523 F2400.00000
G92 E0
G1 X65.359 Y101.571 F30000.000
G1 X68.022 Y100.857 F30000.000
G1 X75.170 Y88.478 F30000.000
G1 X75.431 Y84.125 F30000.000
G1 X75.110 Y82.929 F30000.000
G1 X71.858 Y82.212 F30000.000
G1 X70.336 Y81.619 F30000.000
G1 X69.076 Y80.973 F30000.000
G1 X66.801 Y79.339 F30000.000
G1 X66.037 Y78.607 F30000.000
G1 X65.045 Y75.503 F30000.000
G1 X64.433 Y72.774 F30000.000
G1 X63.220 Y72.449 F30000.000
G1 X59.581 Y70.046 F30000.000
G1 X52.434 Y57.667 F30000.000
G1 X53.148 Y55.003 F30000.000
G1 X53.465 Y54.688 F30000.000
G1 E2.00000 F2400.00000
G1 F2100
G1 X56.929 Y52.688 E2.28523
G1 E0.28523 F2400.00000
G92 E0
G1 X53.148 Y55.003 F30000.000
G1 X52.434 Y57.667 F30000.000
G1 X59.581 Y70.046 F30000.000
G1 X63.220 Y72.449 F30000.000
G1 X64.433 Y72.774 F30000.000
G1 X65.751 Y71.191 F30000.000
G1 X67.876 Y69.329 F30000.000
G1 X70.333 Y67.906 F30000.000
G1 X71.848 Y67.315 F30000.000
G1 X72.696 Y67.038 F30000.000
