; generated by Slic3r 1.3.0 on 2023-03-10 at 18:24:12

; external perimeters extrusion width = 0.44mm (2.78mm^3/s)
; perimeters extrusion width = 0.40mm (7.14mm^3/s)
; infill extrusion width = 0.50mm (10.97mm^3/s)
; solid infill extrusion width = 0.60mm (6.68mm^3/s)
; top infill extrusion width = 0.40mm (2.14mm^3/s)
; support material extrusion width = 0.44mm (6.35mm^3/s)

M107
M190 S80 ; set bed temperature and wait for it to be reached
M104 S210 ; set temperature
G28 ; home all axes
G1 Z5 F5000 ; lift nozzle

; Filament gcode

M109 S210 ; set temperature and wait for it to be reached
G21 ; set units to millimeters
G90 ; use absolute coordinates
M82 ; use absolute distances for extrusion
G92 E0
G1 Z0.300 F30000.000
G1 E-2.00000 F2400.00000
G92 E0
G1 X50.019 Y58.136 F30000.000
G1 E2.00000 F2400.00000
G1 F2100
G1 X55.876 Y52.719 E2.53297
G1 X56.893 Y51.970 E2.61731
G1 X64.022 Y47.854 E3.16726
G1 X66.025 Y47.155 E3.30901
G1 X68.146 Y47.241 E3.45077
G1 X70.086 Y48.098 E3.59252
G1 X71.511 Y49.513 E3.72665
G1 X81.782 Y64.171 E4.92232
G1 X82.653 Y66.105 E5.06407
G1 X82.754 Y68.225 E5.20583
G1 X82.069 Y70.233 E5.34758
G1 X79.971 Y72.346 E5.54653
G1 X64.747 Y81.136 E6.72088
G1 X62.744 Y81.835 E6.86264
G1 X60.623 Y81.749 E7.00439
G1 X58.683 Y80.891 E7.14615
G1 X56.991 Y79.057 E7.31284
G1 X48.957 Y65.143 E8.38620
G1 X48.258 Y63.140 E8.52795
G1 X48.344 Y61.019 E8.66971
G1 X49.202 Y59.079 E8.81146
G1 X49.980 Y58.181 E8.89081
G1 X50.383 Y58.529 F30000.000
G1 F2100
G1 X56.240 Y53.112 E9.42378
G1 X57.161 Y52.434 E9.50016
G1 X64.290 Y48.318 E10.05011
G1 X66.202 Y47.671 E10.18495
G1 X68.215 Y47.811 E10.31979
G1 X70.020 Y48.714 E10.45463
G1 X71.072 Y49.820 E10.55663
G1 X81.343 Y64.478 E11.75230
G1 X82.155 Y66.326 E11.88714
G1 X82.192 Y68.344 E12.02198
G1 X81.450 Y70.221 E12.15682
G1 X79.703 Y71.882 E12.31788
G1 X64.479 Y80.672 E13.49224
G1 X62.567 Y81.318 E13.62708
G1 X60.554 Y81.179 E13.76192
G1 X58.749 Y80.276 E13.89676
G1 X57.454 Y78.790 E14.02841
G1 X49.421 Y64.875 E15.10177
G1 X48.775 Y62.963 E15.23661
G1 X48.914 Y60.950 E15.37145
G1 X50.352 Y58.580 E15.55659
G1 X50.747 Y58.922 F30000.000
G1 F2100
G1 X56.604 Y53.505 E16.08956
G1 X57.428 Y52.898 E16.15798
G1 X64.558 Y48.782 E16.70793
G1 X66.373 Y48.191 E16.83549
G1 X68.272 Y48.386 E16.96304
G1 X69.929 Y49.335 E17.09059
G1 X70.634 Y50.128 E17.16145
G1 X80.905 Y64.785 E18.35712
G1 X81.652 Y66.542 E18.48467
G1 X81.624 Y68.451 E18.61223
G1 X80.823 Y70.185 E18.73978
G1 X79.435 Y71.419 E18.86387
G1 X64.211 Y80.208 E20.03823
G1 X62.396 Y80.799 E20.16578
G1 X60.497 Y80.604 E20.29333
G1 X58.840 Y79.655 E20.42088
G1 X57.918 Y78.522 E20.51845
G1 X49.885 Y64.608 E21.59180
G1 X49.294 Y62.792 E21.71935
G1 X49.490 Y60.893 E21.84691
G1 X50.715 Y58.973 E21.99904
G1 X51.110 Y59.316 F30000.000
G1 F2100
G1 X56.967 Y53.899 E22.53201
G1 X57.696 Y53.362 E22.59248
G1 X64.825 Y49.246 E23.14243
G1 X66.538 Y48.713 E23.26225
G1 X68.313 Y48.968 E23.38207
G1 X70.195 Y50.435 E23.54147
G1 X80.466 Y65.093 E24.73714
G1 X81.146 Y66.752 E24.85696
G1 X81.048 Y68.543 E24.97679
G1 X80.189 Y70.118 E25.09661
G1 X79.167 Y70.955 E25.18483
G1 X63.944 Y79.744 E26.35919
G1 X62.231 Y80.277 E26.47901
G1 X60.456 Y80.022 E26.59883
G1 X58.962 Y79.028 E26.71866
G1 X58.382 Y78.254 E26.78329
G1 X50.349 Y64.340 E27.85664
G1 X49.816 Y62.627 E27.97646
G1 X50.072 Y60.852 E28.09628
G1 X51.077 Y59.365 E28.21615
G1 X51.474 Y59.709 F30000.000
G1 F2100
G1 X57.331 Y54.292 E28.74912
G1 X57.964 Y53.826 E28.80164
G1 X65.093 Y49.710 E29.35159
G1 X66.696 Y49.240 E29.46314
G1 X68.335 Y49.558 E29.57470
G1 X69.757 Y50.743 E29.69833
G1 X80.027 Y65.400 E30.89400
G1 X80.635 Y66.955 E31.00556
G1 X80.462 Y68.616 E31.11711
G1 X78.899 Y70.491 E31.28016
G1 X63.676 Y79.280 E32.45452
G1 X62.073 Y79.750 E32.56607
G1 X60.434 Y79.432 E32.67763
G1 X58.846 Y77.986 E32.82111
G1 X50.813 Y64.072 E33.89445
G1 X50.343 Y62.470 E34.00601
G1 X50.661 Y60.830 E34.11756
G1 X51.439 Y59.757 E34.20608
G1 E32.20608 F2400.00000
G92 E0
G1 X63.278 Y74.463 F30000.000
G1 E2.00000 F2400.00000
G1 F2100
G1 X62.214 Y75.077 E2.08209
G1 X55.016 Y62.611 E3.04374
G1 X56.081 Y61.997 E3.12583
G1 X63.248 Y74.411 E4.08344
G1 X63.740 Y74.192 F30000.000
G1 F2100
G1 X75.993 Y67.118 E5.02859
G1 X76.532 Y67.429 E5.07018
G1 X62.018 Y75.809 E6.18978
G1 X54.285 Y62.414 E7.22301
G1 X60.608 Y58.767 E7.71069
G1 X61.174 Y59.747 E7.78634
G1 X56.844 Y62.247 E8.12036
G1 X63.710 Y74.140 E9.03773
G1 X63.899 Y74.559 F30000.000
G1 X62.612 Y74.538 F30000.000
G1 F2100
G1 X55.683 Y62.536 E10.12459
G1 X56.329 Y61.890 F30000.000
G1 F2100
G1 X60.659 Y59.391 E10.45777
G1 Z0.300 F30000.000
G1 E8.45777 F2400.00000
G92 E0
G1 X59.732 Y56.888 F30000.000
G1 E2.00000 F2400.00000
G1 F2100
G1 X59.960 Y56.888 E2.01072
G1 X60.125 Y57.173 E2.02618
G1 X60.438 Y56.993 E2.04310
G1 X60.632 Y57.328 E2.06124
G1 X61.292 Y57.328 E2.09216
G1 X61.597 Y57.857 E2.12078
G1 X62.079 Y57.579 E2.14683
G1 X61.914 Y57.293 E2.16229
G1 X62.244 Y56.722 E2.19321
G1 X62.904 Y56.722 E2.22413
G1 X63.069 Y57.008 E2.23959
G1 X63.794 Y56.589 E2.27879
G1 X63.629 Y56.303 E2.29425
G1 X63.959 Y55.732 E2.32517
G1 X64.619 Y55.732 E2.35609
G1 X64.784 Y56.018 E2.37155
G1 X65.508 Y55.599 E2.41076
G1 X65.343 Y55.313 E2.42622
G1 X65.673 Y54.742 E2.45714
G1 X66.333 Y54.742 E2.48806
G1 X66.498 Y55.028 E2.50352
G1 X66.732 Y54.893 E2.51614
G1 X66.971 Y55.308 E2.53858
G1 X67.631 Y55.308 E2.56950
G1 X67.961 Y55.879 E2.60043
G1 X67.631 Y56.451 E2.63135
G1 X67.464 Y56.451 E2.63915
G1 X66.869 Y56.795 E2.67136
G1 X67.034 Y57.081 E2.68682
G1 X66.704 Y57.652 E2.71774
G1 X66.044 Y57.652 E2.74866
G1 X65.879 Y57.366 E2.76412
G1 X65.154 Y57.785 E2.80332
G1 X65.319 Y58.070 E2.81878
G1 X64.989 Y58.642 E2.84970
G1 X64.329 Y58.642 E2.88062
G1 X64.164 Y58.356 E2.89608
G1 X63.440 Y58.775 E2.93529
G1 X63.605 Y59.060 E2.95075
G1 X63.275 Y59.632 E2.98167
G1 X62.615 Y59.632 E3.01259
G1 X62.450 Y59.346 E3.02805
G1 X61.960 Y59.629 E3.05453
G1 X62.052 Y59.788 E3.06311
G1 X62.712 Y59.788 E3.09404
G1 X63.042 Y60.359 E3.12496
G1 X62.712 Y60.931 E3.15588
G1 X62.362 Y60.931 E3.17228
G1 X62.126 Y61.067 E3.18505
G1 X62.354 Y61.067 E3.19576
G1 X62.519 Y61.353 E3.21123
G1 X63.244 Y60.934 E3.25043
G1 X63.079 Y60.649 E3.26589
G1 X63.409 Y60.077 E3.29681
G1 X64.069 Y60.077 E3.32773
G1 X64.234 Y60.363 E3.34319
G1 X64.959 Y59.944 E3.38240
G1 X64.794 Y59.659 E3.39786
G1 X65.124 Y59.087 E3.42878
G1 X65.784 Y59.087 E3.45970
G1 X65.949 Y59.373 E3.47516
G1 X66.674 Y58.954 E3.51437
G1 X66.509 Y58.669 E3.52983
G1 X66.839 Y58.097 E3.56075
G1 X67.499 Y58.097 E3.59167
G1 X67.664 Y58.383 E3.60713
G1 X68.388 Y57.964 E3.64633
G1 X68.223 Y57.679 E3.66179
G1 X68.553 Y57.107 E3.69271
G1 X69.213 Y57.107 E3.72363
G1 X69.378 Y57.393 E3.73909
G1 X69.491 Y57.327 E3.74521
G1 X69.182 Y56.792 E3.77416
G1 X68.522 Y56.792 E3.80508
G1 X68.192 Y56.221 E3.83600
G1 X68.522 Y55.649 E3.86692
G1 X68.192 Y55.078 E3.89784
G1 X67.532 Y55.078 E3.92876
G1 X67.202 Y54.506 E3.95968
G1 X67.516 Y53.963 E3.98908
G1 X66.889 Y53.963 E4.01847
G1 X66.559 Y53.391 E4.04939
G1 X66.889 Y52.820 E4.08032
G1 X66.861 Y52.771 F30000.000
G1 F2100
G1 X66.261 Y53.118 E4.11278
G1 X66.426 Y53.404 E4.12824
G1 X66.096 Y53.975 E4.15916
G1 X65.436 Y53.975 E4.19008
G1 X65.271 Y53.689 E4.20554
G1 X64.546 Y54.108 F30000.000
G1 F2100
G1 X64.711 Y54.394 E4.22100
G1 X64.381 Y54.965 E4.25192
G1 X63.721 Y54.965 E4.28284
G1 X63.556 Y54.679 E4.29830
G1 X62.831 Y55.098 F30000.000
G1 F2100
G1 X62.996 Y55.384 E4.31376
G1 X62.666 Y55.955 E4.34468
G1 X62.006 Y55.955 E4.37560
G1 X61.841 Y55.669 E4.39106
G1 X61.117 Y56.088 F30000.000
G1 F2100
G1 X61.282 Y56.374 E4.40652
G1 X60.952 Y56.945 E4.43744
G1 X60.292 Y56.945 E4.46836
G1 X60.127 Y56.659 E4.48382
G1 Z0.500 F30000.000
G1 E2.48382 F2400.00000
G92 E0
G1 X60.209 Y54.576 F30000.000
G1 X60.686 Y54.301 F30000.000
G1 X56.725 Y62.635 F30000.000
G1 E2.00000 F2400.00000
G1 F5170.51
G1 X63.604 Y74.550 E2.40849
G1 X62.127 Y75.403 E2.45914
G1 X54.404 Y62.027 E2.91773
G1 X60.211 Y58.674 E3.11684
G1 X61.055 Y60.135 E3.16694
G1 X56.777 Y62.605 E3.31362
G1 X57.240 Y62.773 F30000.000
G1 F2100
G1 X63.769 Y74.082 E3.74478
G1 X75.993 Y67.025 E4.21079
G1 X76.692 Y67.429 E4.23744
G1 X61.989 Y75.918 E4.79800
G1 X53.965 Y62.021 E5.32781

G1 F4800
G1 X53.889 Y61.889 E5.33581
G1 X60.349 Y58.159 E5.72556
G1 X60.426 Y58.291 E5.73356

G1 F2100
G1 X61.494 Y60.141 E5.80407

G1 F4800
G1 X61.570 Y60.273 E5.81207
G1 X57.604 Y62.563 E6.05135

G1 F2100
G1 X57.292 Y62.743 E6.06324
G1 X57.033 Y63.115 F30000.000
G1 E4.06324 F2400.00000
G92 E0
G1 X60.093 Y59.347 F30000.000
G1 E2.00000 F2400.00000
G1 F3102.31
G1 X59.995 Y59.250 E2.00669
G1 X59.471 Y59.552 E2.03612
G1 X60.134 Y60.215 E2.08171
G1 X59.610 Y60.518 E2.11114
G1 X58.947 Y59.855 E2.15673
G1 X58.423 Y60.158 E2.18616
G1 X59.086 Y60.821 E2.23175
G1 X58.562 Y61.123 E2.26118
G1 X57.899 Y60.460 E2.30678
G1 X57.374 Y60.763 E2.33621
G1 X58.037 Y61.426 E2.38180
G1 X57.513 Y61.729 E2.41123
G1 X56.850 Y61.066 E2.45682
G1 X56.326 Y61.368 E2.48625
G1 X56.989 Y62.031 E2.53185
G1 X56.465 Y62.334 E2.56127
G1 X55.802 Y61.671 E2.60687
G1 X55.277 Y61.974 E2.63630
G1 X56.598 Y63.295 E2.72712
G1 X57.728 Y65.251 E2.83695
G1 X55.468 Y62.991 E2.99234
G1 X56.597 Y64.947 E3.10217
G1 X58.857 Y67.207 E3.25756
G1 X59.987 Y69.164 E3.36739
G1 X57.727 Y66.904 E3.52278
G1 X58.857 Y68.860 E3.63261
G1 X61.117 Y71.120 E3.78800
G1 X62.246 Y73.077 E3.89783
G1 X59.986 Y70.817 E4.05322
G1 X61.116 Y72.773 E4.16305
G1 X62.867 Y74.524 E4.28344
G1 X62.342 Y74.827 E4.31287
G1 X62.245 Y74.730 E4.31956
G1 X63.781 Y74.479 F30000.000
G1 F1034.1
G1 X76.154 Y67.336 E4.65111
G1 Z0.500 F30000.000
G1 E2.65111 F2400.00000
G92 E0
G1 X68.619 Y55.816 F30000.000
G1 E2.00000 F2400.00000
G1 F4136.41
G1 X68.289 Y56.388 E2.02179
G1 X68.619 Y56.959 E2.04358
G1 X69.279 Y56.959 E2.06537
G1 X69.493 Y57.329 E2.07948
G1 X68.857 Y57.329 E2.10047
G1 X68.527 Y57.901 E2.12226
G1 X68.692 Y58.187 E2.13316
G1 X67.967 Y58.605 E2.16079
G1 X67.802 Y58.319 E2.17169
G1 X67.142 Y58.319 E2.19348
G1 X66.812 Y58.891 E2.21527
G1 X66.977 Y59.177 E2.22616
G1 X66.252 Y59.595 E2.25379
G1 X66.087 Y59.309 E2.26469
G1 X65.427 Y59.309 E2.28648
G1 X65.097 Y59.881 E2.30827
G1 X65.262 Y60.167 E2.31917
G1 X64.538 Y60.585 E2.34680
G1 X64.373 Y60.299 E2.35769
G1 X63.713 Y60.299 E2.37949
G1 X63.383 Y60.871 E2.40128
G1 X63.548 Y61.157 E2.41217
G1 X62.823 Y61.575 E2.43980
G1 X62.699 Y61.360 E2.44800
G1 X62.960 Y61.360 E2.45661
G1 X63.290 Y60.789 E2.47841
G1 X62.960 Y60.217 E2.50020
G1 X62.300 Y60.217 E2.52199
G1 X62.260 Y60.148 E2.52461
G1 X62.839 Y59.814 E2.54670
G1 X63.004 Y60.100 E2.55760
G1 X63.664 Y60.100 E2.57939
G1 X63.994 Y59.528 E2.60118
G1 X63.829 Y59.242 E2.61207
G1 X64.554 Y58.824 E2.63970
G1 X64.719 Y59.110 E2.65060
G1 X65.379 Y59.110 E2.67239
G1 X65.709 Y58.538 E2.69418
G1 X65.544 Y58.252 E2.70508
G1 X66.269 Y57.834 E2.73271
G1 X66.434 Y58.120 E2.74360
G1 X67.094 Y58.120 E2.76540
G1 X67.424 Y57.548 E2.78719
G1 X67.259 Y57.262 E2.79808
G1 X67.889 Y56.898 E2.82212
G1 X67.879 Y56.880 E2.82279
G1 X68.209 Y56.309 E2.84459
G1 X67.879 Y55.737 E2.86638
G1 X67.219 Y55.737 E2.88817
G1 X66.889 Y55.166 E2.90996
G1 X67.219 Y54.594 E2.93175
G1 X66.889 Y54.023 E2.95354
G1 X66.229 Y54.023 E2.97533
G1 X65.899 Y54.594 E2.99712
G1 X65.937 Y54.659 E2.99961
G1 X65.432 Y54.951 E3.01884
G1 X65.267 Y54.665 E3.02973
G1 X64.607 Y54.665 E3.05152
G1 X64.277 Y55.236 E3.07331
G1 X64.442 Y55.522 E3.08421
G1 X63.718 Y55.941 E3.11184
G1 X63.553 Y55.655 E3.12274
G1 X62.893 Y55.655 E3.14453
G1 X62.563 Y56.226 E3.16632
G1 X62.728 Y56.512 E3.17721
G1 X62.003 Y56.931 E3.20484
G1 X61.838 Y56.645 E3.21574
G1 X61.178 Y56.645 E3.23753
G1 X60.848 Y57.216 E3.25932
G1 X61.013 Y57.502 E3.27022
G1 X60.803 Y57.624 E3.27824
G1 X60.591 Y57.257 E3.29221
G1 X60.808 Y56.881 E3.30656
G1 X60.478 Y56.309 E3.32835
G1 X60.274 Y56.309 E3.33509
G1 X60.217 Y56.210 E3.33888
G1 X60.942 Y55.791 F30000.000
G1 F4136.41
G1 X61.107 Y56.077 E3.34978
G1 X61.767 Y56.077 E3.37157
G1 X62.097 Y55.506 E3.39336
G1 X61.932 Y55.220 E3.40426
G1 X62.656 Y54.801 F30000.000
G1 F4136.41
G1 X62.821 Y55.087 E3.41515
G1 X63.481 Y55.087 E3.43694
G1 X63.811 Y54.516 E3.45873
G1 X63.646 Y54.230 E3.46963
G1 X64.371 Y53.811 F30000.000
G1 F4136.41
G1 X64.536 Y54.097 E3.48053
G1 X65.196 Y54.097 E3.50232
G1 X65.526 Y53.526 E3.52411
G1 X65.361 Y53.240 E3.53500
G1 X65.591 Y53.107 E3.54376
G1 X66.086 Y52.821 F30000.000
G1 F4136.41
G1 X66.251 Y53.107 E3.55466
G1 F4136.41
G1 X66.911 Y53.107 E3.57645
G1 X66.983 Y52.982 E3.58120
G1 X67.286 Y53.508 E3.60125
G1 X66.956 Y54.080 E3.62305
G1 X67.286 Y54.652 E3.64484
G1 X67.311 Y54.652 E3.64565
G1 X67.299 Y54.673 E3.64647
G1 X67.629 Y55.245 E3.66826
G1 X68.289 Y55.245 E3.69006
G1 E1.69006 F2400.00000
G92 E0
G1 X62.259 Y61.289 F30000.000
G1 E2.00000 F2400.00000
G1 F4136.41
G1 X62.250 Y61.274 E2.00057
G1 X62.224 Y61.289 E2.00157
G1 X62.259 Y61.289 E2.00272
G1 X61.881 Y61.492 F30000.000
G1 F4136.41
G1 X61.881 Y61.492 E2.00272
G1 E0.00272 F2400.00000
G92 E0
G1 X59.392 Y57.067 F30000.000
G1 E2.00000 F2400.00000
G1 F4136.41
G1 X59.227 Y56.781 E2.01090
G1 X59.178 Y56.810 F30000.000
G1 F4136.41
G1 X59.451 Y57.283 E2.02895
G1 X59.653 Y57.167 E2.03666
G1 X59.596 Y57.067 E2.04045
G1 X59.392 Y57.067 E2.04719
G1 Z0.700 F30000.000
G1 E0.04719 F2400.00000
G92 E0
G1 X56.878 Y62.899 F30000.000
G1 E2.00000 F2400.00000
G1 F5363.49
G1 X63.604 Y74.550 E2.39943
G1 X62.127 Y75.403 E2.45008
G1 X54.251 Y61.762 E2.91773
G1 X60.059 Y58.409 E3.11684
G1 X61.208 Y60.399 E3.18507
G1 X56.929 Y62.869 E3.33174
G1 X57.393 Y63.038 F30000.000
G1 F1877.22
G1 X63.769 Y74.082 E3.75283
G1 X75.993 Y67.025 E4.21884
G1 X76.692 Y67.429 E4.24549
G1 X61.989 Y75.918 E4.80605
G1 X53.736 Y61.624 E5.35099
G1 X60.197 Y57.894 E5.59730
G1 X60.861 Y59.045 E5.64116
G1 X61.225 Y58.835 E5.65502

G1 F4800
G1 X66.490 Y55.795 E5.97267
G1 X66.688 Y56.137 E5.99335
G1 X61.422 Y59.177 E6.31100

G1 F1877.22
G1 X61.059 Y59.387 E6.32487
G1 X61.723 Y60.538 E6.36872
G1 X57.445 Y63.008 E6.53182
G1 X57.065 Y63.267 F30000.000
G1 X54.924 Y61.881 F30000.000
G1 F3218.09
G1 X54.827 Y61.978 E6.53822
G1 X55.117 Y62.479 E6.56512
G1 X56.795 Y60.801 E6.67547
G1 X58.666 Y59.721 E6.77589
G1 X55.406 Y62.981 E6.99019
G1 X55.695 Y63.482 E7.01710
G1 X56.372 Y62.805 E7.06157
G1 X56.661 Y63.307 E7.08848
G1 X55.985 Y63.983 E7.13296
G1 X56.274 Y64.484 E7.15986
G1 X56.951 Y63.808 E7.20434
G1 X57.240 Y64.309 E7.23124
G1 X56.564 Y64.986 E7.27572
G1 X56.853 Y65.487 E7.30263
G1 X57.529 Y64.810 E7.34710
G1 X57.819 Y65.312 E7.37401
G1 X57.142 Y65.988 E7.41849
G1 X57.432 Y66.489 E7.44539
G1 X58.108 Y65.813 E7.48987
G1 X58.398 Y66.314 E7.51678
G1 X57.721 Y66.991 E7.56125
G1 X58.010 Y67.492 E7.58816
G1 X58.687 Y66.815 E7.63264
G1 X58.976 Y67.317 E7.65954
G1 X58.300 Y67.993 E7.70402
G1 X58.589 Y68.494 E7.73092
G1 X59.266 Y67.818 E7.77540
G1 X59.555 Y68.319 E7.80231
G1 X58.879 Y68.996 E7.84678
G1 X59.168 Y69.497 E7.87369
G1 X59.845 Y68.820 E7.91817
G1 X60.134 Y69.322 E7.94507
G1 X59.457 Y69.998 E7.98955
G1 X59.747 Y70.499 E8.01646
G1 X60.423 Y69.823 E8.06093
G1 X60.713 Y70.324 E8.08784
G1 X60.036 Y71.001 E8.13232
G1 X60.326 Y71.502 E8.15922
G1 X61.002 Y70.825 E8.20370
G1 X61.292 Y71.326 E8.23060
G1 X60.615 Y72.003 E8.27508
G1 X60.904 Y72.504 E8.30199
G1 X61.581 Y71.828 E8.34646
G1 X61.870 Y72.329 E8.37337
G1 X61.194 Y73.006 E8.41785
G1 X61.483 Y73.507 E8.44475
G1 X62.160 Y72.830 E8.48923
G1 X62.449 Y73.331 E8.51614
G1 X61.773 Y74.008 E8.56061
G1 X62.062 Y74.509 E8.58752
G1 X62.739 Y73.833 E8.63200
G1 X63.028 Y74.334 E8.65890
G1 X62.931 Y74.431 E8.66529
G1 X63.053 Y74.402 F30000.000
G1 X62.439 Y74.238 F30000.000
G1 X55.937 Y62.977 F30000.000
G1 X55.831 Y62.186 F30000.000
G1 X55.954 Y62.106 F30000.000
G1 X59.638 Y59.979 F30000.000
G1 X60.422 Y60.189 F30000.000
G1 X60.400 Y60.358 F30000.000
G1 F3218.09
G1 X60.611 Y60.148 E8.67916
G1 X60.322 Y59.646 E8.70606
G1 X58.529 Y61.438 E8.82388
G1 X56.659 Y62.518 E8.92429
G1 X60.032 Y59.145 E9.14606
G1 X59.940 Y58.985 E9.15464
G1 X58.666 Y59.721 E9.22303
G1 X59.638 Y59.979 F30000.000
G1 X55.831 Y62.186 F30000.000
G1 X55.937 Y62.977 F30000.000
G1 X62.439 Y74.238 F30000.000
G1 X63.781 Y74.479 F30000.000
