; generated by Slic3r 1.3.0 on 2023-03-13 at 15:10:27

; external perimeters extrusion width = 0.44mm (2.78mm^3/s)
; perimeters extrusion width = 0.40mm (7.14mm^3/s)
; infill extrusion width = 0.50mm (10.97mm^3/s)
; solid infill extrusion width = 0.60mm (6.68mm^3/s)
; top infill extrusion width = 0.40mm (2.14mm^3/s)

M107
M190 S80 ; set bed temperature and wait for it to be reached
M104 S210 ; set temperature
G28 ; home all axes
G1 Z5 F5000 ; lift nozzle

; Filament gcode

M109 S210 ; set temperature and wait for it to be reached
G21 ; set units to millimeters
G90 ; use absolute coordinates
M82 ; use absolute distances for extrusion
G92 E0
G1 Z0.300 F30000.000
G1 E-2.00000 F2400.00000
G92 E0
G1 X44.838 Y43.068 F30000.000
G1 E2.00000 F2400.00000
G1 F2100
G1 X47.100 Y41.074 E2.20142
G1 X49.078 Y39.540 E2.36869
G1 X51.356 Y37.982 E2.55303
G1 X53.951 Y36.447 E2.75445
G1 X56.182 Y35.310 E2.92172
G1 X58.711 Y34.207 E3.10606
G1 X61.548 Y33.186 E3.30748
G1 X63.953 Y32.487 E3.47474
G1 X66.644 Y31.878 E3.65909
G1 X69.368 Y31.438 E3.84343
G1 X72.114 Y31.170 E4.02778
G1 X75.128 Y31.076 E4.22920
G1 X77.630 Y31.154 E4.39646
G1 X80.378 Y31.406 E4.58081
G1 X83.356 Y31.878 E4.78223
G1 X85.800 Y32.424 E4.94949
G1 X88.452 Y33.186 E5.13383
G1 X91.051 Y34.113 E5.31818
G1 X91.648 Y34.363 E5.36140
G1 X93.818 Y35.310 E5.51960
G1 X96.273 Y36.570 E5.70395
G1 X98.428 Y37.845 E5.87121
G1 X100.715 Y39.389 E6.05556
G1 X103.097 Y41.237 E6.25697
G1 X104.975 Y42.893 E6.42424
G1 X106.932 Y44.838 E6.60858
G1 X108.926 Y47.100 E6.81000
G1 X110.460 Y49.078 E6.97727
G1 X112.018 Y51.356 E7.16161
G1 X113.553 Y53.951 E7.36303
G1 X114.798 Y56.414 E7.54738
G1 X115.793 Y58.711 E7.71465
G1 X116.814 Y61.548 E7.91606
G1 X117.513 Y63.953 E8.08333
G1 X118.122 Y66.644 E8.26768
G1 X118.562 Y69.368 E8.45202
G1 X118.830 Y72.114 E8.63636
G1 X118.924 Y75.128 E8.83778
G1 X118.846 Y77.630 E9.00505
G1 X118.594 Y80.378 E9.18939
G1 X118.122 Y83.356 E9.39081
G1 X117.576 Y85.800 E9.55808
G1 X116.814 Y88.452 E9.74242
G1 X115.887 Y91.051 E9.92676
G1 X115.565 Y91.815 E9.98218
G1 X114.690 Y93.818 E10.12819
G1 X113.430 Y96.273 E10.31253
G1 X112.155 Y98.428 E10.47980
G1 X110.611 Y100.715 E10.66414
G1 X108.763 Y103.097 E10.86556
G1 X107.107 Y104.975 E11.03282
G1 X105.162 Y106.932 E11.21717
G1 X102.900 Y108.926 E11.41859
G1 X100.922 Y110.460 E11.58585
G1 X98.644 Y112.018 E11.77020
G1 X96.049 Y113.553 E11.97162
G1 X93.818 Y114.690 E12.13888
G1 X91.289 Y115.793 E12.32323
G1 X88.452 Y116.814 E12.52465
G1 X86.047 Y117.513 E12.69191
G1 X83.356 Y118.122 E12.87626
G1 X80.632 Y118.562 E13.06060
G1 X77.886 Y118.830 E13.24494
G1 X74.872 Y118.924 E13.44636
G1 X72.370 Y118.846 E13.61363
G1 X69.622 Y118.594 E13.79797
G1 X66.644 Y118.122 E13.99939
G1 X64.200 Y117.576 E14.16666
G1 X61.548 Y116.814 E14.35100
G1 X58.949 Y115.887 E14.53535
G1 X58.185 Y115.565 E14.59076
G1 X56.182 Y114.690 E14.73677
G1 X53.727 Y113.430 E14.92111
G1 X51.572 Y112.155 E15.08838
G1 X49.285 Y110.611 E15.27272
G1 X46.903 Y108.763 E15.47414
G1 X45.025 Y107.107 E15.64141
G1 X43.068 Y105.162 E15.82575
G1 X41.074 Y102.900 E16.02717
G1 X39.540 Y100.922 E16.19444
G1 X37.982 Y98.644 E16.37878
G1 X36.447 Y96.049 E16.58020
G1 X35.310 Y93.818 E16.74747
G1 X34.207 Y91.289 E16.93181
G1 X33.186 Y88.452 E17.13323
G1 X32.487 Y86.047 E17.30050
G1 X31.878 Y83.356 E17.48484
G1 X31.438 Y80.632 E17.66919
G1 X31.170 Y77.886 E17.85353
G1 X31.076 Y74.872 E18.05495
G1 X31.154 Y72.370 E18.22221
G1 X31.406 Y69.622 E18.40656
G1 X31.878 Y66.644 E18.60798
G1 X32.424 Y64.200 E18.77524
G1 X33.186 Y61.548 E18.95959
G1 X34.207 Y58.711 E19.16101
G1 X35.202 Y56.414 E19.32827
G1 X36.447 Y53.951 E19.51262
G1 X37.982 Y51.356 E19.71404
G1 X39.389 Y49.285 E19.88130
G1 X41.074 Y47.100 E20.06565
G1 X42.893 Y45.025 E20.24999
G1 X44.796 Y43.110 E20.43033
G1 X45.217 Y43.447 F30000.000
G1 F2100
G1 X47.428 Y41.497 E20.62725
G1 X49.586 Y39.832 E20.80935
G1 X51.657 Y38.425 E20.97661
G1 X54.000 Y37.031 E21.15871
G1 X54.706 Y36.664 E21.21188
G1 X56.626 Y35.693 E21.35564
G1 X59.131 Y34.617 E21.53774
G1 X61.486 Y33.769 E21.70500
G1 X64.102 Y33.002 E21.88710
G1 X66.979 Y32.359 E22.08403
G1 X69.452 Y31.967 E22.25129
G1 X72.165 Y31.703 E22.43339
G1 X75.111 Y31.611 E22.63031
G1 X77.614 Y31.690 E22.79758
G1 X80.328 Y31.939 E22.97968
G1 X83.239 Y32.400 E23.17660
G1 X85.683 Y32.946 E23.34387
G1 X88.302 Y33.700 E23.52597
G1 X90.869 Y34.617 E23.70806
G1 X91.435 Y34.854 E23.74904
G1 X93.575 Y35.788 E23.90499
G1 X96.000 Y37.031 E24.08709
G1 X98.343 Y38.425 E24.26919
G1 X100.414 Y39.832 E24.43645
G1 X102.743 Y41.639 E24.63338
G1 X104.621 Y43.295 E24.80064
G1 X106.553 Y45.217 E24.98274
G1 X108.503 Y47.428 E25.17967
G1 X110.037 Y49.407 E25.34693
G1 X111.575 Y51.657 E25.52903
G1 X113.076 Y54.194 E25.72596
G1 X114.307 Y56.626 E25.90805
G1 X115.301 Y58.924 E26.07532
G1 X116.300 Y61.698 E26.27225
G1 X117.054 Y64.317 E26.45434
G1 X117.600 Y66.761 E26.62161
G1 X118.033 Y69.452 E26.80370
G1 X118.297 Y72.165 E26.98580
G1 X118.389 Y75.111 E27.18273
G1 X118.310 Y77.614 E27.34999
G1 X118.061 Y80.328 E27.53209
G1 X117.600 Y83.239 E27.72901
G1 X117.054 Y85.683 E27.89628
G1 X116.300 Y88.302 E28.07838
G1 X115.383 Y90.869 E28.26048
G1 X115.073 Y91.602 E28.31364
G1 X114.212 Y93.575 E28.45740
G1 X112.969 Y96.000 E28.63950
G1 X111.694 Y98.155 E28.80677
G1 X110.168 Y100.414 E28.98886
G1 X108.361 Y102.743 E29.18579
G1 X106.553 Y104.783 E29.36789
G1 X104.783 Y106.553 E29.53515
G1 X102.572 Y108.503 E29.73208
G1 X100.593 Y110.037 E29.89934
G1 X98.343 Y111.575 E30.08144
G1 X95.806 Y113.076 E30.27837
G1 X93.575 Y114.212 E30.44563
G1 X91.076 Y115.301 E30.62773
G1 X88.302 Y116.300 E30.82466
G1 X85.898 Y116.998 E30.99192
G1 X83.239 Y117.600 E31.17402
G1 X80.548 Y118.033 E31.35611
G1 X77.835 Y118.297 E31.53821
G1 X74.889 Y118.389 E31.73514
G1 X72.386 Y118.310 E31.90240
G1 X69.672 Y118.061 E32.08450
G1 X66.761 Y117.600 E32.28143
G1 X64.317 Y117.054 E32.44869
G1 X61.698 Y116.300 E32.63079
G1 X59.131 Y115.383 E32.81289
G1 X58.398 Y115.073 E32.86605
G1 X56.425 Y114.212 E33.00982
G1 X54.000 Y112.969 E33.19191
G1 X51.845 Y111.694 E33.35918
G1 X49.586 Y110.168 E33.54128
G1 X47.257 Y108.361 E33.73820
G1 X45.379 Y106.705 E33.90547
G1 X43.447 Y104.783 E34.08756
G1 X41.497 Y102.572 E34.28449
G1 X39.963 Y100.593 E34.45176
G1 X38.425 Y98.343 E34.63385
G1 X36.924 Y95.806 E34.83078
G1 X35.788 Y93.575 E34.99804
G1 X34.699 Y91.076 E35.18014
G1 X33.700 Y88.302 E35.37707
G1 X33.002 Y85.898 E35.54433
G1 X32.400 Y83.239 E35.72643
G1 X31.967 Y80.548 E35.90853
G1 X31.703 Y77.835 E36.09062
G1 X31.611 Y74.889 E36.28755
G1 X31.690 Y72.386 E36.45482
G1 X31.939 Y69.672 E36.63691
G1 X32.400 Y66.761 E36.83384
G1 X32.946 Y64.317 E37.00110
G1 X33.700 Y61.698 E37.18320
G1 X34.699 Y58.924 E37.38013
G1 X35.693 Y56.626 E37.54739
G1 X36.924 Y54.194 E37.72949
G1 X38.425 Y51.657 E37.92642
G1 X39.832 Y49.586 E38.09368
G1 X41.497 Y47.428 E38.27578
G1 X43.295 Y45.379 E38.45788
G1 X45.175 Y43.489 E38.63596
G1 E36.63596 F2400.00000
G92 E0
G1 X74.379 Y90.133 F30000.000
G1 E2.00000 F2400.00000
G1 F2100
G1 X74.910 Y90.117 E2.03549
G1 X75.617 Y90.133 E2.08274
G1 X76.239 Y90.192 E2.12446
G1 X76.852 Y90.289 E2.16595
G1 X77.459 Y90.425 E2.20744
G1 X78.055 Y90.598 E2.24893
G1 X78.639 Y90.808 E2.29042
G1 X79.209 Y91.055 E2.33191
G1 X79.763 Y91.337 E2.37340
G1 X80.297 Y91.653 E2.41489
G1 X80.811 Y92.002 E2.45638
G1 X81.302 Y92.383 E2.49787
G1 X81.767 Y92.793 E2.53936
G1 X82.207 Y93.233 E2.58085
G1 X82.617 Y93.698 E2.62234
G1 X82.998 Y94.189 E2.66383
G1 X83.347 Y94.703 E2.70532
G1 X83.663 Y95.237 E2.74681
G1 X83.945 Y95.791 E2.78830
G1 X84.192 Y96.361 E2.82979
G1 X84.402 Y96.945 E2.87128
G1 X84.575 Y97.541 E2.91277
G1 X84.711 Y98.148 E2.95426
G1 X84.808 Y98.761 E2.99575
G1 X84.867 Y99.379 E3.03724
G1 X84.886 Y100.000 E3.07873
G1 X84.867 Y100.621 E3.12022
G1 X84.808 Y101.239 E3.16171
G1 X84.711 Y101.852 E3.20320
G1 X84.575 Y102.459 E3.24469
G1 X84.402 Y103.055 E3.28618
G1 X84.191 Y103.643 E3.32790
G1 X83.904 Y104.289 E3.37515
G1 X83.663 Y104.763 E3.41064
G1 X83.347 Y105.297 E3.45213
G1 X82.998 Y105.811 E3.49362
G1 X82.615 Y106.304 E3.53534
G1 X82.143 Y106.831 E3.58259
G1 X81.767 Y107.207 E3.61808
G1 X81.302 Y107.617 E3.65957
G1 X80.811 Y107.998 E3.70106
G1 X80.297 Y108.347 E3.74255
G1 X79.763 Y108.663 E3.78404
G1 X79.209 Y108.945 E3.82553
G1 X78.639 Y109.192 E3.86702
G1 X78.055 Y109.402 E3.90851
G1 X77.459 Y109.575 E3.95000
G1 X76.852 Y109.711 E3.99149
G1 X76.239 Y109.808 E4.03298
G1 X75.621 Y109.867 E4.07447
G1 X75.000 Y109.886 E4.11596
G1 X74.379 Y109.867 E4.15745
G1 X73.761 Y109.808 E4.19894
G1 X73.148 Y109.711 E4.24043
G1 X72.629 Y109.595 E4.27592
G1 X71.948 Y109.403 E4.32317
G1 X71.361 Y109.192 E4.36489
G1 X70.791 Y108.945 E4.40638
G1 X70.237 Y108.663 E4.44787
G1 X69.703 Y108.347 E4.48936
G1 X69.189 Y107.998 E4.53085
G1 X68.698 Y107.617 E4.57234
G1 X68.300 Y107.266 E4.60783
G1 X67.796 Y106.770 E4.65508
G1 X67.383 Y106.302 E4.69680
G1 X67.002 Y105.811 E4.73829
G1 X66.651 Y105.294 E4.78001
G1 X66.296 Y104.683 E4.82726
G1 X66.055 Y104.209 E4.86275
G1 X65.808 Y103.639 E4.90424
G1 X65.598 Y103.055 E4.94573
G1 X65.425 Y102.459 E4.98722
G1 X65.288 Y101.849 E5.02894
G1 X65.183 Y101.150 E5.07619
G1 X65.133 Y100.621 E5.11168
G1 X65.114 Y99.997 E5.15340
G1 X65.142 Y99.290 E5.20065
G1 X65.192 Y98.761 E5.23614
G1 X65.289 Y98.148 E5.27763
G1 X65.425 Y97.541 E5.31912
G1 X65.598 Y96.945 E5.36061
G1 X65.809 Y96.357 E5.40233
G1 X66.096 Y95.711 E5.44958
G1 X66.337 Y95.237 E5.48507
G1 X66.653 Y94.703 E5.52656
G1 X67.002 Y94.189 E5.56805
G1 X67.383 Y93.698 E5.60954
G1 X67.793 Y93.233 E5.65103
G1 X68.233 Y92.793 E5.69252
G1 X68.698 Y92.383 E5.73401
G1 X69.189 Y92.002 E5.77550
G1 X69.703 Y91.653 E5.81699
G1 X70.237 Y91.337 E5.85848
G1 X70.791 Y91.055 E5.89997
G1 X71.361 Y90.808 E5.94146
G1 X71.945 Y90.598 E5.98295
G1 X72.541 Y90.425 E6.02444
G1 X73.148 Y90.289 E6.06593
G1 X73.761 Y90.192 E6.10742
G1 X74.320 Y90.139 E6.14490
G1 X74.413 Y90.668 F30000.000
G1 F2100
G1 X74.912 Y90.653 E6.17829
G1 X75.586 Y90.668 E6.22329
G1 X76.172 Y90.724 E6.26261
G1 X76.752 Y90.815 E6.30185
G1 X77.325 Y90.944 E6.34110
G1 X77.889 Y91.107 E6.38034
G1 X78.442 Y91.306 E6.41958
G1 X78.981 Y91.540 E6.45882
G1 X79.504 Y91.806 E6.49806
G1 X80.010 Y92.105 E6.53730
G1 X80.496 Y92.436 E6.57654
G1 X80.960 Y92.796 E6.61578
G1 X81.401 Y93.184 E6.65502
G1 X81.816 Y93.599 E6.69426
G1 X82.204 Y94.040 E6.73351
G1 X82.564 Y94.504 E6.77275
G1 X82.895 Y94.990 E6.81199
G1 X83.194 Y95.496 E6.85123
G1 X83.460 Y96.019 E6.89047
G1 X83.694 Y96.558 E6.92971
G1 X83.893 Y97.111 E6.96895
G1 X84.056 Y97.675 E7.00819
G1 X84.185 Y98.248 E7.04743
G1 X84.276 Y98.828 E7.08667
G1 X84.332 Y99.413 E7.12591
G1 X84.350 Y100.000 E7.16516
G1 X84.332 Y100.587 E7.20440
G1 X84.276 Y101.172 E7.24364
G1 X84.185 Y101.752 E7.28288
G1 X84.056 Y102.325 E7.32212
G1 X83.893 Y102.889 E7.36136
G1 X83.693 Y103.443 E7.40069
G1 X83.421 Y104.059 E7.44569
G1 X83.194 Y104.504 E7.47907
G1 X82.895 Y105.010 E7.51831
G1 X82.564 Y105.496 E7.55756
G1 X82.204 Y105.961 E7.59688
G1 X81.754 Y106.463 E7.64188
G1 X81.401 Y106.816 E7.67527
G1 X80.960 Y107.204 E7.71451
G1 X80.496 Y107.564 E7.75375
G1 X80.010 Y107.895 E7.79299
G1 X79.504 Y108.194 E7.83223
G1 X78.981 Y108.460 E7.87147
G1 X78.442 Y108.694 E7.91071
G1 X77.889 Y108.893 E7.94996
G1 X77.325 Y109.056 E7.98920
G1 X76.752 Y109.185 E8.02844
G1 X76.172 Y109.276 E8.06768
G1 X75.587 Y109.332 E8.10692
G1 X75.000 Y109.350 E8.14616
G1 X74.413 Y109.332 E8.18540
G1 X73.828 Y109.276 E8.22464
G1 X73.248 Y109.185 E8.26388
G1 X72.760 Y109.076 E8.29727
G1 X72.112 Y108.893 E8.34227
G1 X71.558 Y108.694 E8.38160
G1 X71.019 Y108.460 E8.42084
G1 X70.496 Y108.194 E8.46008
G1 X69.990 Y107.895 E8.49932
G1 X69.504 Y107.564 E8.53856
G1 X69.040 Y107.204 E8.57780
G1 X68.665 Y106.874 E8.61119
G1 X68.185 Y106.402 E8.65619
G1 X67.796 Y105.960 E8.69551
G1 X67.436 Y105.496 E8.73476
G1 X67.105 Y105.009 E8.77408
G1 X66.767 Y104.426 E8.81908
G1 X66.540 Y103.981 E8.85247
G1 X66.306 Y103.442 E8.89171
G1 X66.107 Y102.889 E8.93095
G1 X65.944 Y102.325 E8.97019
G1 X65.815 Y101.751 E9.00952
G1 X65.715 Y101.085 E9.05452
G1 X65.668 Y100.587 E9.08790
G1 X65.650 Y99.999 E9.12723
G1 X65.677 Y99.326 E9.17223
G1 X65.724 Y98.828 E9.20562
G1 X65.815 Y98.248 E9.24486
G1 X65.944 Y97.675 E9.28410
G1 X66.107 Y97.111 E9.32334
G1 X66.307 Y96.557 E9.36266
G1 X66.579 Y95.941 E9.40767
G1 X66.806 Y95.496 E9.44105
G1 X67.105 Y94.990 E9.48029
G1 X67.436 Y94.504 E9.51954
G1 X67.796 Y94.040 E9.55878
G1 X68.184 Y93.599 E9.59802
G1 X68.599 Y93.184 E9.63726
G1 X69.040 Y92.796 E9.67650
G1 X69.504 Y92.436 E9.71574
G1 X69.990 Y92.105 E9.75498
G1 X70.496 Y91.806 E9.79422
G1 X71.019 Y91.540 E9.83346
G1 X71.558 Y91.306 E9.87270
G1 X72.111 Y91.107 E9.91195
G1 X72.675 Y90.944 E9.95119
G1 X73.248 Y90.815 E9.99043
G1 X73.828 Y90.724 E10.02967
G1 X74.353 Y90.674 E10.06490
G1 X74.591 Y90.310 F30000.000
G1 E8.06490 F2400.00000
G92 E0
G1 X63.101 Y89.119 F30000.000
G1 E2.00000 F2400.00000
G1 F2100
G1 X62.974 Y89.757 E2.04351
G1 X62.813 Y90.361 E2.08523
G1 X62.581 Y91.029 E2.13248
G1 X62.381 Y91.521 E2.16797
G1 X62.110 Y92.080 E2.20946
G1 X61.806 Y92.621 E2.25095
G1 X61.467 Y93.142 E2.29244
G1 X61.097 Y93.641 E2.33393
G1 X60.696 Y94.115 E2.37542
G1 X60.266 Y94.563 E2.41691
G1 X59.809 Y94.984 E2.45840
G1 X59.326 Y95.375 E2.49989
G1 X58.820 Y95.734 E2.54138
G1 X58.292 Y96.062 E2.58287
G1 X57.745 Y96.355 E2.62436
G1 X57.180 Y96.614 E2.66585
G1 X56.601 Y96.836 E2.70734
G1 X56.008 Y97.022 E2.74883
G1 X55.405 Y97.170 E2.79032
G1 X54.794 Y97.280 E2.83181
G1 X54.177 Y97.351 E2.87330
G1 X53.556 Y97.384 E2.91479
G1 X52.935 Y97.377 E2.95628
G1 X52.316 Y97.332 E2.99777
G1 X51.701 Y97.248 E3.03926
G1 X51.092 Y97.125 E3.08075
G1 X50.492 Y96.964 E3.12224
G1 X49.903 Y96.766 E3.16373
G1 X49.328 Y96.531 E3.20522
G1 X48.769 Y96.261 E3.24671
G1 X48.228 Y95.956 E3.28820
G1 X47.707 Y95.618 E3.32969
G1 X47.209 Y95.248 E3.37118
G1 X46.734 Y94.847 E3.41267
G1 X46.286 Y94.417 E3.45416
G1 X45.866 Y93.960 E3.49565
G1 X45.475 Y93.477 E3.53714
G1 X45.115 Y92.971 E3.57863
G1 X44.788 Y92.443 E3.62012
G1 X44.494 Y91.896 E3.66161
G1 X44.236 Y91.331 E3.70310
G1 X44.013 Y90.751 E3.74459
G1 X43.827 Y90.159 E3.78608
G1 X43.679 Y89.555 E3.82757
G1 X43.569 Y88.944 E3.86906
G1 X43.498 Y88.327 E3.91055
G1 X43.465 Y87.707 E3.95204
G1 X43.472 Y87.086 E3.99353
G1 X43.517 Y86.467 E4.03502
G1 X43.602 Y85.848 E4.07674
G1 X43.748 Y85.156 E4.12399
G1 X43.885 Y84.643 E4.15948
G1 X44.083 Y84.054 E4.20097
G1 X44.318 Y83.479 E4.24246
G1 X44.588 Y82.920 E4.28395
G1 X44.893 Y82.379 E4.32544
G1 X45.231 Y81.858 E4.36693
G1 X45.602 Y81.359 E4.40842
G1 X46.003 Y80.885 E4.44991
G1 X46.432 Y80.437 E4.49140
G1 X46.890 Y80.016 E4.53289
G1 X47.372 Y79.625 E4.57438
G1 X47.879 Y79.266 E4.61587
G1 X48.406 Y78.938 E4.65736
G1 X48.954 Y78.645 E4.69885
G1 X49.518 Y78.386 E4.74034
G1 X50.098 Y78.164 E4.78183
G1 X50.691 Y77.978 E4.82332
G1 X51.294 Y77.830 E4.86481
G1 X51.905 Y77.720 E4.90630
G1 X52.522 Y77.649 E4.94779
G1 X53.053 Y77.621 E4.98328
G1 X53.760 Y77.622 E5.03053
G1 X54.383 Y77.668 E5.07225
G1 X54.998 Y77.752 E5.11374
G1 X55.607 Y77.875 E5.15523
G1 X56.120 Y78.013 E5.19072
G1 X56.792 Y78.233 E5.23797
G1 X57.370 Y78.469 E5.27969
G1 X57.930 Y78.739 E5.32118
G1 X58.471 Y79.044 E5.36267
G1 X58.991 Y79.382 E5.40416
G1 X59.490 Y79.752 E5.44565
G1 X59.969 Y80.157 E5.48751
G1 X60.521 Y80.700 E5.53926
G1 X60.833 Y81.040 E5.57010
G1 X61.224 Y81.523 E5.61159
G1 X61.584 Y82.029 E5.65308
G1 X61.911 Y82.557 E5.69457
G1 X62.204 Y83.104 E5.73606
G1 X62.463 Y83.669 E5.77755
G1 X62.686 Y84.249 E5.81904
G1 X62.871 Y84.841 E5.86053
G1 X63.019 Y85.445 E5.90202
G1 X63.129 Y86.056 E5.94351
G1 X63.201 Y86.673 E5.98500
G1 X63.233 Y87.293 E6.02649
G1 X63.227 Y87.914 E6.06798
G1 X63.181 Y88.533 E6.10947
G1 X63.109 Y89.059 E6.14493
G1 X62.570 Y89.046 F30000.000
G1 F2100
G1 X62.452 Y89.635 E6.18507
G1 X62.300 Y90.204 E6.22439
G1 X62.080 Y90.840 E6.26939
G1 X61.891 Y91.303 E6.30278
G1 X61.636 Y91.832 E6.34202
G1 X61.347 Y92.344 E6.38126
G1 X61.027 Y92.836 E6.42050
G1 X60.677 Y93.308 E6.45975
G1 X60.298 Y93.756 E6.49899
G1 X59.891 Y94.180 E6.53823
G1 X59.459 Y94.578 E6.57747
