; generated by Slic3r 1.3.0 on 2022-08-30 at 10:43:41

; external perimeters extrusion width = 0.44mm (3.38mm^3/s)
; perimeters extrusion width = 0.48mm (7.54mm^3/s)
; infill extrusion width = 0.48mm (10.05mm^3/s)
; solid infill extrusion width = 0.48mm (2.51mm^3/s)
; top infill extrusion width = 0.48mm (1.88mm^3/s)

M107
M104 S210 ; set temperature
G28 ; home all axes
G1 Z5 F5000 ; lift nozzle

; Filament gcode

M109 S210 ; set temperature and wait for it to be reached
G21 ; set units to millimeters
G90 ; use absolute coordinates
M82 ; use absolute distances for extrusion
G92 E0
G1 Z0.350 F7800.000
G1 E-2.00000 F2400.00000
G92 E0
G1 X68.732 Y60.008 F7800.000
G1 E2.00000 F2400.00000
G1 F1800
G1 X69.016 Y59.705 E2.03709
G1 X70.008 Y58.732 E2.16093
G1 X70.739 Y58.087 E2.24773
G1 X71.829 Y57.226 E2.37155
G1 X72.959 Y56.442 E2.49412
G1 X73.322 Y56.211 E2.53247
G1 X74.160 Y55.715 E2.61924
G1 X75.393 Y55.072 E2.74309
G1 X76.650 Y54.514 E2.86567
G1 X77.050 Y54.355 E2.90402
G1 X77.967 Y54.025 E2.99083
G1 X79.297 Y53.625 E3.11465
G1 X80.650 Y53.309 E3.23848
G1 X82.021 Y53.079 E3.36232
G1 X82.434 Y53.027 E3.39941
G1 X83.819 Y52.909 E3.52325
G1 X84.792 Y52.878 E3.61007
G1 X86.181 Y52.909 E3.73387
G1 X87.566 Y53.027 E3.85771
G1 X87.979 Y53.079 E3.89480
G1 X88.941 Y53.231 E3.98157
G1 X90.300 Y53.522 E4.10541
G1 X91.638 Y53.897 E4.22927
G1 X92.937 Y54.350 E4.35184
G1 X93.337 Y54.508 E4.39019
G1 X94.607 Y55.072 E4.51403
G1 X95.840 Y55.715 E4.63788
G1 X96.678 Y56.211 E4.72470
G1 X97.823 Y56.973 E4.84723
G1 X98.171 Y57.226 E4.88558
G1 X98.941 Y57.823 E4.97238
G1 X99.992 Y58.732 E5.09619
G1 X100.295 Y59.016 E5.13325
G1 X101.268 Y60.008 E5.25712
G1 X101.912 Y60.739 E5.34389
G1 X102.774 Y61.829 E5.46774
G1 X103.019 Y62.166 E5.50483
G1 X103.789 Y63.322 E5.62867
G1 X104.285 Y64.160 E5.71544
G1 X104.928 Y65.393 E5.83928
G1 X105.492 Y66.663 E5.96313
G1 X105.645 Y67.050 E6.00022
G1 X106.103 Y68.362 E6.12404
G1 X106.478 Y69.700 E6.24789
G1 X106.769 Y71.059 E6.37172
G1 X106.921 Y72.021 E6.45852
G1 X106.975 Y72.448 E6.49685
G1 X107.091 Y73.819 E6.61945
G1 X107.122 Y75.208 E6.74329
G1 X107.091 Y76.181 E6.83006
G1 X107.065 Y76.597 E6.86714
G1 X106.921 Y77.979 E6.99099
G1 X106.769 Y78.941 E7.07776
G1 X106.478 Y80.300 E7.20161
G1 X106.103 Y81.638 E7.32545
G1 X105.645 Y82.950 E7.44930
G1 X105.492 Y83.337 E7.48638
G1 X104.928 Y84.607 E7.61023
G1 X104.486 Y85.475 E7.69700
G1 X103.789 Y86.678 E7.82084
G1 X103.566 Y87.029 E7.85793
G1 X102.774 Y88.171 E7.98177
G1 X101.913 Y89.261 E8.10558
G1 X101.268 Y89.992 E8.19239
G1 X100.984 Y90.295 E8.22948
G1 X99.992 Y91.268 E8.35332
G1 X99.261 Y91.913 E8.44012
G1 X98.171 Y92.774 E8.56393
G1 X97.029 Y93.566 E8.68778
G1 X96.678 Y93.789 E8.72487
G1 X95.840 Y94.285 E8.81164
G1 X94.607 Y94.928 E8.93548
G1 X93.337 Y95.492 E9.05932
G1 X92.950 Y95.645 E9.09641
G1 X91.638 Y96.103 E9.22025
G1 X90.300 Y96.478 E9.34410
G1 X89.350 Y96.691 E9.43087
G1 X87.979 Y96.921 E9.55471
G1 X87.566 Y96.973 E9.59180
G1 X86.181 Y97.091 E9.71564
G1 X85.208 Y97.122 E9.80242
G1 X83.819 Y97.091 E9.92626
G1 X82.434 Y96.973 E10.05010
G1 X81.073 Y96.771 E10.17271
G1 X80.650 Y96.691 E10.21103
G1 X79.297 Y96.375 E10.33488
G1 X78.362 Y96.103 E10.42166
G1 X77.050 Y95.645 E10.54549
G1 X76.663 Y95.492 E10.58258
G1 X75.393 Y94.928 E10.70642
G1 X74.525 Y94.486 E10.79319
G1 X73.322 Y93.789 E10.91704
G1 X72.971 Y93.566 E10.95413
G1 X71.829 Y92.774 E11.07797
G1 X71.059 Y92.178 E11.16474
G1 X70.008 Y91.268 E11.28858
G1 X69.705 Y90.984 E11.32567
G1 X68.732 Y89.992 E11.44951
G1 X67.823 Y88.941 E11.57333
G1 X67.226 Y88.171 E11.66013
G1 X66.973 Y87.823 E11.69848
G1 X66.211 Y86.678 E11.82101
G1 X65.715 Y85.840 E11.90783
G1 X65.072 Y84.607 E12.03168
G1 X64.895 Y84.231 E12.06876
G1 X64.355 Y82.950 E12.19258
G1 X63.897 Y81.638 E12.31643
G1 X63.625 Y80.703 E12.40322
G1 X63.522 Y80.300 E12.44031
G1 X63.231 Y78.941 E12.56415
G1 X63.027 Y77.566 E12.68800
G1 X62.909 Y76.182 E12.81180
G1 X62.878 Y74.792 E12.93564
G1 X62.909 Y73.819 E13.02245
G1 X62.936 Y73.389 E13.06081
G1 X63.079 Y72.021 E13.18338
G1 X63.231 Y71.059 E13.27016
G1 X63.522 Y69.700 E13.39400
G1 X63.625 Y69.297 E13.43107
G1 X64.025 Y67.967 E13.55490
G1 X64.508 Y66.663 E13.67876
G1 X64.895 Y65.769 E13.76554
G1 X65.072 Y65.393 E13.80263
G1 X65.715 Y64.160 E13.92648
G1 X66.433 Y62.971 E14.05028
G1 X66.981 Y62.166 E14.13709
G1 X67.822 Y61.059 E14.26093
G1 X68.692 Y60.053 E14.37943
G1 E12.37943 F2400.00000
G92 E0
G1 X95.672 Y83.828 F7800.000
G1 E2.00000 F2400.00000
G1 F1800
G1 X95.096 Y84.481 E2.07753
G1 X94.481 Y85.096 E2.15507
G1 X93.828 Y85.672 E2.23260
G1 X93.141 Y86.205 E2.31014
G1 X92.421 Y86.694 E2.38767
G1 X91.672 Y87.137 E2.46521
G1 X90.897 Y87.532 E2.54274
G1 X90.099 Y87.878 E2.62028
G1 X89.280 Y88.172 E2.69781
G1 X88.444 Y88.415 E2.77537
G1 X87.577 Y88.608 E2.85455
G1 X86.736 Y88.741 E2.93041
G1 X85.869 Y88.823 E3.00797
G1 X84.981 Y88.850 E3.08715
G1 X84.130 Y88.823 E3.16301
G1 X83.264 Y88.741 E3.24055
G1 X82.405 Y88.605 E3.31808
G1 X81.555 Y88.415 E3.39564
G1 X80.702 Y88.166 E3.47482
G1 X79.901 Y87.878 E3.55068
G1 X79.103 Y87.532 E3.62821
G1 X78.328 Y87.137 E3.70575
G1 X77.579 Y86.694 E3.78330
G1 X76.844 Y86.194 E3.86249
G1 X76.172 Y85.672 E3.93835
G1 X75.519 Y85.096 E4.01588
G1 X74.904 Y84.481 E4.09342
G1 X74.341 Y83.843 E4.16928
G1 X73.795 Y83.141 E4.24846
G1 X73.306 Y82.421 E4.32602
G1 X72.863 Y81.672 E4.40355
G1 X72.468 Y80.897 E4.48109
G1 X72.122 Y80.099 E4.55862
G1 X71.828 Y79.280 E4.63616
G1 X71.571 Y78.398 E4.71802
G1 X71.385 Y77.551 E4.79524
G1 X71.259 Y76.735 E4.86883
G1 X71.177 Y75.870 E4.94631
G1 X71.150 Y75.000 E5.02385
G1 X71.177 Y74.130 E5.10138
G1 X71.259 Y73.264 E5.17891
G1 X71.395 Y72.405 E5.25645
G1 X71.585 Y71.556 E5.33398
G1 X71.828 Y70.720 E5.41152
G1 X72.122 Y69.901 E5.48905
G1 X72.468 Y69.103 E5.56659
G1 X72.854 Y68.344 E5.64245
G1 X73.306 Y67.579 E5.72163
G1 X73.795 Y66.859 E5.79919
G1 X74.317 Y66.186 E5.87505
G1 X74.904 Y65.519 E5.95425
G1 X75.533 Y64.891 E6.03346
G1 X76.172 Y64.328 E6.10932
G1 X76.859 Y63.795 E6.18685
G1 X77.579 Y63.306 E6.26439
G1 X78.328 Y62.863 E6.34192
G1 X79.103 Y62.468 E6.41946
G1 X79.901 Y62.122 E6.49699
G1 X80.720 Y61.828 E6.57453
G1 X81.556 Y61.585 E6.65206
G1 X82.405 Y61.395 E6.72959
G1 X83.264 Y61.259 E6.80715
G1 X84.149 Y61.177 E6.88633
G1 X85.000 Y61.150 E6.96219
G1 X85.870 Y61.177 E7.03973
G1 X86.735 Y61.259 E7.11721
G1 X87.551 Y61.385 E7.19080
G1 X88.398 Y61.571 E7.26802
G1 X89.280 Y61.828 E7.34988
G1 X90.099 Y62.122 E7.42742
G1 X90.897 Y62.468 E7.50495
G1 X91.672 Y62.863 E7.58249
G1 X92.421 Y63.306 E7.66002
G1 X93.141 Y63.795 E7.73756
G1 X93.828 Y64.328 E7.81509
G1 X94.481 Y64.904 E7.89263
G1 X95.096 Y65.519 E7.97016
G1 X95.659 Y66.157 E8.04602
G1 X96.205 Y66.859 E8.12520
G1 X96.694 Y67.579 E8.20276
G1 X97.137 Y68.328 E8.28029
G1 X97.532 Y69.103 E8.35783
G1 X97.878 Y69.901 E8.43536
G1 X98.166 Y70.702 E8.51122
G1 X98.415 Y71.555 E8.59041
G1 X98.605 Y72.405 E8.66796
G1 X98.741 Y73.264 E8.74550
G1 X98.823 Y74.130 E8.82303
G1 X98.850 Y75.000 E8.90057
G1 X98.823 Y75.870 E8.97810
G1 X98.741 Y76.736 E9.05564
G1 X98.605 Y77.595 E9.13317
G1 X98.419 Y78.426 E9.20903
G1 X98.172 Y79.280 E9.28822
G1 X97.878 Y80.099 E9.36577
G1 X97.532 Y80.897 E9.44330
G1 X97.137 Y81.672 E9.52084
G1 X96.694 Y82.421 E9.59837
G1 X96.205 Y83.141 E9.67591
G1 X95.709 Y83.781 E9.74810
G1 X95.672 Y83.828 F7800.000
G1 X96.646 Y84.687 F7800.000
G1 F1800
G1 X96.044 Y85.371 E9.82927
G1 X95.371 Y86.044 E9.91408
G1 X94.667 Y86.664 E9.99764
G1 X93.905 Y87.257 E10.08371
G1 X93.118 Y87.791 E10.16851
G1 X92.298 Y88.276 E10.25332
G1 X91.450 Y88.708 E10.33813
G1 X90.577 Y89.086 E10.42294
G1 X89.682 Y89.408 E10.50775
G1 X88.768 Y89.674 E10.59256
G1 X87.839 Y89.881 E10.67737
G1 X86.899 Y90.030 E10.76218
G1 X85.951 Y90.120 E10.84699
G1 X85.014 Y90.149 E10.93055
G1 X84.049 Y90.120 E11.01662
G1 X83.101 Y90.030 E11.10141
G1 X82.175 Y89.884 E11.18497
G1 X81.232 Y89.674 E11.27105
G1 X80.318 Y89.408 E11.35584
G1 X79.436 Y89.091 E11.43940
G1 X78.549 Y88.708 E11.52547
G1 X77.702 Y88.276 E11.61027
G1 X76.882 Y87.791 E11.69508
G1 X76.095 Y87.256 E11.77989
G1 X75.354 Y86.682 E11.86345
G1 X74.629 Y86.044 E11.94952
G1 X73.956 Y85.371 E12.03432
G1 X73.327 Y84.657 E12.11911
G1 X72.736 Y83.893 E12.20519
G1 X72.209 Y83.118 E12.28875
G1 X71.724 Y82.298 E12.37356
G1 X71.292 Y81.450 E12.45837
G1 X70.914 Y80.577 E12.54318
G1 X70.592 Y79.682 E12.62799
G1 X70.326 Y78.768 E12.71280
G1 X70.119 Y77.839 E12.79761
G1 X69.970 Y76.899 E12.88240
G1 X69.880 Y75.937 E12.96847
G1 X69.850 Y75.000 E13.05203
G1 X69.880 Y74.049 E13.13684
G1 X69.970 Y73.101 E13.22165
G1 X70.119 Y72.161 E13.30646
G1 X70.326 Y71.233 E13.39126
G1 X70.596 Y70.305 E13.47733
G1 X70.914 Y69.423 E13.56089
G1 X71.292 Y68.550 E13.64570
G1 X71.724 Y67.702 E13.73051
G1 X72.209 Y66.882 E13.81532
G1 X72.743 Y66.095 E13.90012
G1 X73.336 Y65.333 E13.98619
G1 X73.956 Y64.629 E14.06975
G1 X74.629 Y63.956 E14.15456
G1 X75.343 Y63.327 E14.23937
G1 X76.095 Y62.744 E14.32418
G1 X76.882 Y62.209 E14.40899
G1 X77.702 Y61.724 E14.49380
G1 X78.550 Y61.292 E14.57861
G1 X79.423 Y60.914 E14.66342
G1 X80.318 Y60.592 E14.74823
G1 X81.232 Y60.326 E14.83304
G1 X82.161 Y60.119 E14.91785
G1 X83.101 Y59.970 E15.00266
G1 X84.049 Y59.880 E15.08747
G1 X85.000 Y59.850 E15.17228
G1 X85.937 Y59.880 E15.25584
G1 X86.899 Y59.970 E15.34191
G1 X87.839 Y60.119 E15.42671
G1 X88.768 Y60.326 E15.51152
G1 X89.682 Y60.592 E15.59633
G1 X90.564 Y60.909 E15.67989
G1 X91.451 Y61.292 E15.76596
G1 X92.298 Y61.724 E15.85076
G1 X93.118 Y62.209 E15.93557
G1 X93.905 Y62.744 E16.02038
G1 X94.657 Y63.327 E16.10519
G1 X95.371 Y63.956 E16.19000
G1 X96.044 Y64.629 E16.27481
G1 X96.673 Y65.343 E16.35962
G1 X97.256 Y66.095 E16.44443
G1 X97.791 Y66.882 E16.52924
G1 X98.276 Y67.702 E16.61405
G1 X98.708 Y68.550 E16.69886
G1 X99.086 Y69.423 E16.78365
G1 X99.412 Y70.332 E16.86973
G1 X99.674 Y71.232 E16.95328
G1 X99.881 Y72.161 E17.03809
G1 X100.030 Y73.101 E17.12290
G1 X100.120 Y74.049 E17.20771
G1 X100.150 Y75.000 E17.29252
G1 X100.120 Y75.951 E17.37733
G1 X100.030 Y76.899 E17.46214
G1 X99.881 Y77.839 E17.54695
G1 X99.674 Y78.768 E17.63176
G1 X99.408 Y79.682 E17.71657
G1 X99.086 Y80.577 E17.80138
G1 X98.708 Y81.450 E17.88619
G1 X98.276 Y82.298 E17.97100
G1 X97.791 Y83.118 E18.05581
G1 X97.256 Y83.905 E18.14062
G1 X96.685 Y84.642 E18.22373
G1 X96.252 Y84.621 F7800.000
G1 X96.159 Y84.258 F7800.000
G1 F1800
G1 X95.570 Y84.926 E18.29981
G1 X94.926 Y85.570 E18.37765
G1 X94.253 Y86.163 E18.45430
G1 X93.531 Y86.724 E18.53241
G1 X92.760 Y87.248 E18.61204
G1 X91.985 Y87.706 E18.68897
G1 X91.183 Y88.115 E18.76590
G1 X90.328 Y88.485 E18.84554
G1 X89.481 Y88.790 E18.92247
G1 X88.606 Y89.044 E19.00030
G1 X87.688 Y89.248 E19.08065
G1 X86.817 Y89.386 E19.15596
G1 X85.921 Y89.470 E19.23292
G1 X85.014 Y89.499 E19.31045
G1 X84.100 Y89.472 E19.38855
G1 X83.183 Y89.386 E19.46728
G1 X82.297 Y89.245 E19.54394
G1 X81.404 Y89.047 E19.62208
G1 X80.519 Y88.790 E19.70077
G1 X79.675 Y88.486 E19.77743
G1 X78.836 Y88.124 E19.85553
G1 X78.015 Y87.706 E19.93427
G1 X77.221 Y87.236 E20.01308
G1 X76.477 Y86.730 E20.08993
G1 X75.766 Y86.179 E20.16685
G1 X75.067 Y85.563 E20.24649
G1 X74.430 Y84.926 E20.32342
G1 X73.828 Y84.243 E20.40121
G1 X73.262 Y83.512 E20.48026
G1 X72.757 Y82.769 E20.55691
G1 X72.294 Y81.985 E20.63475
G1 X71.876 Y81.164 E20.71348
G1 X71.518 Y80.338 E20.79041
G1 X71.210 Y79.481 E20.86824
G1 X70.941 Y78.547 E20.95127
G1 X70.750 Y77.681 E21.02704
G1 X70.613 Y76.806 E21.10274
G1 X70.528 Y75.900 E21.18047
G1 X70.500 Y75.011 E21.25649
G1 X70.529 Y74.090 E21.33523
G1 X70.614 Y73.183 E21.41306
G1 X70.755 Y72.293 E21.48999
G1 X70.959 Y71.384 E21.56963
G1 X71.213 Y70.509 E21.64746
G1 X71.518 Y69.662 E21.72439
G1 X71.880 Y68.826 E21.80222
G1 X72.280 Y68.041 E21.87752
G1 X72.763 Y67.222 E21.95875
G1 X73.269 Y66.478 E22.03567
G1 X73.823 Y65.765 E22.11279
G1 X74.438 Y65.066 E22.19231
G1 X75.074 Y64.430 E22.26920
G1 X75.757 Y63.828 E22.34703
G1 X76.486 Y63.263 E22.42577
G1 X77.231 Y62.757 E22.50270
G1 X78.015 Y62.294 E22.58053
G1 X78.836 Y61.876 E22.65926
G1 X79.662 Y61.518 E22.73619
G1 X80.519 Y61.210 E22.81402
G1 X81.394 Y60.956 E22.89186
G1 X82.273 Y60.759 E22.96878
G1 X83.194 Y60.613 E23.04850
G1 X84.090 Y60.529 E23.12535
G1 X85.000 Y60.500 E23.20318
G1 X85.900 Y60.528 E23.28011
G1 X86.806 Y60.613 E23.35784
G1 X87.681 Y60.750 E23.43354
G1 X88.547 Y60.941 E23.50931
G1 X89.471 Y61.207 E23.59143
G1 X90.347 Y61.523 E23.67107
G1 X91.174 Y61.880 E23.74804
G1 X91.985 Y62.294 E23.82583
G1 X92.778 Y62.763 E23.90457
G1 X93.523 Y63.269 E23.98149
G1 X94.243 Y63.828 E24.05933
G1 X94.926 Y64.430 E24.13716
G1 X95.563 Y65.067 E24.21409
G1 X96.172 Y65.758 E24.29282
G1 X96.736 Y66.486 E24.37152
G1 X97.243 Y67.231 E24.44848
G1 X97.706 Y68.015 E24.52632
G1 X98.120 Y68.826 E24.60415
G1 X98.478 Y69.652 E24.68108
G1 X98.794 Y70.533 E24.76098
G1 X99.044 Y71.394 E24.83764
G1 X99.241 Y72.273 E24.91457
G1 X99.387 Y73.193 E24.99421
G1 X99.471 Y74.090 E25.07113
G1 X99.500 Y74.989 E25.14806
G1 X99.471 Y75.910 E25.22680
G1 X99.386 Y76.817 E25.30463
G1 X99.245 Y77.707 E25.38156
G1 X99.044 Y78.606 E25.46029
G1 X98.790 Y79.481 E25.53812
G1 X98.485 Y80.328 E25.61505
G1 X98.115 Y81.183 E25.69469
G1 X97.706 Y81.985 E25.77162
G1 X97.243 Y82.769 E25.84945
G1 X96.731 Y83.523 E25.92728
G1 X96.197 Y84.211 E26.00173
M104 S205 ; set temperature
G1 Z0.650 F7800.000
G1 X95.872 Y84.005 F7800.000
G1 F3600
G1 X95.327 Y84.624 E26.04394
G1 X94.665 Y85.290 E26.09206
G1 X93.999 Y85.878 E26.13752
G1 X93.298 Y86.421 E26.18293
G1 X92.565 Y86.920 E26.22834
G1 X91.801 Y87.371 E26.27375
G1 X91.011 Y87.774 E26.31916
G1 X90.197 Y88.126 E26.36456
G1 X89.363 Y88.427 E26.40997
G1 X88.510 Y88.674 E26.45544
G1 X87.592 Y88.876 E26.50356
G1 X86.769 Y89.006 E26.54619
G1 X85.885 Y89.090 E26.59166
G1 X84.946 Y89.116 E26.63978
G1 X84.114 Y89.090 E26.68241
G1 X83.231 Y89.006 E26.72782
G1 X82.355 Y88.867 E26.77323
G1 X81.488 Y88.674 E26.81870
G1 X80.586 Y88.408 E26.86682
G1 X79.803 Y88.126 E26.90945
G1 X78.989 Y87.774 E26.95486
G1 X78.199 Y87.371 E27.00027
G1 X77.434 Y86.919 E27.04574
G1 X76.659 Y86.388 E27.09385
G1 X76.001 Y85.878 E27.13649
G1 X75.336 Y85.291 E27.18190
G1 X74.709 Y84.664 E27.22731
G1 X74.122 Y83.999 E27.27272
G1 X73.579 Y83.298 E27.31812
G1 X73.080 Y82.565 E27.36353
G1 X72.629 Y81.801 E27.40894
G1 X72.226 Y81.011 E27.45435
G1 X71.874 Y80.197 E27.49976
G1 X71.567 Y79.345 E27.54611
G1 X71.326 Y78.510 E27.59060
G1 X71.133 Y77.645 E27.63599
G1 X71.002 Y76.823 E27.67862
G1 X70.910 Y75.888 E27.72674
G1 X70.882 Y75.000 E27.77221
G1 X70.910 Y74.114 E27.81762
G1 X70.994 Y73.231 E27.86302
G1 X71.133 Y72.355 E27.90843
G1 X71.326 Y71.489 E27.95384
G1 X71.573 Y70.637 E27.99925
G1 X71.855 Y69.854 E28.04189
G1 X72.226 Y68.990 E28.09000
G1 X72.629 Y68.199 E28.13547
G1 X73.080 Y67.435 E28.18088
G1 X73.579 Y66.702 E28.22629
G1 X74.089 Y66.044 E28.26892
G1 X74.708 Y65.337 E28.31704
G1 X75.336 Y64.709 E28.36251
G1 X76.001 Y64.122 E28.40792
G1 X76.702 Y63.579 E28.45333
G1 X77.435 Y63.080 E28.49873
G1 X78.199 Y62.629 E28.54414
G1 X78.989 Y62.226 E28.58955
G1 X79.803 Y61.874 E28.63496
G1 X80.637 Y61.573 E28.68037
G1 X81.489 Y61.326 E28.72578
G1 X82.355 Y61.133 E28.77119
G1 X83.232 Y60.994 E28.81665
G1 X84.168 Y60.909 E28.86477
G1 X85.000 Y60.882 E28.90741
G1 X85.886 Y60.910 E28.95282
G1 X86.769 Y60.994 E28.99822
G1 X87.645 Y61.133 E29.04363
G1 X88.510 Y61.326 E29.08902
G1 X89.345 Y61.567 E29.13351
G1 X90.198 Y61.874 E29.17992
G1 X91.059 Y62.251 E29.22804
G1 X91.801 Y62.629 E29.27067
G1 X92.565 Y63.080 E29.31608
G1 X93.298 Y63.579 E29.36149
G1 X93.999 Y64.122 E29.40690
G1 X94.664 Y64.709 E29.45231
G1 X95.291 Y65.336 E29.49771
G1 X95.878 Y66.001 E29.54312
G1 X96.421 Y66.702 E29.58853
G1 X96.920 Y67.435 E29.63394
G1 X97.371 Y68.199 E29.67935
G1 X97.774 Y68.989 E29.72476
G1 X98.126 Y69.803 E29.77017
G1 X98.427 Y70.637 E29.81557
G1 X98.674 Y71.489 E29.86098
G1 X98.867 Y72.355 E29.90639
G1 X99.006 Y73.231 E29.95180
G1 X99.090 Y74.114 E29.99721
G1 X99.118 Y75.000 E30.04262
G1 X99.090 Y75.886 E30.08803
G1 X99.006 Y76.769 E30.13343
G1 X98.867 Y77.645 E30.17884
G1 X98.674 Y78.511 E30.22425
