; generated by Slic3r 1.3.0 on 2022-08-15 at 16:01:53

; external perimeters extrusion width = 0.44mm (3.38mm^3/s)
; perimeters extrusion width = 0.48mm (7.54mm^3/s)
; infill extrusion width = 0.48mm (10.05mm^3/s)
; solid infill extrusion width = 0.48mm (2.51mm^3/s)
; top infill extrusion width = 0.48mm (1.88mm^3/s)

M107
M104 S205 ; set temperature
G28 ; home all axes
G1 Z5 F5000 ; lift nozzle

; Filament gcode

M109 S205 ; set temperature and wait for it to be reached
G21 ; set units to millimeters
G90 ; use absolute coordinates
M82 ; use absolute distances for extrusion
G92 E0
G1 Z0.350 F7800.000
G1 E-2.00000 F2400.00000
G92 E0
G1 X65.940 Y65.007 F7800.000
G1 E2.00000 F2400.00000
G1 F1800
G1 X67.233 Y63.850 E2.15779
G1 X68.596 Y62.776 E2.31558
G1 X70.024 Y61.790 E2.47337
G1 X71.511 Y60.895 E2.63115
G1 X73.051 Y60.096 E2.78897
G1 X74.638 Y59.395 E2.94673
G1 X76.267 Y58.795 E3.10452
G1 X77.929 Y58.298 E3.26231
G1 X78.434 Y58.172 E3.30960
G1 X79.875 Y58.013 E3.44144
G1 X90.125 Y58.013 E4.37347
G1 X91.570 Y58.173 E4.50566
G1 X92.071 Y58.298 E4.55260
G1 X93.733 Y58.795 E4.71039
G1 X95.362 Y59.395 E4.86818
G1 X96.573 Y59.919 E4.98817
G1 X98.124 Y60.695 E5.14592
G1 X99.625 Y61.567 E5.30371
G1 X101.067 Y62.531 E5.46150
G1 X101.404 Y62.776 E5.49934
G1 X102.767 Y63.850 E5.65713
G1 X103.757 Y64.722 E5.77709
G1 X104.993 Y65.940 E5.93488
G1 X106.150 Y67.233 E6.09267
G1 X107.224 Y68.596 E6.25046
G1 X108.210 Y70.024 E6.40824
G1 X109.105 Y71.511 E6.56603
G1 X109.904 Y73.051 E6.72382
G1 X110.605 Y74.638 E6.88161
G1 X111.205 Y76.267 E7.03940
G1 X111.702 Y77.929 E7.19718
G1 X111.827 Y78.430 E7.24410
G1 X111.987 Y79.875 E7.37632
G1 X111.987 Y90.125 E8.30835
G1 X111.828 Y91.569 E8.44044
G1 X111.702 Y92.070 E8.48740
G1 X111.205 Y93.733 E8.64525
G1 X110.600 Y95.374 E8.80429
G1 X109.905 Y96.948 E8.96077
G1 X109.305 Y98.124 E9.08080
G1 X109.098 Y98.501 E9.11988
G1 X108.211 Y99.976 E9.27637
G1 X107.224 Y101.404 E9.43422
G1 X106.142 Y102.777 E9.59317
G1 X104.993 Y104.060 E9.74979
G1 X104.060 Y104.993 E9.86975
G1 X102.766 Y106.151 E10.02761
G1 X101.404 Y107.224 E10.18533
G1 X99.976 Y108.210 E10.34313
G1 X98.489 Y109.105 E10.50095
G1 X96.949 Y109.904 E10.65871
G1 X95.361 Y110.605 E10.81651
G1 X93.733 Y111.205 E10.97427
G1 X92.071 Y111.702 E11.13206
G1 X91.569 Y111.828 E11.17910
G1 X90.125 Y111.987 E11.31119
G1 X79.875 Y111.987 E12.24322
G1 X78.430 Y111.827 E12.37543
G1 X77.929 Y111.702 E12.42235
G1 X76.267 Y111.205 E12.58014
G1 X74.638 Y110.605 E12.73793
G1 X73.051 Y109.904 E12.89572
G1 X71.876 Y109.305 E13.01568
G1 X70.375 Y108.433 E13.17346
G1 X68.933 Y107.469 E13.33125
G1 X68.596 Y107.224 E13.36910
G1 X67.554 Y106.415 E13.48906
G1 X66.243 Y105.278 E13.64684
G1 X65.007 Y104.060 E13.80466
G1 X63.850 Y102.767 E13.96242
G1 X62.776 Y101.404 E14.12021
G1 X61.790 Y99.976 E14.27800
G1 X60.895 Y98.489 E14.43578
G1 X60.096 Y96.949 E14.59357
G1 X59.395 Y95.362 E14.75136
G1 X58.795 Y93.733 E14.90915
G1 X58.298 Y92.071 E15.06694
G1 X58.173 Y91.570 E15.11388
G1 X58.013 Y90.125 E15.24607
G1 X58.013 Y79.875 E16.17810
G1 X58.172 Y78.434 E16.30994
G1 X58.298 Y77.929 E16.35723
G1 X58.795 Y76.267 E16.51502
G1 X59.395 Y74.638 E16.67281
G1 X60.096 Y73.051 E16.83057
G1 X60.695 Y71.876 E16.95056
G1 X60.895 Y71.511 E16.98840
G1 X61.790 Y70.024 E17.14619
G1 X62.776 Y68.596 E17.30398
G1 X63.850 Y67.233 E17.46176
G1 X64.722 Y66.243 E17.58172
G1 X65.898 Y65.050 E17.73406
G1 E15.73406 F2400.00000
G92 E0
G1 X93.456 Y92.941 F7800.000
G1 E2.00000 F2400.00000
G1 F1800
G1 X92.941 Y93.456 E2.06627
G1 X92.394 Y93.938 E2.13253
G1 X91.819 Y94.385 E2.19880
G1 X91.216 Y94.795 E2.26507
G1 X90.589 Y95.166 E2.33133
G1 X89.939 Y95.497 E2.39760
G1 X89.270 Y95.786 E2.46386
G1 X88.585 Y96.033 E2.53013
G1 X87.885 Y96.236 E2.59640
G1 X87.174 Y96.395 E2.66266
G1 X86.454 Y96.509 E2.72893
G1 X85.728 Y96.578 E2.79520
G1 X85.000 Y96.601 E2.86146
G1 X84.272 Y96.578 E2.92773
G1 X83.546 Y96.509 E2.99399
G1 X82.826 Y96.395 E3.06026
G1 X82.115 Y96.236 E3.12653
G1 X81.415 Y96.033 E3.19279
G1 X80.730 Y95.786 E3.25906
G1 X80.061 Y95.497 E3.32533
G1 X79.411 Y95.166 E3.39159
G1 X78.782 Y94.794 E3.45803
G1 X78.160 Y94.368 E3.52658
G1 X77.606 Y93.938 E3.59039
G1 X77.059 Y93.456 E3.65665
G1 X76.544 Y92.941 E3.72292
G1 X76.062 Y92.394 E3.78919
G1 X75.615 Y91.819 E3.85545
G1 X75.205 Y91.216 E3.92172
G1 X74.848 Y90.612 E3.98552
G1 X74.504 Y89.941 E4.05407
G1 X74.214 Y89.270 E4.12051
G1 X73.967 Y88.585 E4.18678
G1 X73.764 Y87.885 E4.25305
G1 X73.605 Y87.174 E4.31931
G1 X73.491 Y86.454 E4.38558
G1 X73.422 Y85.728 E4.45185
G1 X73.399 Y85.000 E4.51811
G1 X73.422 Y84.272 E4.58438
G1 X73.491 Y83.546 E4.65064
G1 X73.605 Y82.826 E4.71691
G1 X73.764 Y82.115 E4.78318
G1 X73.967 Y81.415 E4.84944
G1 X74.214 Y80.730 E4.91571
G1 X74.503 Y80.061 E4.98198
G1 X74.834 Y79.411 E5.04824
G1 X75.205 Y78.784 E5.11451
G1 X75.615 Y78.181 E5.18077
G1 X76.062 Y77.606 E5.24704
G1 X76.545 Y77.057 E5.31348
G1 X77.079 Y76.526 E5.38203
G1 X77.606 Y76.062 E5.44584
G1 X78.183 Y75.614 E5.51228
G1 X78.807 Y75.192 E5.58082
G1 X79.411 Y74.834 E5.64463
G1 X80.061 Y74.503 E5.71090
G1 X80.730 Y74.214 E5.77716
G1 X81.415 Y73.967 E5.84343
G1 X82.115 Y73.764 E5.90970
G1 X82.826 Y73.605 E5.97596
G1 X83.548 Y73.491 E6.04240
G1 X84.299 Y73.421 E6.11095
G1 X85.000 Y73.399 E6.17476
G1 X85.728 Y73.422 E6.24102
G1 X86.454 Y73.491 E6.30729
G1 X87.174 Y73.605 E6.37356
G1 X87.885 Y73.764 E6.43982
G1 X88.585 Y73.967 E6.50609
G1 X89.272 Y74.215 E6.57253
G1 X89.963 Y74.516 E6.64108
G1 X90.589 Y74.834 E6.70488
G1 X91.218 Y75.206 E6.77132
G1 X91.840 Y75.632 E6.83987
G1 X92.394 Y76.062 E6.90368
G1 X92.941 Y76.544 E6.96994
G1 X93.456 Y77.059 E7.03621
G1 X93.938 Y77.606 E7.10248
G1 X94.385 Y78.181 E7.16874
G1 X94.795 Y78.784 E7.23501
G1 X95.166 Y79.411 E7.30127
G1 X95.497 Y80.061 E7.36754
G1 X95.786 Y80.730 E7.43381
G1 X96.033 Y81.415 E7.50007
G1 X96.236 Y82.115 E7.56634
G1 X96.395 Y82.826 E7.63261
G1 X96.505 Y83.519 E7.69641
G1 X96.578 Y84.270 E7.76496
G1 X96.601 Y85.000 E7.83140
G1 X96.578 Y85.728 E7.89767
G1 X96.509 Y86.454 E7.96393
G1 X96.395 Y87.174 E8.03020
G1 X96.236 Y87.885 E8.09647
G1 X96.033 Y88.585 E8.16273
G1 X95.782 Y89.281 E8.22998
G1 X95.496 Y89.940 E8.29534
G1 X95.166 Y90.589 E8.36153
G1 X94.795 Y91.216 E8.42780
G1 X94.385 Y91.819 E8.49407
G1 X93.938 Y92.394 E8.56033
G1 X93.496 Y92.896 E8.62114
G1 X93.001 Y92.513 F7800.000
G1 F1800
G1 X92.513 Y93.001 E8.68384
G1 X91.996 Y93.457 E8.74653
G1 X91.451 Y93.879 E8.80923
G1 X90.881 Y94.267 E8.87192
G1 X90.287 Y94.618 E8.93462
G1 X89.673 Y94.931 E8.99731
G1 X89.040 Y95.205 E9.06001
G1 X88.392 Y95.438 E9.12270
G1 X87.729 Y95.631 E9.18540
G1 X87.057 Y95.781 E9.24809
G1 X86.376 Y95.889 E9.31079
G1 X85.689 Y95.954 E9.37348
G1 X85.000 Y95.975 E9.43618
G1 X84.311 Y95.954 E9.49887
G1 X83.624 Y95.889 E9.56157
G1 X82.943 Y95.781 E9.62426
G1 X82.271 Y95.631 E9.68696
G1 X81.608 Y95.438 E9.74965
G1 X80.960 Y95.205 E9.81235
G1 X80.327 Y94.931 E9.87504
G1 X79.713 Y94.618 E9.93774
G1 X79.118 Y94.266 E10.00054
G1 X78.528 Y93.863 E10.06552
G1 X78.004 Y93.457 E10.12582
G1 X77.487 Y93.001 E10.18851
G1 X76.999 Y92.513 E10.25121
G1 X76.543 Y91.996 E10.31390
G1 X76.121 Y91.451 E10.37660
G1 X75.733 Y90.881 E10.43929
G1 X75.396 Y90.310 E10.49960
G1 X75.070 Y89.674 E10.56457
G1 X74.795 Y89.040 E10.62737
G1 X74.562 Y88.392 E10.69007
G1 X74.369 Y87.729 E10.75276
G1 X74.219 Y87.057 E10.81546
G1 X74.111 Y86.376 E10.87815
G1 X74.046 Y85.689 E10.94085
G1 X74.025 Y85.000 E11.00354
G1 X74.046 Y84.311 E11.06624
G1 X74.111 Y83.624 E11.12893
G1 X74.219 Y82.943 E11.19163
G1 X74.369 Y82.271 E11.25432
G1 X74.562 Y81.608 E11.31702
G1 X74.795 Y80.960 E11.37971
G1 X75.069 Y80.327 E11.44241
G1 X75.382 Y79.713 E11.50510
G1 X75.733 Y79.119 E11.56780
G1 X76.121 Y78.549 E11.63049
G1 X76.543 Y78.004 E11.69319
G1 X77.000 Y77.486 E11.75599
G1 X77.507 Y76.982 E11.82097
G1 X78.004 Y76.543 E11.88127
G1 X78.550 Y76.120 E11.94407
G1 X79.142 Y75.720 E12.00905
G1 X79.713 Y75.382 E12.06935
G1 X80.327 Y75.069 E12.13204
G1 X80.960 Y74.795 E12.19474
G1 X81.608 Y74.562 E12.25743
G1 X82.271 Y74.369 E12.32013
G1 X82.943 Y74.219 E12.38282
G1 X83.626 Y74.111 E12.44563
G1 X84.337 Y74.045 E12.51060
G1 X85.000 Y74.025 E12.57090
G1 X85.689 Y74.046 E12.63360
G1 X86.376 Y74.111 E12.69629
G1 X87.057 Y74.219 E12.75899
G1 X87.729 Y74.369 E12.82168
G1 X88.392 Y74.562 E12.88438
G1 X89.041 Y74.796 E12.94718
G1 X89.697 Y75.081 E13.01216
G1 X90.287 Y75.382 E13.07246
G1 X90.882 Y75.734 E13.13526
G1 X91.472 Y76.137 E13.20024
G1 X91.996 Y76.543 E13.26054
G1 X92.513 Y76.999 E13.32324
G1 X93.001 Y77.487 E13.38593
G1 X93.457 Y78.004 E13.44863
G1 X93.879 Y78.549 E13.51132
G1 X94.267 Y79.119 E13.57402
G1 X94.618 Y79.713 E13.63671
G1 X94.931 Y80.327 E13.69941
G1 X95.205 Y80.960 E13.76210
G1 X95.438 Y81.608 E13.82480
G1 X95.631 Y82.271 E13.88749
G1 X95.781 Y82.943 E13.95019
G1 X95.885 Y83.598 E14.01049
G1 X95.954 Y84.310 E14.07546
G1 X95.975 Y85.000 E14.13827
G1 X95.954 Y85.689 E14.20096
G1 X95.889 Y86.376 E14.26366
G1 X95.781 Y87.057 E14.32635
G1 X95.631 Y87.729 E14.38905
G1 X95.438 Y88.392 E14.45174
G1 X95.201 Y89.050 E14.51538
G1 X94.931 Y89.674 E14.57718
G1 X94.618 Y90.287 E14.63983
G1 X94.267 Y90.881 E14.70252
G1 X93.879 Y91.451 E14.76522
G1 X93.457 Y91.996 E14.82791
G1 X93.040 Y92.468 E14.88515
G1 X92.545 Y92.085 F7800.000
G1 F1800
G1 X92.085 Y92.545 E14.94428
G1 X91.597 Y92.975 E15.00340
G1 X91.084 Y93.373 E15.06252
G1 X90.546 Y93.739 E15.12165
G1 X89.986 Y94.070 E15.18077
G1 X89.407 Y94.365 E15.23989
G1 X88.810 Y94.623 E15.29902
G1 X88.198 Y94.844 E15.35814
G1 X87.574 Y95.025 E15.41726
G1 X86.939 Y95.167 E15.47639
G1 X86.297 Y95.269 E15.53551
G1 X85.650 Y95.330 E15.59464
G1 X85.000 Y95.350 E15.65376
G1 X84.350 Y95.330 E15.71288
G1 X83.703 Y95.269 E15.77201
G1 X83.061 Y95.167 E15.83113
G1 X82.426 Y95.025 E15.89025
G1 X81.802 Y94.844 E15.94938
G1 X81.190 Y94.623 E16.00850
G1 X80.593 Y94.365 E16.06762
G1 X80.014 Y94.070 E16.12675
G1 X79.454 Y93.739 E16.18591
G1 X78.896 Y93.358 E16.24731
G1 X78.403 Y92.975 E16.30411
G1 X77.915 Y92.545 E16.36324
G1 X77.455 Y92.085 E16.42236
G1 X77.025 Y91.597 E16.48149
G1 X76.627 Y91.084 E16.54061
G1 X76.261 Y90.546 E16.59973
G1 X75.943 Y90.008 E16.65653
G1 X75.635 Y89.407 E16.71794
G1 X75.377 Y88.810 E16.77710
G1 X75.156 Y88.198 E16.83622
G1 X74.975 Y87.574 E16.89535
G1 X74.833 Y86.939 E16.95447
G1 X74.731 Y86.297 E17.01359
G1 X74.670 Y85.650 E17.07272
G1 X74.650 Y85.000 E17.13184
G1 X74.670 Y84.350 E17.19097
G1 X74.731 Y83.703 E17.25009
G1 X74.833 Y83.061 E17.30921
G1 X74.975 Y82.426 E17.36834
G1 X75.156 Y81.802 E17.42746
G1 X75.377 Y81.190 E17.48658
G1 X75.635 Y80.593 E17.54571
G1 X75.930 Y80.014 E17.60483
G1 X76.261 Y79.454 E17.66395
G1 X76.627 Y78.916 E17.72308
G1 X77.025 Y78.403 E17.78220
G1 X77.455 Y77.915 E17.84136
G1 X77.934 Y77.438 E17.90277
G1 X78.403 Y77.025 E17.95957
G1 X78.917 Y76.626 E18.01873
G1 X79.476 Y76.248 E18.08013
G1 X80.014 Y75.930 E18.13693
G1 X80.593 Y75.635 E18.19606
G1 X81.190 Y75.377 E18.25518
G1 X81.802 Y75.156 E18.31431
G1 X82.426 Y74.975 E18.37343
G1 X83.061 Y74.833 E18.43255
G1 X83.703 Y74.731 E18.49171
G1 X84.376 Y74.669 E18.55312
G1 X85.000 Y74.650 E18.60992
G1 X85.650 Y74.670 E18.66904
G1 X86.297 Y74.731 E18.72817
G1 X86.939 Y74.833 E18.78729
G1 X87.574 Y74.975 E18.84641
G1 X88.198 Y75.156 E18.90554
G1 X88.811 Y75.377 E18.96470
G1 X89.430 Y75.646 E19.02610
G1 X89.986 Y75.930 E19.08290
G1 X90.546 Y76.261 E19.14207
G1 X91.104 Y76.642 E19.20347
G1 X91.597 Y77.025 E19.26027
G1 X92.085 Y77.455 E19.31939
G1 X92.545 Y77.915 E19.37852
G1 X92.975 Y78.403 E19.43764
G1 X93.373 Y78.916 E19.49677
G1 X93.739 Y79.454 E19.55589
G1 X94.070 Y80.014 E19.61501
G1 X94.365 Y80.593 E19.67414
G1 X94.623 Y81.190 E19.73326
G1 X94.844 Y81.802 E19.79238
G1 X95.025 Y82.426 E19.85151
G1 X95.167 Y83.061 E19.91063
G1 X95.265 Y83.678 E19.96743
G1 X95.330 Y84.350 E20.02884
G1 X95.350 Y85.000 E20.08800
G1 X95.330 Y85.650 E20.14712
G1 X95.269 Y86.297 E20.20624
G1 X95.167 Y86.939 E20.26537
G1 X95.025 Y87.574 E20.32449
G1 X94.844 Y88.198 E20.38362
G1 X94.620 Y88.820 E20.44366
G1 X94.365 Y89.407 E20.50188
G1 X94.070 Y89.986 E20.56099
G1 X93.739 Y90.546 E20.62011
G1 X93.373 Y91.084 E20.67924
G1 X92.975 Y91.597 E20.73836
G1 X92.585 Y92.040 E20.79203
G1 X92.545 Y92.085 F7800.000
G1 E18.79203 F2400.00000
G92 E0
G1 X99.775 Y91.725 F7800.000
G1 E2.00000 F2400.00000
G1 F1800
G1 X103.187 Y91.725 E2.31024
G1 X103.037 Y92.141 E2.35051
G1 X102.553 Y93.259 E2.46128
G1 X101.993 Y94.357 E2.57333
G1 X101.379 Y95.395 E2.68295
G1 X100.695 Y96.402 E2.79372
G1 X99.939 Y97.375 E2.90577
G1 X99.142 Y98.280 E3.01540
G1 X98.280 Y99.142 E3.12622
G1 X97.366 Y99.948 E3.23703
G1 X96.413 Y100.686 E3.34666
G1 X95.394 Y101.380 E3.45871
G1 X94.346 Y102.000 E3.56948
G1 X93.260 Y102.553 E3.68029
G1 X92.141 Y103.037 E3.79111
G1 X91.725 Y103.187 E3.83137
G1 X91.725 Y99.775 E4.14162
G1 X78.275 Y99.775 E5.36458
G1 X78.275 Y103.187 E5.67482
G1 X77.859 Y103.037 E5.71509
G1 X76.740 Y102.553 E5.82590
G1 X75.654 Y102.000 E5.93672
G1 X74.605 Y101.379 E6.04753
G1 X73.597 Y100.694 E6.15835
G1 X72.634 Y99.948 E6.26917
G1 X71.730 Y99.150 E6.37879
G1 X70.858 Y98.279 E6.49084
G1 X70.052 Y97.366 E6.60161
G1 X69.306 Y96.403 E6.71243
G1 X68.621 Y95.395 E6.82325
G1 X68.000 Y94.346 E6.93406
G1 X67.447 Y93.260 E7.04488
G1 X66.963 Y92.141 E7.15569
G1 X66.813 Y91.725 E7.19596
G1 X70.225 Y91.725 E7.50620
G1 X70.225 Y78.275 E8.72916
G1 X66.813 Y78.275 E9.03941
G1 X66.963 Y77.859 E9.07967
G1 X67.447 Y76.740 E9.19049
G1 X68.000 Y75.654 E9.30130
G1 X68.621 Y74.605 E9.41212
G1 X69.306 Y73.597 E9.52294
G1 X70.052 Y72.634 E9.63375
G1 X70.858 Y71.720 E9.74457
G1 X71.720 Y70.858 E9.85538
G1 X72.634 Y70.052 E9.96620
G1 X73.587 Y69.314 E10.07583
G1 X74.606 Y68.620 E10.18788
G1 X75.654 Y68.000 E10.29865
G1 X76.740 Y67.447 E10.40946
G1 X77.859 Y66.963 E10.52028
G1 X78.275 Y66.813 E10.56054
G1 X78.275 Y70.225 E10.87079
G1 X91.725 Y70.225 E12.09375
G1 X91.725 Y66.813 E12.40399
G1 X92.141 Y66.963 E12.44426
G1 X93.260 Y67.447 E12.55507
G1 X94.346 Y68.000 E12.66589
G1 X95.395 Y68.621 E12.77670
G1 X96.403 Y69.306 E12.88752
G1 X97.366 Y70.052 E12.99834
G1 X98.280 Y70.858 E13.10915
G1 X99.142 Y71.720 E13.21997
G1 X99.948 Y72.634 E13.33079
G1 X100.694 Y73.597 E13.44160
G1 X101.379 Y74.605 E13.55242
G1 X102.000 Y75.654 E13.66323
G1 X102.553 Y76.740 E13.77405
G1 X103.037 Y77.859 E13.88487
G1 X103.187 Y78.275 E13.92513
G1 X99.775 Y78.275 E14.23537
G1 X99.775 Y91.665 E15.45288
G1 X100.400 Y91.100 F7800.000
G1 F1800
G1 X104.076 Y91.100 E15.78715
G1 X103.618 Y92.372 E15.91005
G1 X103.119 Y93.526 E16.02441
G1 X102.541 Y94.658 E16.14003
G1 X101.907 Y95.730 E16.25321
G1 X101.200 Y96.770 E16.36757
G1 X100.420 Y97.774 E16.48319
G1 X99.597 Y98.708 E16.59637
G1 X98.708 Y99.597 E16.71075
G1 X97.764 Y100.429 E16.82514
G1 X96.781 Y101.192 E16.93832
G1 X95.729 Y101.908 E17.05394
G1 X94.647 Y102.548 E17.16830
G1 X93.526 Y103.119 E17.28269
G1 X92.372 Y103.618 E17.39708
G1 X91.100 Y104.076 E17.51997
G1 X91.100 Y100.400 E17.85424
G1 X78.900 Y100.400 E18.96357
G1 X78.900 Y104.076 E19.29784
G1 X77.628 Y103.618 E19.42073
G1 X76.474 Y103.119 E19.53512
G1 X75.353 Y102.548 E19.64951
G1 X74.270 Y101.907 E19.76390
G1 X73.230 Y101.200 E19.87828
G1 X72.236 Y100.429 E19.99267
G1 X71.302 Y99.606 E20.10585
G1 X70.402 Y98.708 E20.22147
G1 X69.571 Y97.764 E20.33583
G1 X68.800 Y96.770 E20.45022
G1 X68.093 Y95.730 E20.56461
G1 X67.452 Y94.647 E20.67899
G1 X66.881 Y93.526 E20.79338
G1 X66.382 Y92.372 E20.90777
G1 X65.924 Y91.100 E21.03067
G1 X69.600 Y91.100 E21.36494
G1 X69.600 Y78.900 E22.47426
G1 X65.924 Y78.900 E22.80853
G1 X66.382 Y77.628 E22.93143
G1 X66.881 Y76.474 E23.04581
G1 X67.452 Y75.353 E23.16020
G1 X68.093 Y74.270 E23.27459
G1 X68.800 Y73.230 E23.38897
G1 X69.571 Y72.236 E23.50336
G1 X70.403 Y71.292 E23.61775
G1 X71.292 Y70.403 E23.73214
G1 X72.236 Y69.571 E23.84652
G1 X73.219 Y68.808 E23.95971
G1 X74.271 Y68.092 E24.07533
G1 X75.353 Y67.452 E24.18968
G1 X76.474 Y66.881 E24.30407
G1 X77.628 Y66.382 E24.41846
G1 X78.900 Y65.924 E24.54136
G1 X78.900 Y69.600 E24.87563
G1 X91.100 Y69.600 E25.98495
G1 X91.100 Y65.924 E26.31922
