; generated by Slic3r 1.3.0 on 2022-08-30 at 15:27:31

; external perimeters extrusion width = 0.44mm (3.38mm^3/s)
; perimeters extrusion width = 0.48mm (7.54mm^3/s)
; infill extrusion width = 0.48mm (10.05mm^3/s)
; solid infill extrusion width = 0.48mm (2.51mm^3/s)
; top infill extrusion width = 0.48mm (1.88mm^3/s)

M107
M104 S210 ; set temperature
G28 ; home all axes
G1 Z5 F5000 ; lift nozzle

; Filament gcode

M109 S210 ; set temperature and wait for it to be reached
G21 ; set units to millimeters
G90 ; use absolute coordinates
M82 ; use absolute distances for extrusion
G92 E0
G1 Z0.350 F7800.000
G1 E-2.00000 F2400.00000
G92 E0
G1 X40.899 Y33.872 F7800.000
G1 E2.00000 F2400.00000
G1 F1800
G1 X41.184 Y33.569 E2.03709
G1 X43.872 Y30.899 E2.37466
G1 X46.402 Y28.669 E2.67517
G1 X49.387 Y26.337 E3.01275
G1 X51.811 Y24.674 E3.27466
G1 X52.864 Y23.974 E3.38740
G1 X55.767 Y22.257 E3.68791
G1 X59.136 Y20.526 E4.02549
G1 X62.608 Y19.009 E4.36306
G1 X62.995 Y18.856 E4.40015
G1 X66.564 Y17.585 E4.73773
G1 X70.205 Y16.541 E5.07530
G1 X73.496 Y15.805 E5.37581
G1 X77.236 Y15.200 E5.71339
G1 X80.161 Y14.910 E5.97530
G1 X81.421 Y14.804 E6.08804
G1 X85.208 Y14.698 E6.42562
G1 X88.579 Y14.804 E6.72613
G1 X91.506 Y15.068 E6.98804
G1 X92.764 Y15.200 E7.10078
G1 X96.095 Y15.727 E7.40128
G1 X99.795 Y16.541 E7.73887
G1 X103.436 Y17.585 E8.07644
G1 X106.717 Y18.752 E8.38669
G1 X107.392 Y19.009 E8.45109
G1 X110.864 Y20.526 E8.78867
G1 X113.868 Y22.057 E9.08919
G1 X117.136 Y23.974 E9.42676
G1 X120.023 Y25.920 E9.73701
G1 X120.613 Y26.337 E9.80141
G1 X123.278 Y28.404 E10.10192
G1 X126.128 Y30.899 E10.43950
G1 X128.816 Y33.569 E10.77707
G1 X130.769 Y35.765 E11.03899
G1 X131.596 Y36.722 E11.15173
G1 X133.908 Y39.724 E11.48930
G1 X135.803 Y42.513 E11.78981
G1 X137.743 Y45.767 E12.12739
G1 X139.335 Y48.863 E12.43764
G1 X139.651 Y49.513 E12.50204
G1 X140.991 Y52.608 E12.80255
G1 X142.286 Y56.168 E13.14013
G1 X143.270 Y59.507 E13.45038
G1 X143.459 Y60.205 E13.51478
G1 X144.195 Y63.496 E13.81529
G1 X144.800 Y67.236 E14.15287
G1 X145.090 Y70.161 E14.41478
G1 X145.196 Y71.421 E14.52752
G1 X145.302 Y74.792 E14.82804
G1 X145.196 Y78.579 E15.16560
G1 X144.852 Y82.352 E15.50319
G1 X144.273 Y86.095 E15.84076
G1 X143.644 Y88.966 E16.10267
G1 X143.356 Y90.198 E16.21541
G1 X142.415 Y93.436 E16.51592
G1 X141.144 Y97.005 E16.85350
G1 X140.991 Y97.392 E16.89058
G1 X139.474 Y100.864 E17.22816
G1 X137.943 Y103.868 E17.52867
G1 X136.026 Y107.136 E17.86624
G1 X135.803 Y107.487 E17.90333
G1 X133.663 Y110.613 E18.24091
G1 X131.596 Y113.278 E18.54142
G1 X129.101 Y116.128 E18.87899
G1 X128.816 Y116.431 E18.91608
G1 X126.128 Y119.101 E19.25366
G1 X123.598 Y121.331 E19.55418
G1 X120.613 Y123.663 E19.89174
G1 X118.189 Y125.326 E20.15365
G1 X117.136 Y126.026 E20.26639
G1 X113.868 Y127.943 E20.60397
G1 X110.863 Y129.474 E20.90449
G1 X107.392 Y130.991 E21.24205
G1 X107.005 Y131.144 E21.27914
G1 X103.832 Y132.286 E21.57965
G1 X100.198 Y133.356 E21.91724
G1 X96.504 Y134.195 E22.25480
G1 X92.764 Y134.800 E22.59238
G1 X89.839 Y135.090 E22.85429
G1 X88.579 Y135.196 E22.96703
G1 X85.208 Y135.302 E23.26755
G1 X81.421 Y135.196 E23.60512
G1 X77.648 Y134.852 E23.94271
G1 X73.905 Y134.273 E24.28027
G1 X73.496 Y134.195 E24.31736
G1 X69.802 Y133.356 E24.65493
G1 X66.564 Y132.415 E24.95545
G1 X62.995 Y131.144 E25.29302
G1 X62.608 Y130.991 E25.33011
G1 X59.136 Y129.474 E25.66768
G1 X56.132 Y127.943 E25.96819
G1 X52.864 Y126.026 E26.30577
G1 X52.513 Y125.803 E26.34285
G1 X49.387 Y123.663 E26.68043
G1 X46.722 Y121.596 E26.98094
G1 X43.872 Y119.101 E27.31852
G1 X43.569 Y118.816 E27.35560
G1 X40.899 Y116.128 E27.69318
G1 X38.669 Y113.598 E27.99369
G1 X36.337 Y110.613 E28.33126
G1 X34.674 Y108.189 E28.59318
G1 X33.974 Y107.136 E28.70592
G1 X32.057 Y103.868 E29.04349
G1 X30.526 Y100.863 E29.34402
G1 X29.009 Y97.392 E29.68158
G1 X27.714 Y93.832 E30.01916
G1 X26.881 Y91.013 E30.28107
G1 X26.541 Y89.795 E30.39381
G1 X25.805 Y86.504 E30.69432
G1 X25.200 Y82.764 E31.03189
G1 X24.906 Y79.794 E31.29785
G1 X24.804 Y78.579 E31.40654
G1 X24.698 Y74.792 E31.74412
G1 X24.804 Y71.421 E32.04463
G1 X25.068 Y68.494 E32.30654
G1 X25.200 Y67.236 E32.41928
G1 X25.727 Y63.905 E32.71979
G1 X26.541 Y60.205 E33.05737
G1 X27.348 Y57.379 E33.31928
G1 X27.714 Y56.168 E33.43202
G1 X28.856 Y52.995 E33.73252
G1 X30.349 Y49.513 E34.07011
G1 X32.057 Y46.132 E34.40768
G1 X32.257 Y45.767 E34.44477
G1 X33.974 Y42.864 E34.74527
G1 X36.092 Y39.724 E35.08285
G1 X38.404 Y36.722 E35.42043
G1 X40.860 Y33.917 E35.75266
G1 E33.75266 F2400.00000
G92 E0
G1 X82.937 Y110.396 F7800.000
G1 E2.00000 F2400.00000
G1 F1800
G1 X82.363 Y110.267 E2.05238
G1 X81.724 Y110.082 E2.11170
G1 X81.098 Y109.856 E2.17104
G1 X80.526 Y109.609 E2.22657
G1 X79.896 Y109.291 E2.28943
G1 X79.320 Y108.950 E2.34907
G1 X78.769 Y108.576 E2.40841
G1 X78.243 Y108.168 E2.46775
G1 X77.743 Y107.727 E2.52710
G1 X77.273 Y107.257 E2.58644
G1 X76.832 Y106.757 E2.64578
G1 X76.424 Y106.231 E2.70512
G1 X76.048 Y105.677 E2.76476
G1 X75.691 Y105.069 E2.82762
G1 X75.408 Y104.514 E2.88315
G1 X75.144 Y103.902 E2.94249
G1 X74.918 Y103.276 E3.00183
G1 X74.732 Y102.636 E3.06118
G1 X74.586 Y101.983 E3.12081
G1 X74.479 Y101.286 E3.18367
G1 X74.420 Y100.666 E3.23920
G1 X74.399 Y99.997 E3.29883
G1 X74.424 Y99.292 E3.36170
G1 X74.483 Y98.671 E3.41722
G1 X74.588 Y98.010 E3.47686
G1 X74.744 Y97.323 E3.53972
G1 X74.918 Y96.724 E3.59524
G1 X75.142 Y96.101 E3.65423
G1 X75.387 Y95.527 E3.70985
G1 X75.711 Y94.893 E3.77328
G1 X76.051 Y94.317 E3.83292
G1 X76.450 Y93.735 E3.89578
G1 X76.832 Y93.243 E3.95130
G1 X77.273 Y92.743 E4.01064
G1 X77.743 Y92.273 E4.06999
G1 X78.243 Y91.832 E4.12933
G1 X78.769 Y91.424 E4.18867
G1 X79.320 Y91.050 E4.24802
G1 X79.856 Y90.732 E4.30354
G1 X80.483 Y90.410 E4.36640
G1 X81.098 Y90.144 E4.42604
G1 X81.724 Y89.918 E4.48538
G1 X82.364 Y89.732 E4.54472
G1 X83.014 Y89.587 E4.60407
G1 X83.671 Y89.483 E4.66341
G1 X84.334 Y89.420 E4.72275
G1 X84.957 Y89.401 E4.77828
G1 X85.662 Y89.420 E4.84114
G1 X86.329 Y89.483 E4.90078
G1 X86.986 Y89.587 E4.96012
G1 X87.636 Y89.732 E5.01946
G1 X88.276 Y89.918 E5.07880
G1 X88.902 Y90.144 E5.13815
G1 X89.513 Y90.408 E5.19749
G1 X90.107 Y90.711 E5.25683
G1 X90.680 Y91.050 E5.31618
G1 X91.231 Y91.424 E5.37552
G1 X91.757 Y91.832 E5.43486
G1 X92.257 Y92.273 E5.49420
G1 X92.727 Y92.743 E5.55355
G1 X93.170 Y93.245 E5.61318
G1 X93.600 Y93.805 E5.67605
G1 X93.950 Y94.320 E5.73157
G1 X94.289 Y94.893 E5.79091
G1 X94.592 Y95.486 E5.85025
G1 X94.856 Y96.098 E5.90960
G1 X95.082 Y96.724 E5.96894
G1 X95.268 Y97.364 E6.02828
G1 X95.414 Y98.017 E6.08792
G1 X95.521 Y98.714 E6.15078
G1 X95.580 Y99.334 E6.20631
G1 X95.601 Y100.000 E6.26565
G1 X95.580 Y100.666 E6.32499
G1 X95.517 Y101.329 E6.38433
G1 X95.413 Y101.986 E6.44368
G1 X95.268 Y102.636 E6.50302
G1 X95.082 Y103.276 E6.56236
G1 X94.856 Y103.902 E6.62171
G1 X94.592 Y104.514 E6.68105
G1 X94.289 Y105.107 E6.74039
G1 X93.950 Y105.680 E6.79973
G1 X93.576 Y106.231 E6.85908
G1 X93.168 Y106.757 E6.91842
G1 X92.727 Y107.257 E6.97776
G1 X92.257 Y107.727 E7.03711
G1 X91.757 Y108.168 E7.09645
G1 X91.231 Y108.576 E7.15579
G1 X90.680 Y108.950 E7.21514
G1 X90.107 Y109.289 E7.27448
G1 X89.513 Y109.592 E7.33382
G1 X88.902 Y109.856 E7.39316
G1 X88.276 Y110.082 E7.45251
G1 X87.636 Y110.268 E7.51185
G1 X87.052 Y110.398 E7.56517
G1 X87.039 Y110.684 E7.59066
G1 X87.799 Y110.931 E7.66190
G1 X88.640 Y111.327 E7.74472
G1 X89.076 Y111.585 E7.78991
G1 X89.522 Y111.892 E7.83814
G1 X90.190 Y112.446 E7.91541
G1 X90.588 Y112.848 E7.96585
G1 X91.152 Y113.532 E8.04487
G1 X91.663 Y114.337 E8.12983
G1 X92.069 Y115.201 E8.21491
G1 X92.356 Y116.085 E8.29775
G1 X92.471 Y116.599 E8.34467
G1 X92.581 Y117.456 E8.42165
G1 X92.602 Y118.021 E8.47201
G1 X92.545 Y118.928 E8.55299
G1 X92.462 Y119.449 E8.60003
G1 X92.231 Y120.348 E8.68277
G1 X91.902 Y121.183 E8.76272
G1 X91.651 Y121.681 E8.81241
G1 X91.151 Y122.469 E8.89556
G1 X90.558 Y123.185 E8.97840
G1 X90.186 Y123.558 E9.02535
G1 X89.512 Y124.116 E9.10330
G1 X89.055 Y124.429 E9.15268
G1 X88.286 Y124.853 E9.23092
G1 X87.779 Y125.075 E9.28030
G1 X86.944 Y125.348 E9.35854
G1 X86.404 Y125.471 E9.40792
G1 X85.533 Y125.582 E9.48616
G1 X85.003 Y125.601 E9.53338
G1 X84.498 Y125.585 E9.57846
G1 X83.600 Y125.471 E9.65905
G1 X83.085 Y125.356 E9.70609
G1 X82.201 Y125.069 E9.78892
G1 X81.338 Y124.663 E9.87392
G1 X80.578 Y124.182 E9.95412
G1 X80.138 Y123.843 E10.00358
G1 X79.458 Y123.205 E10.08671
G1 X78.865 Y122.488 E10.16954
G1 X78.581 Y122.070 E10.21464
G1 X78.312 Y121.611 E10.26201
G1 X77.931 Y120.798 E10.34205
G1 X77.644 Y119.915 E10.42479
G1 X77.534 Y119.424 E10.46959
G1 X77.455 Y118.928 E10.51438
G1 X77.397 Y118.000 E10.59721
G1 X77.455 Y117.072 E10.68005
G1 X77.534 Y116.574 E10.72496
G1 X77.647 Y116.074 E10.77068
G1 X77.925 Y115.220 E10.85067
G1 X78.153 Y114.701 E10.90123
G1 X78.569 Y113.947 E10.97796
G1 X78.865 Y113.512 E11.02487
G1 X79.458 Y112.795 E11.10771
G1 X80.135 Y112.159 E11.19054
G1 X80.551 Y111.836 E11.23746
G1 X81.280 Y111.372 E11.31442
G1 X81.782 Y111.113 E11.36474
G1 X82.604 Y110.787 E11.44364
G1 X82.947 Y110.686 E11.47543
G1 X82.939 Y110.456 E11.49595
G1 X83.193 Y111.265 F7800.000
G1 F1800
G1 X84.125 Y111.078 E11.58067
G1 X84.950 Y111.025 E11.65436
G1 X85.451 Y111.039 E11.69900
G1 X86.293 Y111.145 E11.77459
G1 X86.756 Y111.249 E11.81689
G1 X87.568 Y111.513 E11.89305
G1 X88.347 Y111.880 E11.96974
G1 X88.740 Y112.112 E12.01040
G1 X89.145 Y112.391 E12.05421
G1 X89.767 Y112.907 E12.12623
G1 X90.123 Y113.267 E12.17141
G1 X90.645 Y113.900 E12.24446
G1 X91.114 Y114.639 E12.32247
G1 X91.487 Y115.432 E12.40054
G1 X91.753 Y116.250 E12.47725
G1 X91.855 Y116.707 E12.51896
G1 X91.957 Y117.507 E12.59085
G1 X91.976 Y118.013 E12.63591
G1 X91.923 Y118.859 E12.71148
G1 X91.849 Y119.322 E12.75326
G1 X91.635 Y120.155 E12.82992
G1 X91.331 Y120.927 E12.90386
G1 X91.107 Y121.372 E12.94826
G1 X90.644 Y122.101 E13.02516
G1 X90.096 Y122.764 E13.10187
G1 X89.765 Y123.095 E13.14360
G1 X89.136 Y123.617 E13.21641
G1 X88.727 Y123.897 E13.26054
G1 X88.010 Y124.292 E13.33353
G1 X87.556 Y124.491 E13.37766
G1 X86.777 Y124.745 E13.45064
G1 X86.295 Y124.855 E13.49477
G1 X85.482 Y124.958 E13.56776
G1 X85.002 Y124.975 E13.61057
G1 X84.547 Y124.961 E13.65117
G1 X83.708 Y124.855 E13.72650
G1 X83.250 Y124.753 E13.76829
G1 X82.432 Y124.487 E13.84499
G1 X81.639 Y124.114 E13.92302
G1 X80.936 Y123.669 E13.99719
G1 X80.543 Y123.367 E14.04137
G1 X79.914 Y122.776 E14.11826
G1 X79.365 Y122.113 E14.19497
G1 X79.109 Y121.736 E14.23557
G1 X78.866 Y121.320 E14.27852
G1 X78.513 Y120.568 E14.35255
G1 X78.247 Y119.750 E14.42920
G1 X78.148 Y119.307 E14.46962
G1 X78.077 Y118.859 E14.51004
G1 X78.023 Y118.000 E14.58674
G1 X78.077 Y117.141 E14.66345
G1 X78.148 Y116.692 E14.70394
G1 X78.250 Y116.240 E14.74527
G1 X78.509 Y115.443 E14.81989
G1 X78.714 Y114.978 E14.86517
G1 X79.102 Y114.274 E14.93681
G1 X79.365 Y113.887 E14.97851
G1 X79.914 Y113.224 E15.05522
G1 X80.542 Y112.635 E15.13193
G1 X80.911 Y112.348 E15.17364
G1 X81.592 Y111.915 E15.24550
G1 X82.041 Y111.683 E15.29054
G1 X82.808 Y111.378 E15.36413
G1 X83.135 Y111.282 E15.39449
G1 X83.369 Y111.865 F7800.000
G1 F1800
G1 X84.204 Y111.699 E15.47032
G1 X84.962 Y111.651 E15.53802
G1 X85.403 Y111.662 E15.57737
G1 X86.185 Y111.761 E15.64754
G1 X86.590 Y111.852 E15.68458
G1 X87.338 Y112.095 E15.75464
G1 X88.054 Y112.432 E15.82521
G1 X88.403 Y112.639 E15.86134
G1 X88.768 Y112.889 E15.90073
G1 X89.344 Y113.368 E15.96749
G1 X89.659 Y113.687 E16.00742
G1 X90.138 Y114.267 E16.07450
G1 X90.565 Y114.941 E16.14554
G1 X90.905 Y115.662 E16.21661
G1 X91.149 Y116.415 E16.28719
G1 X91.239 Y116.815 E16.32369
G1 X91.334 Y117.559 E16.39048
G1 X91.350 Y118.005 E16.43025
G1 X91.301 Y118.790 E16.50042
G1 X91.237 Y119.195 E16.53695
G1 X91.040 Y119.962 E16.60750
G1 X90.760 Y120.671 E16.67544
G1 X90.563 Y121.063 E16.71456
G1 X90.138 Y121.733 E16.78520
G1 X89.633 Y122.343 E16.85578
G1 X89.343 Y122.633 E16.89229
G1 X88.759 Y123.118 E16.95997
G1 X88.399 Y123.364 E16.99884
G1 X87.733 Y123.731 E17.06658
G1 X87.333 Y123.906 E17.10545
G1 X86.611 Y124.142 E17.17319
G1 X86.185 Y124.239 E17.21207
G1 X85.431 Y124.335 E17.27980
G1 X85.001 Y124.350 E17.31821
G1 X84.596 Y124.337 E17.35431
G1 X83.815 Y124.239 E17.42440
G1 X83.415 Y124.149 E17.46093
G1 X82.662 Y123.905 E17.53150
G1 X81.941 Y123.565 E17.60255
G1 X81.294 Y123.156 E17.67072
G1 X80.948 Y122.890 E17.70961
G1 X80.371 Y122.347 E17.78025
G1 X79.866 Y121.737 E17.85083
G1 X79.638 Y121.402 E17.88694
G1 X79.419 Y121.029 E17.92548
G1 X79.095 Y120.338 E17.99350
G1 X78.851 Y119.585 E18.06406
G1 X78.762 Y119.190 E18.10010
G1 X78.699 Y118.790 E18.13614
G1 X78.649 Y118.000 E18.20671
G1 X78.699 Y117.210 E18.27729
G1 X78.762 Y116.810 E18.31336
G1 X78.853 Y116.405 E18.35031
G1 X79.094 Y115.666 E18.41955
G1 X79.275 Y115.256 E18.45954
G1 X79.635 Y114.602 E18.52609
G1 X79.866 Y114.263 E18.56260
G1 X80.371 Y113.653 E18.63317
G1 X80.948 Y113.110 E18.70375
G1 X81.272 Y112.859 E18.74026
G1 X81.903 Y112.457 E18.80701
G1 X82.300 Y112.252 E18.84679
G1 X83.012 Y111.969 E18.91507
G1 X83.311 Y111.881 E18.94286
G1 X83.382 Y111.807 F7800.000
G1 E16.94286 F2400.00000
G92 E0
G1 X83.682 Y109.886 F7800.000
G1 E2.00000 F2400.00000
G1 F1800
G1 X83.128 Y109.798 E2.05005
G1 X82.519 Y109.662 E2.10562
G1 X81.917 Y109.487 E2.16145
G1 X81.328 Y109.275 E2.21729
G1 X80.791 Y109.043 E2.26943
G1 X80.196 Y108.743 E2.32879
G1 X79.655 Y108.422 E2.38482
G1 X79.137 Y108.070 E2.44066
G1 X78.641 Y107.686 E2.49650
G1 X78.171 Y107.272 E2.55235
G1 X77.728 Y106.829 E2.60819
G1 X77.314 Y106.359 E2.66403
G1 X76.930 Y105.863 E2.71987
G1 X76.576 Y105.343 E2.77590
G1 X76.240 Y104.769 E2.83526
G1 X75.974 Y104.247 E2.88740
G1 X75.725 Y103.672 E2.94324
G1 X75.513 Y103.083 E2.99908
G1 X75.338 Y102.481 E3.05493
G1 X75.201 Y101.867 E3.11095
G1 X75.099 Y101.209 E3.17031
G1 X75.044 Y100.626 E3.22245
G1 X75.025 Y99.998 E3.27847
G1 X75.048 Y99.332 E3.33783
G1 X75.103 Y98.750 E3.38997
G1 X75.202 Y98.129 E3.44599
G1 X75.350 Y97.479 E3.50536
G1 X75.513 Y96.917 E3.55749
G1 X75.724 Y96.330 E3.61312
G1 X75.954 Y95.792 E3.66524
G1 X76.259 Y95.194 E3.72503
G1 X76.579 Y94.653 E3.78105
G1 X76.955 Y94.104 E3.84041
G1 X77.314 Y93.641 E3.89255
G1 X77.728 Y93.171 E3.94840
G1 X78.171 Y92.728 E4.00424
G1 X78.641 Y92.314 E4.06008
G1 X79.137 Y91.930 E4.11592
G1 X79.655 Y91.578 E4.17177
G1 X80.159 Y91.280 E4.22391
G1 X80.751 Y90.975 E4.28327
G1 X81.328 Y90.725 E4.33929
G1 X81.917 Y90.513 E4.39513
G1 X82.519 Y90.338 E4.45098
G1 X83.131 Y90.201 E4.50682
G1 X83.750 Y90.103 E4.56266
G1 X84.374 Y90.044 E4.61850
G1 X84.958 Y90.026 E4.67064
G1 X85.624 Y90.044 E4.73001
G1 X86.250 Y90.103 E4.78603
G1 X86.869 Y90.201 E4.84187
G1 X87.481 Y90.338 E4.89771
G1 X88.083 Y90.513 E4.95356
G1 X88.672 Y90.725 E5.00940
G1 X89.247 Y90.974 E5.06524
G1 X89.806 Y91.259 E5.12109
G1 X90.345 Y91.578 E5.17693
G1 X90.863 Y91.930 E5.23277
G1 X91.359 Y92.314 E5.28862
G1 X91.829 Y92.728 E5.34446
G1 X92.272 Y93.171 E5.40030
G1 X92.687 Y93.643 E5.45632
G1 X93.094 Y94.171 E5.51569
G1 X93.422 Y94.655 E5.56782
G1 X93.741 Y95.194 E5.62367
G1 X94.026 Y95.753 E5.67951
G1 X94.275 Y96.328 E5.73535
G1 X94.487 Y96.917 E5.79119
G1 X94.662 Y97.519 E5.84704
G1 X94.799 Y98.133 E5.90306
G1 X94.901 Y98.791 E5.96242
G1 X94.956 Y99.374 E6.01456
G1 X94.975 Y100.000 E6.07040
G1 X94.956 Y100.626 E6.12625
G1 X94.897 Y101.250 E6.18209
G1 X94.799 Y101.869 E6.23793
G1 X94.662 Y102.481 E6.29377
G1 X94.487 Y103.083 E6.34962
G1 X94.275 Y103.672 E6.40546
G1 X94.026 Y104.247 E6.46131
G1 X93.741 Y104.806 E6.51715
G1 X93.422 Y105.345 E6.57299
G1 X93.070 Y105.863 E6.62883
G1 X92.686 Y106.359 E6.68468
G1 X92.272 Y106.829 E6.74052
G1 X91.829 Y107.272 E6.79636
G1 X91.359 Y107.686 E6.85220
G1 X90.863 Y108.070 E6.90805
G1 X90.345 Y108.422 E6.96389
G1 X89.806 Y108.741 E7.01973
G1 X89.247 Y109.026 E7.07558
G1 X88.672 Y109.275 E7.13142
G1 X88.083 Y109.487 E7.18726
G1 X87.481 Y109.662 E7.24311
G1 X86.869 Y109.799 E7.29895
G1 X86.250 Y109.897 E7.35479
G1 X85.626 Y109.956 E7.41063
G1 X85.000 Y109.975 E7.46648
G1 X84.374 Y109.956 E7.52232
G1 X83.742 Y109.895 E7.57890
G1 X83.780 Y109.269 F7800.000
G1 F1800
