; generated by Slic3r 1.3.0 on 2022-08-17 at 19:16:48

; external perimeters extrusion width = 0.44mm (3.38mm^3/s)
; perimeters extrusion width = 0.48mm (7.54mm^3/s)
; infill extrusion width = 0.48mm (10.05mm^3/s)
; solid infill extrusion width = 0.48mm (2.51mm^3/s)
; top infill extrusion width = 0.48mm (1.88mm^3/s)
; support material extrusion width = 0.44mm (6.76mm^3/s)

M107
M104 S205 ; set temperature
G28 ; home all axes
G1 Z5 F5000 ; lift nozzle

; Filament gcode

M109 S205 ; set temperature and wait for it to be reached
G21 ; set units to millimeters
G90 ; use absolute coordinates
M82 ; use absolute distances for extrusion
G92 E0
G1 Z0.350 F7800.000
G1 E-2.00000 F2400.00000
G92 E0
G1 X43.820 Y44.500 F7800.000
G1 E2.00000 F2400.00000
G1 F1800
G1 X47.803 Y40.517 E2.51223
G1 X48.121 Y40.219 E2.55185
G1 X53.387 Y35.604 E3.18851
G1 X54.437 Y34.852 E3.30596
G1 X71.118 Y25.205 E5.05820
G1 X73.272 Y24.417 E5.26674
G1 X74.435 Y24.315 E5.37286
G1 X82.941 Y24.315 E6.14632
G1 X83.368 Y24.328 E6.18516
G1 X90.495 Y24.789 E6.83454
G1 X91.615 Y24.958 E6.93756
G1 X109.571 Y29.271 E8.61669
G1 X111.674 Y30.184 E8.82524
G1 X112.708 Y31.028 E8.94656
G1 X119.558 Y37.878 E9.82749
G1 X119.861 Y38.201 E9.86772
G1 X124.400 Y43.392 E10.49472
G1 X125.062 Y44.292 E10.59637
G1 X134.710 Y60.039 E12.27556
G1 X135.551 Y62.173 E12.48410
G1 X135.685 Y63.500 E12.60541
G1 X135.685 Y72.928 E13.46273
G1 X135.672 Y73.355 E13.50151
G1 X135.211 Y80.494 E14.15202
G1 X135.016 Y81.720 E14.26489
G1 X130.284 Y100.094 E15.99018
G1 X129.337 Y102.183 E16.19873
G1 X128.553 Y103.127 E16.31027
G1 X122.390 Y109.290 E17.10286
G1 X122.084 Y109.577 E17.14100
G1 X116.625 Y114.385 E17.80240
G1 X115.563 Y115.149 E17.92140
G1 X98.878 Y124.796 E19.67393
G1 X96.723 Y125.583 E19.88247
G1 X95.561 Y125.685 E19.98852
G1 X87.057 Y125.685 E20.76184
G1 X86.630 Y125.672 E20.80070
G1 X79.505 Y125.211 E21.44989
G1 X78.239 Y125.005 E21.56651
G1 X60.626 Y120.349 E23.22313
G1 X60.166 Y120.210 E23.26679
G1 X59.122 Y119.851 E23.36716
G1 X56.590 Y118.270 E23.63859
G1 X50.580 Y112.260 E24.41148
G1 X50.281 Y111.940 E24.45125
G1 X45.685 Y106.694 E25.08548
G1 X45.025 Y105.798 E25.18671
G1 X35.296 Y89.969 E26.87613
G1 X34.451 Y87.837 E27.08468
G1 X34.315 Y86.500 E27.20686
G1 X34.315 Y76.926 E28.07739
G1 X34.329 Y76.491 E28.11697
G1 X34.789 Y69.497 E28.75429
G1 X34.975 Y68.317 E28.86297
G1 X39.450 Y50.522 E30.53139
G1 X40.379 Y48.439 E30.73883
G1 X41.045 Y47.449 E30.84734
G1 X41.856 Y46.464 E30.96339
G1 X43.777 Y44.543 E31.21040
G1 E29.21040 F2400.00000
G92 E0
G1 X92.600 Y79.280 F7800.000
G1 E2.00000 F2400.00000
G1 F1800
G1 X92.600 Y94.153 E3.35245
G1 X77.726 Y94.153 E4.70489
G1 X92.557 Y79.322 E6.61208
G1 X91.975 Y80.789 F7800.000
G1 F1800
G1 X91.975 Y93.529 E7.77053
G1 X79.235 Y93.529 E8.92898
G1 X91.932 Y80.831 E10.56182
G1 X91.350 Y82.297 F7800.000
G1 F1800
G1 X91.350 Y92.904 E11.52627
G1 X80.743 Y92.904 E12.49071
G1 X91.308 Y82.340 E13.84920
G1 X91.696 Y82.097 F7800.000
G1 E11.84920 F2400.00000
G92 E0
G1 X87.347 Y83.400 F7800.000
G1 E2.00000 F2400.00000
G1 F1800
G1 X76.830 Y93.917 E3.35245
G1 X66.313 Y83.400 E4.70489
G1 X87.287 Y83.400 E6.61208
G1 X85.839 Y84.025 F7800.000
G1 F1800
G1 X76.830 Y93.034 E7.77053
G1 X67.822 Y84.025 E8.92898
G1 X85.779 Y84.025 E10.56182
G1 X84.330 Y84.650 F7800.000
G1 F1800
G1 X76.830 Y92.150 E11.52627
G1 X69.330 Y84.650 E12.49071
G1 X84.270 Y84.650 E13.84920
G1 X84.717 Y84.754 F7800.000
G1 E11.84920 F2400.00000
G92 E0
G1 X80.720 Y82.600 F7800.000
G1 E2.00000 F2400.00000
G1 F1800
G1 X65.847 Y82.600 E3.35245
G1 X65.847 Y67.726 E4.70489
G1 X80.678 Y82.557 E6.61208
G1 X79.211 Y81.975 F7800.000
G1 F1800
G1 X66.471 Y81.975 E7.77053
G1 X66.471 Y69.235 E8.92898
G1 X79.169 Y81.932 E10.56182
G1 X77.703 Y81.350 F7800.000
G1 F1800
G1 X67.096 Y81.350 E11.52626
G1 X67.096 Y70.743 E12.49071
G1 X77.660 Y81.308 E13.84919
G1 X77.903 Y81.696 F7800.000
G1 E11.84919 F2400.00000
G92 E0
G1 X81.456 Y77.935 F7800.000
G1 E2.00000 F2400.00000
G1 F1800
G1 X81.194 Y77.586 E2.03963
G1 X80.968 Y77.217 E2.07905
G1 X80.777 Y76.827 E2.11848
G1 X80.624 Y76.422 E2.15790
G1 X80.506 Y75.992 E2.19846
G1 X80.419 Y75.446 E2.24873
G1 X80.398 Y75.000 E2.28932
G1 X80.420 Y74.552 E2.33007
G1 X80.506 Y74.008 E2.38015
G1 X80.624 Y73.578 E2.42069
G1 X80.777 Y73.173 E2.46012
G1 X80.968 Y72.783 E2.49954
G1 X81.194 Y72.414 E2.53896
G1 X81.454 Y72.067 E2.57838
G1 X81.746 Y71.746 E2.61780
G1 X82.067 Y71.454 E2.65722
G1 X82.414 Y71.194 E2.69664
G1 X82.783 Y70.968 E2.73606
G1 X83.173 Y70.777 E2.77548
G1 X83.578 Y70.624 E2.81490
G1 X83.996 Y70.509 E2.85432
G1 X84.435 Y70.433 E2.89487
G1 X84.985 Y70.398 E2.94494
G1 X85.433 Y70.419 E2.98569
G1 X85.862 Y70.480 E3.02514
G1 X86.284 Y70.581 E3.06456
G1 X86.694 Y70.722 E3.10398
G1 X87.100 Y70.905 E3.14453
G1 X87.574 Y71.185 E3.19460
G1 X87.933 Y71.454 E3.23535
G1 X88.254 Y71.746 E3.27480
G1 X88.546 Y72.067 E3.31422
G1 X88.806 Y72.414 E3.35364
G1 X89.032 Y72.783 E3.39306
G1 X89.223 Y73.172 E3.43248
G1 X89.376 Y73.578 E3.47190
G1 X89.494 Y74.008 E3.51247
G1 X89.581 Y74.554 E3.56273
G1 X89.602 Y75.000 E3.60333
G1 X89.580 Y75.448 E3.64408
G1 X89.494 Y75.992 E3.69415
G1 X89.376 Y76.422 E3.73470
G1 X89.223 Y76.827 E3.77412
G1 X89.032 Y77.217 E3.81354
G1 X88.806 Y77.586 E3.85296
G1 X88.546 Y77.933 E3.89238
G1 X88.254 Y78.254 E3.93180
G1 X87.933 Y78.546 E3.97122
G1 X87.586 Y78.806 E4.01064
G1 X87.217 Y79.032 E4.05006
G1 X86.827 Y79.223 E4.08948
G1 X86.422 Y79.376 E4.12890
G1 X85.992 Y79.494 E4.16945
G1 X85.448 Y79.580 E4.21952
G1 X85.000 Y79.602 E4.26027
G1 X84.554 Y79.581 E4.30087
G1 X84.008 Y79.494 E4.35114
G1 X83.578 Y79.376 E4.39170
G1 X83.173 Y79.223 E4.43112
G1 X82.783 Y79.032 E4.47054
G1 X82.414 Y78.806 E4.50996
G1 X82.067 Y78.546 E4.54938
G1 X81.746 Y78.254 E4.58880
G1 X81.496 Y77.979 E4.62255
G1 X81.936 Y77.534 F7800.000
G1 F1800
G1 X81.712 Y77.235 E4.65661
G1 X81.516 Y76.915 E4.69067
G1 X81.351 Y76.579 E4.72474
G1 X81.219 Y76.229 E4.75880
G1 X81.118 Y75.860 E4.79356
G1 X81.042 Y75.382 E4.83757
G1 X81.024 Y75.000 E4.87235
G1 X81.042 Y74.616 E4.90728
G1 X81.118 Y74.140 E4.95111
G1 X81.219 Y73.771 E4.98586
G1 X81.351 Y73.421 E5.01992
G1 X81.516 Y73.085 E5.05398
G1 X81.712 Y72.765 E5.08805
G1 X81.936 Y72.466 E5.12211
G1 X82.189 Y72.189 E5.15617
G1 X82.466 Y71.936 E5.19023
G1 X82.765 Y71.712 E5.22429
G1 X83.085 Y71.516 E5.25835
G1 X83.421 Y71.351 E5.29241
G1 X83.771 Y71.219 E5.32647
G1 X84.133 Y71.120 E5.36053
G1 X84.509 Y71.054 E5.39528
G1 X84.990 Y71.024 E5.43911
G1 X85.374 Y71.042 E5.47405
G1 X85.745 Y71.094 E5.50813
G1 X86.109 Y71.182 E5.54219
G1 X86.464 Y71.303 E5.57625
G1 X86.812 Y71.460 E5.61100
G1 X87.227 Y71.706 E5.65483
G1 X87.534 Y71.936 E5.68976
G1 X87.811 Y72.189 E5.72384
G1 X88.064 Y72.466 E5.75790
G1 X88.288 Y72.765 E5.79196
G1 X88.484 Y73.085 E5.82603
G1 X88.649 Y73.421 E5.86009
G1 X88.781 Y73.771 E5.89415
G1 X88.882 Y74.140 E5.92891
G1 X88.958 Y74.618 E5.97292
G1 X88.976 Y75.000 E6.00770
G1 X88.958 Y75.384 E6.04263
G1 X88.882 Y75.860 E6.08646
G1 X88.781 Y76.229 E6.12121
G1 X88.649 Y76.579 E6.15527
G1 X88.484 Y76.915 E6.18934
G1 X88.288 Y77.235 E6.22340
G1 X88.064 Y77.534 E6.25746
G1 X87.811 Y77.811 E6.29152
G1 X87.534 Y78.064 E6.32558
G1 X87.235 Y78.288 E6.35964
G1 X86.915 Y78.484 E6.39370
G1 X86.579 Y78.649 E6.42776
G1 X86.229 Y78.781 E6.46182
G1 X85.860 Y78.882 E6.49657
G1 X85.384 Y78.958 E6.54040
G1 X85.000 Y78.976 E6.57534
G1 X84.618 Y78.958 E6.61011
G1 X84.140 Y78.882 E6.65413
G1 X83.771 Y78.781 E6.68889
G1 X83.421 Y78.649 E6.72295
G1 X83.085 Y78.484 E6.75701
G1 X82.765 Y78.288 E6.79107
G1 X82.466 Y78.064 E6.82513
G1 X82.189 Y77.811 E6.85919
G1 X81.977 Y77.579 E6.88780
G1 X82.418 Y77.136 F7800.000
G1 F1800
G1 X82.229 Y76.883 E6.91650
G1 X82.064 Y76.614 E6.94520
G1 X81.925 Y76.331 E6.97391
G1 X81.814 Y76.035 E7.00261
G1 X81.730 Y75.728 E7.03156
G1 X81.665 Y75.318 E7.06932
G1 X81.650 Y75.000 E7.09828
G1 X81.665 Y74.680 E7.12740
G1 X81.730 Y74.272 E7.16499
G1 X81.814 Y73.965 E7.19394
G1 X81.925 Y73.669 E7.22264
G1 X82.064 Y73.386 E7.25134
G1 X82.229 Y73.117 E7.28004
G1 X82.418 Y72.864 E7.30874
G1 X82.631 Y72.631 E7.33745
G1 X82.864 Y72.418 E7.36615
G1 X83.117 Y72.229 E7.39485
G1 X83.386 Y72.064 E7.42355
G1 X83.669 Y71.925 E7.45225
G1 X83.965 Y71.814 E7.48096
G1 X84.269 Y71.730 E7.50966
G1 X84.583 Y71.676 E7.53861
G1 X84.995 Y71.650 E7.57619
G1 X85.315 Y71.664 E7.60532
G1 X85.628 Y71.709 E7.63402
G1 X85.935 Y71.783 E7.66273
G1 X86.233 Y71.885 E7.69143
G1 X86.524 Y72.016 E7.72038
G1 X86.879 Y72.226 E7.75796
G1 X87.136 Y72.418 E7.78709
G1 X87.369 Y72.631 E7.81579
G1 X87.582 Y72.864 E7.84450
G1 X87.771 Y73.117 E7.87320
G1 X87.936 Y73.386 E7.90190
G1 X88.075 Y73.669 E7.93060
G1 X88.186 Y73.965 E7.95930
G1 X88.270 Y74.272 E7.98826
G1 X88.335 Y74.682 E8.02602
G1 X88.350 Y75.000 E8.05498
G1 X88.335 Y75.320 E8.08410
G1 X88.270 Y75.728 E8.12169
G1 X88.186 Y76.035 E8.15063
G1 X88.075 Y76.331 E8.17934
G1 X87.936 Y76.614 E8.20804
G1 X87.771 Y76.883 E8.23674
G1 X87.582 Y77.136 E8.26544
G1 X87.369 Y77.369 E8.29414
G1 X87.136 Y77.582 E8.32285
G1 X86.883 Y77.771 E8.35155
G1 X86.614 Y77.936 E8.38025
G1 X86.331 Y78.075 E8.40895
G1 X86.035 Y78.186 E8.43765
G1 X85.728 Y78.270 E8.46660
G1 X85.320 Y78.335 E8.50419
G1 X85.000 Y78.350 E8.53331
G1 X84.682 Y78.335 E8.56227
G1 X84.272 Y78.270 E8.60003
G1 X83.965 Y78.186 E8.62898
G1 X83.669 Y78.075 E8.65768
G1 X83.386 Y77.936 E8.68639
G1 X83.117 Y77.771 E8.71509
G1 X82.864 Y77.582 E8.74379
G1 X82.631 Y77.369 E8.77249
G1 X82.459 Y77.180 E8.79574
G1 X82.418 Y77.136 F7800.000
G1 E6.79574 F2400.00000
G92 E0
G1 X89.280 Y67.400 F7800.000
G1 E2.00000 F2400.00000
G1 F1800
G1 X104.153 Y67.400 E3.35245
G1 X104.153 Y82.274 E4.70489
G1 X89.322 Y67.443 E6.61208
G1 X90.789 Y68.025 F7800.000
G1 F1800
G1 X103.529 Y68.025 E7.77053
G1 X103.529 Y80.765 E8.92898
G1 X90.831 Y68.068 E10.56182
G1 X92.297 Y68.650 F7800.000
G1 F1800
G1 X102.904 Y68.650 E11.52627
G1 X102.904 Y79.257 E12.49071
G1 X92.340 Y68.692 E13.84919
G1 X92.097 Y68.304 F7800.000
G1 E11.84919 F2400.00000
G92 E0
G1 X82.653 Y66.600 F7800.000
G1 E2.00000 F2400.00000
G1 F1800
G1 X93.170 Y56.083 E3.35245
G1 X103.687 Y66.600 E4.70489
G1 X82.713 Y66.600 E6.61208
G1 X84.161 Y65.975 F7800.000
G1 F1800
G1 X93.170 Y56.966 E7.77053
G1 X102.178 Y65.975 E8.92898
G1 X84.221 Y65.975 E10.56181
G1 X85.670 Y65.350 F7800.000
G1 F1800
G1 X93.170 Y57.850 E11.52626
G1 X100.670 Y65.350 E12.49071
G1 X85.730 Y65.350 E13.84919
G1 X85.283 Y65.246 F7800.000
G1 E11.84919 F2400.00000
G92 E0
G1 X77.400 Y70.720 F7800.000
G1 E2.00000 F2400.00000
G1 F1800
G1 X77.400 Y55.847 E3.35245
G1 X92.274 Y55.847 E4.70489
G1 X77.443 Y70.678 E6.61208
G1 X78.025 Y69.211 F7800.000
G1 F1800
G1 X78.025 Y56.471 E7.77053
G1 X90.765 Y56.471 E8.92898
G1 X78.068 Y69.169 E10.56181
G1 X78.650 Y67.703 F7800.000
G1 F1800
G1 X78.650 Y57.096 E11.52626
G1 X89.257 Y57.096 E12.49071
G1 X78.692 Y67.660 E13.84919
G1 X78.304 Y67.903 F7800.000
G1 E11.84919 F2400.00000
G92 E0
G1 X76.600 Y77.347 F7800.000
G1 E2.00000 F2400.00000
G1 F1800
G1 X66.083 Y66.830 E3.35245
G1 X76.600 Y56.313 E4.70489
G1 X76.600 Y77.287 E6.61207
G1 X75.975 Y75.839 F7800.000
G1 F1800
G1 X66.966 Y66.830 E7.77052
G1 X75.975 Y57.822 E8.92897
G1 X75.975 Y75.779 E10.56180
G1 X75.350 Y74.330 F7800.000
G1 F1800
G1 X67.850 Y66.830 E11.52625
G1 X75.350 Y59.330 E12.49070
G1 X75.350 Y74.270 E13.84918
G1 X75.156 Y74.680 F7800.000
G1 E11.84918 F2400.00000
G92 E0
G1 X93.400 Y72.653 F7800.000
G1 E2.00000 F2400.00000
G1 F1800
G1 X103.917 Y83.170 E3.35245
G1 X93.400 Y93.687 E4.70489
G1 X93.400 Y72.713 E6.61208
G1 X94.025 Y74.161 F7800.000
G1 F1800
G1 X103.034 Y83.170 E7.77053
G1 X94.025 Y92.178 E8.92898
G1 X94.025 Y74.221 E10.56182
G1 X94.650 Y75.670 F7800.000
G1 F1800
G1 X102.150 Y83.170 E11.52627
G1 X94.650 Y90.670 E12.49072
G1 X94.650 Y75.730 E13.84920
G1 X94.754 Y75.283 F7800.000
G1 E11.84920 F2400.00000
G92 E0
G1 X104.268 Y83.520 F7800.000
G1 E2.00000 F2400.00000
G1 F1800
G1 X93.400 Y94.388 E3.39754
G1 X93.400 Y114.642 E5.23923
G1 X92.600 Y114.642 E5.31201
G1 X92.600 Y94.649 E7.12995
G1 X77.230 Y94.649 E8.52749
G1 X62.909 Y108.971 E10.36917
G1 X62.343 Y108.405 E10.44196
G1 X76.480 Y94.268 E12.25989
G1 X65.612 Y83.400 E13.65744
G1 X45.358 Y83.400 E15.49912
G1 X45.358 Y82.600 E15.57190
G1 X65.351 Y82.600 E17.38984
G1 X65.351 Y67.230 E18.78738
G1 X51.029 Y52.909 E20.62906
G1 X51.595 Y52.343 E20.70185
G1 X65.732 Y66.480 E22.51978
G1 X76.600 Y55.612 E23.91733
G1 X76.600 Y35.358 E25.75901
G1 X77.400 Y35.358 E25.83179
G1 X77.400 Y55.351 E27.64973
G1 X92.770 Y55.351 E29.04727
G1 X107.091 Y41.029 E30.88895
G1 X107.657 Y41.595 E30.96174
G1 X93.520 Y55.732 E32.77967
G1 X104.388 Y66.600 E34.17722
G1 X124.642 Y66.600 E36.01890
G1 X124.642 Y67.400 E36.09168
G1 X104.649 Y67.400 E37.90962
G1 X104.649 Y82.770 E39.30716
G1 X118.971 Y97.091 E41.14885
G1 X118.405 Y97.657 E41.22163
G1 X104.311 Y83.563 E43.03411
G1 X104.268 Y84.404 F7800.000
G1 F1800
G1 X94.025 Y94.647 E44.35130
G1 X94.025 Y115.267 E46.22626
G1 X88.975 Y115.267 E46.68548
G1 X88.975 Y114.733 E46.73406
G1 X91.975 Y114.733 E47.00685
G1 X91.975 Y95.274 E48.77620
G1 X77.489 Y95.274 E50.09339
G1 X62.909 Y109.855 E51.96836
G1 X59.338 Y106.284 E52.42757
G1 X59.715 Y105.906 E52.47615
G1 X61.837 Y108.027 E52.74894
G1 X75.596 Y94.268 E54.51830
G1 X65.353 Y84.025 E55.83548
G1 X44.733 Y84.025 E57.71045
G1 X44.733 Y78.975 E58.16966
G1 X45.267 Y78.975 E58.21824
G1 X45.267 Y81.975 E58.49103
G1 X64.726 Y81.975 E60.26039
G1 X64.726 Y67.489 E61.57758
G1 X50.145 Y52.909 E63.45254
G1 X53.716 Y49.338 E63.91176
G1 X54.094 Y49.715 E63.96034
G1 X51.973 Y51.837 E64.23313
G1 X65.732 Y65.596 E66.00248
G1 X75.975 Y55.353 E67.31967
G1 X75.975 Y34.733 E69.19464
G1 X81.025 Y34.733 E69.65385
G1 X81.025 Y35.267 E69.70243
G1 X78.025 Y35.267 E69.97522
G1 X78.025 Y54.726 E71.74457
G1 X92.511 Y54.726 E73.06176
G1 X107.091 Y40.145 E74.93673
G1 X110.662 Y43.716 E75.39594
G1 X110.285 Y44.094 E75.44452
G1 X108.163 Y41.973 E75.71731
G1 X94.404 Y55.732 E77.48667
G1 X104.647 Y65.975 E78.80385
G1 X125.267 Y65.975 E80.67882
G1 X125.267 Y71.025 E81.13804
G1 X124.733 Y71.025 E81.18662
G1 X124.733 Y68.025 E81.45940
G1 X105.274 Y68.025 E83.22876
G1 X105.274 Y82.511 E84.54595
G1 X119.855 Y97.091 E86.42091
G1 X116.284 Y100.662 E86.88013
G1 X115.906 Y100.285 E86.92871
G1 X118.027 Y98.163 E87.20150
G1 X104.311 Y84.447 E88.96540
G1 X104.268 Y85.288 F7800.000
G1 F1800
G1 X94.650 Y94.906 E90.20223
G1 X94.650 Y115.892 E92.11048
G1 X88.350 Y115.892 E92.68334
G1 X88.350 Y114.108 E92.84556
G1 X91.350 Y114.108 E93.11835
G1 X91.350 Y95.899 E94.77406
G1 X77.748 Y95.899 E96.01089
G1 X62.909 Y110.739 E97.91914
G1 X58.454 Y106.284 E98.49200
G1 X59.715 Y105.022 E98.65422
G1 X61.837 Y107.144 E98.92701
G1 X74.712 Y94.268 E100.58272
G1 X65.094 Y84.650 E101.81955
G1 X44.108 Y84.650 E103.72780
G1 X44.108 Y78.350 E104.30066
G1 X45.892 Y78.350 E104.46288
G1 X45.892 Y81.350 E104.73567
G1 X64.101 Y81.350 E106.39138
G1 X64.101 Y67.748 E107.62821
G1 X49.261 Y52.909 E109.53647
G1 X53.716 Y48.454 E110.10932
G1 X54.978 Y49.715 E110.27154
G1 X52.856 Y51.837 E110.54433
G1 X65.732 Y64.712 E112.20005
G1 X75.350 Y55.094 E113.43688
G1 X75.350 Y34.108 E115.34513
G1 X81.650 Y34.108 E115.91799
G1 X81.650 Y35.892 E116.08021
G1 X78.650 Y35.892 E116.35300
G1 X78.650 Y54.101 E118.00871
G1 X92.252 Y54.101 E119.24554
G1 X107.091 Y39.261 E121.15379
G1 X111.546 Y43.716 E121.72665
G1 X110.285 Y44.978 E121.88887
G1 X108.163 Y42.856 E122.16166
G1 X95.288 Y55.732 E123.81737
G1 X104.906 Y65.350 E125.05420
G1 X125.892 Y65.350 E126.96245
G1 X125.892 Y71.650 E127.53531
G1 X124.108 Y71.650 E127.69753
G1 X124.108 Y68.650 E127.97032
G1 X105.899 Y68.650 E129.62604
G1 X105.899 Y82.252 E130.86287
G1 X120.739 Y97.091 E132.77112
G1 X116.284 Y101.546 E133.34397
G1 X115.022 Y100.285 E133.50619
G1 X117.144 Y98.163 E133.77898
G1 X104.311 Y85.330 E135.42924
G1 X104.001 Y84.990 F7800.000
G1 E133.42924 F2400.00000
G92 E0
G1 X93.000 Y78.438 F7800.000
G1 E2.00000 F2400.00000
G1 F1800
G1 X93.000 Y114.330 E2.52461
G1 E0.52461 F2400.00000
G92 E0
G1 X118.467 Y97.154 F7800.000
G1 E2.00000 F2400.00000
G1 F1800
G1 X93.088 Y71.774 E2.52462
