; generated by Slic3r 1.3.0 on 2023-03-12 at 04:43:12

; external perimeters extrusion width = 0.44mm (2.78mm^3/s)
; perimeters extrusion width = 0.40mm (7.14mm^3/s)
; infill extrusion width = 0.50mm (10.97mm^3/s)
; solid infill extrusion width = 0.60mm (6.68mm^3/s)
; top infill extrusion width = 0.40mm (2.14mm^3/s)

M107
M190 S80 ; set bed temperature and wait for it to be reached
M104 S210 ; set temperature
G28 ; home all axes
G1 Z5 F5000 ; lift nozzle

; Filament gcode

M109 S210 ; set temperature and wait for it to be reached
G21 ; set units to millimeters
G90 ; use absolute coordinates
M82 ; use absolute distances for extrusion
G92 E0
G1 Z0.300 F30000.000
G1 E-2.00000 F2400.00000
G92 E0
G1 X62.120 Y61.545 F30000.000
G1 E2.00000 F2400.00000
G1 F2100
G1 X63.265 Y60.535 E2.10198
G1 X64.197 Y59.827 E2.18016
G1 X64.869 Y59.370 E2.23450
G1 X66.183 Y58.593 E2.33645
G1 X66.908 Y58.223 E2.39084
G1 X67.978 Y57.748 E2.46901
G1 X69.414 Y57.231 E2.57098
G1 X70.541 Y56.916 E2.64916
G1 X71.335 Y56.738 E2.70351
G1 X72.853 Y56.498 E2.80618
G1 X74.009 Y56.400 E2.88367
G1 X75.178 Y56.375 E2.96179
G1 X75.991 Y56.400 E3.01619
G1 X77.157 Y56.499 E3.09436
G1 X78.665 Y56.738 E3.19632
G1 X79.459 Y56.916 E3.25069
G1 X80.586 Y57.231 E3.32886
G1 X82.022 Y57.748 E3.43085
G1 X83.091 Y58.223 E3.50900
G1 X83.817 Y58.593 E3.56337
G1 X84.829 Y59.179 E3.64153
G1 X85.803 Y59.827 E3.71971
G1 X87.010 Y60.763 E3.82169
G1 X87.620 Y61.301 E3.87604
G1 X88.455 Y62.120 E3.95421
G1 X89.465 Y63.265 E4.05620
G1 X89.963 Y63.908 E4.11055
G1 X90.630 Y64.869 E4.18871
G1 X91.407 Y66.183 E4.29070
G1 X91.777 Y66.908 E4.34505
G1 X92.252 Y67.978 E4.42322
G1 X92.769 Y69.414 E4.52520
G1 X92.996 Y70.195 E4.57955
G1 X93.262 Y71.335 E4.65772
G1 X93.501 Y72.843 E4.75971
G1 X93.600 Y74.008 E4.83788
G1 X93.625 Y75.178 E4.91605
G1 X93.577 Y76.347 E4.99422
G1 X93.501 Y77.157 E5.04857
G1 X93.262 Y78.665 E5.15055
G1 X93.084 Y79.459 E5.20492
G1 X92.769 Y80.586 E5.28307
G1 X92.383 Y81.691 E5.36129
G1 X91.933 Y82.759 E5.43870
G1 X91.236 Y84.129 E5.54140
G1 X90.821 Y84.829 E5.59575
G1 X90.173 Y85.803 E5.67391
G1 X89.237 Y87.010 E5.77590
G1 X88.699 Y87.620 E5.83026
G1 X87.880 Y88.455 E5.90842
G1 X86.735 Y89.465 E6.01040
G1 X86.092 Y89.963 E6.06475
G1 X85.131 Y90.630 E6.14292
G1 X83.807 Y91.412 E6.24559
G1 X82.769 Y91.929 E6.32307
G1 X81.691 Y92.383 E6.40120
G1 X80.925 Y92.659 E6.45560
G1 X79.805 Y92.996 E6.53377
G1 X78.315 Y93.329 E6.63575
G1 X77.511 Y93.456 E6.69010
G1 X76.347 Y93.577 E6.76827
G1 X74.822 Y93.625 E6.87024
G1 X74.008 Y93.600 E6.92461
G1 X72.843 Y93.501 E7.00277
G1 X71.335 Y93.262 E7.10476
G1 X70.196 Y92.996 E7.18290
G1 X69.414 Y92.769 E7.23728
G1 X67.978 Y92.252 E7.33926
G1 X67.231 Y91.929 E7.39361
G1 X66.183 Y91.407 E7.47178
G1 X64.869 Y90.630 E7.57377
G1 X63.908 Y89.963 E7.65193
G1 X63.265 Y89.465 E7.70629
G1 X62.380 Y88.699 E7.78446
G1 X61.545 Y87.880 E7.86263
G1 X60.535 Y86.735 E7.96461
G1 X60.037 Y86.092 E8.01897
G1 X59.370 Y85.131 E8.09713
G1 X58.593 Y83.817 E8.19912
G1 X58.223 Y83.091 E8.25349
G1 X57.748 Y82.022 E8.33164
G1 X57.231 Y80.586 E8.43362
G1 X56.916 Y79.459 E8.51179
G1 X56.738 Y78.665 E8.56616
G1 X56.544 Y77.511 E8.64431
G1 X56.423 Y76.347 E8.72248
G1 X56.375 Y74.822 E8.82447
G1 X56.423 Y73.653 E8.90264
G1 X56.499 Y72.842 E8.95702
G1 X56.738 Y71.335 E9.05897
G1 X56.916 Y70.541 E9.11334
G1 X57.231 Y69.414 E9.19150
G1 X57.748 Y67.978 E9.29348
G1 X58.071 Y67.231 E9.34783
G1 X58.593 Y66.183 E9.42604
G1 X59.370 Y64.869 E9.52798
G1 X59.827 Y64.197 E9.58233
G1 X60.535 Y63.265 E9.66050
G1 X61.301 Y62.380 E9.73868
G1 X62.078 Y61.587 E9.81283
G1 X62.499 Y61.924 F30000.000
G1 F2100
G1 X63.594 Y60.959 E9.91032
G1 X64.236 Y60.460 E9.96467
G1 X65.171 Y59.813 E10.04060
G1 X66.426 Y59.070 E10.13805
G1 X67.444 Y58.563 E10.21400
G1 X68.190 Y58.240 E10.26836
G1 X69.563 Y57.746 E10.36584
G1 X70.658 Y57.438 E10.44177
G1 X71.452 Y57.261 E10.49612
G1 X72.903 Y57.032 E10.59430
G1 X74.025 Y56.936 E10.66954
G1 X75.161 Y56.910 E10.74541
G1 X75.975 Y56.936 E10.79981
G1 X77.107 Y57.032 E10.87573
G1 X78.548 Y57.261 E10.97320
G1 X79.342 Y57.438 E11.02757
G1 X80.436 Y57.746 E11.10349
G1 X81.810 Y58.240 E11.20099
G1 X82.848 Y58.700 E11.27689
G1 X83.573 Y59.070 E11.33126
G1 X84.829 Y59.813 E11.42875
G1 X85.764 Y60.460 E11.50466
G1 X86.406 Y60.959 E11.55902
G1 X87.266 Y61.702 E11.63494
G1 X88.076 Y62.499 E11.71087
G1 X89.041 Y63.594 E11.80836
G1 X89.540 Y64.236 E11.86271
G1 X90.187 Y65.171 E11.93863
G1 X90.930 Y66.427 E12.03612
G1 X91.299 Y67.152 E12.09047
G1 X91.760 Y68.190 E12.16639
G1 X92.254 Y69.564 E12.26388
G1 X92.562 Y70.658 E12.33981
G1 X92.800 Y71.769 E12.41573
G1 X92.927 Y72.572 E12.47008
G1 X93.044 Y73.703 E12.54600
G1 X93.090 Y75.162 E12.64349
G1 X93.064 Y75.975 E12.69784
G1 X92.968 Y77.107 E12.77376
G1 X92.739 Y78.548 E12.87126
G1 X92.562 Y79.343 E12.92563
G1 X92.254 Y80.436 E13.00153
G1 X91.879 Y81.510 E13.07750
G1 X91.441 Y82.546 E13.15266
G1 X90.774 Y83.856 E13.25086
G1 X90.360 Y84.557 E13.30522
G1 X89.730 Y85.502 E13.38114
G1 X88.836 Y86.655 E13.47863
G1 X88.297 Y87.266 E13.53299
G1 X87.501 Y88.076 E13.60890
G1 X86.406 Y89.041 E13.70639
G1 X85.764 Y89.540 E13.76074
G1 X84.829 Y90.187 E13.83666
G1 X83.574 Y90.930 E13.93413
G1 X82.556 Y91.437 E14.01007
G1 X81.510 Y91.879 E14.08596
G1 X80.744 Y92.155 E14.14035
G1 X79.655 Y92.481 E14.21627
G1 X78.231 Y92.800 E14.31376
G1 X77.428 Y92.927 E14.36811
G1 X76.297 Y93.044 E14.44404
G1 X74.839 Y93.090 E14.54152
G1 X74.025 Y93.064 E14.59588
G1 X72.893 Y92.968 E14.67180
G1 X71.452 Y92.739 E14.76929
G1 X70.345 Y92.482 E14.84518
G1 X69.564 Y92.254 E14.89956
G1 X68.190 Y91.760 E14.99705
G1 X67.444 Y91.437 E15.05140
G1 X66.427 Y90.930 E15.12733
G1 X65.171 Y90.187 E15.22482
G1 X64.236 Y89.540 E15.30074
G1 X63.345 Y88.836 E15.37666
G1 X62.734 Y88.298 E15.43101
G1 X61.924 Y87.501 E15.50694
G1 X60.959 Y86.406 E15.60443
G1 X60.460 Y85.764 E15.65879
G1 X59.813 Y84.829 E15.73470
G1 X59.070 Y83.573 E15.83219
G1 X58.700 Y82.848 E15.88656
G1 X58.240 Y81.810 E15.96246
G1 X57.746 Y80.436 E16.05995
G1 X57.438 Y79.342 E16.13588
G1 X57.261 Y78.548 E16.19024
G1 X57.073 Y77.428 E16.26615
G1 X56.956 Y76.297 E16.34207
G1 X56.910 Y74.838 E16.43956
G1 X56.956 Y73.703 E16.51549
G1 X57.033 Y72.893 E16.56986
G1 X57.261 Y71.452 E16.66733
G1 X57.438 Y70.657 E16.72169
G1 X57.746 Y69.563 E16.79761
G1 X58.240 Y68.190 E16.89509
G1 X58.563 Y67.444 E16.94945
G1 X59.070 Y66.426 E17.02540
G1 X59.813 Y65.171 E17.12285
G1 X60.460 Y64.236 E17.19878
G1 X60.959 Y63.594 E17.25312
G1 X61.702 Y62.734 E17.32905
G1 X62.456 Y61.966 E17.40096
G1 X62.878 Y62.302 F30000.000
G1 F2100
G1 X63.922 Y61.382 E17.49396
G1 X64.565 Y60.883 E17.54831
G1 X65.472 Y60.256 E17.62198
G1 X66.669 Y59.547 E17.71495
G1 X67.656 Y59.055 E17.78865
G1 X68.403 Y58.731 E17.84301
G1 X69.713 Y58.260 E17.93600
G1 X70.774 Y57.961 E18.00968
G1 X71.568 Y57.783 E18.06403
G1 X72.954 Y57.565 E18.15771
G1 X74.042 Y57.471 E18.23070
G1 X75.144 Y57.445 E18.30434
G1 X75.958 Y57.471 E18.35873
G1 X77.057 Y57.566 E18.43240
G1 X78.431 Y57.783 E18.52538
G1 X79.225 Y57.961 E18.57975
G1 X80.287 Y58.260 E18.65342
G1 X81.597 Y58.731 E18.74642
G1 X82.605 Y59.178 E18.82008
G1 X83.330 Y59.547 E18.87445
G1 X84.528 Y60.256 E18.96744
G1 X85.435 Y60.883 E19.04111
G1 X86.078 Y61.382 E19.09547
G1 X86.911 Y62.104 E19.16915
G1 X87.698 Y62.878 E19.24282
G1 X88.618 Y63.922 E19.33582
G1 X89.117 Y64.565 E19.39017
G1 X89.744 Y65.472 E19.46384
G1 X90.453 Y66.670 E19.55684
G1 X90.822 Y67.395 E19.61119
G1 X91.269 Y68.403 E19.68487
G1 X91.740 Y69.713 E19.77786
G1 X91.967 Y70.494 E19.83221
G1 X92.217 Y71.568 E19.90589
G1 X92.434 Y72.943 E19.99889
G1 X92.529 Y74.042 E20.07256
G1 X92.555 Y75.145 E20.14624
G1 X92.529 Y75.958 E20.20059
G1 X92.434 Y77.057 E20.27426
G1 X92.217 Y78.432 E20.36726
G1 X92.039 Y79.226 E20.42163
G1 X91.740 Y80.287 E20.49528
G1 X91.375 Y81.328 E20.56900
G1 X90.950 Y82.334 E20.64192
G1 X90.313 Y83.584 E20.73563
G1 X89.899 Y84.284 E20.78999
G1 X89.287 Y85.201 E20.86366
G1 X88.434 Y86.301 E20.95665
G1 X87.896 Y86.912 E21.01101
G1 X87.122 Y87.698 E21.08468
G1 X86.078 Y88.618 E21.17768
G1 X85.435 Y89.117 E21.23203
G1 X84.528 Y89.744 E21.30570
G1 X83.321 Y90.458 E21.39941
G1 X82.343 Y90.945 E21.47237
G1 X81.328 Y91.375 E21.54601
G1 X80.562 Y91.651 E21.60040
G1 X79.506 Y91.967 E21.67408
G1 X78.147 Y92.271 E21.76707
G1 X77.344 Y92.398 E21.82142
G1 X76.247 Y92.511 E21.89510
G1 X74.855 Y92.555 E21.98808
G1 X74.042 Y92.529 E22.04244
G1 X72.943 Y92.434 E22.11612
G1 X71.568 Y92.217 E22.20912
G1 X70.495 Y91.967 E22.28276
G1 X69.713 Y91.740 E22.33714
G1 X68.403 Y91.269 E22.43014
G1 X67.657 Y90.945 E22.48449
G1 X66.670 Y90.453 E22.55816
G1 X65.472 Y89.744 E22.65116
G1 X64.565 Y89.117 E22.72483
G1 X63.922 Y88.618 E22.77919
G1 X63.089 Y87.896 E22.85286
G1 X62.302 Y87.122 E22.92654
G1 X61.382 Y86.078 E23.01954
G1 X60.883 Y85.435 E23.07389
G1 X60.256 Y84.528 E23.14756
G1 X59.547 Y83.330 E23.24056
G1 X59.178 Y82.605 E23.29492
G1 X58.731 Y81.597 E23.36858
G1 X58.260 Y80.287 E23.46158
G1 X57.961 Y79.225 E23.53526
G1 X57.783 Y78.431 E23.58962
G1 X57.602 Y77.344 E23.66328
G1 X57.489 Y76.247 E23.73696
G1 X57.445 Y74.855 E23.82995
G1 X57.489 Y73.753 E23.90363
G1 X57.566 Y72.943 E23.95800
G1 X57.783 Y71.568 E24.05098
G1 X57.961 Y70.774 E24.10534
G1 X58.260 Y69.713 E24.17901
G1 X58.731 Y68.403 E24.27200
G1 X59.055 Y67.656 E24.32636
G1 X59.547 Y66.669 E24.40006
G1 X60.256 Y65.472 E24.49302
G1 X60.713 Y64.799 E24.54737
G1 X61.382 Y63.922 E24.62105
G1 X62.104 Y63.089 E24.69473
G1 X62.835 Y62.345 E24.76439
G1 X63.256 Y62.681 F30000.000
G1 F2100
G1 X64.250 Y61.805 E24.85289
G1 X64.893 Y61.306 E24.90724
G1 X65.773 Y60.699 E24.97867
G1 X66.913 Y60.025 E25.06714
G1 X67.638 Y59.655 E25.12152
G1 X68.616 Y59.223 E25.19295
G1 X69.862 Y58.774 E25.28145
G1 X70.891 Y58.484 E25.35288
G1 X71.685 Y58.306 E25.40723
G1 X73.004 Y58.098 E25.49645
G1 X74.059 Y58.006 E25.56717
G1 X75.127 Y57.981 E25.63856
G1 X75.941 Y58.006 E25.69294
G1 X77.006 Y58.099 E25.76437
G1 X78.314 Y58.306 E25.85286
G1 X79.109 Y58.484 E25.90722
G1 X80.138 Y58.774 E25.97865
G1 X81.384 Y59.223 E26.06716
G1 X82.362 Y59.655 E26.13857
G1 X83.087 Y60.024 E26.19293
G1 X84.227 Y60.699 E26.28144
G1 X85.107 Y61.306 E26.35286
G1 X85.750 Y61.805 E26.40722
G1 X86.557 Y62.506 E26.47864
G1 X87.319 Y63.256 E26.55007
G1 X88.195 Y64.250 E26.63858
G1 X88.694 Y64.893 E26.69293
G1 X89.301 Y65.773 E26.76435
G1 X89.976 Y66.913 E26.85286
G1 X90.345 Y67.638 E26.90721
G1 X90.777 Y68.616 E26.97864
G1 X91.226 Y69.862 E27.06714
G1 X91.453 Y70.644 E27.12149
G1 X91.694 Y71.685 E27.19292
G1 X91.901 Y72.994 E27.28142
G1 X91.994 Y74.059 E27.35285
G1 X92.019 Y75.128 E27.42428
G1 X91.994 Y75.941 E27.47863
G1 X91.901 Y77.006 E27.55006
G1 X91.694 Y78.315 E27.63856
G1 X91.516 Y79.109 E27.69292
G1 X91.226 Y80.138 E27.76434
G1 X90.871 Y81.147 E27.83580
G1 X90.458 Y82.121 E27.90648
G1 X89.852 Y83.311 E27.99570
G1 X89.438 Y84.011 E28.05005
G1 X88.844 Y84.900 E28.12147
G1 X88.032 Y85.947 E28.20998
G1 X87.494 Y86.557 E28.26433
G1 X86.744 Y87.319 E28.33576
G1 X85.750 Y88.195 E28.42426
G1 X85.107 Y88.694 E28.47861
G1 X84.227 Y89.301 E28.55004
G1 X83.077 Y89.980 E28.63925
G1 X82.131 Y90.454 E28.70997
G1 X81.147 Y90.871 E28.78136
G1 X80.381 Y91.147 E28.83575
G1 X79.356 Y91.453 E28.90718
G1 X78.063 Y91.742 E28.99568
G1 X77.260 Y91.869 E29.05003
G1 X76.196 Y91.978 E29.12146
G1 X74.872 Y92.019 E29.20995
G1 X74.059 Y91.994 E29.26431
G1 X72.994 Y91.901 E29.33574
G1 X71.685 Y91.694 E29.42424
G1 X70.644 Y91.453 E29.49564
G1 X69.862 Y91.226 E29.55002
G1 X68.616 Y90.777 E29.63852
G1 X67.869 Y90.454 E29.69287
G1 X66.913 Y89.976 E29.76430
G1 X65.773 Y89.301 E29.85280
G1 X64.893 Y88.694 E29.92423
G1 X64.250 Y88.195 E29.97858
G1 X63.443 Y87.494 E30.05001
G1 X62.681 Y86.744 E30.12144
G1 X61.805 Y85.750 E30.20994
G1 X61.306 Y85.107 E30.26430
G1 X60.699 Y84.227 E30.33572
G1 X60.024 Y83.087 E30.42422
G1 X59.655 Y82.362 E30.47859
G1 X59.223 Y81.384 E30.55000
G1 X58.774 Y80.138 E30.63851
G1 X58.484 Y79.109 E30.70994
G1 X58.306 Y78.314 E30.76430
G1 X58.131 Y77.260 E30.83571
G1 X58.022 Y76.196 E30.90714
G1 X57.981 Y74.872 E30.99564
G1 X58.022 Y73.804 E31.06707
G1 X58.099 Y72.993 E31.12144
G1 X58.306 Y71.685 E31.20993
G1 X58.484 Y70.891 E31.26429
G1 X58.774 Y69.862 E31.33571
G1 X59.223 Y68.616 E31.42421
G1 X59.546 Y67.869 E31.47856
G1 X60.025 Y66.913 E31.55002
G1 X60.699 Y65.773 E31.63849
G1 X61.306 Y64.893 E31.70992
G1 X61.805 Y64.250 E31.76427
G1 X62.506 Y63.443 E31.83570
G1 X63.214 Y62.723 E31.90312
G1 X63.635 Y63.060 F30000.000
G1 F2100
G1 X64.578 Y62.228 E31.98713
G1 X65.221 Y61.730 E32.04148
G1 X66.074 Y61.142 E32.11066
G1 X67.156 Y60.502 E32.19464
G1 X68.082 Y60.038 E32.26384
G1 X68.829 Y59.715 E32.31820
G1 X70.012 Y59.289 E32.40220
G1 X71.008 Y59.006 E32.47139
G1 X71.802 Y58.829 E32.52574
G1 X73.055 Y58.631 E32.61044
G1 X74.076 Y58.542 E32.67893
G1 X75.111 Y58.516 E32.74808
G1 X75.924 Y58.542 E32.80246
G1 X76.956 Y58.632 E32.87164
G1 X78.198 Y58.829 E32.95564
G1 X78.992 Y59.006 E33.01000
G1 X79.988 Y59.289 E33.07918
G1 X81.171 Y59.715 E33.16319
G1 X82.119 Y60.132 E33.23236
G1 X82.844 Y60.502 E33.28672
G1 X83.926 Y61.142 E33.37073
G1 X84.779 Y61.729 E33.43991
G1 X85.422 Y62.228 E33.49426
G1 X86.203 Y62.908 E33.56344
G1 X86.940 Y63.635 E33.63262
G1 X87.772 Y64.578 E33.71664
G1 X88.270 Y65.221 E33.77099
G1 X88.858 Y66.074 E33.84017
G1 X89.498 Y67.156 E33.92418
G1 X89.962 Y68.082 E33.99336
G1 X90.367 Y69.035 E34.06254
G1 X90.643 Y69.801 E34.11689
G1 X90.938 Y70.793 E34.18607
G1 X91.213 Y72.020 E34.27008
G1 X91.340 Y72.824 E34.32443
G1 X91.444 Y73.854 E34.39361
G1 X91.484 Y75.111 E34.47762
G1 X91.458 Y75.924 E34.53197
G1 X91.368 Y76.956 E34.60115
G1 X91.171 Y78.198 E34.68516
G1 X90.994 Y78.992 E34.73952
G1 X90.711 Y79.988 E34.80869
G1 X90.367 Y80.965 E34.87790
G1 X89.967 Y81.908 E34.94634
G1 X89.391 Y83.038 E35.03106
G1 X88.977 Y83.739 E35.08542
G1 X88.401 Y84.599 E35.15459
G1 X87.630 Y85.593 E35.23860
G1 X87.092 Y86.203 E35.29296
G1 X86.365 Y86.940 E35.36213
G1 X85.422 Y87.772 E35.44614
G1 X84.779 Y88.270 E35.50049
G1 X83.926 Y88.858 E35.56967
G1 X82.835 Y89.503 E35.65438
G1 X81.918 Y89.962 E35.72286
G1 X80.965 Y90.367 E35.79201
G1 X80.199 Y90.643 E35.84639
G1 X79.207 Y90.938 E35.91558
G1 X77.980 Y91.213 E35.99959
G1 X77.176 Y91.340 E36.05393
G1 X76.146 Y91.444 E36.12312
G1 X74.889 Y91.484 E36.20712
G1 X74.076 Y91.458 E36.26148
G1 X73.044 Y91.368 E36.33066
G1 X71.802 Y91.171 E36.41467
G1 X70.793 Y90.938 E36.48383
G1 X70.012 Y90.711 E36.53820
G1 X68.829 Y90.285 E36.62221
G1 X68.082 Y89.962 E36.67656
G1 X67.156 Y89.498 E36.74574
G1 X66.074 Y88.858 E36.82975
G1 X65.221 Y88.270 E36.89893
G1 X64.578 Y87.772 E36.95328
G1 X63.797 Y87.092 E37.02246
G1 X63.060 Y86.365 E37.09164
G1 X62.228 Y85.422 E37.17565
G1 X61.729 Y84.779 E37.23001
G1 X61.142 Y83.926 E37.29918
G1 X60.502 Y82.844 E37.38319
G1 X60.132 Y82.119 E37.43755
G1 X59.715 Y81.171 E37.50672
G1 X59.289 Y79.988 E37.59073
G1 X59.006 Y78.992 E37.65992
G1 X58.829 Y78.198 E37.71428
G1 X58.660 Y77.176 E37.78345
G1 X58.556 Y76.146 E37.85263
G1 X58.516 Y74.889 E37.93664
G1 X58.556 Y73.854 E38.00582
G1 X58.632 Y73.044 E38.06019
G1 X58.829 Y71.802 E38.14418
G1 X59.006 Y71.008 E38.19854
G1 X59.289 Y70.012 E38.26772
G1 X59.715 Y68.829 E38.35172
G1 X60.038 Y68.082 E38.40607
G1 X60.502 Y67.156 E38.47528
G1 X61.142 Y66.074 E38.55926
G1 X61.599 Y65.401 E38.61361
G1 X62.228 Y64.578 E38.68279
G1 X62.908 Y63.797 E38.75197
G1 X63.593 Y63.102 E38.81714
G1 E36.81714 F2400.00000
G92 E0
G1 X86.211 Y77.284 F30000.000
G1 E2.00000 F2400.00000
G1 F2100
G1 X82.789 Y77.284 E2.22856
G1 X82.789 Y74.822 E2.39304
G1 X82.149 Y74.989 E2.43722
G1 X81.755 Y75.026 E2.46369
G1 X81.359 Y75.013 E2.49016
G1 X80.806 Y74.907 E2.52777
G1 X80.268 Y74.696 E2.56638
G1 X80.013 Y74.538 E2.58643
G1 X80.041 Y75.000 E2.61736
G1 X80.002 Y75.619 E2.65875
G1 X79.879 Y76.266 E2.70278
G1 X79.687 Y76.856 E2.74420
G1 X79.418 Y77.429 E2.78649
G1 X79.078 Y77.963 E2.82878
G1 X78.641 Y78.492 E2.87462
G1 X79.240 Y78.649 E2.91600
G1 X79.607 Y78.813 E2.94285
G1 X79.947 Y79.021 E2.96947
G1 X80.378 Y79.398 E3.00769
G1 X80.730 Y79.862 E3.04663
