; generated by Slic3r 1.3.0 on 2022-08-22 at 19:09:55

; external perimeters extrusion width = 0.44mm (3.38mm^3/s)
; perimeters extrusion width = 0.48mm (7.54mm^3/s)
; infill extrusion width = 0.48mm (10.05mm^3/s)
; solid infill extrusion width = 0.48mm (2.51mm^3/s)
; top infill extrusion width = 0.48mm (1.88mm^3/s)

M107
M104 S210 ; set temperature
G28 ; home all axes
G1 Z5 F5000 ; lift nozzle

; Filament gcode

M109 S210 ; set temperature and wait for it to be reached
G21 ; set units to millimeters
G90 ; use absolute coordinates
M82 ; use absolute distances for extrusion
G92 E0
G1 Z0.350 F7800.000
G1 E-2.00000 F2400.00000
G92 E0
G1 X58.750 Y55.814 F7800.000
G1 E2.00000 F2400.00000
G1 F1800
G1 X65.814 Y48.750 E2.89013
G1 X66.775 Y47.956 E3.00124
G1 X67.696 Y47.346 E3.09969
G1 X69.467 Y46.313 E3.28236
G1 X70.922 Y45.572 E3.42793
G1 X72.798 Y44.746 E3.61055
G1 X73.195 Y44.589 E3.64866
G1 X75.117 Y43.911 E3.83022
G1 X77.088 Y43.352 E4.01284
G1 X79.091 Y42.917 E4.19543
G1 X80.705 Y42.662 E4.34105
G1 X81.129 Y42.608 E4.37916
G1 X83.159 Y42.430 E4.56076
G1 X85.207 Y42.378 E4.74333
G1 X86.841 Y42.430 E4.88894
G1 X88.882 Y42.610 E5.07156
G1 X89.295 Y42.662 E5.10865
G1 X91.317 Y42.995 E5.29126
G1 X92.911 Y43.351 E5.43682
G1 X93.389 Y43.477 E5.48084
G1 X95.279 Y44.039 E5.65652
G1 X96.815 Y44.593 E5.80207
G1 X98.701 Y45.394 E5.98470
G1 X99.088 Y45.577 E6.02280
G1 X100.898 Y46.514 E6.20441
G1 X102.655 Y47.568 E6.38700
G1 X104.342 Y48.730 E6.56956
G1 X105.633 Y49.732 E6.71520
G1 X107.179 Y51.077 E6.89782
G1 X108.630 Y52.509 E7.07943
G1 X108.923 Y52.821 E7.11753
G1 X110.003 Y54.046 E7.26312
G1 X111.269 Y55.657 E7.44570
G1 X112.432 Y57.345 E7.62833
G1 X112.655 Y57.696 E7.66541
G1 X113.486 Y59.102 E7.81096
G1 X114.428 Y60.922 E7.99359
G1 X115.254 Y62.798 E8.17622
G1 X115.957 Y64.711 E8.35787
G1 X116.089 Y65.117 E8.39592
G1 X116.649 Y67.089 E8.57854
G1 X117.083 Y69.092 E8.76116
G1 X117.338 Y70.705 E8.90671
G1 X117.390 Y71.118 E8.94380
G1 X117.570 Y73.159 E9.12642
G1 X117.622 Y75.208 E9.30904
G1 X117.570 Y76.842 E9.45469
G1 X117.392 Y78.871 E9.63620
G1 X117.338 Y79.295 E9.67430
G1 X117.005 Y81.317 E9.85692
G1 X116.648 Y82.913 E10.00261
G1 X116.089 Y84.883 E10.18510
G1 X115.407 Y86.815 E10.36772
G1 X114.606 Y88.701 E10.55034
G1 X114.428 Y89.078 E10.58743
G1 X113.686 Y90.534 E10.73305
G1 X112.655 Y92.304 E10.91565
G1 X111.520 Y93.997 E11.09721
G1 X111.269 Y94.343 E11.13531
G1 X110.268 Y95.633 E11.28086
G1 X108.923 Y97.179 E11.46348
G1 X108.638 Y97.483 E11.50057
G1 X107.179 Y98.923 E11.68319
G1 X105.954 Y100.003 E11.82875
G1 X104.343 Y101.269 E12.01137
G1 X102.655 Y102.432 E12.19399
G1 X102.294 Y102.660 E12.23205
G1 X100.534 Y103.686 E12.41363
G1 X98.701 Y104.606 E12.59632
G1 X96.815 Y105.407 E12.77894
G1 X95.279 Y105.961 E12.92449
G1 X94.883 Y106.089 E12.96158
G1 X92.913 Y106.648 E13.14407
G1 X91.317 Y107.005 E13.28975
G1 X89.295 Y107.338 E13.47237
G1 X88.882 Y107.390 E13.50946
G1 X86.842 Y107.570 E13.69199
G1 X85.208 Y107.622 E13.83763
G1 X83.159 Y107.570 E14.02026
G1 X81.118 Y107.390 E14.20288
G1 X80.705 Y107.338 E14.23997
G1 X78.683 Y107.005 E14.42259
G1 X76.686 Y106.545 E14.60515
G1 X74.722 Y105.961 E14.78778
G1 X73.185 Y105.407 E14.93338
G1 X72.787 Y105.250 E14.97147
G1 X70.922 Y104.428 E15.15309
G1 X69.467 Y103.687 E15.29864
G1 X67.696 Y102.655 E15.48126
G1 X67.345 Y102.432 E15.51835
G1 X65.657 Y101.269 E15.70097
G1 X64.046 Y100.003 E15.88356
G1 X62.821 Y98.923 E16.02914
G1 X62.517 Y98.638 E16.06623
G1 X61.077 Y97.179 E16.24886
G1 X59.732 Y95.633 E16.43148
G1 X58.730 Y94.342 E16.57712
G1 X57.568 Y92.655 E16.75968
G1 X56.514 Y90.898 E16.94227
G1 X56.313 Y90.533 E16.97936
G1 X55.394 Y88.701 E17.16198
G1 X54.746 Y87.202 E17.30753
G1 X54.039 Y85.279 E17.49015
G1 X53.477 Y83.389 E17.66584
G1 X53.351 Y82.911 E17.70986
G1 X52.995 Y81.317 E17.85542
G1 X52.662 Y79.295 E18.03803
G1 X52.610 Y78.882 E18.07512
G1 X52.430 Y76.841 E18.25774
G1 X52.378 Y75.207 E18.40335
G1 X52.430 Y73.159 E18.58592
G1 X52.608 Y71.129 E18.76752
G1 X52.662 Y70.705 E18.80562
G1 X52.995 Y68.683 E18.98825
G1 X53.455 Y66.686 E19.17087
G1 X53.911 Y65.117 E19.31645
G1 X54.593 Y63.184 E19.49908
G1 X55.394 Y61.299 E19.68166
G1 X55.572 Y60.922 E19.71875
G1 X56.313 Y59.467 E19.86432
G1 X57.345 Y57.696 E20.04697
G1 X57.956 Y56.775 E20.14544
G1 X58.712 Y55.860 E20.25120
G1 E18.25120 F2400.00000
G92 E0
G1 X86.629 Y92.645 F7800.000
G1 E2.00000 F2400.00000
G1 F1800
G1 X86.479 Y92.939 E2.02938
G1 X86.277 Y93.199 E2.05876
G1 X86.030 Y93.417 E2.08813
G1 X85.746 Y93.585 E2.11751
G1 X85.430 Y93.698 E2.14738
G1 X85.006 Y93.752 E2.18554
G1 X84.666 Y93.720 E2.21590
G1 X84.262 Y93.589 E2.25376
G1 X83.971 Y93.417 E2.28392
G1 X83.723 Y93.199 E2.31332
G1 X83.521 Y92.939 E2.34269
G1 X83.371 Y92.645 E2.37207
G1 X83.279 Y92.328 E2.40145
G1 X83.248 Y92.000 E2.43083
G1 X83.279 Y91.672 E2.46020
G1 X83.371 Y91.355 E2.48958
G1 X83.521 Y91.061 E2.51896
G1 X83.723 Y90.801 E2.54834
G1 X83.970 Y90.583 E2.57771
G1 X84.254 Y90.415 E2.60709
G1 X84.569 Y90.302 E2.63695
G1 X84.991 Y90.248 E2.67481
G1 X85.328 Y90.279 E2.70497
G1 X85.645 Y90.371 E2.73437
G1 X85.939 Y90.521 E2.76375
G1 X86.199 Y90.723 E2.79313
G1 X86.417 Y90.971 E2.82253
G1 X86.589 Y91.262 E2.85268
G1 X86.720 Y91.666 E2.89055
G1 X86.752 Y92.000 E2.92041
G1 X86.721 Y92.328 E2.94978
G1 X86.645 Y92.587 E2.97381
G1 X86.629 Y92.645 F7800.000
G1 E0.97381 F2400.00000
G92 E0
G1 X69.199 Y76.277 F7800.000
G1 E2.00000 F2400.00000
G1 F1800
G1 X68.939 Y76.479 E2.02938
G1 X68.645 Y76.629 E2.05875
G1 X68.328 Y76.721 E2.08813
G1 X68.000 Y76.752 E2.11751
G1 X67.672 Y76.721 E2.14689
G1 X67.355 Y76.629 E2.17626
G1 X67.061 Y76.479 E2.20566
G1 X66.794 Y76.271 E2.23582
G1 X66.524 Y75.943 E2.27369
G1 X66.371 Y75.645 E2.30354
G1 X66.279 Y75.328 E2.33292
G1 X66.248 Y75.000 E2.36230
G1 X66.279 Y74.672 E2.39168
G1 X66.371 Y74.355 E2.42105
G1 X66.521 Y74.061 E2.45043
G1 X66.723 Y73.801 E2.47981
G1 X66.970 Y73.583 E2.50919
G1 X67.254 Y73.415 E2.53856
G1 X67.569 Y73.302 E2.56842
G1 X67.991 Y73.248 E2.60629
G1 X68.328 Y73.279 E2.63644
G1 X68.645 Y73.371 E2.66584
G1 X68.939 Y73.521 E2.69522
G1 X69.199 Y73.723 E2.72460
G1 X69.417 Y73.971 E2.75400
G1 X69.589 Y74.262 E2.78416
G1 X69.720 Y74.666 E2.82202
G1 X69.752 Y75.006 E2.85237
G1 X69.698 Y75.430 E2.89053
G1 X69.585 Y75.746 E2.92040
G1 X69.417 Y76.030 E2.94978
G1 X69.239 Y76.232 E2.97381
G1 X69.199 Y76.277 F7800.000
G1 E0.97381 F2400.00000
G92 E0
G1 X83.970 Y59.417 F7800.000
G1 E2.00000 F2400.00000
G1 F1800
G1 X83.723 Y59.199 E2.02938
G1 X83.521 Y58.939 E2.05875
G1 X83.371 Y58.645 E2.08813
G1 X83.279 Y58.328 E2.11751
G1 X83.248 Y58.000 E2.14689
G1 X83.279 Y57.672 E2.17626
G1 X83.371 Y57.355 E2.20564
G1 X83.521 Y57.061 E2.23502
G1 X83.723 Y56.801 E2.26440
G1 X83.970 Y56.583 E2.29377
G1 X84.254 Y56.415 E2.32315
G1 X84.569 Y56.302 E2.35301
G1 X84.991 Y56.248 E2.39087
G1 X85.328 Y56.279 E2.42103
G1 X85.645 Y56.371 E2.45043
G1 X85.939 Y56.521 E2.47981
G1 X86.199 Y56.723 E2.50919
G1 X86.417 Y56.970 E2.53856
G1 X86.588 Y57.259 E2.56844
G1 X86.720 Y57.666 E2.60660
G1 X86.752 Y58.000 E2.63647
G1 X86.721 Y58.328 E2.66585
G1 X86.629 Y58.645 E2.69522
G1 X86.479 Y58.939 E2.72462
G1 X86.271 Y59.206 E2.75478
G1 X85.943 Y59.476 E2.79264
G1 X85.645 Y59.629 E2.82250
G1 X85.328 Y59.721 E2.85188
G1 X84.994 Y59.752 E2.88175
G1 X84.570 Y59.698 E2.91991
G1 X84.254 Y59.585 E2.94978
G1 X84.022 Y59.448 E2.97381
G1 X83.970 Y59.417 F7800.000
G1 E0.97381 F2400.00000
G92 E0
G1 X77.750 Y58.424 F7800.000
G1 E2.00000 F2400.00000
G1 F1800
G1 X73.046 Y53.720 E2.59282
G1 X74.611 Y52.923 E2.74936
G1 X76.018 Y52.314 E2.88595
G1 X77.460 Y51.795 E3.02251
G1 X78.943 Y51.365 E3.16012
G1 X80.428 Y51.033 E3.29572
G1 X81.942 Y50.793 E3.43231
G1 X83.468 Y50.649 E3.56887
G1 X85.011 Y50.601 E3.70648
G1 X86.532 Y50.649 E3.84208
G1 X88.058 Y50.793 E3.97867
G1 X89.572 Y51.033 E4.11526
G1 X91.068 Y51.367 E4.25185
G1 X92.540 Y51.795 E4.38844
G1 X93.982 Y52.314 E4.52503
G1 X95.389 Y52.923 E4.66162
G1 X96.755 Y53.619 E4.79821
G1 X98.074 Y54.399 E4.93480
G1 X99.342 Y55.260 E5.07139
G1 X100.553 Y56.200 E5.20798
G1 X101.703 Y57.214 E5.34457
G1 X102.786 Y58.297 E5.48116
G1 X103.800 Y59.447 E5.61775
G1 X104.740 Y60.658 E5.75434
G1 X105.601 Y61.926 E5.89093
G1 X106.381 Y63.245 E6.02752
G1 X107.077 Y64.611 E6.16411
G1 X107.686 Y66.018 E6.30070
G1 X108.205 Y67.460 E6.43730
G1 X108.630 Y68.921 E6.57290
G1 X108.967 Y70.428 E6.71050
G1 X109.207 Y71.942 E6.84706
G1 X109.351 Y73.468 E6.98365
G1 X109.399 Y75.000 E7.12024
G1 X109.351 Y76.532 E7.25683
G1 X109.208 Y78.047 E7.39244
G1 X108.967 Y79.572 E7.53004
G1 X108.633 Y81.068 E7.66660
G1 X108.205 Y82.540 E7.80319
G1 X107.686 Y83.982 E7.93978
G1 X107.077 Y85.389 E8.07637
G1 X106.381 Y86.755 E8.21296
G1 X105.601 Y88.074 E8.34955
G1 X104.740 Y89.342 E8.48614
G1 X103.800 Y90.553 E8.62273
G1 X102.786 Y91.703 E8.75932
G1 X101.703 Y92.786 E8.89591
G1 X100.553 Y93.800 E9.03250
G1 X99.342 Y94.739 E9.16906
G1 X98.064 Y95.607 E9.30667
G1 X96.755 Y96.381 E9.44227
G1 X95.389 Y97.077 E9.57886
G1 X93.982 Y97.686 E9.71545
G1 X92.540 Y98.205 E9.85201
G1 X91.057 Y98.635 E9.98962
G1 X89.572 Y98.967 E10.12522
G1 X88.058 Y99.207 E10.26181
G1 X86.532 Y99.351 E10.39840
G1 X85.000 Y99.399 E10.53499
G1 X83.468 Y99.351 E10.67158
G1 X81.942 Y99.207 E10.80817
G1 X80.428 Y98.967 E10.94473
G1 X78.921 Y98.630 E11.08234
G1 X77.460 Y98.205 E11.21794
G1 X76.018 Y97.686 E11.35453
G1 X74.611 Y97.077 E11.49112
G1 X73.245 Y96.381 E11.62771
G1 X71.926 Y95.601 E11.76430
G1 X70.658 Y94.740 E11.90089
G1 X69.447 Y93.800 E12.03748
G1 X68.297 Y92.786 E12.17407
G1 X67.214 Y91.703 E12.31066
G1 X66.200 Y90.553 E12.44725
G1 X65.260 Y89.342 E12.58384
G1 X64.399 Y88.074 E12.72043
G1 X63.619 Y86.755 E12.85702
G1 X62.923 Y85.389 E12.99361
G1 X62.314 Y83.982 E13.13020
G1 X61.795 Y82.540 E13.26679
G1 X61.367 Y81.068 E13.40338
G1 X61.033 Y79.572 E13.53997
G1 X60.793 Y78.058 E13.67656
G1 X60.649 Y76.532 E13.81315
G1 X60.601 Y75.000 E13.94974
G1 X60.649 Y73.468 E14.08633
G1 X60.793 Y71.942 E14.22292
G1 X61.033 Y70.428 E14.35951
G1 X61.365 Y68.943 E14.49512
G1 X61.795 Y67.460 E14.63272
G1 X62.314 Y66.018 E14.76928
G1 X62.923 Y64.611 E14.90587
G1 X63.720 Y63.046 E15.06242
G1 X68.424 Y67.750 E15.65524
G1 X68.171 Y68.337 E15.71220
G1 X67.785 Y69.407 E15.81353
G1 X67.466 Y70.506 E15.91556
G1 X67.118 Y72.136 E16.06403
G1 X66.720 Y72.279 E16.10180
G1 X66.233 Y72.567 E16.15223
G1 X65.808 Y72.942 E16.20267
G1 X65.461 Y73.389 E16.25310
G1 X65.204 Y73.893 E16.30353
G1 X65.046 Y74.437 E16.35396
G1 X64.993 Y75.000 E16.40439
G1 X65.046 Y75.563 E16.45483
G1 X65.204 Y76.107 E16.50526
G1 X65.472 Y76.633 E16.55789
G1 X65.918 Y77.173 E16.62027
G1 X66.388 Y77.538 E16.67329
G1 X66.893 Y77.796 E16.72383
G1 X67.137 Y77.867 E16.74645
G1 X67.220 Y78.392 E16.79383
G1 X67.468 Y79.501 E16.89516
G1 X67.785 Y80.593 E16.99649
G1 X68.171 Y81.663 E17.09782
G1 X68.584 Y82.620 E17.19070
G1 X69.136 Y83.717 E17.30010
G1 X69.717 Y84.699 E17.40179
G1 X70.356 Y85.639 E17.50312
G1 X71.053 Y86.538 E17.60444
G1 X71.805 Y87.391 E17.70577
G1 X72.609 Y88.195 E17.80710
G1 X73.462 Y88.947 E17.90843
G1 X74.361 Y89.644 E18.00976
G1 X75.301 Y90.283 E18.11109
G1 X76.280 Y90.862 E18.21242
G1 X77.293 Y91.378 E18.31374
G1 X78.337 Y91.829 E18.41507
G1 X79.407 Y92.215 E18.51640
G1 X80.506 Y92.534 E18.61843
G1 X82.139 Y92.882 E18.76720
G1 X82.204 Y93.107 E18.78806
G1 X82.461 Y93.611 E18.83849
G1 X82.808 Y94.058 E18.88892
G1 X83.233 Y94.433 E18.93946
G1 X83.746 Y94.736 E18.99248
G1 X84.412 Y94.951 E19.05486
G1 X85.025 Y95.009 E19.10975
G1 X85.724 Y94.921 E19.17250
G1 X86.280 Y94.721 E19.22520
G1 X86.767 Y94.433 E19.27563
G1 X87.192 Y94.058 E19.32606
G1 X87.539 Y93.611 E19.37650
G1 X87.796 Y93.107 E19.42693
G1 X87.861 Y92.882 E19.44778
G1 X89.494 Y92.534 E19.59655
G1 X90.593 Y92.215 E19.69858
G1 X91.663 Y91.829 E19.79991
G1 X92.707 Y91.378 E19.90124
G1 X93.720 Y90.862 E20.00257
G1 X94.699 Y90.283 E20.10390
G1 X95.639 Y89.644 E20.20523
G1 X96.538 Y88.947 E20.30655
G1 X97.391 Y88.195 E20.40788
G1 X98.195 Y87.391 E20.50921
G1 X98.947 Y86.538 E20.61054
G1 X99.644 Y85.639 E20.71187
G1 X100.230 Y84.777 E20.80475
G1 X100.860 Y83.724 E20.91415
G1 X101.378 Y82.707 E21.01584
G1 X101.792 Y81.750 E21.10872
G1 X102.214 Y80.597 E21.21812
G1 X102.534 Y79.494 E21.32051
G1 X102.882 Y77.861 E21.46928
G1 X103.107 Y77.796 E21.49014
G1 X103.611 Y77.539 E21.54057
G1 X104.058 Y77.192 E21.59100
G1 X104.433 Y76.767 E21.64143
G1 X104.721 Y76.280 E21.69186
G1 X104.921 Y75.724 E21.74456
G1 X105.009 Y75.025 E21.80731
G1 X104.951 Y74.412 E21.86221
G1 X104.736 Y73.746 E21.92458
G1 X104.433 Y73.233 E21.97761
G1 X104.058 Y72.808 E22.02814
G1 X103.611 Y72.461 E22.07858
G1 X103.107 Y72.204 E22.12901
G1 X102.882 Y72.139 E22.14986
G1 X102.534 Y70.506 E22.29863
G1 X102.215 Y69.407 E22.40066
G1 X101.829 Y68.337 E22.50199
G1 X101.378 Y67.293 E22.60332
G1 X100.862 Y66.280 E22.70465
G1 X100.283 Y65.301 E22.80598
G1 X99.644 Y64.361 E22.90731
G1 X98.947 Y63.462 E23.00863
G1 X98.195 Y62.609 E23.10996
G1 X97.391 Y61.805 E23.21129
G1 X96.538 Y61.053 E23.31262
G1 X95.639 Y60.356 E23.41395
G1 X94.699 Y59.717 E23.51528
G1 X93.720 Y59.138 E23.61661
G1 X92.707 Y58.622 E23.71793
G1 X91.663 Y58.171 E23.81926
G1 X90.593 Y57.785 E23.92059
G1 X89.494 Y57.466 E24.02262
G1 X87.856 Y57.117 E24.17190
G1 X87.734 Y56.742 E24.20704
G1 X87.433 Y56.233 E24.25973
G1 X87.058 Y55.808 E24.31017
G1 X86.611 Y55.461 E24.36060
G1 X86.107 Y55.204 E24.41103
G1 X85.562 Y55.046 E24.46157
G1 X84.970 Y54.991 E24.51459
G1 X84.275 Y55.079 E24.57696
G1 X83.720 Y55.279 E24.62960
G1 X83.233 Y55.567 E24.68003
G1 X82.808 Y55.942 E24.73046
G1 X82.461 Y56.389 E24.78090
G1 X82.204 Y56.893 E24.83133
G1 X82.139 Y57.118 E24.85218
G1 X80.506 Y57.466 E25.00095
G1 X79.407 Y57.785 E25.10298
G1 X78.337 Y58.171 E25.20431
G1 X77.805 Y58.401 E25.25593
G1 X77.609 Y59.167 F7800.000
G1 F1800
G1 X72.045 Y53.603 E25.95709
G1 X72.944 Y53.071 E26.05022
G1 X74.345 Y52.357 E26.19031
G1 X75.788 Y51.733 E26.33040
G1 X77.267 Y51.200 E26.47047
G1 X78.788 Y50.759 E26.61157
G1 X80.311 Y50.419 E26.75066
G1 X81.864 Y50.173 E26.89075
G1 X83.428 Y50.025 E27.03083
G1 X85.011 Y49.976 E27.17193
G1 X86.571 Y50.025 E27.31102
G1 X88.136 Y50.173 E27.45111
G1 X89.689 Y50.419 E27.59120
G1 X91.223 Y50.762 E27.73129
G1 X92.733 Y51.200 E27.87138
G1 X94.212 Y51.733 E28.01147
G1 X95.655 Y52.357 E28.15156
G1 X97.056 Y53.071 E28.29165
G1 X98.409 Y53.871 E28.43174
G1 X99.709 Y54.755 E28.57183
G1 X100.951 Y55.718 E28.71192
G1 X102.131 Y56.758 E28.85201
G1 X103.242 Y57.869 E28.99210
G1 X104.282 Y59.049 E29.13219
G1 X105.245 Y60.291 E29.27228
G1 X106.129 Y61.591 E29.41237
G1 X106.929 Y62.944 E29.55246
G1 X107.643 Y64.345 E29.69255
G1 X108.267 Y65.788 E29.83264
G1 X108.800 Y67.267 E29.97273
G1 X109.235 Y68.766 E30.11182
G1 X109.581 Y70.311 E30.25293
G1 X109.827 Y71.864 E30.39300
G1 X109.975 Y73.429 E30.53309
G1 X110.025 Y75.000 E30.67318
G1 X109.975 Y76.571 E30.81327
G1 X109.828 Y78.125 E30.95236
G1 X109.581 Y79.689 E31.09347
G1 X109.238 Y81.223 E31.23354
G1 X108.800 Y82.733 E31.37363
G1 X108.267 Y84.212 E31.51372
G1 X107.643 Y85.655 E31.65381
G1 X106.929 Y87.056 E31.79390
G1 X106.129 Y88.409 E31.93399
G1 X105.245 Y89.709 E32.07408
G1 X104.282 Y90.951 E32.21417
G1 X103.242 Y92.131 E32.35426
G1 X102.131 Y93.242 E32.49435
G1 X100.951 Y94.282 E32.63444
G1 X99.709 Y95.245 E32.77451
G1 X98.399 Y96.135 E32.91562
G1 X97.056 Y96.929 E33.05471
G1 X95.655 Y97.643 E33.19480
G1 X94.212 Y98.267 E33.33489
G1 X92.733 Y98.800 E33.47496
G1 X91.212 Y99.241 E33.61607
G1 X89.689 Y99.581 E33.75516
G1 X88.136 Y99.827 E33.89525
G1 X86.571 Y99.975 E34.03534
G1 X85.000 Y100.025 E34.17543
G1 X83.429 Y99.975 E34.31552
G1 X81.864 Y99.827 E34.45561
G1 X80.311 Y99.581 E34.59568
G1 X78.766 Y99.235 E34.73679
G1 X77.267 Y98.800 E34.87588
G1 X75.788 Y98.267 E35.01597
G1 X74.345 Y97.643 E35.15606
G1 X72.944 Y96.929 E35.29615
G1 X71.591 Y96.129 E35.43624
G1 X70.291 Y95.245 E35.57633
G1 X69.049 Y94.282 E35.71642
G1 X67.869 Y93.242 E35.85651
G1 X66.758 Y92.131 E35.99660
G1 X65.718 Y90.951 E36.13669
G1 X64.755 Y89.709 E36.27678
G1 X63.871 Y88.409 E36.41687
G1 X63.071 Y87.056 E36.55696
