; generated by Slic3r 1.3.0 on 2023-03-15 at 14:12:09

; external perimeters extrusion width = 0.44mm (2.78mm^3/s)
; perimeters extrusion width = 0.40mm (7.14mm^3/s)
; infill extrusion width = 0.50mm (10.97mm^3/s)
; solid infill extrusion width = 0.60mm (6.68mm^3/s)
; top infill extrusion width = 0.40mm (2.14mm^3/s)

M107
M190 S80 ; set bed temperature and wait for it to be reached
M104 S210 ; set temperature
G28 ; home all axes
G1 Z5 F5000 ; lift nozzle

; Filament gcode

M109 S210 ; set temperature and wait for it to be reached
G21 ; set units to millimeters
G90 ; use absolute coordinates
M82 ; use absolute distances for extrusion
G92 E0
G1 Z0.300 F30000.000
G1 E-2.00000 F2400.00000
G92 E0
G1 X53.426 Y52.237 F30000.000
G1 E2.00000 F2400.00000
G1 F2100
G1 X55.121 Y50.743 E2.15095
G1 X56.449 Y49.713 E2.26324
G1 X58.073 Y48.598 E2.39486
G1 X60.018 Y47.447 E2.54581
G1 X61.516 Y46.684 E2.65811
G1 X63.320 Y45.894 E2.78973
G1 X65.446 Y45.128 E2.94067
G1 X67.060 Y44.659 E3.05297
G1 X68.981 Y44.221 E3.18460
G1 X70.926 Y43.903 E3.31622
G1 X72.886 Y43.709 E3.44784
G1 X75.145 Y43.638 E3.59878
G1 X76.825 Y43.691 E3.71108
G1 X78.787 Y43.867 E3.84270
G1 X81.019 Y44.221 E3.99365
G1 X82.659 Y44.587 E4.10594
G1 X84.554 Y45.128 E4.23757
G1 X86.680 Y45.894 E4.38851
G1 X88.222 Y46.561 E4.50081
G1 X89.982 Y47.448 E4.63243
G1 X91.927 Y48.598 E4.78338
G1 X93.317 Y49.543 E4.89567
G1 X94.879 Y50.743 E5.02729
G1 X96.363 Y52.039 E5.15892
G1 X97.763 Y53.426 E5.29054
G1 X99.257 Y55.121 E5.44148
G1 X100.458 Y56.683 E5.57311
G1 X101.402 Y58.073 E5.68541
G1 X102.553 Y60.018 E5.83635
G1 X103.316 Y61.516 E5.94865
G1 X104.107 Y63.320 E6.08028
G1 X104.782 Y65.171 E6.21189
G1 X105.323 Y67.000 E6.33928
G1 X105.834 Y69.265 E6.49445
G1 X106.133 Y71.213 E6.62607
G1 X106.291 Y72.886 E6.73837
G1 X106.362 Y75.145 E6.88931
G1 X106.291 Y77.114 E7.02093
G1 X106.133 Y78.788 E7.13326
G1 X105.779 Y81.019 E7.28418
G1 X105.413 Y82.659 E7.39647
G1 X104.872 Y84.554 E7.52810
G1 X104.106 Y86.680 E7.67904
G1 X103.316 Y88.484 E7.81066
G1 X102.552 Y89.982 E7.92297
G1 X101.402 Y91.927 E8.07391
G1 X100.287 Y93.551 E8.20553
G1 X99.257 Y94.879 E8.31783
G1 X97.961 Y96.363 E8.44945
G1 X96.574 Y97.763 E8.58107
G1 X94.879 Y99.257 E8.73201
G1 X93.317 Y100.457 E8.86364
G1 X91.927 Y101.402 E8.97595
G1 X89.982 Y102.553 E9.12688
G1 X88.484 Y103.316 E9.23918
G1 X86.680 Y104.107 E9.37081
G1 X84.829 Y104.782 E9.50242
G1 X83.000 Y105.323 E9.62981
G1 X80.735 Y105.834 E9.78498
G1 X78.787 Y106.133 E9.91660
G1 X77.114 Y106.291 E10.02890
G1 X74.855 Y106.362 E10.17984
G1 X72.886 Y106.291 E10.31146
G1 X71.212 Y106.133 E10.42379
G1 X68.981 Y105.779 E10.57471
G1 X67.341 Y105.413 E10.68700
G1 X65.446 Y104.872 E10.81863
G1 X63.320 Y104.106 E10.96957
G1 X61.778 Y103.439 E11.08187
G1 X60.018 Y102.552 E11.21349
G1 X58.317 Y101.557 E11.34512
G1 X56.683 Y100.458 E11.47673
G1 X54.898 Y99.073 E11.62768
G1 X53.637 Y97.961 E11.73998
G1 X52.237 Y96.574 E11.87161
G1 X50.743 Y94.879 E12.02254
G1 X49.542 Y93.317 E12.15417
G1 X48.598 Y91.927 E12.26647
G1 X47.447 Y89.982 E12.41741
G1 X46.684 Y88.484 E12.52970
G1 X45.894 Y86.680 E12.66133
G1 X45.128 Y84.554 E12.81227
G1 X44.587 Y82.659 E12.94389
G1 X44.221 Y81.019 E13.05619
G1 X43.903 Y79.074 E13.18782
G1 X43.709 Y77.114 E13.31943
G1 X43.638 Y74.855 E13.47038
G1 X43.691 Y73.175 E13.58268
G1 X43.867 Y71.213 E13.71430
G1 X44.221 Y68.981 E13.86524
G1 X44.587 Y67.341 E13.97754
G1 X45.128 Y65.446 E14.10916
G1 X45.894 Y63.320 E14.26011
G1 X46.561 Y61.778 E14.37241
G1 X47.447 Y60.018 E14.50403
G1 X48.598 Y58.073 E14.65497
G1 X49.542 Y56.683 E14.76727
G1 X50.743 Y55.121 E14.89889
G1 X52.039 Y53.637 E15.03051
G1 X53.383 Y52.280 E15.15813
G1 X53.804 Y52.616 F30000.000
G1 F2100
G1 X55.449 Y51.166 E15.30458
G1 X56.984 Y49.985 E15.43395
G1 X58.374 Y49.041 E15.54625
G1 X60.261 Y47.925 E15.69270
G1 X61.759 Y47.162 E15.80500
G1 X63.533 Y46.385 E15.93438
G1 X65.596 Y45.643 E16.08083
G1 X67.210 Y45.174 E16.19312
G1 X69.098 Y44.743 E16.32250
G1 X71.010 Y44.432 E16.45188
G1 X72.937 Y44.242 E16.58125
G1 X75.128 Y44.173 E16.72770
G1 X77.063 Y44.242 E16.85708
G1 X78.737 Y44.400 E16.96937
G1 X80.902 Y44.743 E17.11582
G1 X82.542 Y45.110 E17.22812
G1 X84.404 Y45.643 E17.35750
G1 X86.467 Y46.385 E17.50395
G1 X88.010 Y47.053 E17.61624
G1 X89.739 Y47.925 E17.74562
G1 X91.626 Y49.041 E17.89207
G1 X93.016 Y49.986 E18.00437
G1 X94.551 Y51.166 E18.13374
G1 X96.009 Y52.441 E18.26312
G1 X97.384 Y53.804 E18.39249
G1 X98.834 Y55.449 E18.53895
G1 X99.864 Y56.777 E18.65124
G1 X100.959 Y58.374 E18.78062
G1 X102.075 Y60.261 E18.92707
G1 X102.947 Y61.990 E19.05644
G1 X103.615 Y63.533 E19.16875
G1 X104.278 Y65.352 E19.29812
G1 X104.809 Y67.149 E19.42326
G1 X105.305 Y69.349 E19.57393
G1 X105.568 Y71.010 E19.68623
G1 X105.758 Y72.937 E19.81561
G1 X105.827 Y75.128 E19.96206
G1 X105.758 Y77.063 E20.09143
G1 X105.600 Y78.737 E20.20376
G1 X105.257 Y80.902 E20.35018
G1 X104.890 Y82.542 E20.46248
G1 X104.357 Y84.404 E20.59185
G1 X103.615 Y86.467 E20.73831
G1 X102.947 Y88.010 E20.85060
G1 X102.075 Y89.739 E20.97999
G1 X100.959 Y91.626 E21.12643
G1 X100.015 Y93.016 E21.23872
G1 X98.834 Y94.551 E21.36810
G1 X97.559 Y96.009 E21.49748
G1 X96.196 Y97.384 E21.62685
G1 X94.551 Y98.834 E21.77330
G1 X93.016 Y100.014 E21.90268
G1 X91.626 Y100.959 E22.01499
G1 X89.739 Y102.075 E22.16143
G1 X88.010 Y102.947 E22.29080
G1 X86.467 Y103.615 E22.40311
G1 X84.404 Y104.357 E22.54955
G1 X82.790 Y104.826 E22.66185
G1 X80.902 Y105.257 E22.79122
G1 X78.990 Y105.568 E22.92060
G1 X77.063 Y105.758 E23.04997
G1 X74.872 Y105.827 E23.19642
G1 X72.937 Y105.758 E23.32580
G1 X71.263 Y105.600 E23.43812
G1 X69.098 Y105.257 E23.58455
G1 X67.458 Y104.890 E23.69684
G1 X65.596 Y104.357 E23.82622
G1 X63.533 Y103.615 E23.97267
G1 X61.990 Y102.947 E24.08497
G1 X60.261 Y102.075 E24.21434
G1 X58.590 Y101.096 E24.34373
G1 X56.984 Y100.015 E24.47309
G1 X55.252 Y98.671 E24.61954
G1 X53.991 Y97.559 E24.73184
G1 X52.616 Y96.195 E24.86122
G1 X51.166 Y94.551 E25.00767
G1 X50.136 Y93.223 E25.11996
G1 X49.041 Y91.626 E25.24934
G1 X47.925 Y89.739 E25.39579
G1 X47.162 Y88.241 E25.50809
G1 X46.385 Y86.467 E25.63747
G1 X45.643 Y84.404 E25.78391
G1 X45.110 Y82.542 E25.91329
G1 X44.743 Y80.902 E26.02559
G1 X44.432 Y78.990 E26.15496
G1 X44.242 Y77.063 E26.28434
G1 X44.173 Y74.872 E26.43079
G1 X44.226 Y73.192 E26.54308
G1 X44.400 Y71.263 E26.67246
G1 X44.743 Y69.098 E26.81891
G1 X45.110 Y67.458 E26.93121
G1 X45.643 Y65.596 E27.06058
G1 X46.385 Y63.533 E27.20703
G1 X47.053 Y61.990 E27.31933
G1 X47.925 Y60.261 E27.44871
G1 X49.041 Y58.374 E27.59516
G1 X49.985 Y56.984 E27.70745
G1 X51.166 Y55.449 E27.83683
G1 X52.441 Y53.991 E27.96621
G1 X53.762 Y52.658 E28.09157
G1 X54.183 Y52.995 F30000.000
G1 F2100
G1 X55.777 Y51.589 E28.23353
G1 X57.105 Y50.559 E28.34583
G1 X58.675 Y49.484 E28.47295
G1 X60.504 Y48.402 E28.61491
G1 X62.002 Y47.639 E28.72721
G1 X63.746 Y46.877 E28.85434
G1 X65.745 Y46.157 E28.99630
G1 X67.359 Y45.688 E29.10859
G1 X69.215 Y45.266 E29.23572
G1 X71.093 Y44.961 E29.36285
G1 X72.987 Y44.775 E29.48998
G1 X75.111 Y44.709 E29.63194
G1 X76.791 Y44.761 E29.74423
G1 X78.686 Y44.934 E29.87136
G1 X80.785 Y45.266 E30.01332
G1 X82.426 Y45.633 E30.12562
G1 X84.255 Y46.157 E30.25274
G1 X86.254 Y46.877 E30.39470
G1 X87.797 Y47.544 E30.50700
G1 X89.496 Y48.402 E30.63413
G1 X91.325 Y49.484 E30.77608
G1 X92.715 Y50.429 E30.88838
G1 X94.223 Y51.589 E31.01551
G1 X95.655 Y52.843 E31.14264
G1 X97.005 Y54.183 E31.26976
G1 X98.411 Y55.777 E31.41172
G1 X99.441 Y57.105 E31.52402
G1 X100.516 Y58.675 E31.65115
G1 X101.598 Y60.504 E31.79311
G1 X102.456 Y62.203 E31.92023
G1 X103.123 Y63.746 E32.03254
G1 X103.843 Y65.745 E32.17449
G1 X104.312 Y67.359 E32.28679
G1 X104.734 Y69.215 E32.41391
G1 X105.039 Y71.093 E32.54104
G1 X105.225 Y72.987 E32.66817
G1 X105.291 Y75.111 E32.81013
G1 X105.239 Y76.791 E32.92242
G1 X105.066 Y78.687 E33.04958
G1 X104.734 Y80.785 E33.19151
G1 X104.367 Y82.426 E33.30381
G1 X103.843 Y84.255 E33.43094
G1 X103.123 Y86.254 E33.57289
G1 X102.456 Y87.797 E33.68519
G1 X101.598 Y89.496 E33.81233
G1 X100.516 Y91.325 E33.95428
G1 X99.572 Y92.715 E34.06657
G1 X98.411 Y94.223 E34.19370
G1 X97.157 Y95.655 E34.32083
G1 X95.817 Y97.005 E34.44796
G1 X94.223 Y98.411 E34.58992
G1 X92.895 Y99.441 E34.70221
G1 X91.325 Y100.516 E34.82935
G1 X89.496 Y101.598 E34.97130
G1 X87.797 Y102.456 E35.09843
G1 X86.254 Y103.123 E35.21073
G1 X84.466 Y103.774 E35.33785
G1 X82.702 Y104.294 E35.46075
G1 X80.567 Y104.776 E35.60693
G1 X78.907 Y105.039 E35.71923
G1 X77.013 Y105.225 E35.84635
G1 X74.889 Y105.291 E35.98831
G1 X72.987 Y105.225 E36.11544
G1 X71.313 Y105.066 E36.22776
G1 X69.215 Y104.734 E36.36969
G1 X67.574 Y104.367 E36.48199
G1 X65.745 Y103.843 E36.60912
G1 X63.746 Y103.123 E36.75108
G1 X62.002 Y102.361 E36.87821
G1 X60.504 Y101.598 E36.99050
G1 X58.863 Y100.635 E37.11764
G1 X57.285 Y99.572 E37.24476
G1 X55.606 Y98.269 E37.38672
G1 X54.345 Y97.157 E37.49901
G1 X52.995 Y95.817 E37.62615
G1 X51.589 Y94.223 E37.76810
G1 X50.428 Y92.715 E37.89523
G1 X49.484 Y91.325 E38.00753
G1 X48.402 Y89.496 E38.14948
G1 X47.639 Y87.998 E38.26178
G1 X46.877 Y86.254 E38.38891
G1 X46.157 Y84.255 E38.53087
G1 X45.688 Y82.641 E38.64316
G1 X45.266 Y80.785 E38.77029
G1 X44.961 Y78.907 E38.89742
G1 X44.775 Y77.013 E39.02455
G1 X44.709 Y74.889 E39.16651
G1 X44.761 Y73.209 E39.27880
G1 X44.934 Y71.314 E39.40593
G1 X45.266 Y69.215 E39.54789
G1 X45.633 Y67.574 E39.66019
G1 X46.157 Y65.745 E39.78731
G1 X46.877 Y63.746 E39.92927
G1 X47.544 Y62.203 E40.04157
G1 X48.402 Y60.504 E40.16870
G1 X49.484 Y58.675 E40.31065
G1 X50.428 Y57.285 E40.42295
G1 X51.589 Y55.777 E40.55008
G1 X52.843 Y54.345 E40.67721
G1 X54.141 Y53.037 E40.80033
G1 E38.80033 F2400.00000
G92 E0
G1 X94.115 Y91.632 F30000.000
G1 E2.00000 F2400.00000
G1 F2100
G1 X93.479 Y92.353 E2.06421
G1 X92.353 Y93.479 E2.17060
G1 X91.159 Y94.533 E2.27699
G1 X89.900 Y95.509 E2.38338
G1 X88.583 Y96.404 E2.48977
G1 X87.213 Y97.215 E2.59616
G1 X85.794 Y97.938 E2.70255
G1 X84.332 Y98.570 E2.80894
G1 X83.875 Y98.734 E2.84138
G1 X82.834 Y99.109 E2.91533
G1 X81.304 Y99.554 E3.02172
G1 X79.750 Y99.901 E3.12811
G1 X78.177 Y100.150 E3.23450
G1 X76.592 Y100.300 E3.34089
G1 X75.000 Y100.350 E3.44728
G1 X73.408 Y100.300 E3.55367
G1 X71.823 Y100.150 E3.66005
G1 X70.250 Y99.901 E3.76645
G1 X68.696 Y99.554 E3.87284
G1 X67.166 Y99.109 E3.97923
G1 X65.668 Y98.570 E4.08562
G1 X65.222 Y98.377 E4.11806
G1 X64.206 Y97.938 E4.19201
G1 X62.787 Y97.215 E4.29840
G1 X61.417 Y96.404 E4.40479
G1 X61.081 Y96.176 E4.43193
G1 X60.100 Y95.509 E4.51118
G1 X58.841 Y94.533 E4.61757
G1 X57.647 Y93.479 E4.72396
G1 X56.521 Y92.353 E4.83035
G1 X55.467 Y91.159 E4.93674
G1 X54.491 Y89.900 E5.04313
G1 X53.596 Y88.583 E5.14952
G1 X52.785 Y87.213 E5.25591
G1 X52.062 Y85.794 E5.36230
G1 X51.430 Y84.332 E5.46869
G1 X50.891 Y82.834 E5.57508
G1 X50.446 Y81.304 E5.68147
G1 X50.099 Y79.750 E5.78786
G1 X49.850 Y78.177 E5.89425
G1 X49.700 Y76.592 E6.00064
G1 X49.650 Y75.000 E6.10703
G1 X49.700 Y73.408 E6.21342
G1 X49.850 Y71.823 E6.31981
G1 X50.099 Y70.250 E6.42620
G1 X50.446 Y68.696 E6.53259
G1 X50.891 Y67.166 E6.63898
G1 X51.430 Y65.668 E6.74537
G1 X52.062 Y64.206 E6.85176
G1 X52.785 Y62.787 E6.95815
G1 X53.596 Y61.417 E7.06454
G1 X54.491 Y60.100 E7.17093
G1 X55.467 Y58.841 E7.27732
G1 X56.521 Y57.647 E7.38371
G1 X57.647 Y56.521 E7.49010
G1 X58.841 Y55.467 E7.59649
G1 X60.100 Y54.491 E7.70288
G1 X61.417 Y53.596 E7.80927
G1 X62.787 Y52.785 E7.91566
G1 X64.206 Y52.062 E8.02205
G1 X65.668 Y51.430 E8.12844
G1 X67.166 Y50.891 E8.23483
G1 X68.696 Y50.446 E8.34122
G1 X70.250 Y50.099 E8.44761
G1 X71.823 Y49.850 E8.55400
G1 X73.408 Y49.700 E8.66039
G1 X73.894 Y49.685 E8.69283
G1 X75.000 Y49.650 E8.76678
G1 X76.592 Y49.700 E8.87317
G1 X78.177 Y49.850 E8.97956
G1 X79.750 Y50.099 E9.08595
G1 X81.304 Y50.446 E9.19234
G1 X82.834 Y50.891 E9.29873
G1 X84.332 Y51.430 E9.40512
G1 X85.794 Y52.062 E9.51151
G1 X86.226 Y52.283 E9.54395
G1 X87.213 Y52.785 E9.61790
G1 X88.583 Y53.596 E9.72429
G1 X89.900 Y54.491 E9.83068
G1 X91.159 Y55.467 E9.93707
G1 X92.353 Y56.521 E10.04346
G1 X93.479 Y57.647 E10.14985
G1 X94.533 Y58.841 E10.25624
G1 X95.509 Y60.100 E10.36263
G1 X96.404 Y61.417 E10.46902
G1 X97.215 Y62.787 E10.57541
G1 X97.938 Y64.206 E10.68180
G1 X98.570 Y65.668 E10.78819
G1 X99.109 Y67.166 E10.89458
G1 X99.554 Y68.696 E11.00097
G1 X99.901 Y70.250 E11.10736
G1 X100.150 Y71.823 E11.21375
G1 X100.300 Y73.408 E11.32014
G1 X100.350 Y75.000 E11.42653
G1 X100.300 Y76.592 E11.53292
G1 X100.150 Y78.177 E11.63930
G1 X99.901 Y79.750 E11.74570
G1 X99.554 Y81.304 E11.85209
G1 X99.109 Y82.834 E11.95848
G1 X98.570 Y84.332 E12.06487
G1 X98.377 Y84.778 E12.09731
G1 X97.938 Y85.794 E12.17126
G1 X97.215 Y87.213 E12.27765
G1 X96.404 Y88.583 E12.38404
G1 X95.509 Y89.900 E12.49043
G1 X94.533 Y91.159 E12.59682
G1 X94.155 Y91.587 E12.63500
G1 X94.243 Y92.012 F30000.000
G1 X94.945 Y92.364 F30000.000
G1 F2100
G1 X94.287 Y93.111 E12.70153
G1 X93.111 Y94.287 E12.81256
G1 X91.912 Y95.344 E12.91939
G1 X90.551 Y96.405 E13.03465
G1 X89.177 Y97.339 E13.14567
G1 X87.746 Y98.185 E13.25670
G1 X86.265 Y98.939 E13.36774
G1 X84.797 Y99.574 E13.47457
G1 X83.175 Y100.163 E13.58983
G1 X81.580 Y100.626 E13.70084
G1 X79.958 Y100.989 E13.81188
G1 X78.316 Y101.249 E13.92292
G1 X76.661 Y101.405 E14.03395
G1 X75.000 Y101.457 E14.14499
G1 X73.339 Y101.405 E14.25603
G1 X71.684 Y101.249 E14.36706
G1 X70.042 Y100.989 E14.47810
G1 X68.420 Y100.626 E14.58913
G1 X66.824 Y100.162 E14.70017
G1 X65.260 Y99.599 E14.81121
G1 X63.735 Y98.939 E14.92224
G1 X62.254 Y98.185 E15.03328
G1 X60.823 Y97.339 E15.14432
G1 X59.449 Y96.404 E15.25535
G1 X58.135 Y95.386 E15.36639
G1 X56.889 Y94.287 E15.47743
G1 X55.713 Y93.111 E15.58846
G1 X54.656 Y91.912 E15.69529
G1 X53.595 Y90.551 E15.81055
G1 X52.661 Y89.177 E15.92157
G1 X51.815 Y87.746 E16.03260
G1 X51.061 Y86.265 E16.14364
G1 X50.426 Y84.797 E16.25047
G1 X49.837 Y83.175 E16.36573
G1 X49.374 Y81.580 E16.47674
G1 X49.011 Y79.958 E16.58778
G1 X48.751 Y78.316 E16.69881
G1 X48.595 Y76.661 E16.80985
G1 X48.545 Y75.063 E16.91668
G1 X48.595 Y73.338 E17.03194
G1 X48.751 Y71.684 E17.14295
G1 X49.011 Y70.042 E17.25399
G1 X49.374 Y68.420 E17.36503
G1 X49.838 Y66.824 E17.47606
G1 X50.401 Y65.260 E17.58710
G1 X51.061 Y63.735 E17.69814
G1 X51.815 Y62.254 E17.80917
G1 X52.629 Y60.878 E17.91600
G1 X53.596 Y59.448 E18.03126
G1 X54.614 Y58.135 E18.14227
G1 X55.713 Y56.889 E18.25331
G1 X56.889 Y55.713 E18.36435
G1 X58.135 Y54.614 E18.47538
G1 X59.449 Y53.596 E18.58642
G1 X60.823 Y52.661 E18.69746
G1 X62.254 Y51.815 E18.80849
G1 X63.735 Y51.061 E18.91953
G1 X65.260 Y50.401 E19.03057
G1 X66.824 Y49.838 E19.14160
G1 X68.420 Y49.374 E19.25264
G1 X70.042 Y49.011 E19.36368
G1 X71.684 Y48.751 E19.47471
G1 X73.339 Y48.595 E19.58575
G1 X75.000 Y48.543 E19.69679
G1 X76.598 Y48.593 E19.80361
G1 X78.316 Y48.751 E19.91888
G1 X79.958 Y49.011 E20.02989
G1 X81.580 Y49.374 E20.14093
G1 X83.176 Y49.838 E20.25196
G1 X84.740 Y50.401 E20.36300
G1 X86.265 Y51.061 E20.47404
G1 X87.746 Y51.815 E20.58507
G1 X89.122 Y52.629 E20.69190
G1 X90.552 Y53.596 E20.80716
G1 X91.865 Y54.614 E20.91817
G1 X93.111 Y55.713 E21.02921
G1 X94.287 Y56.889 E21.14025
G1 X95.386 Y58.135 E21.25128
G1 X96.404 Y59.449 E21.36232
G1 X97.339 Y60.823 E21.47336
G1 X98.185 Y62.254 E21.58439
G1 X98.939 Y63.735 E21.69543
G1 X99.599 Y65.260 E21.80647
G1 X100.141 Y66.765 E21.91329
G1 X100.626 Y68.421 E22.02856
G1 X100.989 Y70.042 E22.13957
G1 X101.249 Y71.684 E22.25061
G1 X101.405 Y73.339 E22.36164
G1 X101.457 Y75.000 E22.47268
G1 X101.405 Y76.661 E22.58372
G1 X101.249 Y78.316 E22.69475
G1 X100.989 Y79.958 E22.80579
G1 X100.626 Y81.580 E22.91683
G1 X100.162 Y83.176 E23.02786
G1 X99.599 Y84.740 E23.13890
G1 X98.939 Y86.265 E23.24994
G1 X98.185 Y87.746 E23.36097
G1 X97.371 Y89.122 E23.46780
G1 X96.404 Y90.552 E23.58306
G1 X95.386 Y91.865 E23.69407
G1 X94.985 Y92.319 E23.73457
G1 X94.552 Y92.291 F30000.000
G1 X94.530 Y91.998 F30000.000
G1 F2100
G1 X93.883 Y92.732 E23.79601
G1 X92.732 Y93.883 E23.89818
G1 X91.517 Y94.952 E23.99979
G1 X90.225 Y95.957 E24.10257
G1 X88.880 Y96.871 E24.20468
G1 X87.487 Y97.695 E24.30629
