; generated by Slic3r 1.3.0 on 2022-09-06 at 12:21:25

; external perimeters extrusion width = 0.44mm (3.38mm^3/s)
; perimeters extrusion width = 0.48mm (7.54mm^3/s)
; infill extrusion width = 0.48mm (10.05mm^3/s)
; solid infill extrusion width = 0.48mm (2.51mm^3/s)
; top infill extrusion width = 0.48mm (1.88mm^3/s)

M107
M104 S210 ; set temperature
G28 ; home all axes
G1 Z5 F5000 ; lift nozzle

; Filament gcode

M109 S210 ; set temperature and wait for it to be reached
G21 ; set units to millimeters
G90 ; use absolute coordinates
M82 ; use absolute distances for extrusion
G92 E0
G1 Z0.350 F7800.000
G1 E-2.00000 F2400.00000
G92 E0
G1 X40.899 Y33.872 F7800.000
G1 E2.00000 F2400.00000
G1 F1800
G1 X41.184 Y33.569 E2.03709
G1 X43.872 Y30.899 E2.37466
G1 X46.402 Y28.669 E2.67517
G1 X49.387 Y26.337 E3.01275
G1 X51.811 Y24.674 E3.27466
G1 X52.864 Y23.974 E3.38740
G1 X55.767 Y22.257 E3.68791
G1 X59.136 Y20.526 E4.02549
G1 X62.608 Y19.009 E4.36306
G1 X62.995 Y18.856 E4.40015
G1 X66.564 Y17.585 E4.73773
G1 X70.205 Y16.541 E5.07530
G1 X73.496 Y15.805 E5.37581
G1 X77.236 Y15.200 E5.71339
G1 X80.161 Y14.910 E5.97530
G1 X81.421 Y14.804 E6.08804
G1 X85.208 Y14.698 E6.42562
G1 X88.579 Y14.804 E6.72613
G1 X91.506 Y15.068 E6.98804
G1 X92.764 Y15.200 E7.10078
G1 X96.095 Y15.727 E7.40128
G1 X99.795 Y16.541 E7.73887
G1 X103.436 Y17.585 E8.07644
G1 X106.717 Y18.752 E8.38669
G1 X107.392 Y19.009 E8.45109
G1 X110.864 Y20.526 E8.78867
G1 X113.868 Y22.057 E9.08919
G1 X117.136 Y23.974 E9.42676
G1 X120.023 Y25.920 E9.73701
G1 X120.613 Y26.337 E9.80141
G1 X123.278 Y28.404 E10.10192
G1 X126.128 Y30.899 E10.43950
G1 X128.816 Y33.569 E10.77707
G1 X130.769 Y35.765 E11.03899
G1 X131.596 Y36.722 E11.15173
G1 X133.908 Y39.724 E11.48930
G1 X135.803 Y42.513 E11.78981
G1 X137.743 Y45.767 E12.12739
G1 X139.335 Y48.863 E12.43764
G1 X139.651 Y49.513 E12.50204
G1 X140.991 Y52.608 E12.80255
G1 X142.286 Y56.168 E13.14013
G1 X143.270 Y59.507 E13.45038
G1 X143.459 Y60.205 E13.51478
G1 X144.195 Y63.496 E13.81529
G1 X144.800 Y67.236 E14.15287
G1 X145.090 Y70.161 E14.41478
G1 X145.196 Y71.421 E14.52752
G1 X145.302 Y74.792 E14.82804
G1 X145.196 Y78.579 E15.16560
G1 X144.852 Y82.352 E15.50319
G1 X144.273 Y86.095 E15.84076
G1 X143.644 Y88.966 E16.10267
G1 X143.356 Y90.198 E16.21541
G1 X142.415 Y93.436 E16.51592
G1 X141.144 Y97.005 E16.85350
G1 X140.991 Y97.392 E16.89058
G1 X139.474 Y100.864 E17.22816
G1 X137.943 Y103.868 E17.52867
G1 X136.026 Y107.136 E17.86624
G1 X135.803 Y107.487 E17.90333
G1 X133.663 Y110.613 E18.24091
G1 X131.596 Y113.278 E18.54142
G1 X129.101 Y116.128 E18.87899
G1 X128.816 Y116.431 E18.91608
G1 X126.128 Y119.101 E19.25366
G1 X123.598 Y121.331 E19.55418
G1 X120.613 Y123.663 E19.89174
G1 X118.189 Y125.326 E20.15365
G1 X117.136 Y126.026 E20.26639
G1 X113.868 Y127.943 E20.60397
G1 X110.863 Y129.474 E20.90449
G1 X107.392 Y130.991 E21.24205
G1 X107.005 Y131.144 E21.27914
G1 X103.832 Y132.286 E21.57965
G1 X100.198 Y133.356 E21.91724
G1 X96.504 Y134.195 E22.25480
G1 X92.764 Y134.800 E22.59238
G1 X89.839 Y135.090 E22.85429
G1 X88.579 Y135.196 E22.96703
G1 X85.208 Y135.302 E23.26755
G1 X81.421 Y135.196 E23.60512
G1 X77.648 Y134.852 E23.94271
G1 X73.905 Y134.273 E24.28027
G1 X73.496 Y134.195 E24.31736
G1 X69.802 Y133.356 E24.65493
G1 X66.564 Y132.415 E24.95545
G1 X62.995 Y131.144 E25.29302
G1 X62.608 Y130.991 E25.33011
G1 X59.136 Y129.474 E25.66768
G1 X56.132 Y127.943 E25.96819
G1 X52.864 Y126.026 E26.30577
G1 X52.513 Y125.803 E26.34285
G1 X49.387 Y123.663 E26.68043
G1 X46.722 Y121.596 E26.98094
G1 X43.872 Y119.101 E27.31852
G1 X43.569 Y118.816 E27.35560
G1 X40.899 Y116.128 E27.69318
G1 X38.669 Y113.598 E27.99369
G1 X36.337 Y110.613 E28.33126
G1 X34.674 Y108.189 E28.59318
G1 X33.974 Y107.136 E28.70592
G1 X32.057 Y103.868 E29.04349
G1 X30.526 Y100.863 E29.34402
G1 X29.009 Y97.392 E29.68158
G1 X27.714 Y93.832 E30.01916
G1 X26.881 Y91.013 E30.28107
G1 X26.541 Y89.795 E30.39381
G1 X25.805 Y86.504 E30.69432
G1 X25.200 Y82.764 E31.03189
G1 X24.906 Y79.794 E31.29785
G1 X24.804 Y78.579 E31.40654
G1 X24.698 Y74.792 E31.74412
G1 X24.804 Y71.421 E32.04463
G1 X25.068 Y68.494 E32.30654
G1 X25.200 Y67.236 E32.41928
G1 X25.727 Y63.905 E32.71979
G1 X26.541 Y60.205 E33.05737
G1 X27.348 Y57.379 E33.31928
G1 X27.714 Y56.168 E33.43202
G1 X28.856 Y52.995 E33.73252
G1 X30.349 Y49.513 E34.07011
G1 X32.057 Y46.132 E34.40768
G1 X32.257 Y45.767 E34.44477
G1 X33.974 Y42.864 E34.74527
G1 X36.092 Y39.724 E35.08285
G1 X38.404 Y36.722 E35.42043
G1 X40.860 Y33.917 E35.75266
G1 E33.75266 F2400.00000
G92 E0
G1 X81.119 Y69.658 F7800.000
G1 E2.00000 F2400.00000
G1 F1800
G1 X81.792 Y69.231 E2.07105
G1 X82.211 Y69.017 E2.11302
G1 X82.936 Y68.730 E2.18250
G1 X83.383 Y68.600 E2.22394
G1 X84.172 Y68.449 E2.29556
G1 X84.968 Y68.399 E2.36661
G1 X85.439 Y68.413 E2.40858
G1 X86.237 Y68.514 E2.48029
G1 X87.009 Y68.712 E2.55133
G1 X87.452 Y68.871 E2.59329
G1 X88.152 Y69.200 E2.66217
G1 X88.536 Y69.426 E2.70190
G1 X88.901 Y69.674 E2.74117
G1 X89.520 Y70.187 E2.81282
G1 X90.071 Y70.773 E2.88454
G1 X90.359 Y71.146 E2.92652
G1 X90.786 Y71.819 E2.99756
G1 X91.139 Y72.569 E3.07143
G1 X91.388 Y73.334 E3.14308
G1 X91.489 Y73.788 E3.18452
G1 X91.587 Y74.560 E3.25392
G1 X91.601 Y75.001 E3.29319
G1 X91.586 Y75.446 E3.33292
G1 X91.486 Y76.237 E3.40397
G1 X91.286 Y77.017 E3.47567
G1 X91.126 Y77.460 E3.51764
G1 X90.786 Y78.181 E3.58869
G1 X90.355 Y78.861 E3.66039
G1 X90.066 Y79.232 E3.70237
G1 X89.537 Y79.795 E3.77117
G1 X89.188 Y80.102 E3.81259
G1 X88.558 Y80.560 E3.88199
G1 X88.158 Y80.797 E3.92342
G1 X87.431 Y81.139 E3.99506
G1 X86.666 Y81.388 E4.06671
G1 X86.212 Y81.489 E4.10813
G1 X85.446 Y81.586 E4.17693
G1 X85.001 Y81.601 E4.21666
G1 X84.560 Y81.587 E4.25593
G1 X83.788 Y81.489 E4.32533
G1 X83.334 Y81.388 E4.36677
G1 X82.593 Y81.147 E4.43617
G1 X82.167 Y80.962 E4.47760
G1 X81.462 Y80.575 E4.54925
G1 X80.811 Y80.102 E4.62097
G1 X80.458 Y79.790 E4.66294
G1 X79.912 Y79.209 E4.73399
G1 X79.439 Y78.558 E4.80570
G1 X79.200 Y78.152 E4.84767
G1 X78.871 Y77.452 E4.91655
G1 X78.712 Y77.009 E4.95851
G1 X78.514 Y76.237 E5.02955
G1 X78.413 Y75.440 E5.10118
G1 X78.399 Y74.999 E5.14045
G1 X78.414 Y74.554 E5.18018
G1 X78.514 Y73.763 E5.25123
G1 X78.714 Y72.984 E5.32285
G1 X78.863 Y72.570 E5.36205
G1 X79.038 Y72.167 E5.40124
G1 X79.413 Y71.484 E5.47064
G1 X79.674 Y71.099 E5.51207
G1 X80.171 Y70.499 E5.58147
G1 X80.499 Y70.171 E5.62291
G1 X81.072 Y69.697 E5.68919
G1 X81.487 Y70.165 F7800.000
G1 F1800
G1 X82.102 Y69.774 E5.75414
G1 X82.469 Y69.587 E5.79085
G1 X83.139 Y69.321 E5.85505
G1 X83.529 Y69.208 E5.89123
G1 X84.251 Y69.070 E5.95673
G1 X84.978 Y69.024 E6.02168
G1 X85.390 Y69.037 E6.05840
G1 X86.120 Y69.129 E6.12395
G1 X86.826 Y69.310 E6.18890
G1 X87.213 Y69.449 E6.22560
G1 X87.860 Y69.753 E6.28923
G1 X88.201 Y69.955 E6.32457
G1 X88.525 Y70.174 E6.35944
G1 X89.091 Y70.643 E6.42496
G1 X89.595 Y71.179 E6.49052
G1 X89.847 Y71.505 E6.52723
G1 X90.238 Y72.121 E6.59218
G1 X90.557 Y72.800 E6.65906
G1 X90.784 Y73.499 E6.72457
G1 X90.873 Y73.895 E6.76076
G1 X90.963 Y74.609 E6.82490
G1 X90.975 Y75.001 E6.85977
G1 X90.962 Y75.397 E6.89511
G1 X90.871 Y76.120 E6.96006
G1 X90.688 Y76.833 E7.02562
G1 X90.548 Y77.220 E7.06233
G1 X90.237 Y77.879 E7.12728
G1 X89.843 Y78.501 E7.19283
G1 X89.590 Y78.826 E7.22954
G1 X89.102 Y79.346 E7.29313
G1 X88.797 Y79.614 E7.32930
G1 X88.215 Y80.037 E7.39344
G1 X87.865 Y80.244 E7.42963
G1 X87.200 Y80.557 E7.49514
G1 X86.501 Y80.784 E7.56066
G1 X86.105 Y80.873 E7.59683
G1 X85.397 Y80.962 E7.66041
G1 X85.001 Y80.975 E7.69576
G1 X84.609 Y80.963 E7.73062
G1 X83.895 Y80.873 E7.79477
G1 X83.499 Y80.784 E7.83096
G1 X82.814 Y80.562 E7.89510
G1 X82.442 Y80.401 E7.93129
G1 X81.797 Y80.046 E7.99680
G1 X81.202 Y79.614 E8.06237
G1 X80.893 Y79.341 E8.09908
G1 X80.395 Y78.810 E8.16403
G1 X79.962 Y78.215 E8.22958
G1 X79.753 Y77.860 E8.26629
G1 X79.449 Y77.213 E8.32992
G1 X79.310 Y76.826 E8.36662
G1 X79.129 Y76.120 E8.43157
G1 X79.037 Y75.391 E8.49708
G1 X79.025 Y74.999 E8.53194
G1 X79.038 Y74.603 E8.56729
G1 X79.129 Y73.880 E8.63224
G1 X79.312 Y73.168 E8.69774
G1 X79.599 Y72.442 E8.76734
G1 X79.946 Y71.811 E8.83149
G1 X80.174 Y71.475 E8.86767
G1 X80.633 Y70.920 E8.93182
G1 X80.920 Y70.633 E8.96801
G1 X81.441 Y70.203 E9.02816
G1 X81.855 Y70.671 F7800.000
G1 F1800
G1 X82.412 Y70.317 E9.08701
G1 X82.727 Y70.157 E9.11847
G1 X83.341 Y69.913 E9.17738
G1 X83.675 Y69.816 E9.20831
G1 X84.329 Y69.692 E9.26769
G1 X84.988 Y69.650 E9.32655
G1 X85.341 Y69.661 E9.35800
G1 X86.003 Y69.744 E9.41740
G1 X86.642 Y69.908 E9.47625
G1 X86.974 Y70.027 E9.50770
G1 X87.567 Y70.306 E9.56608
G1 X88.149 Y70.675 E9.62746
G1 X88.663 Y71.100 E9.68685
G1 X89.119 Y71.585 E9.74625
G1 X89.335 Y71.865 E9.77771
G1 X89.689 Y72.422 E9.83656
G1 X89.975 Y73.030 E9.89643
G1 X90.181 Y73.664 E9.95582
G1 X90.257 Y74.003 E9.98675
G1 X90.339 Y74.659 E10.04565
G1 X90.339 Y75.347 E10.10703
G1 X90.256 Y76.003 E10.16589
G1 X90.090 Y76.648 E10.22529
G1 X89.970 Y76.980 E10.25674
G1 X89.689 Y77.578 E10.31559
G1 X89.332 Y78.141 E10.37499
G1 X89.115 Y78.419 E10.40644
G1 X88.667 Y78.897 E10.46480
G1 X88.406 Y79.126 E10.49573
G1 X87.871 Y79.514 E10.55463
G1 X87.573 Y79.691 E10.58556
G1 X86.970 Y79.975 E10.64494
G1 X86.336 Y80.181 E10.70433
G1 X85.997 Y80.257 E10.73526
G1 X85.347 Y80.339 E10.79362
G1 X84.659 Y80.339 E10.85501
G1 X84.003 Y80.257 E10.91390
G1 X83.664 Y80.181 E10.94484
G1 X83.036 Y79.977 E11.00373
G1 X82.717 Y79.839 E11.03466
G1 X82.133 Y79.518 E11.09405
G1 X81.594 Y79.126 E11.15345
G1 X81.329 Y78.892 E11.18490
G1 X80.877 Y78.411 E11.24376
G1 X80.485 Y77.871 E11.30316
G1 X80.306 Y77.567 E11.33461
G1 X80.027 Y76.974 E11.39299
G1 X79.908 Y76.642 E11.42443
G1 X79.744 Y76.003 E11.48329
G1 X79.661 Y75.341 E11.54267
G1 X79.661 Y74.653 E11.60406
G1 X79.744 Y73.997 E11.66291
G1 X79.910 Y73.352 E11.72229
G1 X80.161 Y72.717 E11.78315
G1 X80.480 Y72.138 E11.84204
G1 X80.675 Y71.851 E11.87297
G1 X81.096 Y71.341 E11.93187
G1 X81.341 Y71.096 E11.96280
G1 X81.809 Y70.709 E12.01683
G1 X81.855 Y70.671 F7800.000
G1 E10.01683 F2400.00000
G92 E0
G1 X53.228 Y33.766 F7800.000
G1 E2.00000 F2400.00000
G1 F1800
G1 X54.388 Y32.867 E2.13080
G1 X57.094 Y31.028 E2.42235
G1 X59.910 Y29.362 E2.71390
G1 X62.826 Y27.877 E3.00544
G1 X65.828 Y26.578 E3.29699
G1 X68.906 Y25.469 E3.58854
G1 X72.048 Y24.556 E3.88008
G1 X75.241 Y23.843 E4.17163
G1 X78.473 Y23.331 E4.46318
G1 X81.730 Y23.023 E4.75473
G1 X85.000 Y22.920 E5.04627
G1 X88.270 Y23.023 E5.33782
G1 X91.527 Y23.331 E5.62937
G1 X94.759 Y23.843 E5.92091
G1 X97.952 Y24.556 E6.21246
G1 X101.094 Y25.469 E6.50401
G1 X104.172 Y26.578 E6.79555
G1 X107.174 Y27.877 E7.08710
G1 X110.090 Y29.362 E7.37865
G1 X112.906 Y31.028 E7.67019
G1 X115.612 Y32.867 E7.96174
G1 X118.197 Y34.872 E8.25329
G1 X120.651 Y37.036 E8.54483
G1 X122.964 Y39.349 E8.83638
G1 X125.128 Y41.803 E9.12793
G1 X127.133 Y44.388 E9.41947
G1 X128.972 Y47.094 E9.71102
G1 X130.638 Y49.910 E10.00257
G1 X132.123 Y52.826 E10.29411
G1 X133.422 Y55.828 E10.58566
G1 X134.531 Y58.906 E10.87721
G1 X135.372 Y61.802 E11.14591
G1 X135.444 Y62.048 E11.16875
G1 X136.157 Y65.241 E11.46030
G1 X136.669 Y68.473 E11.75185
G1 X136.977 Y71.730 E12.04339
G1 X137.080 Y75.000 E12.33494
G1 X136.977 Y78.270 E12.62649
G1 X136.669 Y81.527 E12.91803
G1 X136.157 Y84.759 E13.20958
G1 X135.444 Y87.952 E13.50113
G1 X134.531 Y91.094 E13.79268
G1 X133.422 Y94.172 E14.08422
G1 X132.123 Y97.174 E14.37577
G1 X130.638 Y100.090 E14.66732
G1 X128.972 Y102.906 E14.95886
G1 X127.133 Y105.612 E15.25041
G1 X125.128 Y108.197 E15.54196
G1 X122.964 Y110.651 E15.83350
G1 X120.651 Y112.964 E16.12505
G1 X118.796 Y114.600 E16.34541
G1 X118.197 Y115.128 E16.41660
G1 X115.612 Y117.133 E16.70814
G1 X112.906 Y118.972 E16.99969
G1 X110.090 Y120.638 E17.29124
G1 X107.174 Y122.123 E17.58278
G1 X104.172 Y123.422 E17.87433
G1 X101.094 Y124.531 E18.16588
G1 X97.952 Y125.444 E18.45742
G1 X94.759 Y126.157 E18.74897
G1 X91.527 Y126.669 E19.04052
G1 X88.270 Y126.977 E19.33206
G1 X85.000 Y127.080 E19.62361
G1 X81.730 Y126.977 E19.91516
G1 X78.473 Y126.669 E20.20670
G1 X75.241 Y126.157 E20.49825
G1 X72.048 Y125.444 E20.78980
G1 X68.906 Y124.531 E21.08135
G1 X65.828 Y123.422 E21.37289
G1 X62.826 Y122.123 E21.66444
G1 X59.910 Y120.638 E21.95599
G1 X57.094 Y118.972 E22.24753
G1 X54.388 Y117.133 E22.53908
G1 X51.803 Y115.128 E22.83063
G1 X49.349 Y112.964 E23.12217
G1 X47.036 Y110.651 E23.41372
G1 X45.400 Y108.796 E23.63408
G1 X44.872 Y108.197 E23.70527
G1 X42.867 Y105.612 E23.99681
G1 X41.028 Y102.906 E24.28836
G1 X39.362 Y100.090 E24.57991
G1 X37.877 Y97.174 E24.87145
G1 X36.578 Y94.172 E25.16300
G1 X35.469 Y91.094 E25.45455
G1 X34.556 Y87.952 E25.74609
G1 X33.843 Y84.759 E26.03764
G1 X33.331 Y81.527 E26.32919
G1 X33.023 Y78.270 E26.62073
G1 X32.920 Y75.000 E26.91228
G1 X33.023 Y71.730 E27.20383
G1 X33.331 Y68.473 E27.49537
G1 X33.843 Y65.241 E27.78692
G1 X34.556 Y62.048 E28.07847
G1 X35.469 Y58.906 E28.37001
G1 X36.578 Y55.828 E28.66156
G1 X37.877 Y52.826 E28.95311
G1 X39.362 Y49.910 E29.24465
G1 X41.028 Y47.094 E29.53620
G1 X42.867 Y44.388 E29.82775
G1 X44.872 Y41.803 E30.11929
G1 X47.036 Y39.349 E30.41084
G1 X49.349 Y37.036 E30.70239
G1 X51.803 Y34.872 E30.99394
G1 X53.181 Y33.803 E31.14933
G1 X52.845 Y33.273 F7800.000
G1 F1800
G1 X54.021 Y32.361 E31.28188
G1 X56.759 Y30.500 E31.57693
G1 X59.609 Y28.814 E31.87198
G1 X62.559 Y27.311 E32.16702
G1 X65.598 Y25.996 E32.46207
G1 X68.713 Y24.875 E32.75712
G1 X71.893 Y23.951 E33.05216
G1 X75.124 Y23.229 E33.34721
G1 X78.394 Y22.711 E33.64226
G1 X81.691 Y22.399 E33.93731
G1 X85.000 Y22.295 E34.23235
G1 X88.309 Y22.399 E34.52740
G1 X91.606 Y22.711 E34.82244
G1 X94.876 Y23.229 E35.11749
G1 X98.107 Y23.951 E35.41254
G1 X101.287 Y24.875 E35.70759
G1 X104.402 Y25.996 E36.00263
G1 X107.441 Y27.311 E36.29768
G1 X110.391 Y28.814 E36.59273
G1 X113.241 Y30.500 E36.88777
G1 X115.979 Y32.361 E37.18282
G1 X118.595 Y34.390 E37.47787
G1 X121.079 Y36.580 E37.77291
G1 X123.420 Y38.921 E38.06796
G1 X125.610 Y41.405 E38.36301
G1 X127.639 Y44.021 E38.65805
G1 X129.500 Y46.759 E38.95310
G1 X131.186 Y49.609 E39.24815
G1 X132.689 Y52.559 E39.54319
G1 X134.004 Y55.598 E39.83824
G1 X135.125 Y58.713 E40.13329
G1 X135.972 Y61.628 E40.40374
G1 X136.049 Y61.893 E40.42833
G1 X136.771 Y65.124 E40.72338
G1 X137.289 Y68.394 E41.01843
G1 X137.601 Y71.691 E41.31347
G1 X137.705 Y75.000 E41.60852
G1 X137.601 Y78.309 E41.90357
G1 X137.289 Y81.606 E42.19861
G1 X136.771 Y84.876 E42.49366
G1 X136.049 Y88.107 E42.78871
G1 X135.125 Y91.287 E43.08375
G1 X134.004 Y94.402 E43.37880
G1 X132.689 Y97.441 E43.67385
G1 X131.186 Y100.391 E43.96889
G1 X129.500 Y103.241 E44.26394
G1 X127.639 Y105.979 E44.55899
G1 X125.610 Y108.595 E44.85403
G1 X123.420 Y111.079 E45.14908
G1 X121.079 Y113.420 E45.44413
G1 X119.209 Y115.069 E45.66624
G1 X118.595 Y115.610 E45.73917
G1 X115.979 Y117.639 E46.03422
G1 X113.241 Y119.500 E46.32927
G1 X110.391 Y121.186 E46.62431
G1 X107.441 Y122.689 E46.91936
G1 X104.402 Y124.004 E47.21441
G1 X101.287 Y125.125 E47.50945
G1 X98.107 Y126.049 E47.80450
G1 X94.876 Y126.771 E48.09955
G1 X91.606 Y127.289 E48.39459
G1 X88.309 Y127.601 E48.68964
G1 X85.000 Y127.705 E48.98469
G1 X81.691 Y127.601 E49.27973
G1 X78.394 Y127.289 E49.57478
G1 X75.124 Y126.771 E49.86983
G1 X71.893 Y126.049 E50.16487
G1 X68.713 Y125.125 E50.45992
G1 X65.598 Y124.004 E50.75497
G1 X62.559 Y122.689 E51.05001
G1 X59.609 Y121.186 E51.34506
G1 X56.759 Y119.500 E51.64011
G1 X54.021 Y117.639 E51.93515
G1 X51.405 Y115.610 E52.23020
G1 X48.921 Y113.420 E52.52525
G1 X46.580 Y111.079 E52.82029
G1 X44.931 Y109.209 E53.04240
G1 X44.390 Y108.595 E53.11534
G1 X42.361 Y105.979 E53.41039
G1 X40.500 Y103.241 E53.70543
G1 X38.814 Y100.391 E54.00048
G1 X37.311 Y97.441 E54.29553
G1 X35.996 Y94.402 E54.59057
G1 X34.875 Y91.287 E54.88562
G1 X33.951 Y88.107 E55.18067
G1 X33.229 Y84.876 E55.47571
G1 X32.711 Y81.606 E55.77076
G1 X32.399 Y78.309 E56.06581
G1 X32.295 Y75.000 E56.36085
G1 X32.399 Y71.691 E56.65590
G1 X32.711 Y68.394 E56.95095
G1 X33.229 Y65.124 E57.24599
G1 X33.951 Y61.893 E57.54104
G1 X34.875 Y58.713 E57.83609
G1 X35.996 Y55.598 E58.13113
G1 X37.311 Y52.559 E58.42618
