; generated by Slic3r 1.3.0 on 2023-03-13 at 17:21:15

; external perimeters extrusion width = 0.44mm (2.78mm^3/s)
; perimeters extrusion width = 0.40mm (7.14mm^3/s)
; infill extrusion width = 0.50mm (10.97mm^3/s)
; solid infill extrusion width = 0.60mm (6.68mm^3/s)
; top infill extrusion width = 0.40mm (2.14mm^3/s)

M107
M190 S80 ; set bed temperature and wait for it to be reached
M104 S210 ; set temperature
G28 ; home all axes
G1 Z5 F5000 ; lift nozzle

; Filament gcode

M109 S210 ; set temperature and wait for it to be reached
G21 ; set units to millimeters
G90 ; use absolute coordinates
M82 ; use absolute distances for extrusion
G92 E0
G1 Z0.300 F30000.000
G1 E-2.00000 F2400.00000
G92 E0
G1 X51.958 Y42.637 F30000.000
G1 E2.00000 F2400.00000
G1 F2100
G1 X53.608 Y41.676 E2.12755
G1 X55.195 Y41.447 E2.23466
G1 X57.251 Y41.521 E2.37214
G1 X59.062 Y41.692 E2.49363
G1 X61.430 Y42.067 E2.65378
G1 X63.304 Y42.487 E2.78213
G1 X96.055 Y50.578 E5.03581
G1 X97.773 Y51.410 E5.16336
G1 X99.007 Y52.867 E5.29092
G1 X99.557 Y55.050 E5.44131
G1 X99.557 Y94.950 E8.10684
G1 X99.161 Y96.818 E8.23440
G1 X98.042 Y98.365 E8.36195
G1 X96.055 Y99.422 E8.51234
G1 X63.304 Y107.513 E10.76602
G1 X61.145 Y107.987 E10.91370
G1 X59.062 Y108.308 E11.05450
G1 X57.251 Y108.479 E11.17602
G1 X55.195 Y108.553 E11.31350
G1 X53.315 Y108.216 E11.44105
G1 X51.734 Y107.146 E11.56860
G1 X50.722 Y105.527 E11.69616
G1 X50.443 Y103.948 E11.80326
G1 X50.443 Y46.052 E15.67108
G1 X50.839 Y44.184 E15.79863
G1 X51.923 Y42.685 E15.92218
G1 X52.482 Y42.892 F30000.000
G1 F2100
G1 X54.089 Y42.095 E16.04200
G1 X55.178 Y41.982 E16.11511
G1 X57.201 Y42.054 E16.25034
G1 X59.012 Y42.225 E16.37184
G1 X61.313 Y42.590 E16.52750
G1 X63.176 Y43.007 E16.65505
G1 X95.926 Y51.098 E18.90873
G1 X97.530 Y51.901 E19.02855
G1 X98.633 Y53.315 E19.14837
G1 X99.021 Y55.050 E19.26714
G1 X99.021 Y94.950 E21.93267
G1 X98.626 Y96.700 E22.05250
G1 X97.518 Y98.110 E22.17232
G1 X95.926 Y98.902 E22.29108
G1 X63.176 Y106.993 E24.54476
G1 X61.062 Y107.458 E24.68940
G1 X59.012 Y107.775 E24.82795
G1 X57.201 Y107.946 E24.94947
G1 X55.178 Y108.018 E25.08470
G1 X53.417 Y107.678 E25.20453
G1 X51.973 Y106.614 E25.32435
G1 X51.126 Y105.033 E25.44417
G1 X50.979 Y103.948 E25.51728
G1 X50.979 Y46.052 E29.38510
G1 X51.374 Y44.302 E29.50492
G1 X52.445 Y42.939 E29.62074
G1 X53.004 Y43.168 F30000.000
G1 F2100
G1 X55.161 Y42.518 E29.77126
G1 X57.151 Y42.587 E29.90425
G1 X58.961 Y42.758 E30.02575
G1 X61.196 Y43.112 E30.17691
G1 X63.047 Y43.527 E30.30367
G1 X95.798 Y51.618 E32.55734
G1 X97.279 Y52.390 E32.66890
G1 X98.240 Y53.755 E32.78046
G1 X98.486 Y55.050 E32.86852
G1 X98.486 Y94.950 E35.53405
G1 X98.091 Y96.573 E35.64561
G1 X96.996 Y97.833 E35.75716
G1 X95.798 Y98.382 E35.84522
G1 X63.047 Y106.473 E38.09890
G1 X60.978 Y106.929 E38.24049
G1 X58.961 Y107.242 E38.37680
G1 X57.151 Y107.413 E38.49832
G1 X55.161 Y107.482 E38.63130
G1 X53.527 Y107.139 E38.74286
G1 X52.232 Y106.084 E38.85442
G1 X51.514 Y103.948 E39.00494
G1 X51.514 Y46.052 E42.87276
G1 X51.909 Y44.429 E42.98432
G1 X52.964 Y43.214 E43.09187
G1 E41.09187 F2400.00000
G92 E0
G1 X94.114 Y94.114 F30000.000
G1 E2.00000 F2400.00000
G1 F2100
G1 X75.625 Y94.114 E3.23518
G1 X74.245 Y95.494 E3.36554
G1 X72.920 Y96.662 E3.48353
G1 X71.525 Y97.745 E3.60152
G1 X70.064 Y98.737 E3.71951
G1 X68.544 Y99.636 E3.83750
G1 X66.970 Y100.438 E3.95549
G1 X65.349 Y101.140 E4.07348
G1 X63.688 Y101.738 E4.19147
G1 X61.992 Y102.231 E4.30945
G1 X60.268 Y102.616 E4.42744
G1 X58.524 Y102.892 E4.54543
G1 X56.765 Y103.058 E4.66342
G1 X55.886 Y103.086 E4.72222
G1 X55.886 Y102.358 E4.77084
G1 X56.720 Y102.332 E4.82659
G1 X58.432 Y102.170 E4.94152
G1 X60.132 Y101.901 E5.05645
G1 X61.811 Y101.526 E5.17139
G1 X63.463 Y101.046 E5.28632
G1 X65.081 Y100.463 E5.40126
G1 X66.660 Y99.780 E5.51619
G1 X68.193 Y98.999 E5.63113
G1 X69.674 Y98.123 E5.74606
G1 X71.097 Y97.156 E5.86099
G1 X72.457 Y96.101 E5.97593
G1 X73.747 Y94.964 E6.09086
G1 X74.964 Y93.747 E6.20580
G1 X76.101 Y92.457 E6.32073
G1 X77.143 Y91.114 E6.43426
G1 X78.123 Y89.674 E6.55058
G1 X78.999 Y88.193 E6.66553
G1 X79.780 Y86.660 E6.78047
G1 X80.463 Y85.081 E6.89540
G1 X81.046 Y83.463 E7.01033
G1 X81.526 Y81.811 E7.12527
G1 X81.901 Y80.132 E7.24020
G1 X82.170 Y78.432 E7.35514
G1 X82.332 Y76.720 E7.47007
G1 X82.386 Y75.000 E7.58501
G1 X82.332 Y73.280 E7.69994
G1 X82.170 Y71.568 E7.81487
G1 X81.901 Y69.868 E7.92981
G1 X81.526 Y68.189 E8.04474
G1 X81.046 Y66.537 E8.15968
G1 X80.463 Y64.919 E8.27461
G1 X79.780 Y63.340 E8.38955
G1 X78.999 Y61.807 E8.50448
G1 X78.123 Y60.326 E8.61941
G1 X77.156 Y58.903 E8.73435
G1 X76.101 Y57.543 E8.84928
G1 X74.964 Y56.253 E8.96422
G1 X73.762 Y55.051 E9.07774
G1 X72.457 Y53.899 E9.19406
G1 X71.097 Y52.844 E9.30902
G1 X69.674 Y51.877 E9.42395
G1 X68.193 Y51.001 E9.53889
G1 X66.660 Y50.220 E9.65384
G1 X65.062 Y49.530 E9.77016
G1 X63.463 Y48.954 E9.88369
G1 X61.811 Y48.474 E9.99862
G1 X60.132 Y48.099 E10.11355
G1 X58.432 Y47.830 E10.22849
G1 X56.720 Y47.668 E10.34342
G1 X55.886 Y47.642 E10.39916
G1 X55.886 Y46.914 E10.44779
G1 X56.765 Y46.942 E10.50659
G1 X58.524 Y47.108 E10.62457
G1 X60.268 Y47.384 E10.74256
G1 X61.991 Y47.769 E10.86053
G1 X63.706 Y48.269 E10.97982
G1 X65.349 Y48.860 E11.09653
G1 X66.970 Y49.562 E11.21452
G1 X68.544 Y50.364 E11.33251
G1 X70.064 Y51.263 E11.45050
G1 X71.525 Y52.255 E11.56848
G1 X72.920 Y53.338 E11.68647
G1 X74.245 Y54.506 E11.80446
G1 X75.625 Y55.886 E11.93482
G1 X94.114 Y55.886 E13.17001
G1 X94.114 Y94.054 E15.71989
G1 X94.650 Y94.650 F30000.000
G1 F2100
G1 X75.847 Y94.650 E16.97603
G1 X74.612 Y95.885 E17.09269
G1 X73.262 Y97.075 E17.21293
G1 X71.840 Y98.178 E17.33317
G1 X70.351 Y99.190 E17.45341
G1 X68.802 Y100.106 E17.57364
G1 X67.199 Y100.923 E17.69388
G1 X65.547 Y101.638 E17.81412
G1 X63.853 Y102.248 E17.93436
G1 X62.125 Y102.750 E18.05460
G1 X60.368 Y103.142 E18.17483
G1 X58.591 Y103.424 E18.29507
G1 X56.799 Y103.593 E18.41531
G1 X55.350 Y103.639 E18.51216
G1 X55.350 Y101.839 E18.63238
G1 X56.686 Y101.797 E18.72167
G1 X58.365 Y101.638 E18.83436
G1 X60.031 Y101.375 E18.94704
G1 X61.677 Y101.007 E19.05973
G1 X63.297 Y100.536 E19.17241
G1 X64.884 Y99.965 E19.28510
G1 X66.432 Y99.295 E19.39779
G1 X67.935 Y98.529 E19.51047
G1 X69.387 Y97.670 E19.62316
G1 X70.782 Y96.722 E19.73584
G1 X72.115 Y95.688 E19.84853
G1 X73.380 Y94.573 E19.96121
G1 X74.573 Y93.380 E20.07390
G1 X75.688 Y92.115 E20.18658
G1 X76.709 Y90.799 E20.29787
G1 X77.670 Y89.387 E20.41194
G1 X78.529 Y87.935 E20.52464
G1 X79.295 Y86.432 E20.63732
G1 X79.965 Y84.884 E20.75001
G1 X80.536 Y83.297 E20.86269
G1 X81.007 Y81.677 E20.97538
G1 X81.375 Y80.031 E21.08806
G1 X81.638 Y78.365 E21.20075
G1 X81.797 Y76.686 E21.31343
G1 X81.850 Y75.000 E21.42612
G1 X81.797 Y73.314 E21.53880
G1 X81.638 Y71.635 E21.65149
G1 X81.375 Y69.969 E21.76417
G1 X81.007 Y68.323 E21.87686
G1 X80.536 Y66.703 E21.98954
G1 X79.965 Y65.116 E22.10223
G1 X79.295 Y63.568 E22.21491
G1 X78.529 Y62.065 E22.32760
G1 X77.670 Y60.613 E22.44028
G1 X76.722 Y59.218 E22.55297
G1 X75.688 Y57.885 E22.66566
G1 X74.573 Y56.620 E22.77834
G1 X73.395 Y55.442 E22.88963
G1 X72.115 Y54.312 E23.00370
G1 X70.782 Y53.278 E23.11639
G1 X69.387 Y52.330 E23.22908
G1 X67.935 Y51.471 E23.34176
G1 X66.432 Y50.705 E23.45446
G1 X64.865 Y50.028 E23.56853
G1 X63.297 Y49.464 E23.67982
G1 X61.677 Y48.993 E23.79250
G1 X60.031 Y48.625 E23.90519
G1 X58.365 Y48.362 E24.01787
G1 X56.686 Y48.203 E24.13056
G1 X55.350 Y48.161 E24.21985
G1 X55.350 Y46.361 E24.34008
G1 X56.799 Y46.407 E24.43692
G1 X58.591 Y46.576 E24.55716
G1 X60.368 Y46.858 E24.67740
G1 X62.125 Y47.250 E24.79763
G1 X63.871 Y47.759 E24.91916
G1 X65.547 Y48.362 E25.03811
G1 X67.199 Y49.077 E25.15835
G1 X68.802 Y49.894 E25.27859
G1 X70.351 Y50.810 E25.39882
G1 X71.840 Y51.822 E25.51906
G1 X73.262 Y52.925 E25.63930
G1 X74.612 Y54.115 E25.75954
G1 X75.847 Y55.350 E25.87620
G1 X94.650 Y55.350 E27.13234
G1 X94.650 Y94.590 E29.75379
G1 X94.278 Y94.504 F30000.000
G1 X93.522 Y93.636 F30000.000
G1 F2100
G1 X93.636 Y93.522 E29.76460
G1 X93.636 Y92.760 E29.81582
G1 X92.760 Y93.636 E29.89908
G1 X91.998 Y93.636 E29.95030
G1 X93.636 Y91.998 E30.10599
G1 X93.636 Y91.236 E30.15721
G1 X91.236 Y93.636 E30.38534
G1 X90.473 Y93.636 E30.43657
G1 X93.636 Y90.473 E30.73713
G1 X93.636 Y89.711 E30.78836
G1 X89.711 Y93.636 E31.16137
G1 X88.949 Y93.636 E31.21259
G1 X93.636 Y88.949 E31.65804
G1 X93.636 Y88.187 E31.70926
G1 X88.187 Y93.636 E32.22714
G1 X87.425 Y93.636 E32.27837
G1 X93.636 Y87.425 E32.86869
G1 X93.636 Y86.663 E32.91991
G1 X86.663 Y93.636 E33.58268
G1 X85.901 Y93.636 E33.63390
G1 X93.636 Y85.901 E34.36911
G1 X93.636 Y85.139 E34.42033
G1 X85.139 Y93.636 E35.22797
G1 X84.377 Y93.636 E35.27919
G1 X93.636 Y84.377 E36.15927
G1 X93.636 Y83.615 E36.21050
G1 X83.615 Y93.636 E37.16302
G1 X82.853 Y93.636 E37.21424
G1 X93.636 Y82.853 E38.23920
G1 X93.636 Y82.090 E38.29042
G1 X82.090 Y93.636 E39.38782
G1 X81.328 Y93.636 E39.43904
G1 X93.636 Y81.328 E40.60888
G1 X93.636 Y80.566 E40.66010
G1 X80.566 Y93.636 E41.90238
G1 X79.804 Y93.636 E41.95360
G1 X93.636 Y79.804 E43.26832
G1 X93.636 Y79.042 E43.31954
G1 X79.042 Y93.636 E44.70670
G1 X78.280 Y93.636 E44.75792
G1 X93.636 Y78.280 E46.21751
G1 X93.636 Y77.518 E46.26873
G1 X77.518 Y93.636 E47.80077
G1 X76.756 Y93.636 E47.85199
G1 X93.636 Y76.756 E49.45646
G1 X93.636 Y75.994 E49.50768
G1 X75.994 Y93.636 E51.18459
G1 X75.810 Y93.636 E51.19695
G1 X75.788 Y93.615 E51.19900
G1 X76.457 Y92.855 E51.26708
G1 X77.519 Y91.486 E51.38355
G1 X77.814 Y91.053 E51.41869
G1 X93.636 Y75.232 E52.92261
G1 X93.636 Y74.469 E52.97383
G1 X79.143 Y88.962 E54.35139
G1 X79.411 Y88.508 E54.38683
G1 X80.010 Y87.333 E54.47552
G1 X93.636 Y73.707 E55.77063
G1 X93.636 Y72.945 E55.82185
G1 X80.644 Y85.937 E57.05671
G1 X80.904 Y85.336 E57.10074
G1 X81.141 Y84.678 E57.14774
G1 X93.636 Y72.183 E58.33537
G1 X93.636 Y71.421 E58.38659
G1 X81.551 Y83.506 E59.53531
G1 X81.863 Y82.432 E59.61049
G1 X93.636 Y70.659 E60.72954
G1 X93.636 Y69.897 E60.78077
G1 X82.119 Y81.413 E61.87543
G1 X82.339 Y80.432 E61.94303
G1 X93.636 Y69.135 E63.01684
G1 X93.636 Y68.373 E63.06806
G1 X82.493 Y79.515 E64.12719
G1 X82.636 Y78.610 E64.18881
G1 X93.636 Y67.611 E65.23430
G1 X93.636 Y66.849 E65.28552
G1 X82.720 Y77.764 E66.32310
G1 X82.799 Y76.923 E66.37992
G1 X93.636 Y66.086 E67.40993
G1 X93.636 Y65.324 E67.46115
G1 X82.831 Y76.129 E68.48812
G1 X82.856 Y75.342 E68.54103
G1 X93.636 Y64.562 E69.56564
G1 X93.636 Y63.800 E69.61686
G1 X82.850 Y74.585 E70.64204
G1 X82.827 Y73.847 E70.69172
G1 X93.636 Y63.038 E71.71910
G1 X93.636 Y62.276 E71.77032
G1 X82.793 Y73.119 E72.80098
G1 X82.727 Y72.423 E72.84799
G1 X93.636 Y61.514 E73.88490
G1 X93.636 Y60.752 E73.93612
G1 X82.661 Y71.726 E74.97929
G1 X82.566 Y71.059 E75.02459
G1 X93.636 Y59.990 E76.07678
G1 X93.636 Y59.228 E76.12800
G1 X82.462 Y70.401 E77.19009
G1 X82.353 Y69.748 E77.23462
G1 X93.636 Y58.466 E78.30703
G1 X93.636 Y57.703 E78.35826
G1 X82.214 Y69.125 E79.44390
G1 X82.075 Y68.502 E79.48680
G1 X93.636 Y56.941 E80.58567
G1 X93.636 Y56.364 E80.62445
G1 X93.450 Y56.364 E80.63689
G1 X81.924 Y67.891 E81.73256
G1 X81.752 Y67.301 E81.77389
G1 X92.688 Y56.364 E82.81342
G1 X91.926 Y56.364 E82.86464
G1 X81.580 Y66.710 E83.84804
G1 X81.393 Y66.135 E83.88867
G1 X91.164 Y56.364 E84.81744
G1 X90.402 Y56.364 E84.86866
G1 X81.191 Y65.575 E85.74416
G1 X80.990 Y65.015 E85.78419
G1 X89.640 Y56.364 E86.60643
G1 X88.878 Y56.364 E86.65766
G1 X80.771 Y64.471 E87.42820
G1 X80.541 Y63.939 E87.46715
G1 X88.116 Y56.364 E88.18713
G1 X87.354 Y56.364 E88.23835
G1 X80.311 Y63.407 E88.90777
G1 X80.066 Y62.890 E88.94623
G1 X86.592 Y56.364 E89.56651
G1 X85.829 Y56.364 E89.61773
G1 X79.809 Y62.385 E90.19002
G1 X79.551 Y61.880 E90.22810
G1 X85.067 Y56.364 E90.75240
G1 X84.305 Y56.364 E90.80362
G1 X79.282 Y61.387 E91.28106
G1 X78.999 Y60.908 E91.31846
G1 X83.543 Y56.364 E91.75037
G1 X82.781 Y56.364 E91.80160
G1 X78.716 Y60.430 E92.18799
G1 X78.425 Y59.958 E92.22522
G1 X82.019 Y56.364 E92.56682
G1 X81.257 Y56.364 E92.61804
G1 X78.117 Y59.505 E92.91652
G1 X77.808 Y59.051 E92.95339
G1 X80.495 Y56.364 E93.20873
G1 X79.733 Y56.364 E93.25996
G1 X77.498 Y58.600 E93.47242
G1 X77.165 Y58.170 E93.50893
G1 X78.971 Y56.364 E93.68059
G1 X78.209 Y56.364 E93.73181
G1 X76.832 Y57.741 E93.86269
G1 X76.499 Y57.312 E93.89919
G1 X77.446 Y56.364 E93.98927
G1 X76.684 Y56.364 E94.04049
G1 X76.145 Y56.904 E94.09179
G1 X75.788 Y56.499 E94.12808
G1 X75.904 Y56.382 E94.13916
G1 X75.369 Y56.153 F30000.000
G1 F2100
G1 X73.996 Y54.772 E94.17123
G1 X72.689 Y53.618 E94.19992
G1 X71.311 Y52.550 E94.22861
G1 X69.867 Y51.568 E94.25735
G1 X68.369 Y50.683 E94.28600
G1 X66.815 Y49.891 E94.31469
G1 X65.215 Y49.199 E94.34338
G1 X63.593 Y48.615 E94.37176
G1 X61.901 Y48.122 E94.40077
G1 X60.200 Y47.742 E94.42946
G1 X58.478 Y47.469 E94.45815
G1 X56.742 Y47.305 E94.48684
G1 X56.153 Y47.286 E94.49654
G1 E92.49654 F2400.00000
G92 E0
G1 X58.466 Y47.467 F30000.000
G1 X61.913 Y48.125 F30000.000
G1 X66.832 Y49.899 F30000.000
G1 X69.845 Y51.588 F30000.000
G1 X71.311 Y52.583 F30000.000
G1 X72.675 Y53.607 F30000.000
G1 X75.576 Y56.331 F30000.000
G1 X78.677 Y57.778 F30000.000
G1 X82.266 Y59.747 F30000.000
G1 X87.138 Y62.862 F30000.000
G1 X87.983 Y69.089 F30000.000
G1 X88.249 Y74.821 F30000.000
G1 X87.983 Y80.912 F30000.000
G1 X87.138 Y87.138 F30000.000
G1 X80.650 Y91.175 F30000.000
G1 X75.369 Y93.847 F30000.000
G1 E2.00000 F2400.00000
G1 F2100
G1 X73.994 Y95.231 E2.03212
G1 X72.688 Y96.382 E2.06076
G1 X71.311 Y97.450 E2.08945
G1 X69.869 Y98.430 E2.11815
G1 X68.371 Y99.316 E2.14679
G1 X66.815 Y100.109 E2.17553
G1 X65.213 Y100.802 E2.20427
G1 X63.575 Y101.392 E2.23292
G1 X61.901 Y101.878 E2.26161
G1 X60.200 Y102.258 E2.29030
G1 X58.478 Y102.531 E2.31899
G1 X56.742 Y102.695 E2.34768
G1 X56.153 Y102.714 E2.35738
G1 Z0.500 F30000.000
G1 X58.496 Y102.529 F30000.000
G1 X61.904 Y101.850 F30000.000
G1 X65.131 Y100.832 F30000.000
G1 X68.377 Y99.313 F30000.000
G1 X71.286 Y97.434 F30000.000
G1 X72.672 Y96.360 F30000.000
G1 X75.576 Y93.691 F30000.000
G1 X80.635 Y91.184 F30000.000
G1 X87.138 Y87.138 F30000.000
G1 X94.353 Y94.353 F30000.000
G1 F6000
G1 X75.724 Y94.353 E2.91050
G1 X74.409 Y95.668 E2.96573
G1 X73.073 Y96.846 E3.01861
G1 X71.665 Y97.938 E3.07150
G1 X70.192 Y98.939 E3.12438
G1 X68.659 Y99.846 E3.17727
G1 X67.072 Y100.654 E3.23015
G1 X65.438 Y101.361 E3.28302
G1 X63.710 Y101.980 E3.33752
G1 X62.051 Y102.462 E3.38880
G1 X60.313 Y102.850 E3.44169
G1 X58.554 Y103.129 E3.49457
G1 X56.780 Y103.297 E3.54746
G1 X55.647 Y103.332 E3.58112
G1 X55.647 Y102.127 E3.61691
G1 X56.705 Y102.094 E3.64832
G1 X58.402 Y101.933 E3.69896
G1 X60.087 Y101.667 E3.74959
G1 X61.751 Y101.295 E3.80023
G1 X63.389 Y100.819 E3.85087
G1 X64.994 Y100.241 E3.90150
G1 X66.559 Y99.564 E3.95214
G1 X68.078 Y98.789 E4.00278
G1 X69.546 Y97.921 E4.05341
G1 X70.957 Y96.963 E4.10405
G1 X72.304 Y95.917 E4.15469
G1 X73.584 Y94.790 E4.20532
G1 X74.790 Y93.584 E4.25596
G1 X75.917 Y92.304 E4.30660
G1 X76.963 Y90.957 E4.35723
G1 X77.921 Y89.546 E4.40787
G1 X78.789 Y88.078 E4.45851
G1 X79.564 Y86.559 E4.50914
G1 X80.241 Y84.994 E4.55978
G1 X80.819 Y83.389 E4.61042
G1 X81.295 Y81.751 E4.66105
G1 X81.667 Y80.087 E4.71169
G1 X81.933 Y78.402 E4.76233
G1 X82.089 Y76.758 E4.81138
G1 X82.147 Y75.001 E4.86358
G1 X82.094 Y73.295 E4.91424
G1 X81.933 Y71.598 E4.96487
G1 X81.667 Y69.913 E5.01551
G1 X81.295 Y68.249 E5.06615
G1 X80.819 Y66.611 E5.11678
G1 X80.241 Y65.006 E5.16742
G1 X79.564 Y63.441 E5.21806
G1 X78.814 Y61.969 E5.26711
G1 X77.922 Y60.454 E5.31931
G1 X76.963 Y59.043 E5.36996
G1 X75.950 Y57.738 E5.41902
G1 X74.790 Y56.417 E5.47122
G1 X73.584 Y55.210 E5.52187
G1 X72.304 Y54.083 E5.57251
G1 X70.957 Y53.037 E5.62314
G1 X69.546 Y52.079 E5.67378
G1 X68.078 Y51.211 E5.72442
G1 X66.559 Y50.436 E5.77505
G1 X64.994 Y49.759 E5.82569
G1 X63.389 Y49.181 E5.87633
G1 X61.751 Y48.705 E5.92696
G1 X60.087 Y48.333 E5.97760
G1 X58.402 Y48.067 E6.02824
G1 X56.705 Y47.906 E6.07887
G1 X55.648 Y47.873 E6.11026
G1 X55.650 Y46.668 E6.14604
G1 X56.780 Y46.703 E6.17960
G1 X58.554 Y46.871 E6.23249
G1 X60.313 Y47.150 E6.28537
G1 X62.051 Y47.538 E6.33826
