; generated by Slic3r 1.3.0 on 2022-08-29 at 15:03:31

; external perimeters extrusion width = 0.44mm (3.38mm^3/s)
; perimeters extrusion width = 0.48mm (7.54mm^3/s)
; infill extrusion width = 0.48mm (10.05mm^3/s)
; solid infill extrusion width = 0.48mm (2.51mm^3/s)
; top infill extrusion width = 0.48mm (1.88mm^3/s)

M107
M104 S210 ; set temperature
G28 ; home all axes
G1 Z5 F5000 ; lift nozzle

; Filament gcode

M109 S210 ; set temperature and wait for it to be reached
G21 ; set units to millimeters
G90 ; use absolute coordinates
M82 ; use absolute distances for extrusion
G92 E0
G1 Z0.350 F7800.000
G1 E-2.00000 F2400.00000
G92 E0
G1 X52.764 Y54.070 F7800.000
G1 E2.00000 F2400.00000
G1 F1800
G1 X64.070 Y42.764 E3.42480
G1 X65.382 Y41.746 E3.57278
G1 X66.576 Y41.055 E3.69571
G1 X68.367 Y40.143 E3.87485
G1 X68.825 Y39.931 E3.91976
G1 X70.976 Y39.014 E4.12814
G1 X73.263 Y38.204 E4.34435
G1 X75.194 Y37.643 E4.52349
G1 X77.559 Y37.101 E4.73970
G1 X77.967 Y37.023 E4.77679
G1 X80.366 Y36.657 E4.99299
G1 X82.783 Y36.442 E5.20920
G1 X84.792 Y36.378 E5.38835
G1 X85.296 Y36.381 E5.43327
G1 X87.633 Y36.468 E5.64164
G1 X90.047 Y36.709 E5.85785
G1 X92.033 Y37.023 E6.03699
G1 X92.441 Y37.101 E6.07408
G1 X94.806 Y37.643 E6.29029
G1 X97.133 Y38.333 E6.50650
G1 X99.024 Y39.014 E6.68564
G1 X101.256 Y39.966 E6.90185
G1 X101.633 Y40.143 E6.93893
G1 X103.788 Y41.256 E7.15513
G1 X105.870 Y42.502 E7.37135
G1 X107.869 Y43.877 E7.58755
G1 X109.458 Y45.109 E7.76670
G1 X109.779 Y45.374 E7.80379
G1 X111.590 Y46.989 E8.02000
G1 X113.012 Y48.410 E8.19914
G1 X114.626 Y50.221 E8.41535
G1 X114.891 Y50.542 E8.45244
G1 X116.368 Y52.467 E8.66865
G1 X117.498 Y54.130 E8.84778
G1 X118.744 Y56.212 E9.06399
G1 X119.857 Y58.367 E9.28020
G1 X120.798 Y60.508 E9.48858
G1 X120.986 Y60.976 E9.53350
G1 X121.796 Y63.263 E9.74971
G1 X122.357 Y65.194 E9.92886
G1 X122.899 Y67.559 E10.14506
G1 X123.291 Y69.953 E10.36127
G1 X123.343 Y70.366 E10.39835
G1 X123.532 Y72.367 E10.57750
G1 X123.622 Y74.792 E10.79370
G1 X123.561 Y77.129 E11.00208
G1 X123.532 Y77.633 E11.04700
G1 X123.343 Y79.634 E11.22614
G1 X122.976 Y82.033 E11.44236
G1 X122.460 Y84.403 E11.65856
G1 X122.356 Y84.806 E11.69564
G1 X121.796 Y86.737 E11.87478
G1 X120.986 Y89.024 E12.09100
G1 X120.034 Y91.256 E12.30720
G1 X119.857 Y91.633 E12.34429
G1 X118.744 Y93.788 E12.56050
G1 X117.498 Y95.870 E12.77671
G1 X116.368 Y97.533 E12.95586
G1 X114.891 Y99.458 E13.17206
G1 X113.355 Y101.221 E13.38043
G1 X113.011 Y101.590 E13.42535
G1 X111.287 Y103.296 E13.64156
G1 X109.779 Y104.626 E13.82070
G1 X107.870 Y106.123 E14.03691
G1 X107.460 Y106.417 E14.08183
G1 X105.519 Y107.721 E14.29021
G1 X103.424 Y108.945 E14.50642
G1 X101.633 Y109.857 E14.68556
G1 X99.411 Y110.833 E14.90177
G1 X97.133 Y111.667 E15.11798
G1 X96.737 Y111.796 E15.15506
G1 X94.403 Y112.460 E15.37128
G1 X92.441 Y112.899 E15.55042
G1 X91.946 Y112.990 E15.59533
G1 X89.634 Y113.343 E15.80371
G1 X87.217 Y113.558 E16.01991
G1 X85.208 Y113.622 E16.19906
G1 X82.783 Y113.558 E16.41527
G1 X82.280 Y113.524 E16.46018
G1 X79.953 Y113.291 E16.66856
G1 X77.559 Y112.899 E16.88477
G1 X75.194 Y112.357 E17.10097
G1 X73.263 Y111.796 E17.28012
G1 X72.867 Y111.667 E17.31721
G1 X70.589 Y110.833 E17.53341
G1 X68.744 Y110.034 E17.71256
G1 X66.576 Y108.945 E17.92877
G1 X66.212 Y108.744 E17.96585
G1 X64.130 Y107.498 E18.18206
G1 X62.130 Y106.123 E18.39827
G1 X60.542 Y104.891 E18.57741
G1 X58.713 Y103.296 E18.79362
G1 X57.051 Y101.652 E19.00200
G1 X56.704 Y101.287 E19.04692
G1 X55.109 Y99.458 E19.26313
G1 X53.877 Y97.869 E19.44228
G1 X52.502 Y95.870 E19.65848
G1 X52.279 Y95.519 E19.69556
G1 X51.055 Y93.424 E19.91177
G1 X50.143 Y91.633 E20.09092
G1 X49.167 Y89.411 E20.30713
G1 X48.363 Y87.215 E20.51550
G1 X48.204 Y86.737 E20.56042
G1 X47.643 Y84.806 E20.73956
G1 X47.101 Y82.441 E20.95577
G1 X47.023 Y82.033 E20.99285
G1 X46.657 Y79.634 E21.20906
G1 X46.442 Y77.217 E21.42527
G1 X46.378 Y75.208 E21.60442
G1 X46.442 Y72.783 E21.82063
G1 X46.649 Y70.453 E22.02900
G1 X46.709 Y69.953 E22.07392
G1 X47.101 Y67.559 E22.29013
G1 X47.540 Y65.597 E22.46927
G1 X48.204 Y63.263 E22.68548
G1 X48.333 Y62.867 E22.72256
G1 X49.167 Y60.589 E22.93877
G1 X50.143 Y58.367 E23.15498
G1 X51.256 Y56.212 E23.37119
G1 X51.746 Y55.382 E23.45705
G1 X52.727 Y54.117 E23.59969
G1 E21.59969 F2400.00000
G92 E0
G1 X86.675 Y103.337 F7800.000
G1 E2.00000 F2400.00000
G1 F1800
G1 X86.770 Y103.662 E2.03022
G1 X86.802 Y104.000 E2.06043
G1 X86.770 Y104.338 E2.09065
G1 X86.675 Y104.663 E2.12086
G1 X86.521 Y104.966 E2.15110
G1 X86.307 Y105.240 E2.18211
G1 X85.970 Y105.519 E2.22108
G1 X85.663 Y105.675 E2.25178
G1 X85.338 Y105.770 E2.28199
G1 X85.000 Y105.802 E2.31221
G1 X84.662 Y105.770 E2.34243
G1 X84.332 Y105.674 E2.37312
G1 X83.948 Y105.463 E2.41209
G1 X83.687 Y105.233 E2.44310
G1 X83.479 Y104.965 E2.47334
G1 X83.325 Y104.663 E2.50355
G1 X83.230 Y104.338 E2.53377
G1 X83.198 Y104.000 E2.56399
G1 X83.230 Y103.662 E2.59420
G1 X83.325 Y103.337 E2.62442
G1 X83.479 Y103.035 E2.65463
G1 X83.687 Y102.767 E2.68485
G1 X83.941 Y102.543 E2.71507
G1 X84.233 Y102.370 E2.74528
G1 X84.557 Y102.253 E2.77598
G1 X84.991 Y102.198 E2.81495
G1 X85.337 Y102.230 E2.84596
G1 X85.663 Y102.325 E2.87619
G1 X85.965 Y102.479 E2.90641
G1 X86.238 Y102.690 E2.93712
G1 X86.519 Y103.030 E2.97640
G1 X86.648 Y103.283 E3.00176
G1 X86.675 Y103.337 F7800.000
G1 E1.00176 F2400.00000
G92 E0
G1 X85.395 Y93.203 F7800.000
G1 E2.00000 F2400.00000
G1 F1800
G1 X85.000 Y93.253 E2.03547
G1 X84.570 Y93.198 E2.07412
G1 X84.254 Y93.085 E2.10399
G1 X83.970 Y92.917 E2.13337
G1 X83.723 Y92.699 E2.16275
G1 X83.521 Y92.439 E2.19213
G1 X83.371 Y92.145 E2.22150
G1 X83.257 Y91.752 E2.25794
G1 X83.149 Y91.742 E2.26767
G1 X83.255 Y91.053 E2.32982
G1 X83.370 Y90.733 E2.36010
G1 X83.543 Y90.441 E2.39031
G1 X83.767 Y90.187 E2.42053
G1 X84.035 Y89.979 E2.45075
G1 X84.337 Y89.825 E2.48096
G1 X84.662 Y89.730 E2.51117
G1 X84.998 Y89.698 E2.54124
G1 X85.337 Y89.730 E2.57160
G1 X85.663 Y89.825 E2.60183
G1 X85.965 Y89.979 E2.63204
G1 X86.233 Y90.187 E2.66226
G1 X86.457 Y90.441 E2.69247
G1 X86.630 Y90.733 E2.72269
G1 X86.745 Y91.053 E2.75297
G1 X86.851 Y91.742 E2.81511
G1 X86.743 Y91.752 E2.82485
G1 X86.629 Y92.145 E2.86128
G1 X86.479 Y92.439 E2.89066
G1 X86.277 Y92.699 E2.92004
G1 X86.030 Y92.917 E2.94942
G1 X85.746 Y93.085 E2.97879
G1 X85.453 Y93.190 E3.00651
G1 X85.278 Y93.583 F7800.000
G1 E1.00651 F2400.00000
G92 E0
G1 X69.813 Y76.233 F7800.000
G1 E2.00000 F2400.00000
G1 F1800
G1 X69.559 Y76.457 E2.03022
G1 X69.267 Y76.630 E2.06043
G1 X68.947 Y76.745 E2.09071
G1 X68.258 Y76.851 E2.15286
G1 X68.248 Y76.743 E2.16260
G1 X67.855 Y76.629 E2.19903
G1 X67.561 Y76.479 E2.22840
G1 X67.301 Y76.277 E2.25778
G1 X67.083 Y76.030 E2.28716
G1 X66.915 Y75.746 E2.31654
G1 X66.802 Y75.430 E2.34641
G1 X66.747 Y75.000 E2.38507
G1 X66.802 Y74.570 E2.42372
G1 X66.915 Y74.254 E2.45359
G1 X67.083 Y73.970 E2.48297
G1 X67.301 Y73.723 E2.51235
G1 X67.561 Y73.521 E2.54173
G1 X67.855 Y73.371 E2.57110
G1 X68.248 Y73.257 E2.60753
G1 X68.256 Y73.170 E2.61539
G1 X68.742 Y73.216 E2.65889
G1 X69.158 Y73.322 E2.69717
G1 X69.470 Y73.481 E2.72838
G1 X69.810 Y73.762 E2.76766
G1 X70.021 Y74.035 E2.79837
G1 X70.175 Y74.337 E2.82858
G1 X70.270 Y74.662 E2.85880
G1 X70.302 Y75.000 E2.88901
G1 X70.270 Y75.338 E2.91923
G1 X70.175 Y75.663 E2.94945
G1 X70.021 Y75.965 E2.97966
G1 X69.850 Y76.186 E3.00453
G1 X69.813 Y76.233 F7800.000
G1 E1.00453 F2400.00000
G92 E0
G1 X57.794 Y75.080 F7800.000
G1 E2.00000 F2400.00000
G1 F1800
G1 X57.768 Y75.347 E2.02391
G1 X57.633 Y75.762 E2.06288
G1 X57.457 Y76.059 E2.09358
G1 X57.233 Y76.313 E2.12379
G1 X56.965 Y76.521 E2.15401
G1 X56.663 Y76.675 E2.18422
G1 X56.338 Y76.770 E2.21444
G1 X56.000 Y76.802 E2.24466
G1 X55.662 Y76.770 E2.27487
G1 X55.337 Y76.675 E2.30509
G1 X55.034 Y76.521 E2.33533
G1 X54.760 Y76.307 E2.36633
G1 X54.481 Y75.970 E2.40530
G1 X54.325 Y75.663 E2.43600
G1 X54.230 Y75.338 E2.46622
G1 X54.198 Y75.000 E2.49643
G1 X54.230 Y74.662 E2.52665
G1 X54.325 Y74.337 E2.55687
G1 X54.479 Y74.035 E2.58708
G1 X54.687 Y73.767 E2.61730
G1 X54.941 Y73.543 E2.64751
G1 X55.233 Y73.370 E2.67773
G1 X55.557 Y73.253 E2.70843
G1 X55.991 Y73.198 E2.74740
G1 X56.337 Y73.230 E2.77840
G1 X56.663 Y73.325 E2.80864
G1 X56.965 Y73.479 E2.83886
G1 X57.233 Y73.687 E2.86907
G1 X57.458 Y73.941 E2.89931
G1 X57.634 Y74.241 E2.93032
G1 X57.769 Y74.657 E2.96929
G1 X57.800 Y75.020 E3.00173
G1 X58.020 Y75.224 F7800.000
G1 E1.00173 F2400.00000
G92 E0
G1 X83.543 Y59.559 F7800.000
G1 E2.00000 F2400.00000
G1 F1800
G1 X83.370 Y59.267 E2.03022
G1 X83.255 Y58.947 E2.06050
G1 X83.149 Y58.258 E2.12264
G1 X83.257 Y58.248 E2.13238
G1 X83.371 Y57.855 E2.16881
G1 X83.521 Y57.561 E2.19819
G1 X83.723 Y57.301 E2.22757
G1 X83.970 Y57.083 E2.25694
G1 X84.254 Y56.915 E2.28632
G1 X84.564 Y56.803 E2.31570
G1 X84.890 Y56.752 E2.34508
G1 X85.220 Y56.762 E2.37445
G1 X85.541 Y56.834 E2.40383
G1 X85.849 Y56.967 E2.43370
G1 X86.195 Y57.219 E2.47186
G1 X86.417 Y57.470 E2.50174
G1 X86.588 Y57.759 E2.53161
G1 X86.747 Y58.248 E2.57744
G1 X86.840 Y58.257 E2.58583
G1 X86.768 Y58.842 E2.63839
G1 X86.675 Y59.163 E2.66816
G1 X86.521 Y59.465 E2.69837
G1 X86.313 Y59.733 E2.72859
G1 X86.059 Y59.957 E2.75881
G1 X85.767 Y60.130 E2.78902
G1 X85.448 Y60.245 E2.81924
G1 X85.113 Y60.298 E2.84945
G1 X84.769 Y60.287 E2.88016
G1 X84.343 Y60.178 E2.91928
G1 X84.035 Y60.021 E2.95014
G1 X83.767 Y59.813 E2.98037
G1 X83.582 Y59.604 E3.00524
G1 X83.543 Y59.559 F7800.000
G1 E1.00524 F2400.00000
G92 E0
G1 X84.657 Y47.769 F7800.000
G1 E2.00000 F2400.00000
G1 F1800
G1 X84.238 Y47.633 E2.03928
G1 X83.941 Y47.457 E2.06999
G1 X83.687 Y47.233 E2.10020
G1 X83.479 Y46.965 E2.13042
G1 X83.325 Y46.663 E2.16063
G1 X83.230 Y46.338 E2.19085
G1 X83.198 Y46.000 E2.22107
G1 X83.230 Y45.662 E2.25128
G1 X83.325 Y45.337 E2.28150
G1 X83.479 Y45.035 E2.31171
G1 X83.687 Y44.767 E2.34193
G1 X83.941 Y44.543 E2.37215
G1 X84.233 Y44.370 E2.40236
G1 X84.557 Y44.253 E2.43306
G1 X84.991 Y44.198 E2.47203
G1 X85.337 Y44.230 E2.50304
G1 X85.663 Y44.325 E2.53328
G1 X85.965 Y44.479 E2.56349
G1 X86.238 Y44.690 E2.59420
G1 X86.519 Y45.030 E2.63348
G1 X86.675 Y45.337 E2.66419
G1 X86.770 Y45.662 E2.69441
G1 X86.802 Y46.000 E2.72462
G1 X86.770 Y46.338 E2.75484
G1 X86.675 Y46.663 E2.78505
G1 X86.521 Y46.966 E2.81529
G1 X86.307 Y47.240 E2.84630
G1 X85.970 Y47.519 E2.88527
G1 X85.663 Y47.675 E2.91597
G1 X85.338 Y47.770 E2.94618
G1 X85.000 Y47.802 E2.97640
G1 X84.717 Y47.775 E3.00176
G1 X84.657 Y47.769 F7800.000
G1 E1.00176 F2400.00000
G92 E0
G1 X82.195 Y44.745 F7800.000
G1 E2.00000 F2400.00000
G1 F1800
G1 X81.997 Y45.427 E2.06328
G1 X81.943 Y46.000 E2.11455
G1 X81.997 Y46.573 E2.16582
G1 X82.158 Y47.125 E2.21710
G1 X82.419 Y47.638 E2.26837
G1 X82.772 Y48.093 E2.31964
G1 X83.203 Y48.473 E2.37091
G1 X83.720 Y48.779 E2.42444
G1 X84.402 Y49.000 E2.48831
G1 X85.000 Y49.057 E2.54184
G1 X85.573 Y49.003 E2.59311
G1 X86.125 Y48.842 E2.64438
G1 X86.660 Y48.570 E2.69786
G1 X87.209 Y48.116 E2.76134
G1 X87.580 Y47.639 E2.81521
G1 X87.842 Y47.125 E2.86659
G1 X88.003 Y46.573 E2.91786
G1 X88.057 Y46.000 E2.96913
G1 X88.003 Y45.427 E3.02040
G1 X87.805 Y44.745 E3.08368
G1 X88.810 Y44.840 E3.17368
G1 X90.696 Y45.139 E3.34385
G1 X92.560 Y45.556 E3.51403
G1 X94.394 Y46.088 E3.68421
G1 X96.191 Y46.735 E3.85439
G1 X97.942 Y47.493 E4.02438
G1 X99.719 Y48.404 E4.20238
G1 X101.289 Y49.333 E4.36491
G1 X102.868 Y50.406 E4.53509
G1 X104.377 Y51.577 E4.70527
G1 X105.810 Y52.840 E4.87545
G1 X107.160 Y54.190 E5.04563
G1 X108.423 Y55.623 E5.21581
G1 X109.541 Y57.064 E5.37833
G1 X110.668 Y58.713 E5.55634
G1 X111.639 Y60.355 E5.72633
G1 X112.506 Y62.057 E5.89651
G1 X113.265 Y63.809 E6.06668
G1 X113.912 Y65.606 E6.23686
G1 X114.420 Y67.358 E6.39939
G1 X114.861 Y69.306 E6.57739
G1 X115.160 Y71.190 E6.74738
G1 X115.255 Y72.195 E6.83738
G1 X114.572 Y71.997 E6.90076
G1 X113.970 Y71.941 E6.95464
G1 X113.263 Y72.031 E7.01812
G1 X112.698 Y72.234 E7.07159
G1 X112.203 Y72.527 E7.12286
G1 X111.772 Y72.907 E7.17413
G1 X111.419 Y73.362 E7.22541
G1 X111.158 Y73.875 E7.27667
G1 X110.997 Y74.427 E7.32795
G1 X110.943 Y75.000 E7.37922
G1 X110.997 Y75.573 E7.43049
G1 X111.158 Y76.125 E7.48176
G1 X111.419 Y76.638 E7.53303
G1 X111.772 Y77.094 E7.58440
G1 X112.226 Y77.493 E7.63828
G1 X112.851 Y77.835 E7.70176
G1 X113.427 Y78.003 E7.75523
G1 X114.000 Y78.057 E7.80650
G1 X114.573 Y78.003 E7.85778
G1 X115.255 Y77.805 E7.92106
G1 X115.160 Y78.810 E8.01105
G1 X114.861 Y80.696 E8.18123
G1 X114.444 Y82.560 E8.35141
G1 X113.912 Y84.394 E8.52159
G1 X113.265 Y86.191 E8.69177
G1 X112.506 Y87.943 E8.86195
G1 X111.639 Y89.645 E9.03212
G1 X110.667 Y91.289 E9.20230
G1 X109.594 Y92.868 E9.37248
G1 X108.423 Y94.377 E9.54266
G1 X107.162 Y95.808 E9.71265
G1 X105.745 Y97.217 E9.89065
G1 X104.377 Y98.423 E10.05318
G1 X102.868 Y99.594 E10.22336
G1 X101.289 Y100.667 E10.39354
G1 X99.645 Y101.639 E10.56372
G1 X97.943 Y102.506 E10.73390
G1 X96.191 Y103.265 E10.90407
G1 X94.394 Y103.912 E11.07425
G1 X92.560 Y104.444 E11.24443
G1 X90.696 Y104.861 E11.41461
G1 X88.810 Y105.160 E11.58479
G1 X87.805 Y105.255 E11.67478
G1 X88.003 Y104.573 E11.73807
G1 X88.057 Y104.000 E11.78934
G1 X88.003 Y103.427 E11.84061
G1 X87.842 Y102.875 E11.89188
G1 X87.569 Y102.339 E11.94541
G1 X87.113 Y101.787 E12.00928
G1 X86.638 Y101.419 E12.06281
G1 X86.125 Y101.158 E12.11408
G1 X85.572 Y100.997 E12.16546
G1 X84.970 Y100.941 E12.21933
G1 X84.263 Y101.031 E12.28281
G1 X83.698 Y101.234 E12.33629
G1 X83.203 Y101.527 E12.38756
G1 X82.772 Y101.907 E12.43883
G1 X82.419 Y102.362 E12.49010
G1 X82.158 Y102.875 E12.54137
G1 X81.997 Y103.427 E12.59264
G1 X81.943 Y104.000 E12.64391
G1 X81.997 Y104.573 E12.69518
G1 X82.195 Y105.255 E12.75846
G1 X81.190 Y105.160 E12.84846
G1 X79.306 Y104.861 E13.01845
G1 X77.358 Y104.420 E13.19645
G1 X75.606 Y103.912 E13.35898
G1 X73.809 Y103.265 E13.52916
G1 X72.057 Y102.506 E13.69934
G1 X70.355 Y101.639 E13.86952
G1 X68.711 Y100.667 E14.03969
G1 X67.132 Y99.594 E14.20987
G1 X65.623 Y98.423 E14.38005
G1 X64.190 Y97.160 E14.55023
G1 X62.900 Y95.871 E14.71276
G1 X61.576 Y94.376 E14.89076
G1 X60.406 Y92.868 E15.06075
G1 X59.333 Y91.289 E15.23093
G1 X58.361 Y89.645 E15.40111
G1 X57.533 Y88.020 E15.56364
G1 X56.735 Y86.189 E15.74164
G1 X56.088 Y84.394 E15.91163
G1 X55.556 Y82.560 E16.08181
G1 X55.139 Y80.696 E16.25199
G1 X54.840 Y78.810 E16.42217
G1 X54.745 Y77.805 E16.51216
G1 X55.427 Y78.003 E16.57544
G1 X56.000 Y78.057 E16.62671
G1 X56.573 Y78.003 E16.67798
G1 X57.125 Y77.842 E16.72926
G1 X57.638 Y77.581 E16.78053
G1 X58.093 Y77.228 E16.83180
G1 X58.473 Y76.797 E16.88307
G1 X58.779 Y76.280 E16.93654
G1 X58.999 Y75.603 E17.00002
G1 X59.057 Y75.001 E17.05390
G1 X59.000 Y74.403 E17.10747
G1 X58.781 Y73.725 E17.17095
G1 X58.474 Y73.204 E17.22483
G1 X58.093 Y72.772 E17.27620
G1 X57.638 Y72.419 E17.32747
G1 X57.125 Y72.158 E17.37874
G1 X56.572 Y71.997 E17.43012
G1 X55.970 Y71.941 E17.48400
G1 X55.263 Y72.031 E17.54747
G1 X54.743 Y72.218 E17.59672
G1 X54.840 Y71.190 E17.68873
G1 X55.139 Y69.304 E17.85891
G1 X55.556 Y67.440 E18.02909
G1 X56.088 Y65.606 E18.19927
G1 X56.735 Y63.809 E18.36945
G1 X57.494 Y62.057 E18.53963
G1 X57.829 Y61.398 E18.60551
G1 X67.372 Y70.940 E19.80806
G1 X67.060 Y72.374 E19.93880
G1 X66.889 Y72.461 E19.95594
G1 X66.442 Y72.808 E20.00637
G1 X66.067 Y73.233 E20.05680
G1 X65.779 Y73.720 E20.10723
G1 X65.579 Y74.276 E20.15993
G1 X65.488 Y75.000 E20.22495
G1 X65.579 Y75.724 E20.28997
G1 X65.779 Y76.280 E20.34266
G1 X66.067 Y76.767 E20.39310
G1 X66.442 Y77.192 E20.44353
G1 X66.889 Y77.539 E20.49396
G1 X67.060 Y77.626 E20.51110
G1 X67.467 Y79.497 E20.68170
G1 X67.785 Y80.593 E20.78345
G1 X68.171 Y81.663 E20.88477
G1 X68.622 Y82.707 E20.98610
G1 X69.138 Y83.720 E21.08743
G1 X69.717 Y84.699 E21.18876
G1 X70.356 Y85.639 E21.29009
G1 X71.053 Y86.538 E21.39142
G1 X71.805 Y87.391 E21.49275
G1 X72.609 Y88.195 E21.59407
G1 X73.462 Y88.947 E21.69540
G1 X74.361 Y89.644 E21.79673
G1 X75.301 Y90.283 E21.89806
G1 X76.280 Y90.862 E21.99939
G1 X77.293 Y91.378 E22.10072
G1 X78.337 Y91.829 E22.20205
G1 X79.407 Y92.215 E22.30338
G1 X80.503 Y92.533 E22.40512
G1 X82.374 Y92.940 E22.57572
