; generated by Slic3r 1.3.0 on 2022-08-25 at 17:32:02

; external perimeters extrusion width = 0.44mm (3.38mm^3/s)
; perimeters extrusion width = 0.48mm (7.54mm^3/s)
; infill extrusion width = 0.48mm (10.05mm^3/s)
; solid infill extrusion width = 0.48mm (2.51mm^3/s)
; top infill extrusion width = 0.48mm (1.88mm^3/s)

M107
M104 S210 ; set temperature
G28 ; home all axes
G1 Z5 F5000 ; lift nozzle

; Filament gcode

M109 S210 ; set temperature and wait for it to be reached
G21 ; set units to millimeters
G90 ; use absolute coordinates
M82 ; use absolute distances for extrusion
G92 E0
G1 Z0.350 F7800.000
G1 E-2.00000 F2400.00000
G92 E0
G1 X48.702 Y41.473 F7800.000
G1 E2.00000 F2400.00000
G1 F1800
G1 X49.367 Y40.719 E2.08957
G1 X50.363 Y39.704 E2.21624
G1 X51.407 Y38.766 E2.34136
G1 X51.741 Y38.490 E2.37994
G1 X52.535 Y37.874 E2.46952
G1 X53.703 Y37.064 E2.59616
G1 X54.920 Y36.329 E2.72280
G1 X55.284 Y36.129 E2.75989
G1 X56.180 Y35.673 E2.84946
G1 X57.479 Y35.096 E2.97610
G1 X57.892 Y34.934 E3.01563
G1 X59.207 Y34.474 E3.13983
G1 X60.576 Y34.090 E3.26647
G1 X61.965 Y33.793 E3.39310
G1 X63.371 Y33.583 E3.51976
G1 X64.206 Y33.534 E3.59427
G1 X105.794 Y33.534 E7.30023
G1 X106.629 Y33.583 E7.37474
G1 X108.035 Y33.793 E7.50140
G1 X109.398 Y34.084 E7.62560
G1 X109.827 Y34.194 E7.66511
G1 X111.188 Y34.603 E7.79176
G1 X112.134 Y34.943 E7.88133
G1 X113.444 Y35.495 E8.00797
G1 X114.716 Y36.129 E8.13461
G1 X115.080 Y36.329 E8.17170
G1 X116.297 Y37.064 E8.29834
G1 X117.128 Y37.629 E8.38792
G1 X118.259 Y38.490 E8.51456
G1 X118.580 Y38.755 E8.55162
G1 X119.633 Y39.701 E8.67779
G1 X120.633 Y40.719 E8.80492
G1 X121.298 Y41.473 E8.89450
G1 X122.104 Y42.491 E9.01021
G1 X122.611 Y43.246 E9.09125
G1 X124.401 Y46.355 E9.41098
G1 X124.739 Y47.030 E9.47822
G1 X124.956 Y47.532 E9.52695
G1 X125.110 Y47.918 E9.56401
G1 X125.578 Y49.259 E9.69057
G1 X125.859 Y50.226 E9.78028
G1 X126.182 Y51.609 E9.90690
G1 X126.417 Y53.011 E10.03354
G1 X126.469 Y53.424 E10.07062
G1 X126.590 Y54.840 E10.19726
G1 X126.625 Y56.053 E10.30538
G1 X126.625 Y93.947 E13.68221
G1 X126.590 Y95.160 E13.79032
G1 X126.469 Y96.576 E13.91696
G1 X126.417 Y96.989 E13.95405
G1 X126.182 Y98.390 E14.08064
G1 X125.859 Y99.774 E14.20729
G1 X125.450 Y101.135 E14.33395
G1 X125.110 Y102.082 E14.42358
G1 X124.739 Y102.970 E14.50936
G1 X124.401 Y103.645 E14.57659
G1 X122.611 Y106.754 E14.89633
G1 X122.104 Y107.509 E14.97737
G1 X121.563 Y108.207 E15.05601
G1 X120.795 Y109.097 E15.16082
G1 X120.348 Y109.585 E15.21973
G1 X119.637 Y110.295 E15.30931
G1 X118.615 Y111.214 E15.43176
G1 X117.465 Y112.126 E15.56258
G1 X117.128 Y112.371 E15.59966
G1 X115.946 Y113.159 E15.72631
G1 X115.080 Y113.671 E15.81588
G1 X113.820 Y114.327 E15.94252
G1 X113.444 Y114.505 E15.97961
G1 X112.134 Y115.057 E16.10624
G1 X110.797 Y115.525 E16.23247
G1 X109.827 Y115.806 E16.32246
G1 X109.424 Y115.910 E16.35955
G1 X108.035 Y116.207 E16.48618
G1 X106.629 Y116.417 E16.61283
G1 X105.794 Y116.466 E16.68735
G1 X64.206 Y116.466 E20.39331
G1 X63.371 Y116.417 E20.46782
G1 X62.958 Y116.364 E20.50491
G1 X61.558 Y116.130 E20.63142
G1 X60.173 Y115.806 E20.75819
G1 X59.204 Y115.525 E20.84812
G1 X57.912 Y115.074 E20.97001
G1 X56.556 Y114.505 E21.10104
G1 X55.284 Y113.871 E21.22770
G1 X54.070 Y113.168 E21.35277
G1 X53.703 Y112.936 E21.39142
G1 X52.871 Y112.371 E21.48102
G1 X51.741 Y111.510 E21.60766
G1 X50.666 Y110.580 E21.73428
G1 X50.363 Y110.295 E21.77135
G1 X49.367 Y109.281 E21.89800
G1 X48.702 Y108.527 E21.98757
G1 X47.896 Y107.509 E22.10328
G1 X47.389 Y106.754 E22.18432
G1 X45.599 Y103.645 E22.50406
G1 X45.261 Y102.970 E22.57129
G1 X44.890 Y102.081 E22.65710
G1 X44.422 Y100.741 E22.78363
G1 X44.141 Y99.774 E22.87339
G1 X43.818 Y98.390 E23.00004
G1 X43.583 Y96.989 E23.12660
G1 X43.531 Y96.576 E23.16369
G1 X43.410 Y95.161 E23.29028
G1 X43.378 Y94.155 E23.37990
G1 X43.375 Y56.053 E26.77527
G1 X43.410 Y54.840 E26.88339
G1 X43.531 Y53.424 E27.01003
G1 X43.583 Y53.011 E27.04709
G1 X43.818 Y51.610 E27.17368
G1 X44.141 Y50.226 E27.30033
G1 X44.550 Y48.865 E27.42701
G1 X45.044 Y47.532 E27.55369
G1 X45.261 Y47.030 E27.60243
G1 X45.599 Y46.355 E27.66965
G1 X47.389 Y43.246 E27.98939
G1 X47.896 Y42.491 E28.07042
G1 X48.664 Y41.519 E28.18080
G1 E26.18080 F2400.00000
G92 E0
G1 X71.926 Y60.808 F7800.000
G1 E2.00000 F2400.00000
G1 F1800
G1 X71.218 Y61.581 E2.09345
G1 X70.778 Y61.963 E2.14535
G1 X70.072 Y62.473 E2.22293
G1 X69.237 Y62.932 E2.30784
G1 X68.373 Y63.274 E2.39068
G1 X67.890 Y63.414 E2.43547
G1 X67.400 Y63.524 E2.48026
G1 X66.502 Y63.637 E2.56085
G1 X65.975 Y63.654 E2.60789
G1 X65.047 Y63.596 E2.69072
G1 X64.128 Y63.420 E2.77411
G1 X63.570 Y63.254 E2.82601
G1 X62.761 Y62.931 E2.90359
G1 X61.926 Y62.472 E2.98850
G1 X61.174 Y61.926 E3.07134
G1 X60.780 Y61.578 E3.11820
G1 X60.199 Y60.963 E3.19354
G1 X59.854 Y60.525 E3.24320
G1 X59.568 Y60.104 E3.28854
G1 X59.122 Y59.292 E3.37121
G1 X58.799 Y58.483 E3.44879
G1 X58.633 Y57.927 E3.50052
G1 X58.471 Y57.090 E3.57641
G1 X58.415 Y56.536 E3.62606
G1 X58.399 Y56.028 E3.67140
G1 X58.457 Y55.100 E3.75424
G1 X58.631 Y54.187 E3.83708
G1 X58.778 Y53.680 E3.88411
G1 X59.121 Y52.816 E3.96695
G1 X59.580 Y51.980 E4.05186
G1 X60.090 Y51.275 E4.12944
G1 X60.455 Y50.854 E4.17910
G1 X60.815 Y50.494 E4.22444
G1 X61.512 Y49.918 E4.30503
G1 X61.948 Y49.621 E4.35206
G1 X62.763 Y49.173 E4.43490
G1 X63.627 Y48.831 E4.51773
G1 X64.134 Y48.684 E4.56477
G1 X65.028 Y48.513 E4.64591
G1 X65.608 Y48.463 E4.69779
G1 X66.477 Y48.465 E4.77518
G1 X67.425 Y48.584 E4.86030
G1 X68.325 Y48.816 E4.94314
G1 X68.798 Y48.986 E4.98793
G1 X69.259 Y49.185 E5.03272
G1 X70.057 Y49.624 E5.11386
G1 X70.536 Y49.955 E5.16576
G1 X71.186 Y50.496 E5.24110
G1 X71.558 Y50.868 E5.28797
G1 X72.135 Y51.564 E5.36855
G1 X72.432 Y52.001 E5.41559
G1 X72.867 Y52.793 E5.49618
G1 X73.077 Y53.278 E5.54321
G1 X73.364 Y54.162 E5.62605
G1 X73.538 Y55.075 E5.70888
G1 X73.588 Y55.600 E5.75592
G1 X73.588 Y56.505 E5.83651
G1 X73.538 Y57.028 E5.88337
G1 X73.382 Y57.859 E5.95871
G1 X73.231 Y58.396 E6.00837
G1 X73.058 Y58.874 E6.05371
G1 X72.663 Y59.715 E6.13654
G1 X72.164 Y60.500 E6.21938
G1 X71.963 Y60.760 E6.24871
G1 X71.432 Y60.425 F7800.000
G1 F1800
G1 X70.784 Y61.130 E6.33408
G1 X70.389 Y61.473 E6.38066
G1 X69.737 Y61.944 E6.45233
G1 X68.971 Y62.365 E6.53030
G1 X68.170 Y62.682 E6.60701
G1 X67.735 Y62.809 E6.64742
G1 X67.292 Y62.908 E6.68784
G1 X66.453 Y63.014 E6.76317
G1 X65.985 Y63.029 E6.80496
G1 X65.126 Y62.974 E6.88166
G1 X64.276 Y62.812 E6.95870
G1 X63.776 Y62.663 E7.00528
G1 X63.028 Y62.365 E7.07695
G1 X62.262 Y61.943 E7.15493
G1 X61.565 Y61.437 E7.23163
G1 X61.214 Y61.128 E7.27331
G1 X60.673 Y60.554 E7.34361
G1 X60.359 Y60.156 E7.38883
G1 X60.102 Y59.778 E7.42958
G1 X59.688 Y59.024 E7.50618
G1 X59.390 Y58.277 E7.57785
G1 X59.241 Y57.777 E7.62433
G1 X59.090 Y56.999 E7.69497
G1 X59.039 Y56.494 E7.74018
G1 X59.024 Y56.037 E7.78093
G1 X59.078 Y55.178 E7.85763
G1 X59.239 Y54.333 E7.93434
G1 X59.370 Y53.882 E7.97612
G1 X59.687 Y53.082 E8.05283
G1 X60.109 Y52.315 E8.13080
G1 X60.580 Y51.664 E8.20247
G1 X60.913 Y51.280 E8.24768
G1 X61.236 Y50.957 E8.28844
G1 X61.887 Y50.418 E8.36377
G1 X62.275 Y50.155 E8.40556
G1 X63.029 Y49.740 E8.48226
G1 X63.830 Y49.423 E8.55897
G1 X64.280 Y49.292 E8.60075
G1 X65.114 Y49.133 E8.67642
G1 X65.635 Y49.088 E8.72299
G1 X66.437 Y49.090 E8.79447
G1 X67.307 Y49.199 E8.87264
G1 X68.141 Y49.414 E8.94935
G1 X68.568 Y49.567 E8.98977
G1 X68.984 Y49.747 E9.03018
G1 X69.728 Y50.156 E9.10586
G1 X70.158 Y50.454 E9.15244
G1 X70.765 Y50.958 E9.22274
G1 X71.096 Y51.289 E9.26442
G1 X71.635 Y51.940 E9.33976
G1 X71.898 Y52.328 E9.38154
G1 X72.305 Y53.069 E9.45688
G1 X72.492 Y53.499 E9.49866
G1 X72.758 Y54.318 E9.57536
G1 X72.919 Y55.163 E9.65207
G1 X72.963 Y55.630 E9.69385
G1 X72.963 Y56.475 E9.76919
G1 X72.919 Y56.941 E9.81087
G1 X72.773 Y57.716 E9.88117
G1 X72.635 Y58.205 E9.92638
G1 X72.480 Y58.635 E9.96713
G1 X72.114 Y59.414 E10.04384
G1 X71.653 Y60.141 E10.12055
G1 X71.469 Y60.377 E10.14725
G1 X70.938 Y60.042 F7800.000
G1 F1800
G1 X70.350 Y60.679 E10.22453
G1 X70.001 Y60.983 E10.26580
G1 X69.403 Y61.415 E10.33155
G1 X68.704 Y61.799 E10.40258
G1 X67.968 Y62.091 E10.47316
G1 X67.579 Y62.203 E10.50920
G1 X67.185 Y62.292 E10.54524
G1 X66.404 Y62.390 E10.61533
G1 X65.994 Y62.403 E10.65186
G1 X65.204 Y62.353 E10.72243
G1 X64.425 Y62.205 E10.79313
G1 X63.981 Y62.072 E10.83439
G1 X63.296 Y61.799 E10.90015
G1 X62.597 Y61.415 E10.97118
G1 X61.956 Y60.949 E11.04176
G1 X61.649 Y60.678 E11.07825
G1 X61.147 Y60.146 E11.14351
G1 X60.863 Y59.786 E11.18428
G1 X60.635 Y59.451 E11.22044
G1 X60.254 Y58.757 E11.29098
G1 X59.981 Y58.072 E11.35674
G1 X59.848 Y57.628 E11.39797
G1 X59.709 Y56.908 E11.46335
G1 X59.662 Y56.453 E11.50412
G1 X59.650 Y56.047 E11.54028
G1 X59.699 Y55.257 E11.61086
G1 X59.848 Y54.479 E11.68144
G1 X59.962 Y54.085 E11.71797
G1 X60.254 Y53.349 E11.78854
G1 X60.638 Y52.650 E11.85957
G1 X61.070 Y52.052 E11.92533
G1 X61.370 Y51.707 E11.96610
G1 X61.657 Y51.420 E12.00226
G1 X62.263 Y50.918 E12.07235
G1 X62.602 Y50.688 E12.10888
G1 X63.296 Y50.306 E12.17945
G1 X64.032 Y50.015 E12.25003
G1 X64.426 Y49.900 E12.28656
G1 X65.200 Y49.753 E12.35677
G1 X65.661 Y49.713 E12.39802
G1 X66.397 Y49.714 E12.46360
G1 X67.190 Y49.814 E12.53482
G1 X67.957 Y50.011 E12.60539
G1 X68.338 Y50.148 E12.64143
G1 X68.709 Y50.309 E12.67747
G1 X69.399 Y50.689 E12.74768
G1 X69.780 Y50.952 E12.78894
G1 X70.343 Y51.420 E12.85421
G1 X70.633 Y51.710 E12.89070
G1 X71.134 Y52.316 E12.96078
G1 X71.365 Y52.655 E12.99731
G1 X71.744 Y53.344 E13.06740
G1 X71.906 Y53.720 E13.10393
G1 X72.151 Y54.473 E13.17451
G1 X72.300 Y55.251 E13.24508
G1 X72.338 Y55.659 E13.28161
G1 X72.338 Y56.446 E13.35170
G1 X72.300 Y56.854 E13.38819
G1 X72.164 Y57.573 E13.45346
G1 X72.040 Y58.014 E13.49423
G1 X71.902 Y58.396 E13.53039
G1 X71.565 Y59.112 E13.60097
G1 X71.141 Y59.781 E13.67154
G1 X70.975 Y59.994 E13.69562
G1 X70.970 Y60.115 F7800.000
G1 E11.69562 F2400.00000
G92 E0
G1 X74.436 Y64.842 F7800.000
G1 E2.00000 F2400.00000
G1 F1800
G1 X76.419 Y65.987 E2.20410
G1 X75.857 Y66.549 E2.27496
G1 X75.179 Y67.148 E2.35557
G1 X74.464 Y67.702 E2.43618
G1 X73.716 Y68.211 E2.51679
G1 X72.951 Y68.662 E2.59591
G1 X72.130 Y69.082 E2.67808
G1 X71.301 Y69.441 E2.75861
G1 X70.450 Y69.747 E2.83922
G1 X69.394 Y70.054 E2.93720
G1 X69.394 Y67.753 E3.14227
G1 X62.606 Y67.753 E3.74712
G1 X62.606 Y70.054 E3.95218
G1 X61.550 Y69.747 E4.05016
G1 X60.699 Y69.441 E4.13077
G1 X59.869 Y69.082 E4.21138
G1 X59.063 Y68.671 E4.29199
G1 X58.284 Y68.211 E4.37260
G1 X57.550 Y67.711 E4.45172
G1 X56.822 Y67.148 E4.53371
G1 X56.115 Y66.521 E4.61798
G1 X55.581 Y65.987 E4.68527
G1 X57.564 Y64.842 E4.88938
G1 X54.170 Y58.964 E5.49423
G1 X52.190 Y60.107 E5.69796
G1 X52.053 Y59.634 E5.74187
G1 X51.856 Y58.751 E5.82248
G1 X51.714 Y57.857 E5.90309
G1 X51.629 Y56.957 E5.98370
G1 X51.601 Y56.053 E6.06430
G1 X51.629 Y55.149 E6.14491
G1 X51.714 Y54.248 E6.22552
G1 X51.856 Y53.354 E6.30613
G1 X52.053 Y52.472 E6.38674
G1 X52.190 Y51.999 E6.43065
G1 X54.170 Y53.142 E6.63438
G1 X57.564 Y47.263 E7.23923
G1 X55.581 Y46.118 E7.44334
G1 X56.143 Y45.556 E7.51420
G1 X56.821 Y44.958 E7.59480
G1 X57.536 Y44.403 E7.67541
G1 X58.284 Y43.895 E7.75602
G1 X59.063 Y43.434 E7.83663
G1 X59.869 Y43.024 E7.91724
G1 X60.699 Y42.664 E7.99785
G1 X61.550 Y42.358 E8.07846
G1 X62.606 Y42.051 E8.17644
G1 X62.606 Y44.352 E8.38150
G1 X69.394 Y44.352 E8.98635
G1 X69.394 Y42.051 E9.19142
G1 X70.450 Y42.358 E9.28940
G1 X71.301 Y42.664 E9.37001
G1 X72.131 Y43.024 E9.45061
G1 X72.937 Y43.434 E9.53122
G1 X73.716 Y43.895 E9.61183
G1 X74.450 Y44.394 E9.69095
G1 X75.179 Y44.958 E9.77313
G1 X75.857 Y45.556 E9.85366
G1 X76.419 Y46.118 E9.92452
G1 X74.436 Y47.263 E10.12862
G1 X77.830 Y53.142 E10.73347
G1 X79.810 Y51.999 E10.93721
G1 X79.947 Y52.472 E10.98111
G1 X80.144 Y53.354 E11.06172
G1 X80.286 Y54.248 E11.14233
G1 X80.371 Y55.149 E11.22294
G1 X80.399 Y56.053 E11.30355
G1 X80.371 Y56.957 E11.38416
G1 X80.286 Y57.857 E11.46477
G1 X80.144 Y58.751 E11.54538
G1 X79.947 Y59.634 E11.62599
G1 X79.810 Y60.107 E11.66989
G1 X77.830 Y58.964 E11.87363
G1 X74.466 Y64.790 E12.47313
G1 X75.289 Y64.613 F7800.000
G1 F1800
G1 X77.399 Y65.831 E12.69021
G1 X76.952 Y66.338 E12.75038
G1 X76.285 Y67.005 E12.83449
G1 X75.577 Y67.629 E12.91860
G1 X74.831 Y68.208 E13.00271
G1 X74.051 Y68.738 E13.08682
G1 X73.253 Y69.210 E13.16941
G1 X72.397 Y69.648 E13.25508
G1 X71.531 Y70.022 E13.33914
G1 X70.643 Y70.342 E13.42325
G1 X69.736 Y70.605 E13.50736
G1 X68.769 Y70.822 E13.59571
G1 X68.769 Y68.378 E13.81348
G1 X63.231 Y68.378 E14.30696
G1 X63.231 Y70.822 E14.52473
G1 X62.264 Y70.605 E14.61307
G1 X61.357 Y70.342 E14.69718
G1 X60.469 Y70.022 E14.78129
G1 X59.603 Y69.647 E14.86540
G1 X58.762 Y69.219 E14.94951
G1 X57.949 Y68.738 E15.03362
G1 X57.183 Y68.217 E15.11621
G1 X56.424 Y67.630 E15.20177
G1 X55.686 Y66.976 E15.28957
G1 X55.048 Y66.338 E15.37005
G1 X54.601 Y65.831 E15.43022
G1 X56.711 Y64.613 E15.64730
G1 X53.942 Y59.817 E16.14078
G1 X51.833 Y61.035 E16.35777
G1 X51.711 Y60.696 E16.38990
G1 X51.447 Y59.789 E16.47401
G1 X51.241 Y58.868 E16.55812
G1 X51.094 Y57.936 E16.64223
G1 X51.005 Y56.996 E16.72634
G1 X50.975 Y56.053 E16.81045
G1 X51.005 Y55.109 E16.89456
G1 X51.094 Y54.170 E16.97866
G1 X51.241 Y53.237 E17.06277
G1 X51.447 Y52.316 E17.14688
G1 X51.711 Y51.410 E17.23099
G1 X51.833 Y51.071 E17.26312
G1 X53.942 Y52.288 E17.48011
G1 X56.711 Y47.492 E17.97360
G1 X54.601 Y46.274 E18.19067
G1 X55.048 Y45.768 E18.25085
G1 X55.715 Y45.100 E18.33496
G1 X56.423 Y44.476 E18.41907
G1 X57.169 Y43.898 E18.50318
G1 X57.949 Y43.367 E18.58728
G1 X58.762 Y42.886 E18.67139
G1 X59.603 Y42.458 E18.75550
G1 X60.469 Y42.083 E18.83961
G1 X61.357 Y41.763 E18.92372
G1 X62.264 Y41.500 E19.00783
G1 X63.231 Y41.284 E19.09618
G1 X63.231 Y43.728 E19.31394
G1 X68.769 Y43.728 E19.80743
G1 X68.769 Y41.284 E20.02519
G1 X69.736 Y41.500 E20.11354
G1 X70.643 Y41.763 E20.19765
G1 X71.531 Y42.083 E20.28176
G1 X72.397 Y42.458 E20.36587
G1 X73.238 Y42.886 E20.44998
G1 X74.051 Y43.367 E20.53409
G1 X74.817 Y43.888 E20.61668
G1 X75.577 Y44.476 E20.70235
G1 X76.285 Y45.100 E20.78641
G1 X76.952 Y45.768 E20.87052
G1 X77.399 Y46.274 E20.93070
G1 X75.289 Y47.492 E21.14777
G1 X78.058 Y52.288 E21.64126
G1 X80.167 Y51.071 E21.85825
G1 X80.289 Y51.410 E21.89038
G1 X80.553 Y52.316 E21.97449
G1 X80.758 Y53.237 E22.05859
G1 X80.906 Y54.170 E22.14270
G1 X80.995 Y55.109 E22.22681
G1 X81.025 Y56.053 E22.31092
G1 X80.995 Y56.996 E22.39503
G1 X80.906 Y57.936 E22.47914
G1 X80.758 Y58.868 E22.56325
G1 X80.553 Y59.789 E22.64736
G1 X80.289 Y60.696 E22.73147
G1 X80.167 Y61.035 E22.76360
G1 X78.058 Y59.817 E22.98059
G1 X75.319 Y64.561 E23.46872
G1 X76.143 Y64.384 F7800.000
G1 F1800
G1 X78.347 Y65.657 E23.69547
G1 X78.058 Y66.028 E23.73737
G1 X77.408 Y66.766 E23.82498
G1 X76.713 Y67.461 E23.91259
G1 X75.976 Y68.111 E24.00019
G1 X75.199 Y68.714 E24.08780
G1 X74.386 Y69.266 E24.17541
G1 X73.554 Y69.758 E24.26147
G1 X72.663 Y70.213 E24.35064
G1 X71.761 Y70.604 E24.43824
G1 X70.836 Y70.937 E24.52585
G1 X69.892 Y71.211 E24.61345
G1 X68.934 Y71.425 E24.70089
G1 X68.144 Y71.541 E24.77208
G1 X68.144 Y69.003 E24.99829
G1 X63.856 Y69.003 E25.38040
G1 X63.856 Y71.550 E25.60741
G1 X63.061 Y71.424 E25.67909
G1 X62.108 Y71.211 E25.76615
G1 X61.164 Y70.937 E25.85376
G1 X60.239 Y70.604 E25.94137
G1 X59.337 Y70.213 E26.02898
G1 X58.461 Y69.767 E26.11659
G1 X57.614 Y69.266 E26.20419
G1 X56.816 Y68.723 E26.29025
G1 X56.025 Y68.111 E26.37939
G1 X55.258 Y67.431 E26.47072
G1 X54.592 Y66.766 E26.55462
G1 X53.942 Y66.028 E26.64223
G1 X53.653 Y65.657 E26.68413
G1 X55.857 Y64.384 E26.91087
G1 X53.713 Y60.671 E27.29299
G1 X51.498 Y61.950 E27.52089
G1 X51.116 Y60.889 E27.62137
G1 X50.842 Y59.945 E27.70898
G1 X50.627 Y58.985 E27.79659
G1 X50.474 Y58.014 E27.88420
G1 X50.381 Y57.035 E27.97180
G1 X50.350 Y56.053 E28.05941
G1 X50.381 Y55.070 E28.14702
G1 X50.474 Y54.091 E28.23463
G1 X50.627 Y53.120 E28.32224
G1 X50.842 Y52.161 E28.40985
G1 X51.116 Y51.217 E28.49746
G1 X51.498 Y50.156 E28.59794
G1 X53.713 Y51.434 E28.82584
G1 X55.857 Y47.721 E29.20796
G1 X53.653 Y46.449 E29.43470
