; generated by Slic3r 1.3.0 on 2023-03-13 at 22:13:11

; external perimeters extrusion width = 0.44mm (2.78mm^3/s)
; perimeters extrusion width = 0.40mm (7.14mm^3/s)
; infill extrusion width = 0.50mm (10.97mm^3/s)
; solid infill extrusion width = 0.60mm (6.68mm^3/s)
; top infill extrusion width = 0.40mm (2.14mm^3/s)

M107
M190 S80 ; set bed temperature and wait for it to be reached
M104 S210 ; set temperature
G28 ; home all axes
G1 Z5 F5000 ; lift nozzle

; Filament gcode

M109 S210 ; set temperature and wait for it to be reached
G21 ; set units to millimeters
G90 ; use absolute coordinates
M82 ; use absolute distances for extrusion
G92 E0
G1 Z0.300 F30000.000
G1 E-2.00000 F2400.00000
G92 E0
G1 X44.838 Y43.068 F30000.000
G1 E2.00000 F2400.00000
G1 F2100
G1 X47.100 Y41.074 E2.20142
G1 X49.078 Y39.540 E2.36869
G1 X51.356 Y37.982 E2.55303
G1 X53.951 Y36.447 E2.75445
G1 X56.182 Y35.310 E2.92172
G1 X58.711 Y34.207 E3.10606
G1 X61.548 Y33.186 E3.30748
G1 X63.953 Y32.487 E3.47474
G1 X66.644 Y31.878 E3.65909
G1 X69.368 Y31.438 E3.84343
G1 X72.114 Y31.170 E4.02778
G1 X75.128 Y31.076 E4.22920
G1 X77.630 Y31.154 E4.39646
G1 X80.378 Y31.406 E4.58081
G1 X83.356 Y31.878 E4.78223
G1 X85.800 Y32.424 E4.94949
G1 X88.452 Y33.186 E5.13383
G1 X91.051 Y34.113 E5.31818
G1 X91.648 Y34.363 E5.36140
G1 X93.818 Y35.310 E5.51960
G1 X96.273 Y36.570 E5.70395
G1 X98.428 Y37.845 E5.87121
G1 X100.715 Y39.389 E6.05556
G1 X103.097 Y41.237 E6.25697
G1 X104.975 Y42.893 E6.42424
G1 X106.932 Y44.838 E6.60858
G1 X108.926 Y47.100 E6.81000
G1 X110.460 Y49.078 E6.97727
G1 X112.018 Y51.356 E7.16161
G1 X113.553 Y53.951 E7.36303
G1 X114.798 Y56.414 E7.54738
G1 X115.793 Y58.711 E7.71465
G1 X116.814 Y61.548 E7.91606
G1 X117.513 Y63.953 E8.08333
G1 X118.122 Y66.644 E8.26768
G1 X118.562 Y69.368 E8.45202
G1 X118.830 Y72.114 E8.63636
G1 X118.924 Y75.128 E8.83778
G1 X118.846 Y77.630 E9.00505
G1 X118.594 Y80.378 E9.18939
G1 X118.122 Y83.356 E9.39081
G1 X117.576 Y85.800 E9.55808
G1 X116.814 Y88.452 E9.74242
G1 X115.887 Y91.051 E9.92676
G1 X115.565 Y91.815 E9.98218
G1 X114.690 Y93.818 E10.12819
G1 X113.430 Y96.273 E10.31253
G1 X112.155 Y98.428 E10.47980
G1 X110.611 Y100.715 E10.66414
G1 X108.763 Y103.097 E10.86556
G1 X107.107 Y104.975 E11.03282
G1 X105.162 Y106.932 E11.21717
G1 X102.900 Y108.926 E11.41859
G1 X100.922 Y110.460 E11.58585
G1 X98.644 Y112.018 E11.77020
G1 X96.049 Y113.553 E11.97162
G1 X93.818 Y114.690 E12.13888
G1 X91.289 Y115.793 E12.32323
G1 X88.452 Y116.814 E12.52465
G1 X86.047 Y117.513 E12.69191
G1 X83.356 Y118.122 E12.87626
G1 X80.632 Y118.562 E13.06060
G1 X77.886 Y118.830 E13.24494
G1 X74.872 Y118.924 E13.44636
G1 X72.370 Y118.846 E13.61363
G1 X69.622 Y118.594 E13.79797
G1 X66.644 Y118.122 E13.99939
G1 X64.200 Y117.576 E14.16666
G1 X61.548 Y116.814 E14.35100
G1 X58.949 Y115.887 E14.53535
G1 X58.185 Y115.565 E14.59076
G1 X56.182 Y114.690 E14.73677
G1 X53.727 Y113.430 E14.92111
G1 X51.572 Y112.155 E15.08838
G1 X49.285 Y110.611 E15.27272
G1 X46.903 Y108.763 E15.47414
G1 X45.025 Y107.107 E15.64141
G1 X43.068 Y105.162 E15.82575
G1 X41.074 Y102.900 E16.02717
G1 X39.540 Y100.922 E16.19444
G1 X37.982 Y98.644 E16.37878
G1 X36.447 Y96.049 E16.58020
G1 X35.310 Y93.818 E16.74747
G1 X34.207 Y91.289 E16.93181
G1 X33.186 Y88.452 E17.13323
G1 X32.487 Y86.047 E17.30050
G1 X31.878 Y83.356 E17.48484
G1 X31.438 Y80.632 E17.66919
G1 X31.170 Y77.886 E17.85353
G1 X31.076 Y74.872 E18.05495
G1 X31.154 Y72.370 E18.22221
G1 X31.406 Y69.622 E18.40656
G1 X31.878 Y66.644 E18.60798
G1 X32.424 Y64.200 E18.77524
G1 X33.186 Y61.548 E18.95959
G1 X34.207 Y58.711 E19.16101
G1 X35.202 Y56.414 E19.32827
G1 X36.447 Y53.951 E19.51262
G1 X37.982 Y51.356 E19.71404
G1 X39.389 Y49.285 E19.88130
G1 X41.074 Y47.100 E20.06565
G1 X42.893 Y45.025 E20.24999
G1 X44.796 Y43.110 E20.43033
G1 X45.217 Y43.447 F30000.000
G1 F2100
G1 X47.428 Y41.497 E20.62725
G1 X49.586 Y39.832 E20.80935
G1 X51.657 Y38.425 E20.97661
G1 X54.000 Y37.031 E21.15871
G1 X54.706 Y36.664 E21.21188
G1 X56.626 Y35.693 E21.35564
G1 X59.131 Y34.617 E21.53774
G1 X61.486 Y33.769 E21.70500
G1 X64.102 Y33.002 E21.88710
G1 X66.979 Y32.359 E22.08403
G1 X69.452 Y31.967 E22.25129
G1 X72.165 Y31.703 E22.43339
G1 X75.111 Y31.611 E22.63031
G1 X77.614 Y31.690 E22.79758
G1 X80.328 Y31.939 E22.97968
G1 X83.239 Y32.400 E23.17660
G1 X85.683 Y32.946 E23.34387
G1 X88.302 Y33.700 E23.52597
G1 X90.869 Y34.617 E23.70806
G1 X91.435 Y34.854 E23.74904
G1 X93.575 Y35.788 E23.90499
G1 X96.000 Y37.031 E24.08709
G1 X98.343 Y38.425 E24.26919
G1 X100.414 Y39.832 E24.43645
G1 X102.743 Y41.639 E24.63338
G1 X104.621 Y43.295 E24.80064
G1 X106.553 Y45.217 E24.98274
G1 X108.503 Y47.428 E25.17967
G1 X110.037 Y49.407 E25.34693
G1 X111.575 Y51.657 E25.52903
G1 X113.076 Y54.194 E25.72596
G1 X114.307 Y56.626 E25.90805
G1 X115.301 Y58.924 E26.07532
G1 X116.300 Y61.698 E26.27225
G1 X117.054 Y64.317 E26.45434
G1 X117.600 Y66.761 E26.62161
G1 X118.033 Y69.452 E26.80370
G1 X118.297 Y72.165 E26.98580
G1 X118.389 Y75.111 E27.18273
G1 X118.310 Y77.614 E27.34999
G1 X118.061 Y80.328 E27.53209
G1 X117.600 Y83.239 E27.72901
G1 X117.054 Y85.683 E27.89628
G1 X116.300 Y88.302 E28.07838
G1 X115.383 Y90.869 E28.26048
G1 X115.073 Y91.602 E28.31364
G1 X114.212 Y93.575 E28.45740
G1 X112.969 Y96.000 E28.63950
G1 X111.694 Y98.155 E28.80677
G1 X110.168 Y100.414 E28.98886
G1 X108.361 Y102.743 E29.18579
G1 X106.553 Y104.783 E29.36789
G1 X104.783 Y106.553 E29.53515
G1 X102.572 Y108.503 E29.73208
G1 X100.593 Y110.037 E29.89934
G1 X98.343 Y111.575 E30.08144
G1 X95.806 Y113.076 E30.27837
G1 X93.575 Y114.212 E30.44563
G1 X91.076 Y115.301 E30.62773
G1 X88.302 Y116.300 E30.82466
G1 X85.898 Y116.998 E30.99192
G1 X83.239 Y117.600 E31.17402
G1 X80.548 Y118.033 E31.35611
G1 X77.835 Y118.297 E31.53821
G1 X74.889 Y118.389 E31.73514
G1 X72.386 Y118.310 E31.90240
G1 X69.672 Y118.061 E32.08450
G1 X66.761 Y117.600 E32.28143
G1 X64.317 Y117.054 E32.44869
G1 X61.698 Y116.300 E32.63079
G1 X59.131 Y115.383 E32.81289
G1 X58.398 Y115.073 E32.86605
G1 X56.425 Y114.212 E33.00982
G1 X54.000 Y112.969 E33.19191
G1 X51.845 Y111.694 E33.35918
G1 X49.586 Y110.168 E33.54128
G1 X47.257 Y108.361 E33.73820
G1 X45.379 Y106.705 E33.90547
G1 X43.447 Y104.783 E34.08756
G1 X41.497 Y102.572 E34.28449
G1 X39.963 Y100.593 E34.45176
G1 X38.425 Y98.343 E34.63385
G1 X36.924 Y95.806 E34.83078
G1 X35.788 Y93.575 E34.99804
G1 X34.699 Y91.076 E35.18014
G1 X33.700 Y88.302 E35.37707
G1 X33.002 Y85.898 E35.54433
G1 X32.400 Y83.239 E35.72643
G1 X31.967 Y80.548 E35.90853
G1 X31.703 Y77.835 E36.09062
G1 X31.611 Y74.889 E36.28755
G1 X31.690 Y72.386 E36.45482
G1 X31.939 Y69.672 E36.63691
G1 X32.400 Y66.761 E36.83384
G1 X32.946 Y64.317 E37.00110
G1 X33.700 Y61.698 E37.18320
G1 X34.699 Y58.924 E37.38013
G1 X35.693 Y56.626 E37.54739
G1 X36.924 Y54.194 E37.72949
G1 X38.425 Y51.657 E37.92642
G1 X39.832 Y49.586 E38.09368
G1 X41.497 Y47.428 E38.27578
G1 X43.295 Y45.379 E38.45788
G1 X45.175 Y43.489 E38.63596
G1 E36.63596 F2400.00000
G92 E0
G1 X57.316 Y40.240 F30000.000
G1 E2.00000 F2400.00000
G1 F2100
G1 X58.386 Y39.694 E2.08023
G1 X60.636 Y38.721 E2.24399
G1 X62.942 Y37.891 E2.40775
G1 X65.296 Y37.207 E2.57150
G1 X67.689 Y36.672 E2.73526
G1 X70.110 Y36.288 E2.89901
G1 X72.550 Y36.058 E3.06277
G1 X75.000 Y35.981 E3.22653
G1 X77.450 Y36.058 E3.39028
G1 X79.890 Y36.288 E3.55404
G1 X82.311 Y36.672 E3.71780
G1 X84.704 Y37.207 E3.88155
G1 X87.058 Y37.891 E4.04531
G1 X89.364 Y38.721 E4.20907
G1 X91.614 Y39.694 E4.37282
G1 X93.798 Y40.807 E4.53658
G1 X95.908 Y42.055 E4.70033
G1 X97.935 Y43.433 E4.86409
G1 X99.872 Y44.935 E5.02785
G1 X101.710 Y46.556 E5.19160
G1 X103.444 Y48.290 E5.35536
G1 X105.065 Y50.128 E5.51912
G1 X106.567 Y52.065 E5.68287
G1 X107.945 Y54.092 E5.84663
G1 X109.193 Y56.202 E6.01039
G1 X110.306 Y58.386 E6.17414
G1 X111.279 Y60.636 E6.33790
G1 X112.109 Y62.942 E6.50166
G1 X112.793 Y65.296 E6.66541
G1 X113.328 Y67.689 E6.82917
G1 X113.712 Y70.110 E6.99292
G1 X113.942 Y72.550 E7.15668
G1 X114.019 Y75.000 E7.32044
G1 X113.942 Y77.450 E7.48419
G1 X113.712 Y79.890 E7.64795
G1 X113.328 Y82.311 E7.81171
G1 X112.793 Y84.704 E7.97546
G1 X112.109 Y87.058 E8.13922
G1 X111.279 Y89.364 E8.30298
G1 X110.306 Y91.614 E8.46673
G1 X109.193 Y93.798 E8.63049
G1 X107.945 Y95.908 E8.79424
G1 X106.567 Y97.935 E8.95800
G1 X105.065 Y99.872 E9.12176
G1 X103.444 Y101.710 E9.28551
G1 X101.710 Y103.444 E9.44927
G1 X99.872 Y105.065 E9.61303
G1 X97.935 Y106.567 E9.77678
G1 X95.908 Y107.945 E9.94054
G1 X93.798 Y109.193 E10.10430
G1 X91.614 Y110.306 E10.26805
G1 X89.364 Y111.279 E10.43181
G1 X87.058 Y112.109 E10.59556
G1 X84.704 Y112.793 E10.75932
G1 X82.311 Y113.328 E10.92308
G1 X79.890 Y113.712 E11.08683
G1 X77.450 Y113.942 E11.25059
G1 X75.000 Y114.019 E11.41435
G1 X72.550 Y113.942 E11.57810
G1 X70.110 Y113.712 E11.74186
G1 X67.689 Y113.328 E11.90562
G1 X65.296 Y112.793 E12.06937
G1 X62.942 Y112.109 E12.23313
G1 X60.636 Y111.279 E12.39689
G1 X58.386 Y110.306 E12.56064
G1 X56.202 Y109.193 E12.72440
G1 X54.092 Y107.945 E12.88815
G1 X52.065 Y106.567 E13.05191
G1 X50.128 Y105.065 E13.21567
G1 X48.290 Y103.444 E13.37942
G1 X46.556 Y101.710 E13.54318
G1 X44.935 Y99.872 E13.70694
G1 X43.433 Y97.935 E13.87069
G1 X42.055 Y95.908 E14.03445
G1 X40.807 Y93.798 E14.19821
G1 X39.694 Y91.614 E14.36196
G1 X38.721 Y89.364 E14.52572
G1 X37.891 Y87.058 E14.68947
G1 X37.207 Y84.704 E14.85323
G1 X36.672 Y82.311 E15.01699
G1 X36.288 Y79.890 E15.18074
G1 X36.058 Y77.450 E15.34450
G1 X35.981 Y75.000 E15.50826
G1 X36.058 Y72.550 E15.67201
G1 X36.288 Y70.110 E15.83577
G1 X36.672 Y67.689 E15.99953
G1 X37.207 Y65.296 E16.16328
G1 X37.891 Y62.942 E16.32704
G1 X38.721 Y60.636 E16.49080
G1 X39.694 Y58.386 E16.65455
G1 X40.807 Y56.202 E16.81831
G1 X42.055 Y54.092 E16.98206
G1 X43.433 Y52.065 E17.14582
G1 X44.935 Y50.128 E17.30958
G1 X46.556 Y48.290 E17.47333
G1 X48.290 Y46.556 E17.63709
G1 X50.128 Y44.935 E17.80085
G1 X52.065 Y43.433 E17.96460
G1 X54.092 Y42.055 E18.12836
G1 X56.202 Y40.807 E18.29212
G1 X57.263 Y40.267 E18.37163
G1 X57.073 Y39.762 F30000.000
G1 F2100
G1 X58.158 Y39.210 E18.45299
G1 X60.439 Y38.223 E18.61899
G1 X62.777 Y37.381 E18.78500
G1 X65.163 Y36.688 E18.95100
G1 X67.588 Y36.146 E19.11701
G1 X70.042 Y35.757 E19.28301
G1 X72.516 Y35.523 E19.44902
G1 X75.000 Y35.445 E19.61503
G1 X77.484 Y35.523 E19.78103
G1 X79.958 Y35.757 E19.94704
G1 X82.412 Y36.146 E20.11304
G1 X84.837 Y36.688 E20.27905
G1 X87.223 Y37.381 E20.44505
G1 X89.561 Y38.223 E20.61106
G1 X91.842 Y39.210 E20.77706
G1 X94.056 Y40.338 E20.94307
G1 X96.195 Y41.603 E21.10907
G1 X98.250 Y42.999 E21.27508
G1 X100.213 Y44.522 E21.44108
G1 X102.077 Y46.166 E21.60709
G1 X103.834 Y47.923 E21.77310
G1 X105.478 Y49.787 E21.93910
G1 X107.001 Y51.750 E22.10511
G1 X108.397 Y53.805 E22.27111
G1 X109.662 Y55.944 E22.43712
G1 X110.790 Y58.158 E22.60312
G1 X111.777 Y60.439 E22.76913
G1 X112.619 Y62.777 E22.93513
G1 X113.312 Y65.163 E23.10114
G1 X113.854 Y67.588 E23.26714
G1 X114.243 Y70.042 E23.43315
G1 X114.477 Y72.516 E23.59916
G1 X114.555 Y75.000 E23.76516
G1 X114.477 Y77.484 E23.93117
G1 X114.243 Y79.958 E24.09717
G1 X113.854 Y82.412 E24.26318
G1 X113.312 Y84.837 E24.42918
G1 X112.619 Y87.223 E24.59519
G1 X111.777 Y89.561 E24.76119
G1 X110.790 Y91.842 E24.92720
G1 X109.662 Y94.056 E25.09320
G1 X108.397 Y96.195 E25.25921
G1 X107.001 Y98.250 E25.42521
G1 X105.478 Y100.213 E25.59122
G1 X103.834 Y102.077 E25.75723
G1 X102.077 Y103.834 E25.92323
G1 X100.213 Y105.478 E26.08924
G1 X98.250 Y107.001 E26.25524
G1 X96.195 Y108.397 E26.42125
G1 X94.056 Y109.662 E26.58725
G1 X91.842 Y110.790 E26.75326
G1 X89.561 Y111.777 E26.91926
G1 X87.223 Y112.619 E27.08527
G1 X84.837 Y113.312 E27.25127
G1 X82.412 Y113.854 E27.41728
G1 X79.958 Y114.243 E27.58328
G1 X77.484 Y114.477 E27.74929
G1 X75.000 Y114.555 E27.91530
G1 X72.516 Y114.477 E28.08130
G1 X70.042 Y114.243 E28.24731
G1 X67.588 Y113.854 E28.41331
G1 X65.163 Y113.312 E28.57932
G1 X62.777 Y112.619 E28.74532
G1 X60.439 Y111.777 E28.91133
G1 X58.158 Y110.790 E29.07733
G1 X55.944 Y109.662 E29.24334
G1 X53.805 Y108.397 E29.40934
G1 X51.750 Y107.001 E29.57535
G1 X49.787 Y105.478 E29.74136
G1 X47.923 Y103.834 E29.90736
G1 X46.166 Y102.077 E30.07337
G1 X44.522 Y100.213 E30.23937
G1 X42.999 Y98.250 E30.40538
G1 X41.603 Y96.195 E30.57138
G1 X40.338 Y94.056 E30.73739
G1 X39.210 Y91.842 E30.90339
G1 X38.223 Y89.561 E31.06940
G1 X37.381 Y87.223 E31.23540
G1 X36.688 Y84.837 E31.40141
G1 X36.146 Y82.412 E31.56741
G1 X35.757 Y79.958 E31.73342
G1 X35.523 Y77.484 E31.89943
G1 X35.445 Y75.000 E32.06543
G1 X35.523 Y72.516 E32.23144
G1 X35.757 Y70.042 E32.39744
G1 X36.146 Y67.588 E32.56345
G1 X36.688 Y65.163 E32.72945
G1 X37.381 Y62.777 E32.89546
G1 X38.223 Y60.439 E33.06146
G1 X39.210 Y58.158 E33.22747
G1 X40.338 Y55.944 E33.39347
G1 X41.603 Y53.805 E33.55948
G1 X42.999 Y51.750 E33.72548
G1 X44.522 Y49.787 E33.89149
G1 X46.166 Y47.923 E34.05750
G1 X47.923 Y46.166 E34.22350
G1 X49.787 Y44.522 E34.38951
G1 X51.750 Y42.999 E34.55551
G1 X53.805 Y41.603 E34.72152
G1 X55.944 Y40.338 E34.88752
G1 X57.020 Y39.790 E34.96816
G1 X57.409 Y39.980 F30000.000
G1 E32.96816 F2400.00000
G92 E0
G1 X48.601 Y47.002 F30000.000
G1 E2.00000 F2400.00000
G1 F2100
G1 X46.889 Y48.715 E2.16252
G1 X48.715 Y46.889 E2.33582
G1 X50.527 Y45.291 E2.49788
G1 X52.437 Y43.810 E2.66009
G1 X52.805 Y43.560 E2.68992
G1 X43.560 Y52.805 E3.56717
G1 X42.451 Y54.436 E3.69956
G1 X42.106 Y55.019 E3.74495
G1 X55.019 Y42.106 E4.97022
G1 X56.517 Y41.220 E5.08704
G1 X56.820 Y41.066 E5.10984
G1 X41.066 Y56.820 E6.60476
G1 X40.275 Y58.371 E6.72157
G1 X58.371 Y40.275 E8.43868
G1 X58.671 Y40.122 E8.46129
G1 X59.753 Y39.654 E8.54036
G1 X39.654 Y59.753 E10.44752
G1 X39.097 Y61.071 E10.54353
G1 X61.071 Y39.097 E12.62862
G1 X62.260 Y38.669 E12.71340
G1 X38.669 Y62.260 E14.95191
G1 X38.343 Y63.165 E15.01645
G1 X38.269 Y63.421 E15.03433
G1 X63.421 Y38.269 E17.42098
G1 X64.493 Y37.957 E17.49591
G1 X37.957 Y64.493 E20.01388
G1 X37.653 Y65.559 E20.08823
G1 X65.559 Y37.653 E22.73622
G1 X66.538 Y37.434 E22.80359
G1 X37.434 Y66.538 E25.56533
G1 X37.215 Y67.518 E25.63270
G1 X67.518 Y37.215 E28.50820
G1 X67.846 Y37.142 E28.53072
G1 X68.448 Y37.046 E28.57160
G1 X37.046 Y68.447 E31.55127
G1 X36.903 Y69.351 E31.61268
G1 X69.351 Y36.903 E34.69172
G1 X70.254 Y36.761 E34.75301
G1 X36.761 Y70.254 E37.93112
G1 X36.682 Y71.094 E37.98774
G1 X71.094 Y36.682 E41.25312
G1 X71.934 Y36.603 E41.30974
G1 X36.603 Y71.934 E44.66238
G1 X36.532 Y72.766 E44.71837
G1 X72.766 Y36.532 E48.15662
G1 X73.551 Y36.507 E48.20935
G1 X36.507 Y73.551 E51.72447
G1 X36.482 Y74.337 E51.77719
G1 X74.337 Y36.482 E55.36919
G1 X75.118 Y36.462 E55.42164
G1 X36.462 Y75.118 E59.08976
G1 X36.485 Y75.856 E59.13928
G1 X75.856 Y36.485 E62.87518
G1 X76.593 Y36.508 E62.92470
G1 X36.508 Y76.593 E66.72840
G1 X36.531 Y77.331 E66.77792
G1 X77.331 Y36.531 E70.64941
G1 X78.034 Y36.589 E70.69676
G1 X36.589 Y78.034 E74.62953
G1 X36.655 Y78.729 E74.67637
G1 X78.729 Y36.655 E78.66887
G1 X79.425 Y36.720 E78.71571
G1 X36.720 Y79.425 E82.76793
G1 X36.799 Y80.106 E82.81398
G1 X80.106 Y36.799 E86.92341
G1 X80.763 Y36.903 E86.96803
G1 X36.903 Y80.763 E91.12991
G1 X37.007 Y81.420 E91.17453
G1 X81.420 Y37.007 E95.38886
G1 X82.077 Y37.111 E95.43348
G1 X37.111 Y82.077 E99.70026
G1 X37.240 Y82.709 E99.74353
G1 X82.709 Y37.240 E104.05806
G1 X83.331 Y37.379 E104.10081
G1 X37.379 Y83.330 E108.46115
G1 X37.518 Y83.952 E108.50390
G1 X83.952 Y37.518 E112.91006
G1 X84.574 Y37.657 E112.95281
G1 X37.657 Y84.574 E117.40478
G1 X37.826 Y85.166 E117.44610
G1 X85.166 Y37.826 E121.93828
G1 X85.756 Y37.997 E121.97947
G1 X37.997 Y85.756 E126.51134
G1 X38.168 Y86.345 E126.55253
G1 X86.345 Y38.168 E131.12408
G1 X86.935 Y38.339 E131.16528
G1 X38.339 Y86.935 E135.77652
G1 X38.540 Y87.495 E135.81644
G1 X87.495 Y38.540 E140.46179
G1 X88.054 Y38.741 E140.50168
G1 X38.741 Y88.054 E145.18100
G1 X38.943 Y88.614 E145.22089
G1 X88.614 Y38.943 E149.93418
G1 X89.173 Y39.144 E149.97408
G1 X39.144 Y89.173 E154.72134
G1 X39.371 Y89.707 E154.76025
G1 X89.707 Y39.371 E159.53658
G1 X90.238 Y39.601 E159.57540
G1 X39.601 Y90.238 E164.38031
G1 X39.831 Y90.769 E164.41913
