; generated by Slic3r 1.3.0 on 2023-03-13 at 20:56:11

; external perimeters extrusion width = 0.44mm (2.78mm^3/s)
; perimeters extrusion width = 0.40mm (7.14mm^3/s)
; infill extrusion width = 0.50mm (10.97mm^3/s)
; solid infill extrusion width = 0.60mm (6.68mm^3/s)
; top infill extrusion width = 0.40mm (2.14mm^3/s)

M107
M190 S80 ; set bed temperature and wait for it to be reached
M104 S210 ; set temperature
G28 ; home all axes
G1 Z5 F5000 ; lift nozzle

; Filament gcode

M109 S210 ; set temperature and wait for it to be reached
G21 ; set units to millimeters
G90 ; use absolute coordinates
M82 ; use absolute distances for extrusion
G92 E0
G1 Z0.300 F30000.000
G1 E-2.00000 F2400.00000
G92 E0
G1 X65.245 Y61.365 F30000.000
G1 E2.00000 F2400.00000
G1 F2100
G1 X66.130 Y60.466 E2.08432
G1 X67.319 Y59.417 E2.19020
G1 X68.322 Y58.652 E2.27451
G1 X69.099 Y58.124 E2.33726
G1 X70.463 Y57.317 E2.44314
G1 X71.592 Y56.753 E2.52746
G1 X72.454 Y56.380 E2.59020
G1 X73.638 Y55.943 E2.67452
G1 X74.847 Y55.581 E2.75884
G1 X76.394 Y55.236 E2.86471
G1 X77.642 Y55.048 E2.94903
G1 X78.900 Y54.940 E3.03335
G1 X79.838 Y54.910 E3.09610
G1 X81.422 Y54.960 E3.20195
G1 X82.678 Y55.089 E3.28630
G1 X83.606 Y55.236 E3.34904
G1 X84.840 Y55.501 E3.43336
G1 X86.362 Y55.943 E3.53924
G1 X86.692 Y56.062 E3.56269
G1 X88.420 Y57.105 E3.69753
G1 X89.613 Y58.733 E3.83237
G1 X90.092 Y60.901 E3.98067
G1 X90.092 Y89.099 E5.86450
G1 X89.696 Y91.079 E5.99934
G1 X88.569 Y92.753 E6.13418
G1 X86.692 Y93.938 E6.28248
G1 X86.055 Y94.157 E6.32750
G1 X84.840 Y94.499 E6.41182
G1 X83.923 Y94.704 E6.47456
G1 X82.678 Y94.911 E6.55888
G1 X81.100 Y95.060 E6.66476
G1 X79.839 Y95.090 E6.74907
G1 X78.900 Y95.060 E6.81182
G1 X77.322 Y94.911 E6.91770
G1 X76.077 Y94.704 E7.00201
G1 X75.160 Y94.499 E7.06477
G1 X73.638 Y94.057 E7.17065
G1 X72.454 Y93.620 E7.25497
G1 X71.592 Y93.247 E7.31771
G1 X70.463 Y92.683 E7.40203
G1 X69.099 Y91.876 E7.50791
G1 X68.322 Y91.348 E7.57065
G1 X67.319 Y90.583 E7.65497
G1 X66.365 Y89.755 E7.73929
G1 X65.245 Y88.635 E7.84517
G1 X64.623 Y87.930 E7.90791
G1 X63.842 Y86.939 E7.99223
G1 X63.124 Y85.901 E8.07656
G1 X62.317 Y84.537 E8.18243
G1 X61.891 Y83.700 E8.24517
G1 X61.380 Y82.546 E8.32950
G1 X60.843 Y81.055 E8.43538
G1 X60.581 Y80.152 E8.49813
G1 X60.296 Y78.923 E8.58243
G1 X60.089 Y77.678 E8.66675
G1 X59.940 Y76.100 E8.77264
G1 X59.910 Y75.161 E8.83541
G1 X59.940 Y73.900 E8.91969
G1 X60.048 Y72.642 E9.00402
G1 X60.296 Y71.077 E9.10990
G1 X60.501 Y70.160 E9.17265
G1 X60.844 Y68.945 E9.25697
G1 X61.380 Y67.454 E9.36284
G1 X61.753 Y66.592 E9.42559
G1 X62.310 Y65.477 E9.50883
G1 X62.951 Y64.372 E9.59421
G1 X63.842 Y63.061 E9.70010
G1 X64.417 Y62.319 E9.76284
G1 X65.205 Y61.410 E9.84315
G1 X65.646 Y61.719 F30000.000
G1 F2100
G1 X66.508 Y60.844 E9.92522
G1 X67.647 Y59.841 E10.02661
G1 X68.623 Y59.095 E10.10868
G1 X69.400 Y58.567 E10.17142
G1 X70.706 Y57.795 E10.27281
G1 X71.805 Y57.245 E10.35488
G1 X72.936 Y56.765 E10.43695
G1 X73.820 Y56.447 E10.49969
G1 X75.277 Y56.024 E10.60108
G1 X76.478 Y55.765 E10.68314
G1 X77.709 Y55.580 E10.76630
G1 X78.916 Y55.475 E10.84729
G1 X79.855 Y55.445 E10.91003
G1 X81.372 Y55.493 E11.01139
G1 X82.594 Y55.618 E11.09349
G1 X83.522 Y55.765 E11.15624
G1 X84.723 Y56.024 E11.23831
G1 X86.180 Y56.447 E11.33970
G1 X86.511 Y56.566 E11.36314
G1 X88.134 Y57.571 E11.49070
G1 X89.210 Y59.148 E11.61825
G1 X89.557 Y60.901 E11.73760
G1 X89.557 Y89.099 E13.62143
G1 X89.161 Y90.967 E13.74898
G1 X88.042 Y92.514 E13.87653
G1 X86.510 Y93.434 E13.99589
G1 X86.180 Y93.553 E14.01933
G1 X84.723 Y93.976 E14.12072
G1 X83.522 Y94.235 E14.20279
G1 X82.307 Y94.419 E14.28486
G1 X81.372 Y94.507 E14.34760
G1 X80.145 Y94.555 E14.42967
G1 X78.628 Y94.507 E14.53105
G1 X77.390 Y94.380 E14.61421
G1 X76.194 Y94.181 E14.69518
G1 X75.277 Y93.976 E14.75794
G1 X73.820 Y93.553 E14.85933
G1 X72.667 Y93.128 E14.94140
G1 X71.805 Y92.755 E15.00415
G1 X70.706 Y92.206 E15.08621
G1 X69.400 Y91.433 E15.18760
G1 X68.389 Y90.735 E15.26967
G1 X67.647 Y90.159 E15.33242
G1 X66.719 Y89.354 E15.41449
G1 X65.646 Y88.281 E15.51588
G1 X64.841 Y87.353 E15.59795
G1 X64.265 Y86.611 E15.66069
G1 X63.567 Y85.600 E15.74277
G1 X62.794 Y84.294 E15.84415
G1 X62.245 Y83.195 E15.92622
G1 X61.872 Y82.333 E15.98897
G1 X61.358 Y80.905 E16.09035
G1 X61.096 Y80.003 E16.15310
G1 X60.819 Y78.806 E16.23516
G1 X60.618 Y77.594 E16.31724
G1 X60.475 Y76.083 E16.41862
G1 X60.445 Y75.144 E16.48140
G1 X60.475 Y73.917 E16.56344
G1 X60.582 Y72.693 E16.64551
G1 X60.819 Y71.194 E16.74690
G1 X61.024 Y70.277 E16.80965
G1 X61.358 Y69.095 E16.89172
G1 X61.872 Y67.667 E16.99310
G1 X62.245 Y66.805 E17.05584
G1 X62.787 Y65.721 E17.13684
G1 X63.412 Y64.644 E17.21998
G1 X64.265 Y63.389 E17.32137
G1 X64.841 Y62.647 E17.38411
G1 X65.607 Y61.764 E17.46217
G1 X66.048 Y62.074 F30000.000
G1 F2100
G1 X66.887 Y61.223 E17.54200
G1 X67.975 Y60.264 E17.63889
G1 X68.924 Y59.538 E17.71871
G1 X69.701 Y59.010 E17.78146
G1 X70.949 Y58.272 E17.87835
G1 X72.018 Y57.736 E17.95818
G1 X72.880 Y57.363 E18.02092
G1 X74.001 Y56.951 E18.10074
G1 X75.394 Y56.547 E18.19763
G1 X76.562 Y56.294 E18.27745
G1 X77.743 Y56.115 E18.35728
G1 X78.933 Y56.010 E18.43710
G1 X79.872 Y55.981 E18.49985
G1 X81.321 Y56.026 E18.59672
G1 X82.511 Y56.147 E18.67657
G1 X83.689 Y56.342 E18.75639
G1 X84.606 Y56.547 E18.81913
G1 X85.999 Y56.951 E18.91603
G1 X86.329 Y57.070 E18.93948
G1 X87.841 Y58.034 E19.05930
G1 X88.792 Y59.555 E19.17912
G1 X89.021 Y60.901 E19.27030
G1 X89.021 Y89.099 E21.15413
G1 X88.626 Y90.849 E21.27395
G1 X87.518 Y92.259 E21.39377
G1 X86.329 Y92.930 E21.48495
G1 X85.756 Y93.128 E21.52548
G1 X84.854 Y93.390 E21.58822
G1 X83.438 Y93.706 E21.68512
G1 X82.511 Y93.853 E21.74786
G1 X81.322 Y93.974 E21.82768
G1 X79.872 Y94.019 E21.92457
G1 X78.662 Y93.972 E22.00546
G1 X77.489 Y93.853 E22.08422
G1 X76.562 Y93.706 E22.14697
G1 X75.146 Y93.390 E22.24386
G1 X74.001 Y93.049 E22.32368
G1 X73.117 Y92.731 E22.38643
G1 X72.018 Y92.264 E22.46625
G1 X70.725 Y91.605 E22.56315
G1 X69.701 Y90.990 E22.64297
G1 X68.924 Y90.462 E22.70571
G1 X67.778 Y89.573 E22.80261
G1 X67.074 Y88.952 E22.86535
G1 X66.235 Y88.124 E22.94410
G1 X65.427 Y87.222 E23.02499
G1 X64.538 Y86.076 E23.12189
G1 X64.010 Y85.299 E23.18464
G1 X63.403 Y84.288 E23.26338
G1 X62.845 Y83.214 E23.34428
G1 X62.363 Y82.120 E23.42411
G1 X61.872 Y80.756 E23.52100
G1 X61.610 Y79.854 E23.58375
G1 X61.342 Y78.689 E23.66356
G1 X61.147 Y77.511 E23.74339
G1 X61.010 Y76.067 E23.84028
G1 X60.981 Y75.127 E23.90305
G1 X61.010 Y73.933 E23.98285
G1 X61.115 Y72.743 E24.06267
G1 X61.342 Y71.311 E24.15957
G1 X61.547 Y70.394 E24.22231
G1 X61.872 Y69.244 E24.30214
G1 X62.363 Y67.880 E24.39903
G1 X62.736 Y67.018 E24.46177
G1 X63.264 Y65.964 E24.54052
G1 X63.873 Y64.917 E24.62141
G1 X64.688 Y63.717 E24.71831
G1 X65.264 Y62.975 E24.78105
G1 X66.008 Y62.119 E24.85687
G1 X66.450 Y62.428 F30000.000
G1 F2100
G1 X67.266 Y61.602 E24.93444
G1 X68.304 Y60.687 E25.02685
G1 X69.046 Y60.112 E25.08959
G1 X70.002 Y59.453 E25.16716
G1 X71.193 Y58.749 E25.25956
G1 X72.230 Y58.228 E25.33714
G1 X73.092 Y57.855 E25.39988
G1 X74.183 Y57.455 E25.47746
G1 X75.511 Y57.069 E25.56986
G1 X76.645 Y56.823 E25.64743
G1 X77.810 Y56.646 E25.72609
G1 X78.950 Y56.546 E25.80258
G1 X79.889 Y56.516 E25.86533
G1 X81.271 Y56.560 E25.95771
G1 X82.427 Y56.676 E26.03530
G1 X83.573 Y56.864 E26.11288
G1 X84.489 Y57.069 E26.17562
G1 X85.817 Y57.455 E26.26803
G1 X86.148 Y57.574 E26.29147
G1 X87.541 Y58.495 E26.40303
G1 X88.356 Y59.952 E26.51459
G1 X88.486 Y60.901 E26.57854
G1 X88.486 Y89.099 E28.46238
G1 X88.091 Y90.722 E28.57393
G1 X86.996 Y91.983 E28.68549
G1 X86.148 Y92.426 E28.74945
G1 X85.606 Y92.614 E28.78773
G1 X84.489 Y92.931 E28.86530
G1 X83.573 Y93.136 E28.92804
G1 X82.427 Y93.324 E29.00562
G1 X81.271 Y93.440 E29.08319
G1 X79.889 Y93.484 E29.17559
G1 X78.729 Y93.440 E29.25316
G1 X77.573 Y93.324 E29.33074
G1 X76.646 Y93.177 E29.39349
G1 X75.296 Y92.876 E29.48589
G1 X74.183 Y92.545 E29.56347
G1 X73.299 Y92.227 E29.62621
G1 X72.230 Y91.772 E29.70379
G1 X70.998 Y91.144 E29.79619
G1 X70.190 Y90.666 E29.85893
G1 X69.225 Y90.019 E29.93651
G1 X68.132 Y89.171 E30.02891
G1 X67.428 Y88.550 E30.09165
G1 X66.613 Y87.745 E30.16815
G1 X65.829 Y86.868 E30.24680
G1 X64.981 Y85.775 E30.33921
G1 X64.453 Y84.998 E30.40195
G1 X63.864 Y84.016 E30.47846
G1 X63.323 Y82.971 E30.55710
G1 X62.855 Y81.907 E30.63468
G1 X62.386 Y80.606 E30.72707
G1 X62.124 Y79.704 E30.78982
G1 X61.864 Y78.573 E30.86739
G1 X61.676 Y77.427 E30.94497
G1 X61.546 Y76.050 E31.03737
G1 X61.516 Y75.111 E31.10014
G1 X61.546 Y73.950 E31.17769
G1 X61.676 Y72.573 E31.27009
G1 X61.823 Y71.645 E31.33284
G1 X62.066 Y70.527 E31.40933
G1 X62.387 Y69.394 E31.48799
G1 X62.855 Y68.092 E31.58039
G1 X63.228 Y67.230 E31.64313
G1 X63.742 Y66.207 E31.71963
G1 X64.334 Y65.190 E31.79828
G1 X65.112 Y64.046 E31.89068
G1 X65.687 Y63.304 E31.95342
G1 X66.410 Y62.473 E32.02699
G1 E30.02699 F2400.00000
G92 E0
G1 X84.114 Y88.495 F30000.000
G1 E2.00000 F2400.00000
G1 F2100
G1 X83.510 Y88.671 E2.04205
G1 X82.645 Y88.864 E2.10128
G1 X81.769 Y89.003 E2.16051
G1 X80.886 Y89.086 E2.21975
G1 X80.000 Y89.114 E2.27898
G1 X79.114 Y89.086 E2.33821
G1 X78.231 Y89.003 E2.39745
G1 X77.355 Y88.864 E2.45668
G1 X76.490 Y88.671 E2.51591
G1 X75.639 Y88.423 E2.57515
G1 X74.804 Y88.123 E2.63438
G1 X73.991 Y87.771 E2.69362
G1 X73.201 Y87.368 E2.75285
G1 X72.437 Y86.917 E2.81208
G1 X71.704 Y86.418 E2.87132
G1 X71.003 Y85.875 E2.93055
G1 X70.338 Y85.289 E2.98978
G1 X69.722 Y84.673 E3.04797
G1 X69.125 Y83.996 E3.10828
G1 X68.582 Y83.296 E3.16748
G1 X68.083 Y82.563 E3.22672
G1 X67.632 Y81.799 E3.28595
G1 X67.229 Y81.009 E3.34518
G1 X66.877 Y80.196 E3.40442
G1 X66.577 Y79.361 E3.46365
G1 X66.329 Y78.510 E3.52288
G1 X66.136 Y77.645 E3.58212
G1 X65.997 Y76.769 E3.64135
G1 X65.915 Y75.902 E3.69954
G1 X65.886 Y75.000 E3.75985
G1 X65.914 Y74.114 E3.81905
G1 X65.997 Y73.231 E3.87828
G1 X66.136 Y72.355 E3.93752
G1 X66.329 Y71.490 E3.99675
G1 X66.577 Y70.639 E4.05599
G1 X66.877 Y69.804 E4.11522
G1 X67.223 Y69.005 E4.17341
G1 X67.632 Y68.200 E4.23371
G1 X68.083 Y67.437 E4.29292
G1 X68.582 Y66.704 E4.35215
G1 X69.125 Y66.003 E4.41139
G1 X69.711 Y65.338 E4.47062
G1 X70.338 Y64.711 E4.52985
G1 X71.003 Y64.125 E4.58909
G1 X71.704 Y63.582 E4.64832
G1 X72.437 Y63.083 E4.70752
G1 X73.215 Y62.625 E4.76783
G1 X73.991 Y62.229 E4.82602
G1 X74.804 Y61.877 E4.88522
G1 X75.654 Y61.572 E4.94553
G1 X76.490 Y61.329 E5.00372
G1 X77.355 Y61.136 E5.06295
G1 X78.231 Y60.997 E5.12218
G1 X79.113 Y60.914 E5.18139
G1 X80.016 Y60.887 E5.24170
G1 X80.886 Y60.914 E5.29988
G1 X81.769 Y60.997 E5.35912
G1 X82.645 Y61.136 E5.41835
G1 X83.510 Y61.329 E5.47758
G1 X84.114 Y61.505 E5.51963
G1 X84.114 Y88.435 E7.31869
G1 X84.650 Y88.889 F30000.000
G1 F2100
G1 X83.643 Y89.190 E7.38889
G1 X82.745 Y89.390 E7.45037
G1 X81.836 Y89.534 E7.51185
G1 X80.920 Y89.621 E7.57334
G1 X80.000 Y89.650 E7.63482
G1 X79.080 Y89.621 E7.69630
G1 X78.164 Y89.534 E7.75779
G1 X77.255 Y89.390 E7.81927
G1 X76.357 Y89.190 E7.88075
G1 X75.473 Y88.933 E7.94223
G1 X74.607 Y88.621 E8.00372
G1 X73.762 Y88.256 E8.06520
G1 X72.942 Y87.838 E8.12668
G1 X72.150 Y87.369 E8.18816
G1 X71.389 Y86.852 E8.24965
G1 X70.662 Y86.288 E8.31113
G1 X69.972 Y85.679 E8.37261
G1 X69.332 Y85.040 E8.43303
G1 X68.712 Y84.338 E8.49559
G1 X68.148 Y83.611 E8.55706
G1 X67.631 Y82.850 E8.61854
G1 X67.162 Y82.058 E8.68002
G1 X66.744 Y81.238 E8.74151
G1 X66.379 Y80.393 E8.80299
G1 X66.067 Y79.527 E8.86447
G1 X65.810 Y78.643 E8.92595
G1 X65.610 Y77.745 E8.98744
G1 X65.466 Y76.836 E9.04892
G1 X65.381 Y75.936 E9.10934
G1 X65.350 Y75.000 E9.17189
G1 X65.379 Y74.080 E9.23336
G1 X65.466 Y73.164 E9.29485
G1 X65.610 Y72.255 E9.35633
G1 X65.810 Y71.357 E9.41781
G1 X66.067 Y70.473 E9.47930
G1 X66.379 Y69.607 E9.54078
G1 X66.738 Y68.777 E9.60120
G1 X67.162 Y67.942 E9.66375
G1 X67.631 Y67.150 E9.72522
G1 X68.148 Y66.389 E9.78671
G1 X68.712 Y65.662 E9.84819
G1 X69.321 Y64.972 E9.90967
G1 X69.972 Y64.321 E9.97115
G1 X70.662 Y63.712 E10.03264
G1 X71.389 Y63.148 E10.09412
G1 X72.150 Y62.631 E10.15559
G1 X72.957 Y62.155 E10.21815
G1 X73.762 Y61.744 E10.27857
G1 X74.607 Y61.379 E10.34004
G1 X75.488 Y61.063 E10.40259
G1 X76.357 Y60.810 E10.46301
G1 X77.255 Y60.610 E10.52449
G1 X78.164 Y60.466 E10.58598
G1 X79.080 Y60.379 E10.64745
G1 X80.016 Y60.351 E10.71000
G1 X80.920 Y60.379 E10.77042
G1 X81.836 Y60.466 E10.83191
G1 X82.745 Y60.610 E10.89339
G1 X83.643 Y60.810 E10.95487
G1 X84.650 Y61.111 E11.02507
G1 X84.650 Y88.829 E12.87672
G1 X84.525 Y88.851 F30000.000
G1 X83.522 Y88.150 F30000.000
G1 F2100
G1 X83.636 Y88.036 E12.88755
G1 X83.636 Y87.273 E12.93891
G1 X82.522 Y88.387 E13.04493
G1 X81.615 Y88.531 E13.10673
G1 X83.636 Y86.510 E13.29907
G1 X83.636 Y85.747 E13.35043
G1 X80.773 Y88.609 E13.62283
G1 X79.986 Y88.634 E13.67587
G1 X83.636 Y84.984 E14.02326
G1 X83.636 Y84.221 E14.07461
G1 X79.243 Y88.613 E14.49265
G1 X78.537 Y88.556 E14.54031
G1 X83.636 Y83.457 E15.02554
G1 X83.636 Y82.694 E15.07689
G1 X77.862 Y88.468 E15.62637
G1 X77.214 Y88.353 E15.67068
G1 X83.636 Y81.931 E16.28186
G1 X83.636 Y81.168 E16.33321
G1 X76.590 Y88.214 E17.00374
G1 X75.998 Y88.043 E17.04524
G1 X83.636 Y80.405 E17.77216
G1 X83.636 Y79.642 E17.82352
G1 X75.424 Y87.854 E18.60506
G1 X74.867 Y87.648 E18.64502
G1 X83.636 Y78.879 E19.47957
G1 X83.636 Y78.116 E19.53092
G1 X74.334 Y87.417 E20.41616
G1 X73.820 Y87.168 E20.45461
G1 X83.636 Y77.353 E21.38879
G1 X83.636 Y76.590 E21.44014
G1 X73.319 Y86.906 E22.42200
G1 X72.840 Y86.623 E22.45949
G1 X83.636 Y75.827 E23.48699
G1 X83.636 Y75.064 E23.53834
G1 X72.376 Y86.323 E24.60994
G1 X71.924 Y86.012 E24.64687
G1 X83.636 Y74.301 E25.76149
G1 X83.636 Y73.538 E25.81285
G1 X71.494 Y85.679 E26.96837
G1 X71.077 Y85.333 E27.00484
G1 X83.636 Y72.775 E28.20007
G1 X83.636 Y72.011 E28.25142
G1 X70.672 Y84.975 E29.48525
G1 X70.289 Y84.595 E29.52156
G1 X83.636 Y71.248 E30.79183
G1 X83.636 Y70.485 E30.84318
G1 X69.916 Y84.204 E32.14888
G1 X69.559 Y83.799 E32.18526
G1 X83.636 Y69.722 E33.52503
G1 X83.636 Y68.959 E33.57639
G1 X69.220 Y83.375 E34.94839
G1 X68.892 Y82.940 E34.98506
G1 X83.636 Y68.196 E36.38828
G1 X83.636 Y67.433 E36.43963
G1 X68.583 Y82.486 E37.87224
G1 X68.291 Y82.015 E37.90954
G1 X83.636 Y66.670 E39.36994
G1 X83.636 Y65.907 E39.42130
G1 X68.011 Y81.532 E40.90837
G1 X67.753 Y81.026 E40.94655
G1 X83.636 Y65.144 E42.45813
G1 X83.636 Y64.381 E42.50948
G1 X67.513 Y80.504 E44.04396
G1 X67.287 Y79.967 E44.08318
G1 X83.636 Y63.618 E45.63916
G1 X83.636 Y62.855 E45.69051
G1 X67.085 Y79.406 E47.26572
G1 X66.905 Y78.823 E47.30679
G1 X83.636 Y62.092 E48.89913
G1 X83.636 Y61.850 E48.91537
G1 X83.220 Y61.744 E48.94423
G1 X66.744 Y78.220 E50.51233
G1 X66.605 Y77.596 E50.55535
G1 X82.596 Y61.605 E52.07731
G1 X81.937 Y61.501 E52.12219
G1 X66.501 Y76.937 E53.59139
G1 X66.424 Y76.251 E53.63789
G1 X81.251 Y61.424 E55.04899
G1 X80.532 Y61.380 E55.09746
G1 X66.381 Y75.531 E56.44429
G1 X66.374 Y74.775 E56.49520
G1 X79.774 Y61.375 E57.77055
G1 X78.972 Y61.414 E57.82461
G1 X66.414 Y73.972 E59.01980
G1 X66.511 Y73.112 E59.07804
G1 X78.112 Y61.511 E60.18218
G1 X77.513 Y61.606 E60.22303
G1 X77.180 Y61.680 E60.24599
G1 X66.680 Y72.180 E61.24527
G1 X66.792 Y71.680 E61.27971
G1 X66.945 Y71.151 E61.31678
G1 X76.151 Y61.945 E62.19293
G1 X75.876 Y62.025 E62.21224
G1 X74.982 Y62.352 E62.27629
G1 X67.352 Y69.982 E63.00246
G1 X67.651 Y69.290 E63.05320
G1 X68.034 Y68.536 E63.11007
G1 X73.536 Y63.034 E63.63375
G1 X72.781 Y63.479 E63.69279
G1 X72.076 Y63.958 E63.75014
G1 X71.402 Y64.481 E63.80755
G1 X70.764 Y65.044 E63.86481
G1 X70.044 Y65.764 E63.93331
G1 X70.650 Y65.157 E63.99099
G1 Z0.500 F30000.000
G1 X84.353 Y88.674 F30000.000
G1 F6000
G1 X83.569 Y88.902 E64.01522
G1 X82.689 Y89.098 E64.04199
G1 X81.799 Y89.239 E64.06876
G1 X80.901 Y89.324 E64.09553
G1 X80.000 Y89.353 E64.12231
G1 X79.099 Y89.324 E64.14908
G1 X78.201 Y89.239 E64.17585
G1 X77.311 Y89.098 E64.20262
G1 X76.431 Y88.902 E64.22939
G1 X75.565 Y88.650 E64.25616
G1 X74.716 Y88.345 E64.28293
G1 X73.889 Y87.987 E64.30970
G1 X73.086 Y87.577 E64.33648
G1 X72.309 Y87.118 E64.36325
G1 X71.564 Y86.611 E64.39002
G1 X70.851 Y86.059 E64.41679
