; generated by Slic3r 1.3.0 on 2020-10-31 at 10:31:14

; external perimeters extrusion width = 0.44mm (2.78mm^3/s)
; perimeters extrusion width = 0.40mm (7.14mm^3/s)
; infill extrusion width = 0.50mm (10.97mm^3/s)
; solid infill extrusion width = 0.60mm (6.68mm^3/s)
; top infill extrusion width = 0.40mm (2.14mm^3/s)

M107
M190 S80 ; set bed temperature and wait for it to be reached
M104 S200 ; set temperature
G28 ; home all axes
G1 Z5 F5000 ; lift nozzle

; Filament gcode

M109 S200 ; set temperature and wait for it to be reached
G21 ; set units to millimeters
G90 ; use absolute coordinates
M82 ; use absolute distances for extrusion
G92 E0
G1 Z0.300 F30000.000
G1 E-2.00000 F2400.00000
G92 E0
G1 X40.582 Y41.593 F30000.000
G1 E2.00000 F2400.00000
G1 F2100
G1 X42.514 Y39.889 E2.17207
G1 X44.092 Y38.665 E2.30549
G1 X45.978 Y37.373 E2.45822
G1 X48.195 Y36.061 E2.63030
G1 X49.974 Y35.155 E2.76371
G1 X52.069 Y34.238 E2.91647
G1 X54.217 Y33.455 E3.06921
G1 X56.279 Y32.847 E3.21284
G1 X56.691 Y32.737 E3.24128
G1 X58.924 Y32.247 E3.39402
G1 X60.898 Y31.934 E3.52756
G1 X63.172 Y31.710 E3.68019
G1 X65.746 Y31.629 E3.85226
G1 X67.742 Y31.692 E3.98568
G1 X70.019 Y31.898 E4.13841
G1 X72.563 Y32.301 E4.31049
G1 X74.793 Y32.809 E4.46324
G1 X76.711 Y33.366 E4.59666
G1 X78.865 Y34.132 E4.74939
G1 X80.967 Y35.031 E4.90213
G1 X83.262 Y36.201 E5.07420
G1 X85.225 Y37.373 E5.22696
G1 X86.877 Y38.495 E5.36038
G1 X88.912 Y40.074 E5.53243
G1 X90.410 Y41.394 E5.66586
G1 X92.033 Y43.005 E5.81860
G1 X93.737 Y44.937 E5.99067
G1 X94.961 Y46.515 E6.12408
G1 X96.253 Y48.401 E6.27683
G1 X97.565 Y50.618 E6.44890
G1 X98.471 Y52.397 E6.58232
G1 X99.388 Y54.492 E6.73507
G1 X100.171 Y56.640 E6.88782
G1 X100.779 Y58.702 E7.03144
G1 X100.889 Y59.113 E7.05988
G1 X101.379 Y61.347 E7.21263
G1 X101.728 Y63.606 E7.36538
G1 X101.916 Y65.595 E7.49880
G1 X101.997 Y68.169 E7.67087
G1 X101.934 Y70.165 E7.80429
G1 X101.728 Y72.442 E7.95702
G1 X101.325 Y74.986 E8.12910
G1 X100.817 Y77.215 E8.28183
G1 X100.260 Y79.134 E8.41531
G1 X99.494 Y81.288 E8.56800
G1 X98.594 Y83.390 E8.72074
G1 X97.425 Y85.685 E8.89281
G1 X96.253 Y87.648 E9.04556
G1 X95.131 Y89.300 E9.17899
G1 X93.552 Y91.335 E9.35104
G1 X92.231 Y92.833 E9.48447
G1 X90.621 Y94.456 E9.63721
G1 X88.689 Y96.159 E9.80928
G1 X86.877 Y97.553 E9.96201
G1 X85.225 Y98.676 E10.09544
G1 X83.008 Y99.987 E10.26751
G1 X81.229 Y100.894 E10.40093
G1 X79.134 Y101.810 E10.55368
G1 X76.986 Y102.593 E10.70642
G1 X74.793 Y103.240 E10.85916
G1 X72.279 Y103.802 E11.03122
G1 X70.307 Y104.114 E11.16465
G1 X68.031 Y104.338 E11.31740
G1 X65.457 Y104.419 E11.48946
G1 X63.172 Y104.338 E11.64220
G1 X61.184 Y104.151 E11.77562
G1 X58.640 Y103.748 E11.94769
G1 X56.410 Y103.240 E12.10044
G1 X54.492 Y102.683 E12.23387
G1 X52.338 Y101.917 E12.38660
G1 X50.236 Y101.017 E12.53934
G1 X47.941 Y99.848 E12.71141
G1 X45.978 Y98.676 E12.86417
G1 X44.326 Y97.554 E12.99759
G1 X42.291 Y95.975 E13.16963
G1 X40.793 Y94.654 E13.30307
G1 X39.170 Y93.044 E13.45581
G1 X37.466 Y91.112 E13.62787
G1 X36.242 Y89.534 E13.76129
G1 X34.950 Y87.648 E13.91403
G1 X33.639 Y85.431 E14.08611
G1 X32.732 Y83.652 E14.21952
G1 X31.816 Y81.557 E14.37228
G1 X31.033 Y79.409 E14.52502
G1 X30.386 Y77.216 E14.67776
G1 X29.824 Y74.702 E14.84983
G1 X29.512 Y72.729 E14.98324
G1 X29.287 Y70.454 E15.13600
G1 X29.207 Y67.880 E15.30806
G1 X29.269 Y65.883 E15.44148
G1 X29.475 Y63.606 E15.59422
G1 X29.878 Y61.062 E15.76629
G1 X30.386 Y58.833 E15.91904
G1 X30.943 Y56.915 E16.05246
G1 X31.816 Y54.492 E16.22451
G1 X32.609 Y52.659 E16.35793
G1 X33.639 Y50.618 E16.51069
G1 X34.950 Y48.401 E16.68276
G1 X36.242 Y46.515 E16.83550
G1 X37.466 Y44.937 E16.96892
G1 X38.972 Y43.216 E17.12166
G1 X40.540 Y41.635 E17.27040
G1 X40.961 Y41.971 F30000.000
G1 F2100
G1 X42.842 Y40.312 E17.43797
G1 X44.420 Y39.088 E17.57139
G1 X46.279 Y37.816 E17.72188
G1 X48.438 Y36.539 E17.88946
G1 X50.217 Y35.632 E18.02288
G1 X52.282 Y34.730 E18.17339
G1 X54.399 Y33.959 E18.32388
G1 X56.560 Y33.323 E18.47437
G1 X59.008 Y32.776 E18.64194
G1 X60.982 Y32.463 E18.77547
G1 X63.222 Y32.243 E18.92587
G1 X65.730 Y32.165 E19.09344
G1 X67.726 Y32.227 E19.22686
G1 X69.969 Y32.431 E19.37735
G1 X72.447 Y32.824 E19.54493
G1 X74.396 Y33.259 E19.67835
G1 X76.561 Y33.880 E19.82885
G1 X78.683 Y34.636 E19.97934
G1 X80.754 Y35.523 E20.12984
G1 X82.989 Y36.662 E20.29741
G1 X84.924 Y37.816 E20.44792
G1 X86.576 Y38.938 E20.58134
G1 X88.558 Y40.475 E20.74890
G1 X90.056 Y41.796 E20.88233
G1 X91.655 Y43.383 E21.03282
G1 X93.313 Y45.265 E21.20040
G1 X94.537 Y46.843 E21.33381
G1 X95.810 Y48.702 E21.48431
G1 X97.087 Y50.861 E21.65189
G1 X97.994 Y52.640 E21.78530
G1 X98.896 Y54.705 E21.93581
G1 X99.667 Y56.822 E22.08631
G1 X100.265 Y58.852 E22.22769
G1 X100.366 Y59.230 E22.25388
G1 X100.850 Y61.430 E22.40438
G1 X101.195 Y63.657 E22.55488
G1 X101.382 Y65.645 E22.68830
G1 X101.461 Y68.152 E22.85587
G1 X101.399 Y70.148 E22.98929
G1 X101.195 Y72.392 E23.13978
G1 X100.802 Y74.869 E23.30736
G1 X100.303 Y77.066 E23.45785
G1 X99.745 Y78.985 E23.59132
G1 X98.990 Y81.106 E23.74177
G1 X98.103 Y83.177 E23.89227
G1 X96.964 Y85.412 E24.05984
G1 X95.810 Y87.347 E24.21035
G1 X94.688 Y88.999 E24.34378
G1 X93.151 Y90.981 E24.51133
G1 X91.830 Y92.479 E24.64476
G1 X90.242 Y94.077 E24.79526
G1 X88.361 Y95.736 E24.96283
G1 X86.576 Y97.111 E25.11332
G1 X84.924 Y98.233 E25.24675
G1 X82.765 Y99.510 E25.41432
G1 X80.986 Y100.417 E25.54774
G1 X78.921 Y101.319 E25.69824
G1 X76.804 Y102.089 E25.84874
G1 X74.643 Y102.726 E25.99923
G1 X72.195 Y103.273 E26.16680
G1 X70.223 Y103.585 E26.30022
G1 X67.981 Y103.805 E26.45073
G1 X65.474 Y103.884 E26.61830
G1 X63.477 Y103.821 E26.75172
G1 X61.234 Y103.617 E26.90221
G1 X58.757 Y103.225 E27.06979
G1 X56.807 Y102.789 E27.20321
G1 X54.642 Y102.168 E27.35372
G1 X52.520 Y101.413 E27.50420
G1 X50.449 Y100.526 E27.65469
G1 X48.214 Y99.387 E27.82227
G1 X46.495 Y98.370 E27.95569
G1 X44.627 Y97.111 E28.10620
G1 X42.645 Y95.573 E28.27376
G1 X41.147 Y94.252 E28.40719
G1 X39.549 Y92.665 E28.55768
G1 X37.890 Y90.784 E28.72525
G1 X36.666 Y89.206 E28.85867
G1 X35.393 Y87.347 E29.00916
G1 X34.116 Y85.188 E29.17674
G1 X33.100 Y83.177 E29.32725
G1 X32.307 Y81.344 E29.46067
G1 X31.537 Y79.227 E29.61116
G1 X30.900 Y77.066 E29.76165
G1 X30.353 Y74.618 E29.92923
G1 X30.041 Y72.646 E30.06265
G1 X29.821 Y70.404 E30.21315
G1 X29.742 Y67.896 E30.38073
G1 X29.805 Y65.900 E30.51415
G1 X30.009 Y63.657 E30.66463
G1 X30.401 Y61.179 E30.83221
G1 X30.837 Y59.230 E30.96563
G1 X31.458 Y57.065 E31.11614
G1 X32.307 Y54.705 E31.28370
G1 X33.100 Y52.872 E31.41712
G1 X34.116 Y50.861 E31.56762
G1 X35.393 Y48.702 E31.73520
G1 X36.515 Y47.050 E31.86862
G1 X37.890 Y45.265 E32.01911
G1 X39.373 Y43.570 E32.16961
G1 X40.918 Y42.014 E32.31610
G1 X41.339 Y42.350 F30000.000
G1 F2100
G1 X43.171 Y40.736 E32.47918
G1 X44.749 Y39.512 E32.61260
G1 X46.580 Y38.259 E32.76084
G1 X48.681 Y37.016 E32.92393
G1 X50.461 Y36.109 E33.05734
G1 X52.495 Y35.221 E33.20561
G1 X54.580 Y34.463 E33.35385
G1 X56.578 Y33.875 E33.49299
G1 X56.924 Y33.782 E33.51693
G1 X59.091 Y33.305 E33.66518
G1 X61.065 Y32.992 E33.79869
G1 X63.273 Y32.777 E33.94686
G1 X65.713 Y32.700 E34.10994
G1 X67.709 Y32.763 E34.24336
G1 X69.919 Y32.965 E34.39160
G1 X72.330 Y33.347 E34.55469
G1 X74.279 Y33.782 E34.68811
G1 X76.412 Y34.395 E34.83636
G1 X78.502 Y35.140 E34.98460
G1 X80.541 Y36.015 E35.13285
G1 X82.716 Y37.123 E35.29593
G1 X84.623 Y38.259 E35.44419
G1 X86.275 Y39.381 E35.57762
G1 X88.204 Y40.877 E35.74068
G1 X89.702 Y42.198 E35.87411
G1 X91.276 Y43.762 E36.02236
G1 X92.890 Y45.593 E36.18544
G1 X94.245 Y47.351 E36.33368
G1 X95.367 Y49.003 E36.46710
G1 X96.610 Y51.104 E36.63019
G1 X97.517 Y52.883 E36.76360
G1 X98.404 Y54.917 E36.91186
G1 X99.163 Y57.003 E37.06011
G1 X99.751 Y59.001 E37.19926
G1 X99.844 Y59.347 E37.22319
G1 X100.321 Y61.514 E37.37144
G1 X100.661 Y63.707 E37.51970
G1 X100.849 Y65.696 E37.65312
G1 X100.926 Y68.135 E37.81620
G1 X100.849 Y70.353 E37.96444
G1 X100.661 Y72.341 E38.09786
G1 X100.279 Y74.753 E38.26095
G1 X99.789 Y76.917 E38.40919
G1 X99.231 Y78.835 E38.54265
G1 X98.486 Y80.925 E38.69086
G1 X97.611 Y82.964 E38.83911
G1 X96.503 Y85.139 E39.00219
G1 X95.367 Y87.046 E39.15045
G1 X94.245 Y88.698 E39.28388
G1 X92.749 Y90.626 E39.44694
G1 X91.428 Y92.125 E39.58037
G1 X89.864 Y93.699 E39.72862
G1 X88.033 Y95.313 E39.89170
G1 X86.275 Y96.668 E40.03994
G1 X84.623 Y97.790 E40.17336
G1 X82.522 Y99.033 E40.33645
G1 X80.742 Y99.939 E40.46986
G1 X78.709 Y100.827 E40.61812
G1 X76.623 Y101.585 E40.76637
G1 X74.494 Y102.211 E40.91461
G1 X72.112 Y102.744 E41.07769
G1 X70.139 Y103.056 E41.21111
G1 X67.930 Y103.272 E41.35937
G1 X65.490 Y103.349 E41.52245
G1 X63.273 Y103.272 E41.67069
G1 X61.285 Y103.084 E41.80411
G1 X58.873 Y102.702 E41.96720
G1 X56.709 Y102.211 E42.11545
G1 X54.791 Y101.654 E42.24888
G1 X52.701 Y100.909 E42.39712
G1 X50.662 Y100.034 E42.54536
G1 X48.487 Y98.926 E42.70845
G1 X46.580 Y97.790 E42.85671
G1 X44.928 Y96.668 E42.99013
G1 X43.000 Y95.171 E43.15319
G1 X41.501 Y93.851 E43.28662
G1 X39.927 Y92.286 E43.43487
G1 X38.313 Y90.455 E43.59795
G1 X37.089 Y88.877 E43.73136
G1 X35.836 Y87.046 E43.87961
G1 X34.593 Y84.945 E44.04270
G1 X33.686 Y83.165 E44.17612
G1 X32.799 Y81.131 E44.32438
G1 X32.040 Y79.046 E44.47262
G1 X31.415 Y76.917 E44.62087
G1 X30.882 Y74.534 E44.78395
G1 X30.570 Y72.562 E44.91737
G1 X30.354 Y70.353 E45.06563
G1 X30.277 Y67.913 E45.22870
G1 X30.340 Y65.917 E45.36212
G1 X30.542 Y63.707 E45.51037
G1 X30.924 Y61.296 E45.67345
G1 X31.415 Y59.132 E45.82171
G1 X31.972 Y57.214 E45.95513
G1 X32.799 Y54.917 E46.11820
G1 X33.592 Y53.085 E46.25162
G1 X34.593 Y51.104 E46.39987
G1 X35.836 Y49.003 E46.56296
G1 X36.958 Y47.351 E46.69638
G1 X38.313 Y45.593 E46.84462
G1 X39.775 Y43.924 E46.99287
G1 X41.297 Y42.392 E47.13712
G1 X41.895 Y42.906 F30000.000
G1 F2100
G1 X43.618 Y41.383 E47.30918
G1 X45.265 Y40.106 E47.46510
G1 X47.058 Y38.885 E47.62748
G1 X49.000 Y37.736 E47.79633
G1 X50.934 Y36.753 E47.95871
G1 X52.847 Y35.926 E48.11463
G1 X54.887 Y35.188 E48.27701
G1 X56.798 Y34.630 E48.42595
G1 X57.054 Y34.559 E48.44585
G1 X59.172 Y34.088 E48.60823
G1 X61.230 Y33.762 E48.76420
G1 X63.390 Y33.555 E48.92653
G1 X65.645 Y33.484 E49.09538
G1 X67.727 Y33.550 E49.25129
G1 X69.888 Y33.751 E49.41367
G1 X72.116 Y34.104 E49.58252
G1 X74.233 Y34.580 E49.74490
G1 X76.234 Y35.162 E49.90082
G1 X78.276 Y35.894 E50.06320
G1 X80.269 Y36.753 E50.22558
G1 X82.279 Y37.778 E50.39442
G1 X84.145 Y38.885 E50.55681
G1 X85.869 Y40.056 E50.71273
G1 X87.651 Y41.438 E50.88156
G1 X89.214 Y42.816 E51.03749
G1 X90.750 Y44.349 E51.19987
G1 X92.243 Y46.041 E51.36871
G1 X93.519 Y47.687 E51.52462
G1 X94.741 Y49.480 E51.68701
G1 X95.890 Y51.423 E51.85586
G1 X96.836 Y53.279 E52.01177
G1 X97.700 Y55.269 E52.17416
G1 X98.438 Y57.310 E52.33653
G1 X98.995 Y59.220 E52.48548
G1 X99.067 Y59.477 E52.50538
G1 X99.538 Y61.595 E52.66776
G1 X99.875 Y63.738 E52.83014
G1 X100.071 Y65.813 E52.98607
G1 X100.141 Y68.068 E53.15491
G1 X100.076 Y70.150 E53.31082
G1 X99.875 Y72.311 E53.47321
G1 X99.522 Y74.539 E53.64205
G1 X99.046 Y76.656 E53.80442
G1 X98.464 Y78.657 E53.96037
G1 X97.732 Y80.699 E54.12269
G1 X96.873 Y82.692 E54.28511
G1 X95.848 Y84.702 E54.45395
G1 X94.741 Y86.568 E54.61634
G1 X93.570 Y88.292 E54.77226
G1 X92.187 Y90.074 E54.94109
G1 X90.810 Y91.637 E55.09702
G1 X89.277 Y93.173 E55.25940
G1 X87.585 Y94.665 E55.42824
G1 X85.869 Y95.993 E55.59061
G1 X84.145 Y97.164 E55.74654
G1 X82.203 Y98.313 E55.91539
G1 X80.347 Y99.259 E56.07130
G1 X78.357 Y100.123 E56.23369
G1 X76.316 Y100.860 E56.39606
G1 X74.233 Y101.468 E56.55845
G1 X72.031 Y101.960 E56.72729
G1 X69.888 Y102.297 E56.88967
G1 X67.813 Y102.493 E57.04559
G1 X65.558 Y102.564 E57.21443
G1 X63.390 Y102.493 E57.37681
G1 X61.316 Y102.297 E57.53271
G1 X59.087 Y101.944 E57.70158
G1 X56.970 Y101.468 E57.86396
G1 X54.969 Y100.887 E58.01988
G1 X52.927 Y100.155 E58.18226
G1 X50.934 Y99.295 E58.34464
G1 X48.924 Y98.271 E58.51348
G1 X47.058 Y97.164 E58.67587
G1 X45.335 Y95.993 E58.83178
G1 X43.552 Y94.610 E59.00063
G1 X41.989 Y93.232 E59.15655
G1 X40.453 Y91.700 E59.31892
G1 X38.961 Y90.007 E59.48778
G1 X37.633 Y88.291 E59.65020
G1 X36.462 Y86.568 E59.80606
G1 X35.313 Y84.626 E59.97491
G1 X34.367 Y82.770 E60.13083
G1 X33.503 Y80.779 E60.29322
G1 X32.739 Y78.657 E60.46205
G1 X32.158 Y76.656 E60.61797
G1 X31.682 Y74.539 E60.78036
G1 X31.329 Y72.310 E60.94920
G1 X31.127 Y70.150 E61.11158
G1 X31.062 Y67.981 E61.27396
G1 X31.127 Y65.899 E61.42988
G1 X31.329 Y63.738 E61.59226
G1 X31.682 Y61.510 E61.76111
G1 X32.136 Y59.476 E61.91702
G1 X32.739 Y57.392 E62.07941
G1 X33.503 Y55.269 E62.24824
G1 X34.331 Y53.357 E62.40416
G1 X35.313 Y51.423 E62.56655
G1 X36.462 Y49.480 E62.73540
G1 X37.684 Y47.687 E62.89778
G1 X38.961 Y46.041 E63.05368
G1 X40.394 Y44.412 E63.21607
G1 X41.853 Y42.948 E63.37073
G1 X42.320 Y43.330 F30000.000
G1 F2100
G1 X43.994 Y41.852 E63.53787
G1 X45.625 Y40.586 E63.69237
G1 X47.387 Y39.386 E63.85193
G1 X49.281 Y38.266 E64.01655
G1 X51.181 Y37.300 E64.17611
G1 X53.076 Y36.480 E64.33062
G1 X55.082 Y35.756 E64.49018
G1 X56.965 Y35.207 E64.63701
G1 X59.275 Y34.679 E64.81432
G1 X61.315 Y34.356 E64.96887
G1 X63.437 Y34.154 E65.12839
G1 X65.635 Y34.084 E65.29301
G1 X67.766 Y34.154 E65.45257
G1 X69.822 Y34.348 E65.60707
G1 X71.994 Y34.692 E65.77169
G1 X74.075 Y35.159 E65.93125
G1 X76.057 Y35.735 E66.08576
G1 X78.064 Y36.455 E66.24531
G1 X80.022 Y37.300 E66.40488
G1 X81.982 Y38.299 E66.56948
G1 X83.816 Y39.386 E66.72905
G1 X85.524 Y40.547 E66.88357
G1 X87.262 Y41.895 E67.04816
G1 X88.810 Y43.260 E67.20268
G1 X90.320 Y44.766 E67.36224
G1 X91.774 Y46.416 E67.52685
G1 X93.079 Y48.102 E67.68640
G1 X94.240 Y49.810 E67.84092
G1 X95.360 Y51.703 E68.00554
G1 X96.297 Y53.543 E68.16004
G1 X97.146 Y55.499 E68.31961
G1 X97.870 Y57.504 E68.47916
G1 X98.419 Y59.388 E68.62599
G1 X98.947 Y61.698 E68.80331
G1 X99.278 Y63.804 E68.96287
G1 X99.472 Y65.860 E69.11738
G1 X99.541 Y68.058 E69.28199
G1 X99.477 Y70.122 E69.43650
G1 X99.278 Y72.245 E69.59606
G1 X98.934 Y74.417 E69.76068
G1 X98.467 Y76.497 E69.92023
G1 X97.891 Y78.480 E70.07476
G1 X97.171 Y80.487 E70.23427
G1 X96.326 Y82.445 E70.39386
G1 X95.327 Y84.405 E70.55847
G1 X94.276 Y86.182 E70.71299
G1 X93.079 Y87.946 E70.87255
G1 X91.731 Y89.684 E71.03715
G1 X90.366 Y91.233 E71.19167
G1 X88.860 Y92.742 E71.35122
G1 X87.210 Y94.197 E71.51584
G1 X85.578 Y95.462 E71.67034
G1 X83.816 Y96.663 E71.82990
G1 X81.923 Y97.782 E71.99452
G1 X80.083 Y98.720 E72.14903
G1 X78.127 Y99.568 E72.30859
G1 X76.122 Y100.293 E72.46815
G1 X74.075 Y100.889 E72.62771
G1 X71.928 Y101.369 E72.79232
G1 X69.889 Y101.692 E72.94683
G1 X67.766 Y101.895 E73.10639
G1 X65.568 Y101.964 E73.27100
G1 X63.437 Y101.895 E73.43056
G1 X61.382 Y101.701 E73.58505
G1 X59.209 Y101.357 E73.74969
G1 X57.128 Y100.889 E73.90924
G1 X55.146 Y100.313 E74.06376
G1 X53.139 Y99.593 E74.22331
G1 X51.181 Y98.748 E74.38287
G1 X49.221 Y97.750 E74.54748
G1 X47.387 Y96.663 E74.70705
G1 X45.680 Y95.502 E74.86155
G1 X43.941 Y94.154 E75.02616
G1 X42.393 Y92.789 E75.18068
G1 X40.884 Y91.282 E75.34023
G1 X39.429 Y89.632 E75.50485
G1 X38.124 Y87.946 E75.66444
G1 X36.963 Y86.239 E75.81891
G1 X35.844 Y84.345 E75.98353
G1 X34.906 Y82.506 E76.13803
G1 X34.058 Y80.550 E76.29760
G1 X33.312 Y78.480 E76.46220
G1 X32.736 Y76.498 E76.61671
G1 X32.269 Y74.417 E76.77628
G1 X31.925 Y72.245 E76.94089
G1 X31.727 Y70.122 E77.10045
G1 X31.662 Y67.991 E77.26001
G1 X31.731 Y65.860 E77.41957
G1 X31.925 Y63.804 E77.57408
G1 X32.269 Y61.631 E77.73869
G1 X32.720 Y59.617 E77.89320
G1 X33.312 Y57.568 E78.05276
G1 X34.058 Y55.499 E78.21737
G1 X34.877 Y53.604 E78.37188
G1 X35.844 Y51.703 E78.53144
G1 X36.963 Y49.810 E78.69606
G1 X38.164 Y48.048 E78.85562
G1 X39.429 Y46.416 E79.01011
G1 X40.837 Y44.816 E79.16968
G1 X42.277 Y43.373 E79.32223
G1 X42.744 Y43.754 F30000.000
G1 F2100
G1 X44.369 Y42.320 E79.48442
G1 X45.985 Y41.066 E79.63752
G1 X47.717 Y39.888 E79.79426
G1 X49.561 Y38.797 E79.95464
G1 X51.428 Y37.847 E80.11138
G1 X53.306 Y37.035 E80.26448
G1 X55.276 Y36.324 E80.42122
G1 X57.132 Y35.783 E80.56594
G1 X59.378 Y35.270 E80.73832
G1 X61.399 Y34.950 E80.89144
