; generated by Slic3r 1.3.0 on 2020-03-19 at 16:40:34

; external perimeters extrusion width = 0.44mm (2.78mm^3/s)
; perimeters extrusion width = 0.40mm (7.14mm^3/s)
; infill extrusion width = 0.50mm (10.97mm^3/s)
; solid infill extrusion width = 0.60mm (6.68mm^3/s)
; top infill extrusion width = 0.40mm (2.14mm^3/s)

M107
M190 S80 ; set bed temperature and wait for it to be reached
M104 S200 ; set temperature
G28 ; home all axes
G1 Z5 F5000 ; lift nozzle

; Filament gcode

M109 S200 ; set temperature and wait for it to be reached
G21 ; set units to millimeters
G90 ; use absolute coordinates
M82 ; use absolute distances for extrusion
G92 E0
G1 Z3.500 F30000.000
G1 E-2.00000 F2400.00000
G92 E0
G1 X51.768 Y79.503 F30000.000
G1 E2.00000 F2400.00000
G1 F2100
G1 X53.820 Y79.019 E2.09764
G1 X70.066 Y79.018 E2.85020
G1 X71.934 Y79.414 E2.93864
G1 X73.481 Y80.533 E3.02708
G1 X74.441 Y82.183 E3.11553
G1 X74.673 Y83.625 E3.18318
G1 X74.671 Y136.663 E5.63994
G1 X74.275 Y138.530 E5.72838
G1 X73.156 Y140.077 E5.81682
G1 X71.506 Y141.038 E5.90526
G1 X69.184 Y141.184 E6.01304
G1 X64.681 Y140.308 E6.22551
G1 X63.916 Y140.089 E6.26240
G1 X62.689 Y139.600 E6.32358
G1 X54.538 Y135.625 E6.74362
G1 X53.785 Y135.164 E6.78453
G1 X50.529 Y132.710 E6.97342
G1 X49.045 Y130.794 E7.08566
G1 X47.909 Y128.051 E7.22319
G1 X47.576 Y126.692 E7.28798
G1 X47.438 Y125.121 E7.36103
G1 X47.420 Y124.717 E7.37978
G1 X47.429 Y96.013 E8.70940
G1 X47.559 Y90.174 E8.97991
G1 X47.657 Y89.330 E9.01929
G1 X48.272 Y86.409 E9.15753
G1 X49.389 Y82.384 E9.35105
G1 X50.274 Y80.692 E9.43949
G1 X51.721 Y79.541 E9.52515
G1 X52.204 Y79.891 F30000.000
G1 F2100
G1 X53.820 Y79.554 E9.60160
G1 X70.066 Y79.554 E10.35413
G1 X71.816 Y79.949 E10.43721
G1 X73.226 Y81.058 E10.52029
G1 X74.022 Y82.665 E10.60338
G1 X74.137 Y83.625 E10.64819
G1 X74.135 Y136.663 E13.10495
G1 X73.740 Y138.412 E13.18803
G1 X72.631 Y139.822 E13.27111
G1 X71.024 Y140.619 E13.35419
G1 X69.286 Y140.659 E13.43474
G1 X64.784 Y139.782 E13.64721
G1 X64.107 Y139.588 E13.67981
G1 X62.923 Y139.118 E13.73880
G1 X54.773 Y135.144 E14.15884
G1 X54.108 Y134.736 E14.19499
G1 X50.851 Y132.282 E14.38388
G1 X49.540 Y130.589 E14.48308
G1 X48.404 Y127.846 E14.62060
G1 X48.109 Y126.645 E14.67785
G1 X47.971 Y125.074 E14.75091
G1 X47.955 Y124.717 E14.76748
G1 X47.964 Y96.013 E16.09709
G1 X48.095 Y90.186 E16.36705
G1 X48.181 Y89.440 E16.40185
G1 X48.796 Y86.520 E16.54009
G1 X49.905 Y82.528 E16.73198
G1 X50.757 Y80.950 E16.81507
G1 X52.156 Y79.926 E16.89537
G1 X52.632 Y80.297 F30000.000
G1 F2100
G1 X53.821 Y80.090 E16.95127
G1 X70.066 Y80.090 E17.70376
G1 X71.689 Y80.484 E17.78111
G1 X72.949 Y81.579 E17.85847
G1 X73.602 Y83.625 E17.95795
G1 X73.600 Y136.663 E20.41470
G1 X73.205 Y138.285 E20.49205
G1 X72.110 Y139.546 E20.56940
G1 X70.559 Y140.163 E20.64676
G1 X69.388 Y140.133 E20.70098
G1 X64.886 Y139.256 E20.91344
G1 X64.299 Y139.088 E20.94176
G1 X63.158 Y138.637 E20.99856
G1 X55.008 Y134.662 E21.41859
G1 X54.430 Y134.308 E21.44999
G1 X51.173 Y131.854 E21.63888
G1 X50.035 Y130.384 E21.72503
G1 X48.898 Y127.641 E21.86254
G1 X48.643 Y126.598 E21.91227
G1 X48.491 Y124.717 E21.99970
G1 X48.500 Y96.013 E23.32929
G1 X48.630 Y90.198 E23.59871
G1 X48.705 Y89.550 E23.62894
G1 X49.320 Y86.630 E23.76716
G1 X50.421 Y82.672 E23.95744
G1 X51.238 Y81.216 E24.03479
G1 X52.582 Y80.330 E24.10936
G1 X52.898 Y80.877 F30000.000
G1 F2100
G1 X71.205 Y80.876 E25.47936
G1 X72.815 Y82.487 E25.64981
G1 X72.815 Y99.462 E26.92018
G1 X72.787 Y99.530 E26.92566
G1 X72.787 Y122.414 E28.63824
G1 X72.813 Y122.477 E28.64332
G1 X72.813 Y137.959 E29.80193
G1 X70.812 Y139.609 E29.99605
G1 X64.920 Y138.462 E30.44527
G1 X64.691 Y138.396 E30.46308
G1 X63.557 Y137.957 E30.55404
G1 X55.234 Y133.898 E31.24707
G1 X55.008 Y133.759 E31.26685
G1 X51.351 Y131.004 E31.60954
G1 X50.899 Y130.417 E31.66497
G1 X49.521 Y127.090 E31.93447
G1 X49.416 Y126.559 E31.97499
G1 X49.416 Y126.062 E32.01217
G1 X49.368 Y125.946 E32.02155
G1 X49.277 Y125.856 E32.03112
G1 X49.287 Y94.875 E34.34957
G1 X49.368 Y94.794 E34.35813
G1 X49.416 Y94.678 E34.36751
G1 X49.416 Y90.136 E34.70748
G1 X49.445 Y89.852 E34.72884
G1 X50.121 Y86.661 E34.97291
G1 X51.427 Y81.995 E35.33552
G1 X52.850 Y80.914 E35.46930
G1 X53.100 Y81.477 F30000.000
G1 F2100
G1 X70.956 Y81.476 E36.80555
G1 X72.215 Y82.735 E36.93881
G1 X72.215 Y99.214 E38.17198
G1 X72.187 Y99.281 E38.17745
G1 X72.187 Y122.663 E39.92724
G1 X72.213 Y122.726 E39.93232
G1 X72.213 Y137.676 E41.05115
G1 X70.648 Y138.966 E41.20291
G1 X65.060 Y137.878 E41.62900
G1 X64.881 Y137.827 E41.64293
G1 X63.808 Y137.412 E41.72896
G1 X55.523 Y133.371 E42.41884
G1 X55.346 Y133.263 E42.43431
G1 X51.777 Y130.573 E42.76880
G1 X51.423 Y130.115 E42.81214
G1 X50.098 Y126.915 E43.07130
G1 X50.016 Y126.500 E43.10298
G1 X50.016 Y125.813 E43.15434
G1 X49.968 Y125.698 E43.16371
G1 X49.877 Y125.607 E43.17329
G1 X49.887 Y95.124 E45.45452
G1 X49.968 Y95.043 E45.46309
G1 X50.016 Y94.927 E45.47247
G1 X50.016 Y90.167 E45.82872
G1 X50.039 Y89.945 E45.84542
G1 X50.701 Y86.813 E46.08493
G1 X51.950 Y82.351 E46.43174
G1 X53.053 Y81.513 E46.53535
G1 X53.303 Y82.077 F30000.000
G1 F2100
G1 X70.708 Y82.076 E47.83786
G1 X71.615 Y82.984 E47.93391
G1 X71.615 Y98.965 E49.12989
G1 X71.587 Y99.033 E49.13536
G1 X71.587 Y122.911 E50.92234
G1 X71.613 Y122.974 E50.92743
G1 X71.613 Y137.393 E52.00648
G1 X70.485 Y138.323 E52.11587
G1 X65.071 Y137.257 E52.52884
G1 X64.060 Y136.867 E52.60996
G1 X55.812 Y132.844 E53.29668
G1 X55.685 Y132.766 E53.30783
G1 X52.202 Y130.142 E53.63414
G1 X51.947 Y129.812 E53.66538
G1 X50.675 Y126.740 E53.91421
G1 X50.616 Y126.441 E53.93704
G1 X50.616 Y125.565 E54.00257
G1 X50.568 Y125.449 E54.01195
G1 X50.477 Y125.359 E54.02152
G1 X50.486 Y95.373 E56.26554
G1 X50.568 Y95.292 E56.27413
G1 X50.616 Y95.176 E56.28351
G1 X50.616 Y90.198 E56.65603
G1 X50.632 Y90.038 E56.66807
G1 X51.281 Y86.966 E56.90303
G1 X52.474 Y82.707 E57.23403
G1 X53.255 Y82.113 E57.30747
G1 X53.505 Y82.677 F30000.000
G1 F2100
G1 X70.459 Y82.676 E58.57623
G1 X71.015 Y83.232 E58.63509
G1 X71.015 Y98.716 E59.79387
G1 X70.987 Y98.784 E59.79935
G1 X70.987 Y123.160 E61.62352
G1 X71.013 Y123.223 E61.62861
G1 X71.013 Y137.110 E62.66788
G1 X70.322 Y137.680 E62.73491
G1 X65.261 Y136.687 E63.12088
G1 X64.311 Y136.322 E63.19708
G1 X56.101 Y132.318 E63.88065
G1 X52.628 Y129.712 E64.20557
G1 X52.471 Y129.509 E64.22471
G1 X51.252 Y126.565 E64.46320
G1 X51.216 Y126.382 E64.47720
G1 X51.216 Y125.316 E64.55690
G1 X51.168 Y125.201 E64.56628
G1 X51.077 Y125.110 E64.57585
G1 X51.086 Y95.621 E66.78266
G1 X51.168 Y95.540 E66.79126
G1 X51.216 Y95.424 E66.80064
G1 X51.216 Y90.229 E67.18944
G1 X51.862 Y87.118 E67.42719
G1 X52.997 Y83.062 E67.74238
G1 X53.457 Y82.713 E67.78564
G1 X53.707 Y83.276 F30000.000
G1 F2100
G1 X70.211 Y83.276 E69.02066
G1 X70.415 Y83.481 E69.04232
G1 X70.415 Y98.468 E70.16391
G1 X70.387 Y98.536 E70.16938
G1 X70.387 Y123.408 E72.03075
G1 X70.413 Y123.471 E72.03584
G1 X70.413 Y136.827 E73.03533
G1 X70.159 Y137.037 E73.06000
G1 X65.451 Y136.117 E73.41897
G1 X64.562 Y135.776 E73.49025
G1 X56.389 Y131.791 E74.17067
G1 X53.053 Y129.281 E74.48311
G1 X52.996 Y129.207 E74.49015
G1 X51.829 Y126.390 E74.71830
G1 X51.816 Y126.322 E74.72345
G1 X51.816 Y125.068 E74.81734
G1 X51.768 Y124.952 E74.82671
G1 X51.677 Y124.862 E74.83628
G1 X51.686 Y95.870 E77.00588
G1 X51.768 Y95.789 E77.01449
G1 X51.816 Y95.673 E77.02387
G1 X51.816 Y90.260 E77.42895
G1 X52.442 Y87.271 E77.65751
G1 X53.520 Y83.418 E77.95690
G1 X53.660 Y83.313 E77.96998
G1 E75.96998 F2400.00000
G92 E0
G1 X69.864 Y136.420 F30000.000
G1 E2.00000 F2400.00000
G1 F2100
G1 X65.617 Y135.593 E2.12846
G1 X64.788 Y135.275 E2.15483
G1 X56.663 Y131.313 E2.42323
G1 X53.465 Y128.903 E2.54212
G1 X52.365 Y126.248 E2.62745
G1 X52.365 Y124.517 E2.67885
G1 X52.227 Y124.517 E2.68296
G1 X52.235 Y96.215 E3.52328
G1 X52.365 Y96.215 E3.52713
G1 X52.365 Y90.299 E3.70278
G1 X52.974 Y87.407 E3.79052
G1 X53.977 Y83.825 E3.90097
G1 X69.866 Y83.825 E4.37273
G1 X69.866 Y98.095 E4.79641
G1 X69.838 Y98.095 E4.79725
G1 X69.838 Y123.847 E5.56186
G1 X69.864 Y123.847 E5.56263
G1 X69.864 Y136.360 E5.93414
G1 X69.546 Y136.177 F30000.000
G1 X69.507 Y135.986 F30000.000
G1 F2100
G1 X65.716 Y135.248 E6.04882
G1 X64.930 Y134.948 E6.07380
G1 X56.850 Y131.007 E6.34071
G1 X53.758 Y128.677 E6.45568
G1 X52.722 Y126.177 E6.53602
G1 X52.722 Y124.160 E6.59591
G1 X52.584 Y124.160 E6.60002
G1 X52.592 Y96.572 E7.41913
G1 X52.722 Y96.572 E7.42298
G1 X52.722 Y90.336 E7.60813
G1 X53.321 Y87.492 E7.69443
G1 X54.248 Y84.182 E7.79648
G1 X69.509 Y84.182 E8.24960
G1 X69.509 Y97.738 E8.65208
G1 X69.481 Y97.738 E8.65291
G1 X69.481 Y124.204 E9.43873
G1 X69.507 Y124.204 E9.43950
G1 X69.507 Y135.926 E9.78755
G1 E7.78755 F2400.00000
G92 E0
G1 X63.041 Y106.765 F30000.000
G1 E2.00000 F2400.00000
G1 F2100
G1 X56.913 Y106.765 E2.18195
G1 X56.913 Y99.565 E2.39572
G1 X63.041 Y99.565 E2.57767
G1 X63.041 Y106.705 E2.78967
G1 X63.134 Y107.154 F30000.000
G1 X63.398 Y107.122 F30000.000
G1 F2100
G1 X56.556 Y107.122 E2.99282
G1 X56.556 Y99.208 E3.22780
G1 X63.398 Y99.208 E3.43095
G1 X63.398 Y107.062 E3.66415
G1 E1.66415 F2400.00000
G92 E0
G1 X63.041 Y113.966 F30000.000
G1 E2.00000 F2400.00000
G1 F2100
G1 X63.041 Y121.166 E2.21378
G1 X56.913 Y121.166 E2.39574
G1 X56.913 Y113.966 E2.60951
G1 X62.981 Y113.966 E2.78968
G1 X63.424 Y113.852 F30000.000
G1 X63.398 Y113.609 F30000.000
G1 F2100
G1 X63.398 Y121.523 E3.02466
G1 X56.556 Y121.523 E3.22783
G1 X56.556 Y113.609 E3.46281
G1 X63.338 Y113.609 E3.66418
G1 E1.66418 F2400.00000
G92 E0
G1 X63.717 Y107.400 F30000.000
G1 E2.00000 F2400.00000
G1 F2100
G1 X69.162 Y101.956 E2.23039
G1 X69.162 Y101.447 E2.24561
G1 X63.717 Y106.892 E2.47600
G1 X63.717 Y106.383 E2.49123
G1 X69.162 Y100.938 E2.72161
G1 X69.162 Y100.429 E2.73684
G1 X63.717 Y105.874 E2.96723
G1 X63.717 Y105.365 E2.98245
G1 X69.162 Y99.920 E3.21284
G1 X69.162 Y99.411 E3.22807
G1 X63.717 Y104.856 E3.45845
G1 X63.717 Y104.347 E3.47368
G1 X69.162 Y98.902 E3.70407
G1 X69.162 Y98.393 E3.71929
G1 X63.717 Y103.838 E3.94968
G1 X63.717 Y103.329 E3.96491
G1 X69.162 Y97.885 E4.19529
G1 X69.162 Y97.376 E4.21052
G1 X63.717 Y102.821 E4.44091
G1 X63.717 Y102.312 E4.45613
G1 X69.190 Y96.839 E4.68771
G1 X69.190 Y96.330 E4.70293
G1 X63.717 Y101.803 E4.93450
G1 X63.717 Y101.294 E4.94973
G1 X69.190 Y95.821 E5.18130
G1 X69.190 Y95.312 E5.19653
G1 X63.717 Y100.785 E5.42810
G1 X63.717 Y100.276 E5.44333
G1 X69.190 Y94.803 E5.67490
G1 X69.190 Y94.294 E5.69012
G1 X63.717 Y99.767 E5.92170
G1 X63.717 Y99.259 E5.93692
G1 X69.190 Y93.786 E6.16849
G1 X69.190 Y93.277 E6.18372
G1 X63.578 Y98.889 E6.42118
G1 X63.069 Y98.889 E6.43640
G1 X69.190 Y92.768 E6.69539
G1 X69.190 Y92.259 E6.71062
G1 X62.560 Y98.889 E6.99114
G1 X62.051 Y98.889 E7.00637
G1 X69.190 Y91.750 E7.30842
G1 X69.190 Y91.241 E7.32365
G1 X61.542 Y98.889 E7.64723
G1 X61.033 Y98.889 E7.66246
G1 X69.190 Y90.732 E8.00757
G1 X69.190 Y90.224 E8.02280
G1 X60.525 Y98.889 E8.38945
G1 X60.016 Y98.889 E8.40467
G1 X69.190 Y89.715 E8.79285
G1 X69.190 Y89.206 E8.80808
G1 X59.507 Y98.889 E9.21779
G1 X58.998 Y98.889 E9.23302
G1 X69.190 Y88.697 E9.66426
G1 X69.190 Y88.188 E9.67949
G1 X58.489 Y98.889 E10.13226
G1 X57.980 Y98.889 E10.14749
G1 X69.190 Y87.679 E10.62179
G1 X69.190 Y87.170 E10.63702
G1 X57.471 Y98.889 E11.13286
G1 X56.962 Y98.889 E11.14808
G1 X69.190 Y86.661 E11.66546
G1 X69.190 Y86.153 E11.68068
G1 X56.454 Y98.889 E12.21958
G1 X56.161 Y98.889 E12.22835
G1 X56.161 Y99.182 E12.23711
G1 E10.23711 F2400.00000
G92 E0
G1 X56.161 Y113.430 F30000.000
G1 E2.00000 F2400.00000
G1 F2100
G1 X56.161 Y113.290 E2.00420
G1 X56.301 Y113.290 E2.00840
G1 X62.149 Y107.441 E2.25586
G1 X62.658 Y107.441 E2.27109
G1 X56.810 Y113.290 E2.51855
G1 X57.319 Y113.290 E2.53378
G1 X63.167 Y107.441 E2.78124
G1 X63.676 Y107.441 E2.79647
G1 X57.828 Y113.290 E3.04393
G1 X58.336 Y113.290 E3.05916
G1 X69.162 Y102.464 E3.51721
G1 X69.162 Y102.973 E3.53243
G1 X58.845 Y113.290 E3.96895
G1 X59.354 Y113.290 E3.98417
G1 X69.162 Y103.482 E4.39916
G1 X69.162 Y103.991 E4.41439
G1 X59.863 Y113.290 E4.80784
G1 X60.372 Y113.290 E4.82306
G1 X69.162 Y104.500 E5.19499
G1 X69.162 Y105.009 E5.21021
G1 X60.881 Y113.290 E5.56060
G1 X61.390 Y113.290 E5.57583
G1 X69.162 Y105.518 E5.90468
G1 X69.162 Y106.027 E5.91991
G1 X61.899 Y113.290 E6.22724
G1 X62.407 Y113.290 E6.24246
G1 X69.162 Y106.535 E6.52826
G1 X69.162 Y107.044 E6.54348
G1 X62.916 Y113.290 E6.80775
G1 X63.425 Y113.290 E6.82297
G1 X69.162 Y107.553 E7.06570
G1 X69.162 Y108.062 E7.08093
G1 X63.717 Y113.507 E7.31132
G1 X63.717 Y114.016 E7.32654
G1 X69.162 Y108.571 E7.55693
G1 X69.162 Y109.080 E7.57216
G1 X63.717 Y114.525 E7.80255
G1 X63.717 Y115.033 E7.81777
G1 X69.162 Y109.589 E8.04816
G1 X69.162 Y110.097 E8.06338
G1 X63.717 Y115.542 E8.29376
G1 X63.717 Y116.051 E8.30899
G1 X69.162 Y110.606 E8.53937
G1 X69.162 Y111.115 E8.55460
G1 X63.717 Y116.560 E8.78498
G1 X63.717 Y117.069 E8.80020
G1 X69.162 Y111.624 E9.03058
G1 X69.162 Y112.133 E9.04581
G1 X63.717 Y117.578 E9.27618
G1 X63.717 Y118.086 E9.29141
G1 X69.162 Y112.642 E9.52178
G1 X69.162 Y113.151 E9.53701
G1 X63.717 Y118.595 E9.76738
G1 X63.717 Y119.104 E9.78261
G1 X69.162 Y113.660 E10.01298
G1 X69.162 Y114.168 E10.02820
G1 X63.717 Y119.613 E10.25857
G1 X63.717 Y120.122 E10.27380
G1 X69.162 Y114.677 E10.50417
G1 X69.162 Y115.186 E10.51939
G1 X63.717 Y120.631 E10.74976
G1 X63.717 Y121.139 E10.76498
G1 X69.162 Y115.695 E10.99535
G1 X69.162 Y116.204 E11.01057
G1 X63.717 Y121.648 E11.24094
G1 E9.24094 F2400.00000
G92 E0
G1 X69.112 Y135.591 F30000.000
G1 E2.00000 F2400.00000
G1 F2100
G1 X69.188 Y135.515 E2.00321
G1 X69.188 Y135.006 E2.01844
G1 X68.686 Y135.508 E2.03967
G1 X68.260 Y135.425 E2.05265
G1 X69.188 Y134.497 E2.09191
G1 X69.188 Y133.988 E2.10713
G1 X67.834 Y135.342 E2.16441
G1 X67.408 Y135.259 E2.17739
G1 X69.188 Y133.480 E2.25269
G1 X69.188 Y132.971 E2.26792
G1 X66.982 Y135.176 E2.36124
G1 X66.556 Y135.093 E2.37423
G1 X69.188 Y132.462 E2.48557
G1 X69.188 Y131.953 E2.50080
G1 X66.130 Y135.010 E2.63017
G1 X65.714 Y134.918 E2.64292
G1 X69.188 Y131.444 E2.78990
G1 X69.188 Y130.935 E2.80513
G1 X65.346 Y134.777 E2.96768
G1 X64.982 Y134.632 E2.97940
G1 X69.188 Y130.426 E3.15736
G1 X69.188 Y129.917 E3.17258
G1 X64.640 Y134.465 E3.36501
G1 X64.298 Y134.298 E3.37640
G1 X69.188 Y129.409 E3.58330
G1 X69.188 Y128.900 E3.59852
G1 X63.956 Y134.132 E3.81990
G1 X63.614 Y133.965 E3.83129
G1 X69.188 Y128.391 E4.06714
G1 X69.188 Y127.882 E4.08236
G1 X63.272 Y133.798 E4.33268
G1 X62.930 Y133.631 E4.34407
G1 X69.188 Y127.373 E4.60887
G1 X69.188 Y126.864 E4.62409
G1 X62.588 Y133.464 E4.90336
G1 X62.246 Y133.298 E4.91475
G1 X69.188 Y126.355 E5.20849
G1 X69.188 Y125.846 E5.22372
G1 X61.903 Y133.131 E5.53193
G1 X61.561 Y132.964 E5.54332
G1 X69.188 Y125.338 E5.86601
G1 X69.188 Y124.829 E5.88123
G1 X61.219 Y132.797 E6.21840
G1 X60.877 Y132.630 E6.22978
G1 X69.162 Y124.346 E6.58032
G1 X69.162 Y123.837 E6.59554
G1 X60.535 Y132.463 E6.96055
G1 X60.193 Y132.297 E6.97194
G1 X69.162 Y123.328 E7.35142
G1 X69.162 Y122.819 E7.36665
G1 X59.851 Y132.130 E7.76061
G1 X59.509 Y131.963 E7.77199
G1 X69.162 Y122.310 E8.18042
G1 X69.162 Y121.802 E8.19565
G1 X59.167 Y131.796 E8.61855
G1 X58.825 Y131.629 E8.62994
G1 X69.162 Y121.293 E9.06731
G1 X69.162 Y120.784 E9.08254
G1 X58.483 Y131.463 E9.53439
G1 X58.141 Y131.296 E9.54577
G1 X69.162 Y120.275 E10.01210
G1 X69.162 Y119.766 E10.02732
G1 X57.799 Y131.129 E10.50812
G1 X57.457 Y130.962 E10.51951
G1 X69.162 Y119.257 E11.01478
G1 X69.162 Y118.748 E11.03000
G1 X57.115 Y130.795 E11.53974
G1 X57.000 Y130.739 E11.54357
G1 X56.807 Y130.594 E11.55079
G1 X69.162 Y118.239 E12.07355
G1 X69.162 Y117.731 E12.08877
G1 X56.517 Y130.375 E12.62381
G1 X56.227 Y130.157 E12.63469
G1 X69.162 Y117.222 E13.18200
G1 X69.162 Y116.713 E13.19723
G1 X55.936 Y129.938 E13.75683
G1 X55.646 Y129.719 E13.76770
G1 X63.523 Y121.842 E14.10100
G1 X63.015 Y121.842 E14.11623
G1 X55.356 Y129.501 E14.44028
G1 X55.066 Y129.282 E14.45115
G1 X62.506 Y121.842 E14.76594
G1 X61.997 Y121.842 E14.78117
G1 X54.776 Y129.063 E15.08671
G1 X54.486 Y128.845 E15.09758
G1 X61.488 Y121.842 E15.39388
