; generated by Slic3r 1.3.0 on 2021-11-27 at 03:28:58

; external perimeters extrusion width = 0.44mm (2.78mm^3/s)
; perimeters extrusion width = 0.40mm (7.14mm^3/s)
; infill extrusion width = 0.50mm (10.97mm^3/s)
; solid infill extrusion width = 0.60mm (6.68mm^3/s)
; top infill extrusion width = 0.40mm (2.14mm^3/s)

M107
M190 S80 ; set bed temperature and wait for it to be reached
M104 S210 ; set temperature
G28 ; home all axes
G1 Z5 F5000 ; lift nozzle

; Filament gcode

M109 S210 ; set temperature and wait for it to be reached
G21 ; set units to millimeters
G90 ; use absolute coordinates
M82 ; use absolute distances for extrusion
G92 E0
G1 Z0.300 F30000.000
G1 E-2.00000 F2400.00000
G92 E0
G1 X35.875 Y54.036 F30000.000
G1 E2.00000 F2400.00000
G1 F2100
G1 X37.905 Y52.798 E2.15882
G1 X51.811 Y48.280 E3.13565
G1 X54.528 Y48.153 E3.31735
G1 X88.913 Y55.883 E5.67175
G1 X91.421 Y57.264 E5.86305
G1 X94.071 Y59.914 E6.11341
G1 X95.191 Y61.593 E6.24826
G1 X95.578 Y63.574 E6.38310
G1 X94.877 Y66.142 E6.56090
G1 X93.576 Y68.371 E6.73334
G1 X91.859 Y70.140 E6.89802
G1 X88.180 Y72.439 E7.18785
G1 X86.809 Y73.039 E7.28780
G1 X54.755 Y81.790 E9.50759
G1 X51.811 Y81.720 E9.70428
G1 X37.905 Y77.202 E10.68111
G1 X36.145 Y76.213 E10.81595
G1 X34.901 Y74.624 E10.95079
G1 X34.352 Y72.311 E11.10961
G1 X34.352 Y57.689 E12.08643
G1 X34.748 Y55.710 E12.22127
G1 X35.842 Y54.085 E12.35211
G1 X36.402 Y54.274 F30000.000
G1 F2100
G1 X38.071 Y53.308 E12.48093
G1 X51.977 Y48.789 E13.45775
G1 X54.411 Y48.676 E13.62053
G1 X88.796 Y56.405 E15.97494
G1 X91.043 Y57.642 E16.14630
G1 X93.693 Y60.292 E16.39667
G1 X94.734 Y61.893 E16.52422
G1 X95.036 Y63.778 E16.65178
G1 X94.414 Y65.872 E16.79769
G1 X93.113 Y68.101 E16.97014
G1 X91.575 Y69.686 E17.11766
G1 X87.896 Y71.985 E17.40749
G1 X86.668 Y72.523 E17.49704
G1 X54.614 Y81.274 E19.71682
G1 X51.977 Y81.211 E19.89303
G1 X38.071 Y76.692 E20.86985
G1 X36.416 Y75.739 E20.99741
G1 X35.291 Y74.197 E21.12496
G1 X34.887 Y72.311 E21.25378
G1 X34.887 Y57.689 E22.23060
G1 X35.283 Y55.821 E22.35816
G1 X36.367 Y54.323 E22.48170
G1 X36.927 Y54.529 F30000.000
G1 F2100
G1 X38.236 Y53.817 E22.58129
G1 X52.142 Y49.299 E23.55812
G1 X54.293 Y49.198 E23.70197
G1 X88.678 Y56.928 E26.05638
G1 X90.664 Y58.021 E26.20782
G1 X93.314 Y60.671 E26.45819
G1 X94.272 Y62.188 E26.57801
G1 X94.485 Y63.969 E26.69783
G1 X93.951 Y65.602 E26.81262
G1 X92.650 Y67.831 E26.98506
G1 X91.292 Y69.232 E27.11543
G1 X87.612 Y71.531 E27.40526
G1 X86.527 Y72.006 E27.48440
G1 X54.473 Y80.757 E29.70418
G1 X52.142 Y80.701 E29.85990
G1 X38.236 Y76.183 E30.83673
G1 X36.694 Y75.267 E30.95655
G1 X35.696 Y73.777 E31.07637
G1 X35.423 Y72.311 E31.17596
G1 X35.423 Y57.689 E32.15279
G1 X35.818 Y55.939 E32.27261
G1 X36.889 Y54.577 E32.38842
G1 X37.448 Y54.806 F30000.000
G1 F2100
G1 X38.402 Y54.326 E32.45972
G1 X52.308 Y49.808 E33.43655
G1 X54.176 Y49.721 E33.56148
G1 X88.561 Y57.450 E35.91588
G1 X90.285 Y58.400 E36.04740
G1 X92.935 Y61.050 E36.29777
G1 X93.804 Y62.476 E36.40933
G1 X93.921 Y64.142 E36.52088
G1 X93.489 Y65.332 E36.60546
G1 X92.188 Y67.561 E36.77790
G1 X91.008 Y68.778 E36.89112
G1 X87.329 Y71.077 E37.18095
G1 X86.386 Y71.489 E37.24968
G1 X54.332 Y80.240 E39.46946
G1 X52.308 Y80.192 E39.60469
G1 X38.402 Y75.674 E40.58152
G1 X36.980 Y74.797 E40.69308
G1 X36.120 Y73.366 E40.80463
G1 X35.959 Y72.311 E40.87593
G1 X35.959 Y57.689 E41.85276
G1 X36.353 Y56.066 E41.96432
G1 X37.409 Y54.851 E42.07187
G1 E40.07187 F2400.00000
G92 E0
G1 X71.925 Y68.948 F30000.000
G1 E2.00000 F2400.00000
G1 F2100
G1 X70.493 Y70.381 E2.15164
G1 X69.482 Y70.799 E2.23349
G1 X68.242 Y70.799 E2.32631
G1 X68.126 Y70.847 E2.33569
G1 X67.543 Y71.431 E2.39744
G1 X66.532 Y71.849 E2.47929
G1 X64.941 Y71.849 E2.59837
G1 X64.756 Y72.034 E2.61790
G1 X64.756 Y72.314 E2.63885
G1 X63.146 Y73.924 E2.80930
G1 X58.994 Y73.924 E3.11996
G1 X58.860 Y73.993 E3.13128
G1 X55.100 Y79.168 E3.60999
G1 X53.400 Y79.720 E3.74369
G1 X37.795 Y74.650 E4.97164
G1 X36.745 Y73.204 E5.10534
G1 X36.745 Y56.796 E6.33329
G1 X37.795 Y55.350 E6.46699
G1 X53.400 Y50.280 E7.69494
G1 X55.100 Y50.832 E7.82864
G1 X58.860 Y56.007 E8.30735
G1 X58.994 Y56.076 E8.31867
G1 X63.146 Y56.076 E8.62933
G1 X64.756 Y57.686 E8.79978
G1 X64.756 Y57.966 E8.82073
G1 X64.941 Y58.151 E8.84026
G1 X88.332 Y58.151 E10.59075
G1 X89.343 Y58.569 E10.67260
G1 X93.678 Y62.905 E11.13147
G1 X92.218 Y66.431 E11.41707
G1 X92.212 Y66.537 E11.42506
G1 X92.348 Y67.013 E11.46209
G1 X86.098 Y70.919 E12.01366
G1 X84.029 Y70.683 E12.16949
G1 X83.893 Y70.731 E12.18027
G1 X83.193 Y71.431 E12.25438
G1 X82.182 Y71.849 E12.33623
G1 X80.880 Y71.849 E12.43369
G1 X80.119 Y71.534 E12.49534
G1 X79.993 Y71.534 E12.50472
G1 X79.232 Y71.849 E12.56638
G1 X77.930 Y71.849 E12.66384
G1 X76.919 Y71.431 E12.74569
G1 X76.090 Y70.602 E12.83345
G1 X75.974 Y70.554 E12.84283
G1 X73.792 Y70.554 E13.00613
G1 X72.186 Y68.948 E13.17607
G1 X71.985 Y68.948 E13.19110
G1 X71.925 Y68.099 F30000.000
G1 F2100
G1 X70.153 Y69.872 E13.37872
G1 X69.363 Y70.199 E13.44271
G1 X67.993 Y70.199 E13.54519
G1 X67.877 Y70.247 E13.55456
G1 X67.203 Y70.922 E13.62598
G1 X66.413 Y71.249 E13.68997
G1 X64.341 Y71.249 E13.84503
G1 X64.156 Y71.434 E13.86455
G1 X64.156 Y72.065 E13.91181
G1 X62.897 Y73.324 E14.04506
G1 X58.689 Y73.324 E14.36000
G1 X58.554 Y73.393 E14.37132
G1 X54.729 Y78.658 E14.85832
G1 X53.400 Y79.089 E14.96284
G1 X38.166 Y74.139 E16.16161
G1 X37.345 Y73.009 E16.26613
G1 X37.345 Y56.991 E17.46490
G1 X38.166 Y55.861 E17.56943
G1 X53.400 Y50.911 E18.76819
G1 X54.729 Y51.342 E18.87272
G1 X58.554 Y56.607 E19.35972
G1 X58.689 Y56.676 E19.37103
G1 X62.897 Y56.676 E19.68598
G1 X64.156 Y57.935 E19.81923
G1 X64.156 Y58.566 E19.86648
G1 X64.341 Y58.751 E19.88601
G1 X88.213 Y58.751 E21.67247
G1 X89.003 Y59.078 E21.73646
G1 X92.971 Y63.046 E22.15639
G1 X91.871 Y65.699 E22.37134
G1 X91.608 Y65.699 E22.39103
G1 X91.419 Y65.950 E22.41454
G1 X91.647 Y66.744 E22.47633
G1 X85.957 Y70.299 E22.97837
G1 X84.466 Y70.129 E23.09072
G1 X84.186 Y69.849 E23.12030
G1 X83.925 Y69.849 E23.13983
G1 X82.853 Y70.922 E23.25336
G1 X82.063 Y71.249 E23.31735
G1 X80.999 Y71.249 E23.39695
G1 X80.122 Y70.899 E23.46758
G1 X79.928 Y70.911 E23.48213
G1 X79.113 Y71.249 E23.54821
G1 X78.049 Y71.249 E23.62781
G1 X77.259 Y70.922 E23.69180
G1 X76.186 Y69.849 E23.80533
G1 X75.925 Y69.849 E23.82485
G1 X75.821 Y69.954 E23.83589
G1 X74.041 Y69.954 E23.96914
G1 X72.186 Y68.099 E24.16537
G1 X71.985 Y68.099 E24.18041
G1 E22.18041 F2400.00000
G92 E0
G1 X63.741 Y70.649 F30000.000
G1 E2.00000 F2400.00000
G1 F2100
G1 X63.556 Y70.834 E2.01953
G1 X63.556 Y71.817 E2.09308
G1 X62.649 Y72.724 E2.18914
G1 X58.383 Y72.724 E2.50836
G1 X58.248 Y72.793 E2.51968
G1 X54.358 Y78.147 E3.01496
G1 X53.400 Y78.459 E3.09031
G1 X38.537 Y73.629 E4.25990
G1 X37.945 Y72.814 E4.33525
G1 X37.945 Y57.186 E5.50483
G1 X38.537 Y56.371 E5.58018
G1 X53.400 Y51.541 E6.74977
G1 X54.358 Y51.853 E6.82512
G1 X58.248 Y57.207 E7.32040
G1 X58.383 Y57.276 E7.33172
G1 X62.649 Y57.276 E7.65094
G1 X63.556 Y58.183 E7.74700
G1 X63.556 Y59.166 E7.82055
G1 X63.741 Y59.351 E7.84008
G1 X88.093 Y59.351 E9.66251
G1 X88.663 Y59.586 E9.70864
G1 X92.263 Y63.186 E10.08964
G1 X91.470 Y65.099 E10.24458
G1 X90.812 Y65.099 E10.29386
G1 X90.623 Y65.350 E10.31736
G1 X90.945 Y66.475 E10.40490
G1 X85.817 Y69.679 E10.85743
G1 X84.742 Y69.557 E10.93842
G1 X84.483 Y69.297 E10.96585
G1 X84.367 Y69.249 E10.97523
G1 X83.745 Y69.249 E11.02180
G1 X83.629 Y69.297 E11.03117
G1 X82.513 Y70.414 E11.14930
G1 X81.943 Y70.649 E11.19543
G1 X81.118 Y70.649 E11.25717
G1 X80.549 Y70.413 E11.30330
G1 X80.483 Y70.347 E11.31029
G1 X80.367 Y70.299 E11.31967
G1 X79.745 Y70.299 E11.36624
G1 X79.629 Y70.347 E11.37562
G1 X79.563 Y70.414 E11.38262
G1 X78.993 Y70.649 E11.42875
G1 X78.168 Y70.649 E11.49048
G1 X77.599 Y70.414 E11.53661
G1 X76.483 Y69.297 E11.65474
G1 X76.367 Y69.249 E11.66411
G1 X75.745 Y69.249 E11.71068
G1 X75.629 Y69.297 E11.72006
G1 X75.573 Y69.354 E11.72602
G1 X74.289 Y69.354 E11.82207
G1 X72.483 Y67.547 E12.01324
G1 X72.367 Y67.499 E12.02262
G1 X71.745 Y67.499 E12.06919
G1 X71.629 Y67.547 E12.07856
G1 X69.813 Y69.364 E12.27077
G1 X69.243 Y69.599 E12.31690
G1 X67.745 Y69.599 E12.42905
G1 X67.629 Y69.647 E12.43843
G1 X66.863 Y70.413 E12.51951
G1 X66.293 Y70.649 E12.56564
G1 X63.801 Y70.649 E12.75217
G1 X63.141 Y70.049 F30000.000
G1 F2100
G1 X62.956 Y70.234 E12.77170
G1 X62.956 Y71.568 E12.87156
G1 X62.400 Y72.124 E12.93042
G1 X58.077 Y72.124 E13.25392
G1 X57.942 Y72.193 E13.26524
G1 X53.987 Y77.637 E13.76881
G1 X53.400 Y77.828 E13.81498
G1 X38.907 Y73.119 E14.95539
G1 X38.545 Y72.619 E15.00156
G1 X38.545 Y57.381 E16.14197
G1 X38.907 Y56.881 E16.18814
G1 X53.400 Y52.172 E17.32854
G1 X53.987 Y52.363 E17.37471
G1 X57.942 Y57.807 E17.87829
G1 X58.077 Y57.876 E17.88961
G1 X62.400 Y57.876 E18.21311
G1 X62.956 Y58.432 E18.27197
G1 X62.956 Y59.766 E18.37182
G1 X63.141 Y59.951 E18.39135
G1 X87.974 Y59.951 E20.24975
G1 X88.323 Y60.095 E20.27802
G1 X91.555 Y63.327 E20.62008
G1 X91.069 Y64.499 E20.71502
G1 X90.016 Y64.499 E20.79388
G1 X89.827 Y64.750 E20.81739
G1 X90.244 Y66.205 E20.93068
G1 X85.677 Y69.059 E21.33369
G1 X85.018 Y68.984 E21.38331
G1 X84.731 Y68.697 E21.41367
G1 X84.615 Y68.649 E21.42305
G1 X83.496 Y68.649 E21.50681
G1 X83.380 Y68.697 E21.51619
G1 X82.173 Y69.905 E21.64398
G1 X81.824 Y70.049 E21.67225
G1 X81.238 Y70.049 E21.71612
G1 X80.889 Y69.905 E21.74439
G1 X80.731 Y69.747 E21.76105
G1 X80.615 Y69.699 E21.77043
G1 X79.496 Y69.699 E21.85420
G1 X79.380 Y69.747 E21.86357
G1 X79.223 Y69.905 E21.88024
G1 X78.874 Y70.049 E21.90851
G1 X78.288 Y70.049 E21.95238
G1 X77.939 Y69.905 E21.98065
G1 X76.731 Y68.697 E22.10844
G1 X76.615 Y68.649 E22.11782
G1 X75.496 Y68.649 E22.20158
G1 X75.380 Y68.697 E22.21096
G1 X75.324 Y68.754 E22.21692
G1 X74.538 Y68.754 E22.27578
G1 X72.731 Y66.947 E22.46695
G1 X72.615 Y66.899 E22.47633
G1 X71.496 Y66.899 E22.56009
G1 X71.380 Y66.947 E22.56947
G1 X69.473 Y68.855 E22.77134
G1 X69.124 Y68.999 E22.79961
G1 X67.496 Y68.999 E22.92142
G1 X67.380 Y69.047 E22.93080
G1 X66.523 Y69.905 E23.02155
G1 X66.174 Y70.049 E23.04982
G1 X63.201 Y70.049 E23.27232
G1 X62.541 Y69.449 F30000.000
G1 F2100
G1 X62.356 Y69.634 E23.29185
G1 X62.356 Y71.320 E23.41801
G1 X62.152 Y71.524 E23.43967
G1 X57.772 Y71.524 E23.76745
G1 X57.637 Y71.593 E23.77877
G1 X53.616 Y77.127 E24.29063
G1 X53.400 Y77.197 E24.30762
G1 X39.278 Y72.608 E25.41885
G1 X39.145 Y72.424 E25.43584
G1 X39.145 Y57.575 E26.54707
G1 X39.278 Y57.392 E26.56406
G1 X53.400 Y52.803 E27.67529
G1 X53.616 Y52.873 E27.69228
G1 X57.637 Y58.407 E28.20415
G1 X57.772 Y58.476 E28.21547
G1 X62.152 Y58.476 E28.54325
G1 X62.356 Y58.680 E28.56491
G1 X62.356 Y60.366 E28.69107
G1 X62.541 Y60.551 E28.71060
G1 X87.855 Y60.551 E30.60497
G1 X87.983 Y60.604 E30.61537
G1 X90.847 Y63.468 E30.91850
G1 X90.669 Y63.899 E30.95344
G1 X62.541 Y63.899 E33.05839
G1 X62.356 Y64.084 E33.07792
G1 X62.356 Y65.246 E33.16485
G1 X62.541 Y65.430 E33.18438
G1 X89.397 Y65.430 E35.19421
G1 X89.543 Y65.936 E35.23362
G1 X85.537 Y68.439 E35.58711
G1 X85.294 Y68.412 E35.60538
G1 X84.980 Y68.097 E35.63865
G1 X84.864 Y68.049 E35.64803
G1 X83.248 Y68.049 E35.76899
G1 X83.132 Y68.097 E35.77837
G1 X81.833 Y69.396 E35.91583
G1 X81.705 Y69.449 E35.92623
G1 X81.357 Y69.449 E35.95224
G1 X81.229 Y69.396 E35.96264
G1 X80.980 Y69.147 E35.98898
G1 X80.864 Y69.099 E35.99836
G1 X79.248 Y69.099 E36.11932
G1 X79.132 Y69.147 E36.12869
G1 X78.883 Y69.396 E36.15503
G1 X78.755 Y69.449 E36.16543
G1 X78.407 Y69.449 E36.19144
G1 X78.279 Y69.396 E36.20184
G1 X76.980 Y68.097 E36.33931
G1 X76.864 Y68.049 E36.34868
G1 X75.248 Y68.049 E36.46964
G1 X75.132 Y68.097 E36.47902
G1 X75.076 Y68.154 E36.48498
G1 X74.786 Y68.154 E36.50664
G1 X72.980 Y66.347 E36.69781
G1 X72.864 Y66.299 E36.70719
G1 X71.248 Y66.299 E36.82815
G1 X71.132 Y66.347 E36.83753
G1 X69.133 Y68.346 E37.04907
G1 X69.005 Y68.399 E37.05948
G1 X67.248 Y68.399 E37.19096
G1 X67.132 Y68.447 E37.20034
G1 X66.183 Y69.396 E37.30076
G1 X66.055 Y69.449 E37.31116
G1 X62.601 Y69.449 E37.56963
G1 E35.56963 F2400.00000
G92 E0
G1 X39.930 Y62.460 F30000.000
G1 E2.00000 F2400.00000
G1 F2100
G1 X39.930 Y67.540 E2.51111
G1 E0.51111 F2400.00000
G92 E0
G1 X40.494 Y68.775 F30000.000
G1 X85.600 Y66.809 F30000.000
G1 X85.498 Y67.698 F30000.000
G1 E2.00000 F2400.00000
G1 F2100
G1 X85.201 Y67.400 E2.02811
G1 X82.911 Y67.400 E2.18109
G1 X81.531 Y68.780 E2.31147
G1 X81.201 Y68.450 E2.34265
G1 X78.911 Y68.450 E2.49563
G1 X78.581 Y68.780 E2.52681
G1 X77.201 Y67.400 E2.65720
G1 X74.951 Y67.400 E2.80751
G1 X73.630 Y66.079 E2.93227
G1 X87.649 Y66.079 E3.86878
G1 X87.715 Y66.312 E3.88496
G1 X85.549 Y67.666 E4.05559
G1 X85.413 Y67.307 F30000.000
G1 X85.576 Y67.018 F30000.000
G1 F2100
G1 X85.173 Y66.615 E4.09362
G1 X85.781 Y66.615 E4.13420
G1 X85.847 Y66.848 E4.15038
G1 X85.627 Y66.986 E4.16777
G1 E2.16777 F2400.00000
G92 E0
G1 X82.938 Y66.615 F30000.000
G1 E2.00000 F2400.00000
G1 F2100
G1 X81.531 Y68.023 E2.13298
G1 X81.423 Y67.914 E2.14320
G1 X78.689 Y67.914 E2.32582
G1 X78.581 Y68.023 E2.33604
G1 X77.173 Y66.615 E2.46902
G1 X82.878 Y66.615 E2.85014
G1 E0.85014 F2400.00000
G92 E0
G1 X72.991 Y65.865 F30000.000
G1 E2.00000 F2400.00000
G1 F2100
G1 X71.120 Y65.865 E2.02478
G1 E0.02478 F2400.00000
G92 E0
G1 X61.707 Y66.079 F30000.000
G1 E2.00000 F2400.00000
G1 F2100
G1 X70.481 Y66.079 E2.58619
G1 X68.811 Y67.750 E2.74402
G1 X66.911 Y67.750 E2.87095
G1 X65.861 Y68.800 E2.97015
G1 X61.707 Y68.800 E3.24767
G1 X61.707 Y70.875 E3.38629
G1 X57.356 Y70.875 E3.67696
G1 X53.286 Y76.477 E4.13953
G1 X39.794 Y72.093 E5.08724
G1 X39.794 Y67.811 E5.37328
G1 X45.580 Y69.691 E5.77971
G1 X48.988 Y65.000 E6.16709
G1 X45.580 Y60.309 E6.55447
G1 X39.794 Y62.189 E6.96090
G1 X39.794 Y57.907 E7.24694
G1 X53.286 Y53.523 E8.19465
G1 X57.356 Y59.125 E8.65722
G1 X61.707 Y59.125 E8.94789
G1 X61.707 Y61.200 E9.08651
G1 X87.661 Y61.200 E10.82038
G1 X89.711 Y63.250 E11.01406
G1 X61.707 Y63.250 E12.88488
G1 X61.707 Y66.019 E13.06989
G1 X61.519 Y66.432 F30000.000
G1 X61.171 Y66.615 F30000.000
G1 F2100
G1 X69.188 Y66.615 E13.60548
G1 X68.589 Y67.214 E13.66210
G1 X66.689 Y67.214 E13.78903
G1 X65.639 Y68.264 E13.88824
G1 X61.171 Y68.264 E14.18671
G1 X61.171 Y70.339 E14.32533
G1 X57.083 Y70.339 E14.59845
G1 X53.081 Y75.847 E15.05326
G1 X40.330 Y71.704 E15.94897
G1 X40.330 Y68.548 E16.15977
G1 X45.785 Y70.321 E16.54294
G1 X49.651 Y65.000 E16.98231
G1 X45.785 Y59.679 E17.42169
G1 X40.330 Y61.452 E17.80486
G1 X40.330 Y58.296 E18.01566
G1 X53.081 Y54.153 E18.91137
G1 X57.083 Y59.661 E19.36618
G1 X61.171 Y59.661 E19.63930
G1 X61.171 Y61.736 E19.77792
G1 X87.439 Y61.736 E21.53275
G1 X88.418 Y62.714 E21.62522
G1 X61.171 Y62.714 E23.44544
G1 X61.171 Y66.555 E23.70202
G1 E21.70202 F2400.00000
G92 E0
G1 X60.903 Y62.225 F30000.000
G1 E2.00000 F2400.00000
G1 F2100
G1 X87.550 Y62.225 E3.25881
G1 E1.25881 F2400.00000
G92 E0
G1 X87.236 Y62.225 F30000.000
G1 X85.570 Y66.779 F30000.000
G1 X84.919 Y66.740 F30000.000
G1 E2.00000 F2400.00000
G1 F2100
G1 X83.192 Y66.740 E2.15520
G1 X81.910 Y67.265 F30000.000
G1 F2100
G1 X78.202 Y67.265 E2.47865
G1 X76.919 Y66.740 F30000.000
G1 F2100
G1 X74.669 Y66.740 E2.68087
G1 E0.68087 F2400.00000
G92 E0
G1 X75.320 Y66.779 F30000.000
G1 X65.297 Y67.440 F30000.000
G1 X65.360 Y67.786 F30000.000
G1 E2.00000 F2400.00000
G1 F2100
G1 X66.052 Y67.094 E2.06588
G1 X65.288 Y67.094 E2.11729
G1 X64.597 Y67.786 E2.18317
G1 X63.833 Y67.786 E2.23458
G1 X64.525 Y67.094 E2.30046
G1 X63.761 Y67.094 E2.35188
G1 X63.070 Y67.786 E2.41775
G1 X62.306 Y67.786 E2.46917
G1 X62.998 Y67.094 E2.53505
G1 X62.234 Y67.094 E2.58646
G1 X61.543 Y67.786 E2.65234
G1 X60.779 Y67.786 E2.70375
G1 X61.471 Y67.094 E2.76963
G1 X60.707 Y67.094 E2.82104
G1 X57.941 Y69.861 E3.08453
G1 X57.177 Y69.861 E3.13594
G1 X60.692 Y66.345 E3.47072
G1 X60.692 Y65.582 E3.52213
G1 X51.446 Y74.828 E4.40266
G1 X50.870 Y74.641 E4.44346
G1 X60.692 Y64.818 E5.37887
G1 X60.692 Y64.055 E5.43028
G1 X50.294 Y74.453 E6.42057
G1 X49.717 Y74.266 E6.46137
G1 X60.692 Y63.291 E7.50654
G1 X60.692 Y62.925 E7.53117
G1 X60.425 Y62.925 E7.54920
G1 X60.425 Y62.795 E7.55796
