; generated by Slic3r 1.3.0 on 2023-10-27 at 22:59:29

; external perimeters extrusion width = 0.44mm (2.78mm^3/s)
; perimeters extrusion width = 0.40mm (7.14mm^3/s)
; infill extrusion width = 0.50mm (10.97mm^3/s)
; solid infill extrusion width = 0.60mm (6.68mm^3/s)
; top infill extrusion width = 0.40mm (2.14mm^3/s)

M107
M190 S80 ; set bed temperature and wait for it to be reached
M104 S210 ; set temperature
G28 ; home all axes
G1 Z5 F5000 ; lift nozzle

; Filament gcode

M109 S210 ; set temperature and wait for it to be reached
G21 ; set units to millimeters
G90 ; use absolute coordinates
M82 ; use absolute distances for extrusion
G92 E0
G1 Z0.300 F30000.000
G1 E-2.00000 F2400.00000
G92 E0
G1 X56.240 Y54.910 F30000.000
G1 E2.00000 F2400.00000
G1 F2100
G1 X58.086 Y53.283 E2.16434
G1 X59.572 Y52.130 E2.29004
G1 X61.363 Y50.902 E2.43506
G1 X63.480 Y49.650 E2.59940
G1 X65.418 Y48.672 E2.74442
G1 X67.414 Y47.819 E2.88944
G1 X69.184 Y47.181 E3.01514
G1 X71.266 Y46.567 E3.16016
G1 X73.667 Y46.030 E3.32450
G1 X75.526 Y45.736 E3.45025
G1 X77.686 Y45.523 E3.59522
G1 X80.145 Y45.445 E3.75956
G1 X82.025 Y45.505 E3.88526
G1 X84.187 Y45.700 E4.03028
G1 X86.617 Y46.085 E4.19462
G1 X88.733 Y46.567 E4.33963
G1 X90.540 Y47.092 E4.46533
G1 X92.855 Y47.925 E4.62968
G1 X94.844 Y48.796 E4.77470
G1 X96.774 Y49.789 E4.91972
G1 X98.393 Y50.747 E5.04541
G1 X100.194 Y51.960 E5.19043
G1 X102.137 Y53.467 E5.35478
G1 X103.549 Y54.712 E5.48047
G1 X105.090 Y56.240 E5.62550
G1 X106.717 Y58.086 E5.78984
G1 X107.870 Y59.572 E5.91553
G1 X109.098 Y61.363 E6.06055
G1 X110.350 Y63.480 E6.22490
G1 X111.328 Y65.418 E6.36992
G1 X112.075 Y67.145 E6.49561
G1 X112.819 Y69.184 E6.64063
G1 X113.416 Y71.208 E6.78156
G1 X113.970 Y73.667 E6.94999
G1 X114.264 Y75.526 E7.07570
G1 X114.477 Y77.686 E7.22070
G1 X114.555 Y80.145 E7.38505
G1 X114.477 Y82.314 E7.53007
G1 X114.300 Y84.187 E7.65576
G1 X113.915 Y86.617 E7.82010
G1 X113.505 Y88.453 E7.94580
G1 X112.908 Y90.540 E8.09082
G1 X112.075 Y92.855 E8.25517
G1 X111.328 Y94.582 E8.38086
G1 X110.350 Y96.520 E8.52588
G1 X109.098 Y98.637 E8.69022
G1 X107.870 Y100.428 E8.83524
G1 X106.717 Y101.914 E8.96094
G1 X105.288 Y103.549 E9.10596
G1 X103.760 Y105.090 E9.25098
G1 X101.914 Y106.717 E9.41532
G1 X100.428 Y107.870 E9.54102
G1 X98.637 Y109.098 E9.68604
G1 X96.520 Y110.350 E9.85038
G1 X94.844 Y111.204 E9.97608
G1 X92.855 Y112.075 E10.12110
G1 X90.540 Y112.908 E10.28544
G1 X88.734 Y113.433 E10.41113
G1 X86.617 Y113.915 E10.55616
G1 X84.187 Y114.300 E10.72050
G1 X82.025 Y114.495 E10.86552
G1 X79.855 Y114.555 E11.01054
G1 X77.975 Y114.495 E11.13623
G1 X75.813 Y114.300 E11.28126
G1 X73.383 Y113.915 E11.44560
G1 X71.266 Y113.433 E11.59062
G1 X69.460 Y112.908 E11.71631
G1 X67.089 Y112.050 E11.88474
G1 X65.156 Y111.204 E12.02567
G1 X63.226 Y110.211 E12.17069
G1 X61.363 Y109.098 E12.31571
G1 X59.806 Y108.040 E12.44141
G1 X57.863 Y106.533 E12.60575
G1 X56.451 Y105.288 E12.73144
G1 X54.910 Y103.760 E12.87646
G1 X53.283 Y101.914 E13.04081
G1 X52.130 Y100.428 E13.16651
G1 X50.902 Y98.637 E13.31152
G1 X49.650 Y96.520 E13.47587
G1 X48.796 Y94.844 E13.60156
G1 X47.925 Y92.855 E13.74658
G1 X47.092 Y90.540 E13.91093
G1 X46.567 Y88.733 E14.03663
G1 X46.085 Y86.617 E14.18164
G1 X45.736 Y84.474 E14.32669
G1 X45.523 Y82.314 E14.47168
G1 X45.445 Y79.855 E14.63603
G1 X45.505 Y77.975 E14.76172
G1 X45.700 Y75.813 E14.90674
G1 X46.085 Y73.383 E15.07108
G1 X46.495 Y71.547 E15.19678
G1 X47.092 Y69.460 E15.34180
G1 X47.925 Y67.145 E15.50614
G1 X48.672 Y65.418 E15.63184
G1 X49.650 Y63.480 E15.77686
G1 X50.902 Y61.363 E15.94120
G1 X51.960 Y59.806 E16.06690
G1 X53.283 Y58.086 E16.21192
G1 X54.712 Y56.451 E16.35694
G1 X56.198 Y54.952 E16.49795
G1 X56.619 Y55.289 F30000.000
G1 F2100
G1 X58.414 Y53.706 E16.65780
G1 X59.901 Y52.553 E16.78350
G1 X61.664 Y51.345 E16.92627
G1 X63.723 Y50.127 E17.08612
G1 X65.631 Y49.164 E17.22889
G1 X67.596 Y48.323 E17.37166
G1 X69.366 Y47.685 E17.49736
G1 X71.416 Y47.081 E17.64013
G1 X73.751 Y46.559 E17.79998
G1 X75.610 Y46.265 E17.92573
G1 X77.736 Y46.056 E18.06845
G1 X80.128 Y45.981 E18.22830
G1 X82.008 Y46.040 E18.35400
G1 X84.137 Y46.233 E18.49677
G1 X86.500 Y46.607 E18.65662
G1 X88.584 Y47.081 E18.79939
G1 X90.391 Y47.606 E18.92509
G1 X92.642 Y48.417 E19.08494
G1 X94.369 Y49.164 E19.21063
G1 X96.277 Y50.127 E19.35341
G1 X98.120 Y51.208 E19.49618
G1 X99.893 Y52.403 E19.63895
G1 X101.783 Y53.869 E19.79880
G1 X103.195 Y55.114 E19.92450
G1 X104.711 Y56.619 E20.06728
G1 X106.294 Y58.414 E20.22712
G1 X107.447 Y59.901 E20.35282
G1 X108.655 Y61.664 E20.49559
G1 X109.873 Y63.723 E20.65544
G1 X110.836 Y65.631 E20.79821
G1 X111.583 Y67.358 E20.92391
G1 X112.315 Y69.366 E21.06668
G1 X112.902 Y71.357 E21.20536
G1 X113.441 Y73.751 E21.36930
G1 X113.735 Y75.610 E21.49500
G1 X113.944 Y77.736 E21.63776
G1 X114.019 Y80.128 E21.79761
G1 X113.944 Y82.264 E21.94039
G1 X113.767 Y84.137 E22.06608
G1 X113.393 Y86.500 E22.22593
G1 X112.982 Y88.336 E22.35163
G1 X112.394 Y90.391 E22.49440
G1 X111.583 Y92.642 E22.65425
G1 X110.836 Y94.369 E22.77995
G1 X109.873 Y96.277 E22.92272
G1 X108.655 Y98.336 E23.08257
G1 X107.597 Y99.893 E23.20826
G1 X106.294 Y101.586 E23.35104
G1 X104.886 Y103.195 E23.49381
G1 X103.381 Y104.711 E23.63658
G1 X101.586 Y106.294 E23.79643
G1 X100.099 Y107.447 E23.92213
G1 X98.336 Y108.655 E24.06490
G1 X96.277 Y109.873 E24.22475
G1 X94.600 Y110.727 E24.35045
G1 X92.642 Y111.583 E24.49322
G1 X90.391 Y112.394 E24.65307
G1 X88.584 Y112.919 E24.77876
G1 X86.500 Y113.393 E24.92154
G1 X84.390 Y113.735 E25.06434
G1 X82.264 Y113.944 E25.20708
G1 X79.872 Y114.019 E25.36693
G1 X77.992 Y113.960 E25.49263
G1 X75.863 Y113.767 E25.63540
G1 X73.500 Y113.393 E25.79525
G1 X71.416 Y112.919 E25.93803
G1 X69.609 Y112.394 E26.06372
G1 X67.302 Y111.559 E26.22765
G1 X65.400 Y110.727 E26.36634
G1 X63.499 Y109.750 E26.50911
G1 X61.880 Y108.792 E26.63480
G1 X60.107 Y107.597 E26.77758
G1 X58.217 Y106.131 E26.93743
G1 X56.805 Y104.886 E27.06312
G1 X55.289 Y103.381 E27.20590
G1 X53.706 Y101.586 E27.36575
G1 X52.553 Y100.099 E27.49145
G1 X51.345 Y98.336 E27.63421
G1 X50.127 Y96.277 E27.79407
G1 X49.273 Y94.600 E27.91976
G1 X48.417 Y92.642 E28.06253
G1 X47.606 Y90.391 E28.22238
G1 X47.081 Y88.584 E28.34808
G1 X46.607 Y86.500 E28.49085
G1 X46.265 Y84.390 E28.63365
G1 X46.056 Y82.264 E28.77640
G1 X45.981 Y79.872 E28.93625
G1 X46.040 Y77.992 E29.06194
G1 X46.233 Y75.863 E29.20472
G1 X46.607 Y73.500 E29.36457
G1 X47.018 Y71.664 E29.49026
G1 X47.606 Y69.609 E29.63303
G1 X48.417 Y67.358 E29.79288
G1 X49.273 Y65.400 E29.93566
G1 X50.127 Y63.723 E30.06135
G1 X51.345 Y61.664 E30.22120
G1 X52.553 Y59.901 E30.36397
G1 X53.706 Y58.414 E30.48967
G1 X55.114 Y56.805 E30.63244
G1 X56.577 Y55.331 E30.77121
G1 X56.998 Y55.667 F30000.000
G1 F2100
G1 X58.742 Y54.129 E30.92657
G1 X60.229 Y52.976 E31.05226
G1 X61.965 Y51.788 E31.19279
G1 X63.966 Y50.604 E31.34814
G1 X65.844 Y49.656 E31.48867
G1 X67.777 Y48.827 E31.62919
G1 X69.547 Y48.189 E31.75489
G1 X71.565 Y47.596 E31.89542
G1 X73.835 Y47.088 E32.05077
G1 X75.694 Y46.794 E32.17651
G1 X77.787 Y46.589 E32.31699
G1 X80.111 Y46.516 E32.47235
G1 X81.992 Y46.575 E32.59805
G1 X84.086 Y46.766 E32.73857
G1 X86.383 Y47.130 E32.89393
G1 X88.435 Y47.596 E33.03445
G1 X90.241 Y48.121 E33.16015
G1 X92.429 Y48.908 E33.31551
G1 X94.357 Y49.750 E33.45603
G1 X96.034 Y50.604 E33.58173
G1 X97.848 Y51.669 E33.72225
G1 X99.591 Y52.846 E33.86278
G1 X101.429 Y54.271 E34.01814
G1 X102.840 Y55.515 E34.14383
G1 X104.333 Y56.998 E34.28436
G1 X105.871 Y58.742 E34.43971
G1 X107.154 Y60.409 E34.58024
G1 X108.212 Y61.965 E34.70594
G1 X109.396 Y63.966 E34.86129
G1 X110.250 Y65.643 E34.98699
G1 X111.092 Y67.571 E35.12751
G1 X111.879 Y69.759 E35.28287
G1 X112.404 Y71.565 E35.40856
G1 X112.870 Y73.617 E35.54909
G1 X113.206 Y75.693 E35.68963
G1 X113.411 Y77.787 E35.83014
G1 X113.484 Y80.111 E35.98550
G1 X113.411 Y82.213 E36.12603
G1 X113.234 Y84.086 E36.25172
G1 X112.870 Y86.383 E36.40708
G1 X112.460 Y88.220 E36.53277
G1 X111.879 Y90.241 E36.67330
G1 X111.092 Y92.429 E36.82866
G1 X110.344 Y94.156 E36.95435
G1 X109.396 Y96.034 E37.09488
G1 X108.212 Y98.035 E37.25023
G1 X107.024 Y99.771 E37.39076
G1 X105.871 Y101.258 E37.51645
G1 X104.485 Y102.840 E37.65698
G1 X103.002 Y104.333 E37.79751
G1 X101.258 Y105.871 E37.95286
G1 X99.771 Y107.024 E38.07856
G1 X98.035 Y108.212 E38.21908
G1 X96.034 Y109.396 E38.37444
G1 X94.357 Y110.250 E38.50014
G1 X92.429 Y111.092 E38.64066
G1 X90.241 Y111.879 E38.79601
G1 X88.435 Y112.404 E38.92171
G1 X86.383 Y112.870 E39.06224
G1 X84.306 Y113.206 E39.20279
G1 X82.213 Y113.411 E39.34329
G1 X79.889 Y113.484 E39.49864
G1 X78.008 Y113.425 E39.62434
G1 X75.914 Y113.234 E39.76487
G1 X73.617 Y112.870 E39.92023
G1 X71.780 Y112.460 E40.04592
G1 X69.759 Y111.879 E40.18645
G1 X67.514 Y111.067 E40.34588
G1 X65.643 Y110.250 E40.48232
G1 X63.772 Y109.289 E40.62285
G1 X61.965 Y108.212 E40.76337
G1 X60.409 Y107.154 E40.88907
G1 X58.571 Y105.729 E41.04443
G1 X57.160 Y104.485 E41.17012
G1 X55.667 Y103.002 E41.31065
G1 X54.129 Y101.258 E41.46600
G1 X52.976 Y99.771 E41.59170
G1 X51.788 Y98.035 E41.73222
G1 X50.604 Y96.034 E41.88758
G1 X49.750 Y94.357 E42.01328
G1 X48.908 Y92.429 E42.15380
G1 X48.121 Y90.241 E42.30916
G1 X47.596 Y88.435 E42.43486
G1 X47.130 Y86.383 E42.57538
G1 X46.794 Y84.306 E42.71593
G1 X46.589 Y82.213 E42.85643
G1 X46.516 Y79.889 E43.01179
G1 X46.575 Y78.008 E43.13748
G1 X46.766 Y75.913 E43.27801
G1 X47.130 Y73.617 E43.43337
G1 X47.540 Y71.780 E43.55906
G1 X48.121 Y69.759 E43.69959
G1 X48.908 Y67.571 E43.85494
G1 X49.656 Y65.844 E43.98064
G1 X50.604 Y63.966 E44.12116
G1 X51.788 Y61.965 E44.27652
G1 X52.976 Y60.229 E44.41705
G1 X54.129 Y58.742 E44.54274
G1 X55.515 Y57.160 E44.68327
G1 X56.955 Y55.710 E44.81979
G1 E42.81979 F2400.00000
G92 E0
G1 X87.936 Y87.452 F30000.000
G1 E2.00000 F2400.00000
G1 F2100
G1 X87.452 Y87.936 E2.04569
G1 X86.939 Y88.388 E2.09137
G1 X86.399 Y88.807 E2.13706
G1 X85.833 Y89.191 E2.18275
G1 X85.244 Y89.540 E2.22843
G1 X84.635 Y89.850 E2.27412
G1 X84.007 Y90.122 E2.31981
G1 X83.364 Y90.353 E2.36549
G1 X82.707 Y90.544 E2.41118
G1 X82.040 Y90.693 E2.45687
G1 X81.364 Y90.800 E2.50256
G1 X80.684 Y90.865 E2.54824
G1 X80.000 Y90.886 E2.59393
G1 X79.316 Y90.865 E2.63962
G1 X78.734 Y90.810 E2.67867
G1 X77.964 Y90.694 E2.73075
G1 X77.293 Y90.544 E2.77666
G1 X76.636 Y90.353 E2.82235
G1 X75.993 Y90.122 E2.86804
G1 X75.365 Y89.850 E2.91373
G1 X74.756 Y89.540 E2.95941
G1 X74.167 Y89.191 E3.00510
G1 X73.601 Y88.807 E3.05079
G1 X73.061 Y88.388 E3.09647
G1 X72.548 Y87.936 E3.14216
G1 X72.064 Y87.452 E3.18785
G1 X71.612 Y86.939 E3.23353
G1 X71.193 Y86.399 E3.27922
G1 X70.809 Y85.833 E3.32491
G1 X70.460 Y85.244 E3.37059
G1 X70.150 Y84.635 E3.41628
G1 X69.878 Y84.007 E3.46197
G1 X69.647 Y83.364 E3.50765
G1 X69.456 Y82.707 E3.55334
G1 X69.306 Y82.036 E3.59926
G1 X69.190 Y81.266 E3.65133
G1 X69.135 Y80.684 E3.69039
G1 X69.114 Y80.000 E3.73608
G1 X69.135 Y79.316 E3.78176
G1 X69.200 Y78.636 E3.82745
G1 X69.307 Y77.960 E3.87314
G1 X69.456 Y77.293 E3.91882
G1 X69.647 Y76.636 E3.96451
G1 X69.880 Y75.989 E4.01043
G1 X70.195 Y75.276 E4.06250
G1 X70.460 Y74.756 E4.10156
G1 X70.810 Y74.164 E4.14748
G1 X71.254 Y73.523 E4.19955
G1 X71.612 Y73.061 E4.23861
G1 X72.064 Y72.548 E4.28430
G1 X72.548 Y72.064 E4.32998
G1 X72.987 Y71.678 E4.36904
G1 X73.598 Y71.195 E4.42111
G1 X74.167 Y70.809 E4.46703
G1 X74.756 Y70.460 E4.51272
G1 X75.365 Y70.150 E4.55841
G1 X75.993 Y69.878 E4.60409
G1 X76.543 Y69.680 E4.64315
G1 X77.289 Y69.457 E4.69522
G1 X77.960 Y69.307 E4.74114
G1 X78.636 Y69.200 E4.78683
G1 X79.316 Y69.135 E4.83252
G1 X79.901 Y69.117 E4.87157
G1 X80.680 Y69.135 E4.92365
G1 X81.364 Y69.200 E4.96957
G1 X82.040 Y69.307 E5.01525
G1 X82.707 Y69.456 E5.06094
G1 X83.364 Y69.647 E5.10663
G1 X84.007 Y69.878 E5.15231
G1 X84.635 Y70.150 E5.19800
G1 X85.244 Y70.460 E5.24369
G1 X85.833 Y70.809 E5.28937
G1 X86.399 Y71.193 E5.33506
G1 X86.861 Y71.551 E5.37411
G1 X87.452 Y72.064 E5.42642
G1 X88.001 Y72.622 E5.47873
G1 X88.388 Y73.061 E5.51779
G1 X88.807 Y73.601 E5.56347
G1 X89.191 Y74.167 E5.60916
G1 X89.541 Y74.759 E5.65508
G1 X89.889 Y75.456 E5.70715
G1 X90.122 Y75.993 E5.74621
G1 X90.353 Y76.636 E5.79190
G1 X90.544 Y77.293 E5.83758
G1 X90.694 Y77.964 E5.88350
G1 X90.810 Y78.734 E5.93558
G1 X90.865 Y79.316 E5.97463
G1 X90.886 Y80.000 E6.02032
G1 X90.865 Y80.684 E6.06600
G1 X90.800 Y81.364 E6.11169
G1 X90.693 Y82.040 E6.15738
G1 X90.544 Y82.707 E6.20307
G1 X90.353 Y83.364 E6.24875
G1 X90.122 Y84.007 E6.29444
G1 X89.850 Y84.635 E6.34013
G1 X89.540 Y85.244 E6.38581
G1 X89.191 Y85.833 E6.43150
G1 X88.807 Y86.399 E6.47719
G1 X88.388 Y86.939 E6.52287
G1 X87.975 Y87.407 E6.56455
G1 X87.545 Y87.085 F30000.000
G1 F2100
G1 X87.085 Y87.545 E6.60799
G1 X86.597 Y87.975 E6.65143
G1 X86.084 Y88.373 E6.69486
G1 X85.546 Y88.739 E6.73830
G1 X84.986 Y89.070 E6.78174
G1 X84.407 Y89.365 E6.82518
G1 X83.810 Y89.623 E6.86862
G1 X83.198 Y89.844 E6.91205
G1 X82.574 Y90.025 E6.95549
G1 X81.939 Y90.167 E6.99893
G1 X81.297 Y90.269 E7.04237
G1 X80.650 Y90.330 E7.08580
G1 X80.000 Y90.350 E7.12924
G1 X79.350 Y90.330 E7.17268
G1 X78.799 Y90.278 E7.20963
G1 X78.062 Y90.167 E7.25946
G1 X77.426 Y90.025 E7.30298
G1 X76.802 Y89.844 E7.34642
G1 X76.190 Y89.623 E7.38986
G1 X75.593 Y89.365 E7.43330
G1 X75.014 Y89.070 E7.47673
G1 X74.454 Y88.739 E7.52017
G1 X73.916 Y88.373 E7.56361
G1 X73.403 Y87.975 E7.60705
G1 X72.915 Y87.545 E7.65048
G1 X72.455 Y87.085 E7.69392
G1 X72.025 Y86.597 E7.73736
G1 X71.627 Y86.084 E7.78080
G1 X71.261 Y85.546 E7.82424
G1 X70.930 Y84.986 E7.86767
G1 X70.635 Y84.407 E7.91111
G1 X70.377 Y83.810 E7.95455
G1 X70.156 Y83.198 E7.99799
G1 X69.975 Y82.574 E8.04143
G1 X69.833 Y81.938 E8.08495
G1 X69.722 Y81.201 E8.13477
G1 X69.670 Y80.650 E8.17173
G1 X69.650 Y80.000 E8.21517
G1 X69.670 Y79.350 E8.25860
G1 X69.731 Y78.703 E8.30204
G1 X69.833 Y78.061 E8.34548
G1 X69.975 Y77.426 E8.38892
G1 X70.156 Y76.802 E8.43235
G1 X70.377 Y76.189 E8.47587
G1 X70.679 Y75.507 E8.52570
G1 X70.930 Y75.014 E8.56266
G1 X71.262 Y74.453 E8.60618
G1 X71.686 Y73.840 E8.65600
G1 X72.025 Y73.403 E8.69296
G1 X72.455 Y72.915 E8.73640
G1 X72.915 Y72.455 E8.77983
G1 X73.330 Y72.089 E8.81679
G1 X73.915 Y71.627 E8.86662
G1 X74.454 Y71.261 E8.91014
G1 X75.014 Y70.930 E8.95357
G1 X75.593 Y70.635 E8.99701
G1 X76.190 Y70.377 E9.04045
G1 X76.710 Y70.189 E9.07740
G1 X77.425 Y69.975 E9.12723
G1 X78.061 Y69.833 E9.17075
G1 X78.703 Y69.731 E9.21419
G1 X79.350 Y69.670 E9.25763
G1 X79.903 Y69.653 E9.29458
G1 X80.649 Y69.670 E9.34441
G1 X81.297 Y69.731 E9.38793
G1 X81.939 Y69.833 E9.43137
G1 X82.574 Y69.975 E9.47481
G1 X83.198 Y70.156 E9.51824
G1 X83.810 Y70.377 E9.56168
G1 X84.407 Y70.635 E9.60512
G1 X84.986 Y70.930 E9.64856
G1 X85.546 Y71.261 E9.69200
G1 X86.084 Y71.627 E9.73543
G1 X86.521 Y71.966 E9.77239
G1 X87.085 Y72.455 E9.82230
G1 X87.609 Y72.988 E9.87221
G1 X87.975 Y73.403 E9.90916
G1 X88.373 Y73.916 E9.95260
G1 X88.739 Y74.454 E9.99604
G1 X89.071 Y75.015 E10.03956
G1 X89.404 Y75.682 E10.08939
G1 X89.623 Y76.190 E10.12634
G1 X89.844 Y76.802 E10.16978
G1 X90.025 Y77.426 E10.21322
G1 X90.167 Y78.062 E10.25674
G1 X90.278 Y78.799 E10.30656
G1 X90.330 Y79.350 E10.34352
G1 X90.350 Y80.000 E10.38696
G1 X90.330 Y80.650 E10.43039
G1 X90.269 Y81.297 E10.47383
G1 X90.167 Y81.939 E10.51727
G1 X90.025 Y82.574 E10.56071
G1 X89.844 Y83.198 E10.60415
G1 X89.623 Y83.810 E10.64758
G1 X89.365 Y84.407 E10.69102
G1 X89.070 Y84.986 E10.73446
G1 X88.739 Y85.546 E10.77790
G1 X88.373 Y86.084 E10.82133
G1 X87.975 Y86.597 E10.86477
G1 X87.585 Y87.040 E10.90420
G1 X87.545 Y87.085 F30000.000
G1 E8.90420 F2400.00000
G92 E0
G1 X100.806 Y100.347 F30000.000
G1 E2.00000 F2400.00000
G1 F2100
G1 X99.930 Y101.223 E2.08281
G1 X98.558 Y102.433 E2.20500
G1 X97.113 Y103.554 E2.32718
G1 X95.600 Y104.582 E2.44937
G1 X94.026 Y105.513 E2.57155
G1 X92.396 Y106.343 E2.69374
G1 X90.718 Y107.069 E2.81593
G1 X88.997 Y107.689 E2.93811
G1 X87.240 Y108.199 E3.06030
G1 X85.455 Y108.598 E3.18248
G1 X83.649 Y108.884 E3.30467
G1 X81.828 Y109.056 E3.42686
G1 X80.000 Y109.114 E3.54904
G1 X78.172 Y109.056 E3.67123
G1 X76.351 Y108.884 E3.79341
