; generated by Slic3r 1.3.0 on 2020-10-19 at 10:52:54

; external perimeters extrusion width = 0.44mm (2.78mm^3/s)
; perimeters extrusion width = 0.40mm (7.14mm^3/s)
; infill extrusion width = 0.50mm (10.97mm^3/s)
; solid infill extrusion width = 0.60mm (6.68mm^3/s)
; top infill extrusion width = 0.40mm (2.14mm^3/s)

M107
M190 S80 ; set bed temperature and wait for it to be reached
M104 S200 ; set temperature
G28 ; home all axes
G1 Z5 F5000 ; lift nozzle

; Filament gcode

M109 S200 ; set temperature and wait for it to be reached
G21 ; set units to millimeters
G90 ; use absolute coordinates
M82 ; use absolute distances for extrusion
G92 E0
G1 Z0.300 F30000.000
G1 E-2.00000 F2400.00000
G92 E0
G1 X34.591 Y27.351 F30000.000
G1 E2.00000 F2400.00000
G1 F2100
G1 X35.868 Y25.931 E2.12755
G1 X37.610 Y25.151 E2.25511
G1 X38.581 Y25.048 E2.32029
G1 X68.523 Y25.048 E4.32059
G1 X70.391 Y25.443 E4.44814
G1 X71.938 Y26.562 E4.57570
G1 X72.513 Y27.351 E4.64090
G1 X87.484 Y53.282 E6.64121
G1 X88.075 Y55.097 E6.76876
G1 X87.879 Y56.997 E6.89632
G1 X87.484 Y57.889 E6.96150
G1 X72.513 Y83.820 E8.96182
G1 X71.236 Y85.239 E9.08937
G1 X69.493 Y86.020 E9.21692
G1 X68.523 Y86.123 E9.28211
G1 X38.581 Y86.123 E11.28242
G1 X36.713 Y85.727 E11.40997
G1 X35.166 Y84.608 E11.53753
G1 X34.591 Y83.819 E11.60272
G1 X19.620 Y57.889 E13.60303
G1 X19.029 Y56.073 E13.73058
G1 X19.224 Y54.174 E13.85814
G1 X19.620 Y53.282 E13.92333
G1 X34.561 Y27.403 E15.91965
G1 X35.055 Y27.619 F30000.000
G1 F2100
G1 X36.272 Y26.301 E16.03947
G1 X38.581 Y25.583 E16.20099
G1 X68.523 Y25.583 E18.20129
G1 X70.272 Y25.978 E18.32111
G1 X72.049 Y27.619 E18.48265
G1 X87.020 Y53.550 E20.48296
G1 X87.552 Y55.262 E20.60278
G1 X87.020 Y57.621 E20.76430
G1 X72.049 Y83.552 E22.76461
G1 X70.832 Y84.869 E22.88444
G1 X68.523 Y85.587 E23.04596
G1 X38.581 Y85.587 E25.04627
G1 X36.831 Y85.192 E25.16609
G1 X35.055 Y83.552 E25.32762
G1 X20.084 Y57.621 E27.32793
G1 X19.551 Y55.908 E27.44775
G1 X20.084 Y53.550 E27.60928
G1 X35.025 Y27.671 E29.60559
G1 X35.519 Y27.887 F30000.000
G1 F2100
G1 X36.672 Y26.678 E29.71715
G1 X38.581 Y26.119 E29.85004
G1 X68.523 Y26.119 E31.85035
G1 X70.146 Y26.513 E31.96191
G1 X71.585 Y27.887 E32.09481
G1 X86.556 Y53.818 E34.09513
G1 X87.026 Y55.420 E34.20668
G1 X86.556 Y57.353 E34.33958
G1 X71.585 Y83.284 E36.33989
G1 X70.432 Y84.492 E36.45145
G1 X68.523 Y85.052 E36.58435
G1 X38.581 Y85.052 E38.58466
G1 X36.958 Y84.657 E38.69621
G1 X35.519 Y83.284 E38.82912
G1 X20.548 Y57.353 E40.82943
G1 X20.078 Y55.751 E40.94098
G1 X20.548 Y53.817 E41.07389
G1 X35.489 Y27.938 E43.07020
G1 X36.200 Y28.280 F30000.000
G1 F2100
G1 X36.568 Y27.642 E43.12533
G1 X37.844 Y26.905 E43.23558
G1 X69.260 Y26.905 E45.58658
G1 X70.536 Y27.642 E45.69684
G1 X86.243 Y54.849 E48.04785
G1 X86.243 Y56.322 E48.15811
G1 X70.536 Y83.529 E50.50911
G1 X69.260 Y84.265 E50.61937
G1 X37.844 Y84.265 E52.97037
G1 X36.568 Y83.529 E53.08063
G1 X20.860 Y56.322 E55.43163
G1 X20.860 Y54.849 E55.54189
G1 X36.170 Y28.332 E57.83328
G1 X36.719 Y28.580 F30000.000
G1 F2100
G1 X37.007 Y28.081 E57.87638
G1 X38.005 Y27.505 E57.96257
G1 X69.099 Y27.505 E60.28951
G1 X70.096 Y28.081 E60.37570
G1 X85.643 Y55.009 E62.70265
G1 X85.643 Y56.161 E62.78884
G1 X70.096 Y83.090 E65.11578
G1 X69.099 Y83.665 E65.20198
G1 X38.005 Y83.665 E67.52892
G1 X37.007 Y83.089 E67.61512
G1 X21.460 Y56.161 E69.94205
G1 X21.460 Y55.009 E70.02825
G1 X36.689 Y28.632 E72.30761
G1 X37.239 Y28.880 F30000.000
G1 F2100
G1 X37.446 Y28.520 E72.33868
G1 X38.166 Y28.105 E72.40081
G1 X68.938 Y28.105 E74.70368
G1 X69.657 Y28.520 E74.76582
G1 X85.043 Y55.170 E77.06870
G1 X85.043 Y56.000 E77.13083
G1 X69.657 Y82.650 E79.43371
G1 X68.938 Y83.065 E79.49584
G1 X38.166 Y83.065 E81.79872
G1 X37.446 Y82.650 E81.86085
G1 X22.060 Y56.000 E84.16373
G1 X22.060 Y55.170 E84.22586
G1 X37.209 Y28.932 E86.49319
G1 X37.759 Y29.180 F30000.000
G1 F2100
G1 X37.886 Y28.959 E86.51222
G1 X38.326 Y28.705 E86.55030
G1 X68.777 Y28.705 E88.82911
G1 X69.218 Y28.960 E88.86718
G1 X84.443 Y55.331 E91.14600
G1 X84.443 Y55.840 E91.18407
G1 X69.218 Y82.211 E93.46288
G1 X68.777 Y82.465 E93.50096
G1 X38.326 Y82.465 E95.77977
G1 X37.886 Y82.211 E95.81784
G1 X22.660 Y55.840 E98.09665
G1 X22.660 Y55.331 E98.13473
G1 X37.729 Y29.232 E100.39002
G1 X38.325 Y29.399 F30000.000
G1 F2100
G1 X38.487 Y29.305 E100.40403
G1 X68.617 Y29.305 E102.65878
G1 X68.779 Y29.399 E102.67279
G1 X83.843 Y55.492 E104.92754
G1 X83.843 Y55.679 E104.94155
G1 X68.779 Y81.772 E107.19630
G1 X68.617 Y81.865 E107.21031
G1 X38.487 Y81.865 E109.46506
G1 X38.325 Y81.772 E109.47908
G1 X23.260 Y55.679 E111.73383
G1 X23.260 Y55.492 E111.74784
G1 X38.295 Y29.451 E113.99810
G1 E111.99810 F2400.00000
G92 E0
G1 X83.148 Y55.585 F30000.000
G1 E2.00000 F2400.00000
G1 F2100
G1 X68.350 Y81.216 E3.97716
G1 X38.754 Y81.216 E5.95433
G1 X23.956 Y55.585 E7.93149
G1 X38.754 Y29.955 E9.90865
G1 X68.350 Y29.955 E11.88582
G1 X83.118 Y55.533 E13.85897
G1 X82.801 Y55.785 F30000.000
G1 X82.529 Y55.585 F30000.000
G1 F2100
G1 X68.040 Y80.680 E15.79482
G1 X39.063 Y80.680 E17.73066
G1 X24.574 Y55.585 E19.66651
G1 X39.063 Y30.490 E21.60235
G1 X68.040 Y30.490 E23.53820
G1 X82.499 Y55.533 E25.47004
G1 E23.47004 F2400.00000
G92 E0
G1 X67.674 Y80.202 F30000.000
G1 E2.00000 F2400.00000
G1 F2100
G1 X67.788 Y80.088 E2.01080
G1 X68.826 Y78.290 E2.14982
G1 X66.915 Y80.202 E2.33088
G1 X66.155 Y80.202 E2.38177
G1 X69.863 Y76.493 E2.73309
G1 X70.901 Y74.696 E2.87211
G1 X65.396 Y80.202 E3.39371
G1 X64.636 Y80.202 E3.44459
G1 X71.939 Y72.899 E4.13645
G1 X72.976 Y71.102 E4.27548
G1 X63.876 Y80.202 E5.13760
G1 X63.117 Y80.202 E5.18849
G1 X74.014 Y69.304 E6.22088
G1 X75.052 Y67.507 E6.35990
G1 X62.357 Y80.202 E7.56256
G1 X61.598 Y80.202 E7.61344
G1 X76.089 Y65.710 E8.98637
G1 X77.127 Y63.913 E9.12539
G1 X60.838 Y80.202 E10.66858
G1 X60.078 Y80.202 E10.71946
G1 X78.164 Y62.116 E12.43292
G1 X79.202 Y60.319 E12.57194
G1 X59.319 Y80.202 E14.45566
G1 X58.559 Y80.202 E14.50654
G1 X80.240 Y58.521 E16.56053
G1 X81.277 Y56.724 E16.69955
G1 X57.800 Y80.202 E18.92381
G1 X57.040 Y80.202 E18.97469
G1 X81.874 Y55.367 E21.32749
G1 X81.596 Y54.886 E21.36474
G1 X56.281 Y80.202 E23.76316
G1 X55.521 Y80.202 E23.81405
G1 X81.318 Y54.404 E26.25809
G1 X81.040 Y53.923 E26.29534
G1 X54.761 Y80.202 E28.78501
G1 X54.002 Y80.202 E28.83589
G1 X80.762 Y53.441 E31.37118
G1 X80.484 Y52.959 E31.40843
G1 X53.242 Y80.202 E33.98935
G1 X52.483 Y80.202 E34.04023
G1 X80.206 Y52.478 E36.66677
G1 X79.928 Y51.996 E36.70402
G1 X51.723 Y80.202 E39.37617
G1 X50.963 Y80.202 E39.42706
G1 X79.650 Y51.515 E42.14484
G1 X79.372 Y51.033 E42.18209
G1 X50.204 Y80.202 E44.94549
G1 X49.444 Y80.202 E44.99638
G1 X79.094 Y50.552 E47.80540
G1 X78.816 Y50.070 E47.84266
G1 X48.685 Y80.202 E50.69730
G1 X47.925 Y80.202 E50.74819
G1 X78.538 Y49.589 E53.64846
G1 X78.260 Y49.107 E53.68571
G1 X47.165 Y80.202 E56.63160
G1 X46.406 Y80.202 E56.68249
G1 X77.982 Y48.625 E59.67400
G1 X77.704 Y48.144 E59.71126
G1 X45.646 Y80.202 E62.74839
G1 X44.887 Y80.202 E62.79928
G1 X77.426 Y47.662 E65.88204
G1 X77.148 Y47.181 E65.91929
G1 X44.127 Y80.202 E69.04767
G1 X43.368 Y80.202 E69.09856
G1 X76.870 Y46.699 E72.27257
G1 X76.592 Y46.218 E72.30982
G1 X42.608 Y80.202 E75.52945
G1 X41.848 Y80.202 E75.58033
G1 X76.314 Y45.736 E78.84558
G1 X76.036 Y45.255 E78.88283
G1 X41.089 Y80.202 E82.19371
G1 X40.329 Y80.202 E82.24459
G1 X75.758 Y44.773 E85.60109
G1 X75.480 Y44.291 E85.63834
G1 X39.570 Y80.202 E89.04046
G1 X39.316 Y80.202 E89.05748
G1 X39.131 Y79.881 E89.08227
G1 X75.202 Y43.810 E92.49966
G1 X74.924 Y43.328 E92.53691
G1 X38.852 Y79.400 E95.95429
G1 X38.574 Y78.918 E95.99154
G1 X74.646 Y42.847 E99.40892
G1 X74.368 Y42.365 E99.44617
G1 X38.296 Y78.436 E102.86355
G1 X38.018 Y77.955 E102.90081
G1 X74.090 Y41.884 E106.31819
G1 X73.812 Y41.402 E106.35544
G1 X37.740 Y77.473 E109.77282
G1 X37.462 Y76.992 E109.81007
G1 X73.534 Y40.921 E113.22745
G1 X73.256 Y40.439 E113.26470
G1 X37.184 Y76.510 E116.68209
G1 X36.906 Y76.029 E116.71934
G1 X72.978 Y39.957 E120.13672
G1 X72.700 Y39.476 E120.17397
G1 X36.628 Y75.547 E123.59135
G1 X36.350 Y75.066 E123.62860
G1 X72.422 Y38.994 E127.04599
G1 X72.144 Y38.513 E127.08324
G1 X36.072 Y74.584 E130.50062
G1 X35.794 Y74.102 E130.53787
G1 X71.865 Y38.031 E133.95525
G1 X71.587 Y37.550 E133.99250
G1 X35.516 Y73.621 E137.40988
G1 X35.238 Y73.139 E137.44713
G1 X71.309 Y37.068 E140.86452
G1 X71.031 Y36.587 E140.90177
G1 X34.960 Y72.658 E144.31915
G1 X34.682 Y72.176 E144.35640
G1 X70.753 Y36.105 E147.77378
G1 X70.475 Y35.623 E147.81103
G1 X34.404 Y71.695 E151.22842
G1 X34.126 Y71.213 E151.26567
G1 X70.197 Y35.142 E154.68305
G1 X69.919 Y34.660 E154.72030
G1 X33.848 Y70.732 E158.13768
G1 X33.570 Y70.250 E158.17493
G1 X69.641 Y34.179 E161.59231
G1 X69.363 Y33.697 E161.62957
G1 X33.292 Y69.768 E165.04695
G1 X33.014 Y69.287 E165.08420
G1 X69.085 Y33.216 E168.50158
G1 X68.807 Y32.734 E168.53883
G1 X32.736 Y68.805 E171.95621
G1 X32.458 Y68.324 E171.99346
G1 X68.529 Y32.252 E175.41085
G1 X68.251 Y31.771 E175.44810
G1 X32.180 Y67.842 E178.86548
G1 X31.902 Y67.361 E178.90273
G1 X67.973 Y31.289 E182.32011
G1 X67.788 Y30.969 E182.34490
G1 X67.534 Y30.969 E182.36192
G1 X31.624 Y66.879 E185.76404
G1 X31.346 Y66.398 E185.80129
G1 X66.774 Y30.969 E189.15779
G1 X66.015 Y30.969 E189.20868
G1 X31.068 Y65.916 E192.51955
G1 X30.790 Y65.434 E192.55680
G1 X65.255 Y30.969 E195.82206
G1 X64.496 Y30.969 E195.87294
G1 X30.512 Y64.953 E199.09257
G1 X30.234 Y64.471 E199.12982
G1 X63.736 Y30.969 E202.30383
G1 X62.976 Y30.969 E202.35472
G1 X29.956 Y63.990 E205.48310
G1 X29.678 Y63.508 E205.52035
G1 X62.217 Y30.969 E208.60311
G1 X61.457 Y30.969 E208.65400
G1 X29.400 Y63.027 E211.69114
G1 X29.122 Y62.545 E211.72839
G1 X60.698 Y30.969 E214.71991
G1 X59.938 Y30.969 E214.77079
G1 X28.843 Y62.064 E217.71669
G1 X28.565 Y61.582 E217.75394
G1 X59.179 Y30.969 E220.65421
G1 X58.419 Y30.969 E220.70509
G1 X28.287 Y61.100 E223.55974
G1 X28.009 Y60.619 E223.59699
G1 X57.659 Y30.969 E226.40602
G1 X56.900 Y30.969 E226.45691
G1 X27.731 Y60.137 E229.22031
G1 X27.453 Y59.656 E229.25756
G1 X56.140 Y30.969 E231.97534
G1 X55.381 Y30.969 E232.02623
G1 X27.175 Y59.174 E234.69838
G1 X26.897 Y58.693 E234.73564
G1 X54.621 Y30.969 E237.36217
G1 X53.861 Y30.969 E237.41306
G1 X26.619 Y58.211 E239.99397
G1 X26.341 Y57.730 E240.03122
G1 X53.102 Y30.969 E242.56651
G1 X52.342 Y30.969 E242.61740
G1 X26.063 Y57.248 E245.10706
G1 X25.785 Y56.766 E245.14431
G1 X51.583 Y30.969 E247.58836
G1 X50.823 Y30.969 E247.63924
G1 X25.507 Y56.285 E250.03767
G1 X25.229 Y55.803 E250.07492
G1 X50.064 Y30.969 E252.42772
G1 X49.304 Y30.969 E252.47860
G1 X25.826 Y54.446 E254.70286
G1 X26.864 Y52.649 E254.84188
G1 X48.544 Y30.969 E256.89587
G1 X47.785 Y30.969 E256.94676
G1 X27.902 Y50.852 E258.83048
G1 X28.939 Y49.055 E258.96951
G1 X47.025 Y30.969 E260.68296
G1 X46.266 Y30.969 E260.73385
G1 X29.977 Y47.258 E262.27704
G1 X31.014 Y45.460 E262.41607
G1 X45.506 Y30.969 E263.78899
G1 X44.746 Y30.969 E263.83988
G1 X32.052 Y43.663 E265.04254
G1 X33.090 Y41.866 E265.18156
G1 X43.987 Y30.969 E266.21396
G1 X43.227 Y30.969 E266.26484
G1 X34.127 Y40.069 E267.12697
G1 X35.165 Y38.272 E267.26599
G1 X42.468 Y30.969 E267.95786
G1 X41.708 Y30.969 E268.00874
G1 X36.202 Y36.475 E268.53034
G1 X37.240 Y34.677 E268.66936
G1 X40.948 Y30.969 E269.02070
G1 X40.189 Y30.969 E269.07158
G1 X38.278 Y32.880 E269.25265
G1 X39.315 Y31.083 E269.39167
G1 X39.429 Y30.969 E269.40247
G1 Z0.500 F30000.000
G1 X82.805 Y55.585 F30000.000
G1 F6000
G1 X68.178 Y80.919 E270.27103
G1 X38.925 Y80.919 E271.13958
G1 X24.299 Y55.585 E272.00813
G1 X38.925 Y30.252 E272.87669
G1 X68.178 Y30.252 E273.74524
G1 X82.775 Y55.533 E274.61201
G1 X83.240 Y55.585 F30000.000
G1 F2100
G1 X68.396 Y81.296 E275.59224
G1 X38.708 Y81.296 E276.57246
G1 X23.864 Y55.585 E277.55269
G1 X38.708 Y29.875 E278.53292
G1 X68.396 Y29.875 E279.51314
G1 X83.210 Y55.533 E280.49139
G1 X82.864 Y55.722 F30000.000
G1 X67.963 Y30.757 F30000.000
G1 F3600
G1 X67.866 Y30.660 E280.49780
G1 X67.073 Y30.660 E280.53474
G1 X69.046 Y32.633 E280.66478
G1 X70.129 Y34.509 E280.76572
G1 X66.280 Y30.660 E281.01939
G1 X65.488 Y30.660 E281.05633
G1 X71.212 Y36.384 E281.43362
G1 X72.294 Y38.260 E281.53456
G1 X64.695 Y30.660 E282.03548
G1 X63.902 Y30.660 E282.07242
G1 X73.377 Y40.135 E282.69696
G1 X74.460 Y42.011 E282.79790
G1 X63.109 Y30.660 E283.54607
G1 X62.317 Y30.660 E283.58302
G1 X75.543 Y43.886 E284.45481
G1 X76.626 Y45.762 E284.55575
G1 X61.524 Y30.660 E285.55116
G1 X60.731 Y30.660 E285.58811
G1 X77.709 Y47.638 E286.70715
G1 X78.792 Y49.513 E286.80809
G1 X59.939 Y30.660 E288.05076
G1 X59.146 Y30.660 E288.08771
G1 X79.874 Y51.389 E289.45400
G1 X80.957 Y53.264 E289.55494
G1 X58.353 Y30.660 E291.04486
G1 X57.561 Y30.660 E291.08181
G1 X82.040 Y55.140 E292.69535
G1 X82.325 Y55.634 E292.72194
G1 X82.112 Y56.004 E292.74186
G1 X56.768 Y30.660 E294.41236
G1 X55.975 Y30.660 E294.44931
G1 X81.821 Y56.506 E296.15294
G1 X81.531 Y57.009 E296.17999
G1 X55.182 Y30.660 E297.91674
G1 X54.390 Y30.660 E297.95369
G1 X81.241 Y57.512 E299.72357
G1 X80.951 Y58.014 E299.75062
G1 X53.597 Y30.660 E301.55362
G1 X52.804 Y30.660 E301.59057
G1 X80.661 Y58.517 E303.42670
G1 X80.371 Y59.019 E303.45375
G1 X52.012 Y30.660 E305.32300
G1 X51.219 Y30.660 E305.35995
G1 X80.081 Y59.522 E307.26233
G1 X79.790 Y60.024 E307.28938
G1 X50.426 Y30.660 E309.22489
G1 X49.633 Y30.660 E309.26183
G1 X79.500 Y60.527 E311.23047
G1 X79.210 Y61.029 E311.25751
G1 X48.841 Y30.660 E313.25927
G1 X48.048 Y30.660 E313.29622
G1 X78.920 Y61.532 E315.33110
G1 X78.630 Y62.035 E315.35815
G1 X47.255 Y30.660 E317.42616
G1 X46.463 Y30.660 E317.46310
G1 X78.340 Y62.537 E319.56424
G1 X78.049 Y63.040 E319.59129
G1 X45.670 Y30.660 E321.72555
G1 X44.877 Y30.660 E321.76249
G1 X77.759 Y63.542 E323.92988
G1 X77.469 Y64.045 E323.95692
G1 X44.085 Y30.660 E326.15743
G1 X43.292 Y30.660 E326.19438
G1 X77.179 Y64.547 E328.42802
G1 X76.889 Y65.050 E328.45506
G1 X42.499 Y30.660 E330.72182
G1 X41.706 Y30.660 E330.75877
G1 X76.599 Y65.552 E333.05866
G1 X76.309 Y66.055 E333.08570
G1 X40.914 Y30.660 E335.41872
G1 X40.121 Y30.660 E335.45566
G1 X76.018 Y66.558 E337.82180
G1 X75.728 Y67.060 E337.84885
G1 X39.328 Y30.660 E340.24811
G1 X39.141 Y30.660 E340.25685
G1 X38.919 Y31.044 E340.27750
G1 X75.438 Y67.563 E342.68459
G1 X75.148 Y68.065 E342.71164
G1 X38.629 Y31.546 E345.11874
G1 X38.339 Y32.049 E345.14578
G1 X74.858 Y68.568 E347.55288
G1 X74.568 Y69.070 E347.57993
G1 X38.049 Y32.552 E349.98703
G1 X37.759 Y33.054 E350.01407
G1 X74.278 Y69.573 E352.42117
G1 X73.987 Y70.075 E352.44822
G1 X37.469 Y33.557 E354.85531
G1 X37.178 Y34.059 E354.88236
G1 X73.697 Y70.578 E357.28946
G1 X73.407 Y71.081 E357.31650
G1 X36.888 Y34.562 E359.72360
G1 X36.598 Y35.064 E359.75065
G1 X73.117 Y71.583 E362.15775
G1 X72.827 Y72.086 E362.18479
G1 X36.308 Y35.567 E364.59189
G1 X36.018 Y36.069 E364.61894
G1 X72.537 Y72.588 E367.02603
G1 X72.246 Y73.091 E367.05308
G1 X35.728 Y36.572 E369.46018
G1 X35.437 Y37.075 E369.48722
G1 X71.956 Y73.593 E371.89432
G1 X71.666 Y74.096 E371.92137
G1 X35.147 Y37.577 E374.32846
G1 X34.857 Y38.080 E374.35551
G1 X71.376 Y74.599 E376.76261
G1 X71.086 Y75.101 E376.78965
G1 X34.567 Y38.582 E379.19675
G1 X34.277 Y39.085 E379.22380
G1 X70.796 Y75.604 E381.63090
G1 X70.506 Y76.106 E381.65794
G1 X33.987 Y39.587 E384.06504
G1 X33.697 Y40.090 E384.09209
G1 X70.215 Y76.609 E386.49918
G1 X69.925 Y77.111 E386.52623
G1 X33.406 Y40.592 E388.93333
G1 X33.116 Y41.095 E388.96037
G1 X69.635 Y77.614 E391.36747
G1 X69.345 Y78.116 E391.39452
G1 X32.826 Y41.598 E393.80162
G1 X32.536 Y42.100 E393.82866
G1 X69.055 Y78.619 E396.23576
G1 X68.765 Y79.122 E396.26281
G1 X32.246 Y42.603 E398.66990
G1 X31.956 Y43.105 E398.69695
G1 X68.475 Y79.624 E401.10405
G1 X68.184 Y80.127 E401.13109
G1 X31.665 Y43.608 E403.53819
G1 X31.375 Y44.110 E403.56524
G1 X67.775 Y80.510 E405.96451
G1 X66.983 Y80.510 E406.00145
G1 X31.085 Y44.613 E408.36759
G1 X30.795 Y45.115 E408.39464
G1 X66.190 Y80.510 E410.72766
G1 X65.397 Y80.510 E410.76460
G1 X30.505 Y45.618 E413.06449
G1 X30.215 Y46.121 E413.09154
G1 X64.605 Y80.510 E415.35831
