; generated by Slic3r 1.3.0 on 2021-08-20 at 20:15:47

; external perimeters extrusion width = 0.44mm (2.78mm^3/s)
; perimeters extrusion width = 0.40mm (7.14mm^3/s)
; infill extrusion width = 0.50mm (10.97mm^3/s)
; solid infill extrusion width = 0.60mm (6.68mm^3/s)
; top infill extrusion width = 0.40mm (2.14mm^3/s)

M107
M190 S80 ; set bed temperature and wait for it to be reached
M104 S210 ; set temperature
G28 ; home all axes
G1 Z5 F5000 ; lift nozzle

; Filament gcode

M109 S210 ; set temperature and wait for it to be reached
G21 ; set units to millimeters
G90 ; use absolute coordinates
M82 ; use absolute distances for extrusion
G92 E0
G1 Z0.300 F30000.000
G1 E-2.00000 F2400.00000
G92 E0
G1 X18.954 Y18.998 F30000.000
G1 E2.00000 F2400.00000
G1 F2100
G1 X20.881 Y17.156 E2.17805
G1 X21.572 Y16.536 E2.24005
G1 X23.419 Y14.971 E2.40183
G1 X24.240 Y14.316 E2.47196
G1 X26.177 Y12.863 E2.63374
G1 X27.036 Y12.259 E2.70387
G1 X29.057 Y10.925 E2.86565
G1 X29.845 Y10.436 E2.92765
G1 X32.153 Y9.103 E3.10570
G1 X32.972 Y8.665 E3.16770
G1 X35.247 Y7.529 E3.33762
G1 X36.090 Y7.140 E3.39961
G1 X38.317 Y6.189 E3.56139
G1 X39.294 Y5.805 E3.63153
G1 X41.574 Y4.988 E3.79331
G1 X42.572 Y4.664 E3.86344
G1 X44.897 Y3.985 E4.02522
G1 X45.794 Y3.749 E4.08721
G1 X48.393 Y3.156 E4.26527
G1 X49.304 Y2.979 E4.32726
G1 X51.813 Y2.564 E4.49718
G1 X52.733 Y2.441 E4.55918
G1 X55.141 Y2.188 E4.72096
G1 X56.188 Y2.110 E4.79109
G1 X58.607 Y2.001 E4.95287
G1 X59.535 Y1.985 E5.01486
G1 X62.200 Y2.025 E5.19292
G1 X63.127 Y2.069 E5.25491
G1 X65.542 Y2.250 E5.41669
G1 X66.586 Y2.359 E5.48683
G1 X68.986 Y2.684 E5.64861
G1 X70.021 Y2.856 E5.71874
G1 X72.397 Y3.324 E5.88052
G1 X73.303 Y3.529 E5.94252
G1 X75.882 Y4.200 E6.12057
G1 X76.772 Y4.462 E6.18256
G1 X79.191 Y5.249 E6.35248
G1 X80.064 Y5.564 E6.41448
G1 X82.318 Y6.449 E6.57626
G1 X83.283 Y6.861 E6.64639
G1 X85.481 Y7.879 E6.80817
G1 X86.420 Y8.349 E6.87830
G1 X88.552 Y9.496 E7.04008
G1 X89.357 Y9.959 E7.10208
G1 X91.624 Y11.360 E7.28013
G1 X92.397 Y11.873 E7.34213
G1 X94.476 Y13.338 E7.51204
G1 X95.218 Y13.896 E7.57404
G1 X97.111 Y15.406 E7.73582
G1 X97.912 Y16.085 E7.80595
G1 X99.711 Y17.705 E7.96773
G1 X100.470 Y18.431 E8.03787
G1 X102.170 Y20.156 E8.19965
G1 X102.802 Y20.835 E8.26164
G1 X104.556 Y22.842 E8.43970
G1 X105.144 Y23.560 E8.50169
G1 X106.698 Y25.573 E8.67161
G1 X107.242 Y26.325 E8.73360
G1 X108.607 Y28.326 E8.89538
G1 X109.172 Y29.211 E8.96552
G1 X110.414 Y31.290 E9.12730
G1 X110.925 Y32.207 E9.19743
G1 X112.041 Y34.356 E9.35921
G1 X112.445 Y35.191 E9.42121
G1 X113.481 Y37.514 E9.59112
G1 X113.879 Y38.486 E9.66125
G1 X114.730 Y40.753 E9.82303
G1 X115.069 Y41.746 E9.89317
G1 X115.783 Y44.060 E10.05495
G1 X116.032 Y44.954 E10.11694
G1 X116.637 Y47.425 E10.28686
G1 X116.831 Y48.332 E10.34886
G1 X117.307 Y50.955 E10.52691
G1 X117.444 Y51.873 E10.58890
G1 X117.733 Y54.277 E10.75068
G1 X117.827 Y55.323 E10.82082
G1 X117.972 Y57.740 E10.98260
G1 X118.003 Y58.789 E11.05273
G1 X118.003 Y61.211 E11.21451
G1 X117.977 Y62.138 E11.27651
G1 X117.818 Y64.799 E11.45456
G1 X117.733 Y65.723 E11.51656
G1 X117.427 Y68.248 E11.68647
G1 X117.287 Y69.165 E11.74847
G1 X116.855 Y71.548 E11.91025
G1 X116.637 Y72.575 E11.98038
G1 X116.062 Y74.928 E12.14216
G1 X115.783 Y75.940 E12.21229
G1 X115.069 Y78.254 E12.37407
G1 X114.771 Y79.133 E12.43607
G1 X113.879 Y81.514 E12.60599
G1 X113.529 Y82.374 E12.66798
G1 X112.445 Y84.809 E12.84604
G1 X112.040 Y85.644 E12.90803
G1 X110.925 Y87.793 E13.06981
G1 X110.414 Y88.710 E13.13994
G1 X109.172 Y90.789 E13.30172
G1 X108.607 Y91.674 E13.37186
G1 X107.242 Y93.675 E13.53364
G1 X106.698 Y94.427 E13.59564
G1 X105.144 Y96.440 E13.76555
G1 X104.556 Y97.158 E13.82755
G1 X102.802 Y99.165 E14.00560
G1 X102.170 Y99.844 E14.06760
G1 X100.470 Y101.569 E14.22938
G1 X99.711 Y102.295 E14.29951
G1 X97.912 Y103.915 E14.46129
G1 X97.111 Y104.594 E14.53142
G1 X95.218 Y106.104 E14.69320
G1 X94.476 Y106.662 E14.75520
G1 X92.397 Y108.127 E14.92511
G1 X91.624 Y108.640 E14.98711
G1 X89.357 Y110.041 E15.16516
G1 X88.552 Y110.504 E15.22716
G1 X86.420 Y111.651 E15.38894
G1 X85.481 Y112.121 E15.45907
G1 X83.283 Y113.139 E15.62085
G1 X82.318 Y113.551 E15.69098
G1 X80.064 Y114.436 E15.85276
G1 X79.191 Y114.751 E15.91476
G1 X76.656 Y115.574 E16.09282
G1 X75.765 Y115.833 E16.15481
G1 X73.303 Y116.471 E16.32473
G1 X72.397 Y116.676 E16.38672
G1 X70.021 Y117.144 E16.54850
G1 X68.986 Y117.316 E16.61863
G1 X66.586 Y117.641 E16.78041
G1 X65.542 Y117.750 E16.85055
G1 X63.127 Y117.931 E17.01233
G1 X62.200 Y117.975 E17.07433
G1 X59.535 Y118.015 E17.25238
G1 X58.607 Y117.999 E17.31437
G1 X56.188 Y117.890 E17.47615
G1 X55.141 Y117.812 E17.54629
G1 X52.733 Y117.559 E17.70807
G1 X51.813 Y117.436 E17.77006
G1 X49.304 Y117.021 E17.93998
G1 X48.393 Y116.844 E18.00197
G1 X45.794 Y116.251 E18.18003
G1 X44.897 Y116.015 E18.24202
G1 X42.572 Y115.336 E18.40380
G1 X41.574 Y115.012 E18.47394
G1 X39.294 Y114.195 E18.63572
G1 X38.317 Y113.811 E18.70585
G1 X36.090 Y112.860 E18.86763
G1 X35.247 Y112.471 E18.92962
G1 X32.972 Y111.335 E19.09954
G1 X32.153 Y110.897 E19.16154
G1 X29.845 Y109.564 E19.33959
G1 X29.057 Y109.075 E19.40159
G1 X27.036 Y107.741 E19.56337
G1 X26.177 Y107.137 E19.63350
G1 X24.240 Y105.684 E19.79528
G1 X23.419 Y105.029 E19.86541
G1 X21.572 Y103.464 E20.02719
G1 X20.881 Y102.844 E20.08919
G1 X18.954 Y101.002 E20.26724
G1 X18.304 Y100.340 E20.32924
G1 X16.576 Y98.474 E20.49915
G1 X15.966 Y97.774 E20.56115
G1 X14.428 Y95.903 E20.72293
G1 X13.786 Y95.073 E20.79306
G1 X12.363 Y93.114 E20.95484
G1 X11.839 Y92.348 E21.01684
G1 X10.404 Y90.102 E21.19489
G1 X9.929 Y89.304 E21.25689
G1 X8.750 Y87.189 E21.41867
G1 X8.266 Y86.258 E21.48880
G1 X7.216 Y84.076 E21.65058
G1 X6.789 Y83.117 E21.72071
G1 X5.870 Y80.876 E21.88249
G1 X5.542 Y80.008 E21.94449
G1 X4.719 Y77.601 E22.11441
G1 X4.443 Y76.715 E22.17640
G1 X3.734 Y74.146 E22.35445
G1 X3.516 Y73.244 E22.41645
G1 X3.013 Y70.875 E22.57823
G1 X2.825 Y69.842 E22.64836
G1 X2.464 Y67.448 E22.81014
G1 X2.339 Y66.405 E22.88028
G1 X2.122 Y63.993 E23.04206
G1 X2.065 Y63.067 E23.10405
G1 X1.985 Y60.403 E23.28211
G1 X1.987 Y59.475 E23.34410
G1 X2.059 Y57.055 E23.50588
G1 X2.122 Y56.007 E23.57602
G1 X2.339 Y53.595 E23.73780
G1 X2.448 Y52.673 E23.79979
G1 X2.825 Y50.158 E23.96971
G1 X2.989 Y49.244 E24.03170
G1 X3.543 Y46.637 E24.20976
G1 X3.765 Y45.736 E24.27175
G1 X4.409 Y43.402 E24.43353
G1 X4.719 Y42.399 E24.50367
G1 X5.501 Y40.107 E24.66545
G1 X5.870 Y39.124 E24.73558
G1 X6.789 Y36.883 E24.89736
G1 X7.164 Y36.035 E24.95935
G1 X8.321 Y33.634 E25.13741
G1 X8.750 Y32.811 E25.19940
G1 X9.990 Y30.590 E25.36932
G1 X10.468 Y29.794 E25.43132
G1 X11.771 Y27.754 E25.59310
G1 X12.363 Y26.886 E25.66323
G1 X13.786 Y24.927 E25.82501
G1 X14.428 Y24.097 E25.89514
G1 X15.966 Y22.226 E26.05692
G1 X16.576 Y21.526 E26.11892
G1 X18.304 Y19.660 E26.28883
G1 X18.912 Y19.041 E26.34682
G1 X19.336 Y19.374 F30000.000
G1 F2100
G1 X21.239 Y17.554 E26.52273
G1 X21.918 Y16.945 E26.58366
G1 X23.765 Y15.379 E26.74544
G1 X24.561 Y14.745 E26.81343
G1 X26.499 Y13.292 E26.97521
G1 X27.331 Y12.706 E27.04320
G1 X29.352 Y11.372 E27.20498
G1 X30.127 Y10.891 E27.26591
G1 X32.407 Y9.575 E27.44182
G1 X33.211 Y9.144 E27.50275
G1 X35.472 Y8.015 E27.67159
G1 X36.300 Y7.633 E27.73252
G1 X38.527 Y6.681 E27.89430
G1 X39.475 Y6.309 E27.96229
G1 X41.754 Y5.492 E28.12407
G1 X42.722 Y5.178 E28.19206
G1 X45.047 Y4.499 E28.35384
G1 X45.929 Y4.268 E28.41477
G1 X48.496 Y3.682 E28.59068
G1 X49.391 Y3.507 E28.65161
G1 X51.885 Y3.095 E28.82045
G1 X52.789 Y2.974 E28.88138
G1 X55.197 Y2.721 E29.04316
G1 X56.212 Y2.645 E29.11115
G1 X58.631 Y2.536 E29.27293
G1 X59.543 Y2.521 E29.33386
G1 X62.176 Y2.560 E29.50977
G1 X63.087 Y2.603 E29.57069
G1 X65.502 Y2.784 E29.73247
G1 X66.514 Y2.890 E29.80046
G1 X68.914 Y3.215 E29.96224
G1 X69.918 Y3.382 E30.03024
G1 X72.294 Y3.850 E30.19202
G1 X73.183 Y4.051 E30.25294
G1 X75.732 Y4.714 E30.42885
G1 X76.607 Y4.971 E30.48978
G1 X79.010 Y5.754 E30.65863
G1 X79.868 Y6.063 E30.71955
G1 X82.122 Y6.947 E30.88133
G1 X83.058 Y7.347 E30.94932
G1 X85.256 Y8.365 E31.11110
G1 X86.166 Y8.821 E31.17909
G1 X88.298 Y9.968 E31.34088
G1 X89.089 Y10.423 E31.40180
G1 X91.329 Y11.807 E31.57771
G1 X92.089 Y12.311 E31.63864
G1 X94.155 Y13.767 E31.80749
G1 X94.884 Y14.315 E31.86841
G1 X96.777 Y15.825 E32.03019
G1 X97.553 Y16.483 E32.09818
G1 X99.353 Y18.104 E32.25996
G1 X100.089 Y18.807 E32.32795
G1 X101.788 Y20.532 E32.48973
G1 X102.410 Y21.199 E32.55066
G1 X104.142 Y23.182 E32.72657
G1 X104.720 Y23.888 E32.78750
G1 X106.265 Y25.888 E32.95634
G1 X106.800 Y26.627 E33.01727
G1 X108.164 Y28.628 E33.17905
G1 X108.712 Y29.486 E33.24704
G1 X109.954 Y31.564 E33.40882
G1 X110.450 Y32.453 E33.47681
G1 X111.612 Y34.697 E33.64566
G1 X112.007 Y35.520 E33.70659
G1 X112.992 Y37.732 E33.86836
G1 X113.378 Y38.674 E33.93636
G1 X114.229 Y40.941 E34.09814
G1 X114.557 Y41.904 E34.16613
G1 X115.271 Y44.218 E34.32791
G1 X115.515 Y45.097 E34.38883
G1 X116.116 Y47.552 E34.55768
G1 X116.307 Y48.444 E34.61861
G1 X116.777 Y51.035 E34.79452
G1 X116.912 Y51.937 E34.85544
G1 X117.201 Y54.341 E35.01722
G1 X117.292 Y55.355 E35.08522
G1 X117.437 Y57.772 E35.24700
G1 X117.467 Y58.789 E35.31499
G1 X117.467 Y61.211 E35.47677
G1 X117.442 Y62.122 E35.53769
G1 X117.284 Y64.751 E35.71361
G1 X117.201 Y65.659 E35.77453
G1 X116.898 Y68.168 E35.94338
G1 X116.760 Y69.070 E36.00430
G1 X116.328 Y71.453 E36.16608
G1 X116.116 Y72.448 E36.23407
G1 X115.542 Y74.801 E36.39585
G1 X115.271 Y75.782 E36.46385
G1 X114.557 Y78.096 E36.62563
G1 X114.264 Y78.959 E36.68655
G1 X113.378 Y81.326 E36.85540
G1 X113.033 Y82.171 E36.91632
G1 X111.962 Y84.576 E37.09224
G1 X111.565 Y85.397 E37.15316
G1 X110.450 Y87.547 E37.31494
G1 X109.954 Y88.436 E37.38293
G1 X108.712 Y90.514 E37.54471
G1 X108.164 Y91.372 E37.61271
G1 X106.800 Y93.373 E37.77449
G1 X106.265 Y94.112 E37.83541
G1 X104.720 Y96.112 E38.00426
G1 X104.142 Y96.818 E38.06518
G1 X102.410 Y98.801 E38.24109
G1 X101.788 Y99.468 E38.30202
G1 X100.089 Y101.193 E38.46380
G1 X99.353 Y101.896 E38.53179
G1 X97.553 Y103.517 E38.69357
G1 X96.777 Y104.175 E38.76156
G1 X94.884 Y105.685 E38.92334
G1 X94.155 Y106.233 E38.98427
G1 X92.089 Y107.689 E39.15312
G1 X91.329 Y108.193 E39.21404
G1 X89.089 Y109.577 E39.38995
G1 X88.298 Y110.032 E39.45088
G1 X86.166 Y111.179 E39.61266
G1 X85.256 Y111.635 E39.68065
G1 X83.058 Y112.653 E39.84243
G1 X82.122 Y113.053 E39.91042
G1 X79.868 Y113.937 E40.07220
G1 X79.010 Y114.246 E40.13313
G1 X76.506 Y115.060 E40.30904
G1 X75.630 Y115.314 E40.36997
G1 X73.183 Y115.949 E40.53881
G1 X72.294 Y116.150 E40.59974
G1 X69.918 Y116.618 E40.76152
G1 X68.914 Y116.785 E40.82951
G1 X66.514 Y117.110 E40.99129
G1 X65.502 Y117.216 E41.05928
G1 X63.087 Y117.397 E41.22106
G1 X62.176 Y117.440 E41.28199
G1 X59.543 Y117.479 E41.45790
G1 X58.631 Y117.464 E41.51883
G1 X56.212 Y117.355 E41.68061
G1 X55.197 Y117.279 E41.74860
G1 X52.789 Y117.026 E41.91038
G1 X51.885 Y116.905 E41.97130
G1 X49.391 Y116.493 E42.14015
G1 X48.496 Y116.318 E42.20107
G1 X45.929 Y115.732 E42.37699
G1 X45.047 Y115.501 E42.43791
G1 X42.722 Y114.822 E42.59969
G1 X41.754 Y114.508 E42.66768
G1 X39.475 Y113.691 E42.82946
G1 X38.527 Y113.319 E42.89746
G1 X36.300 Y112.367 E43.05924
G1 X35.472 Y111.985 E43.12016
G1 X33.211 Y110.856 E43.28901
G1 X32.407 Y110.425 E43.34993
G1 X30.127 Y109.109 E43.52584
G1 X29.352 Y108.628 E43.58677
G1 X27.331 Y107.294 E43.74855
G1 X26.499 Y106.708 E43.81654
G1 X24.561 Y105.255 E43.97832
G1 X23.765 Y104.621 E44.04631
G1 X21.918 Y103.055 E44.20809
G1 X21.239 Y102.446 E44.26902
G1 X19.336 Y100.626 E44.44493
G1 X18.697 Y99.975 E44.50586
G1 X16.979 Y98.122 E44.67470
G1 X16.380 Y97.434 E44.73563
G1 X14.842 Y95.563 E44.89741
G1 X14.220 Y94.758 E44.96540
G1 X12.796 Y92.799 E45.12718
G1 X12.281 Y92.046 E45.18811
G1 X10.863 Y89.827 E45.36402
G1 X10.397 Y89.044 E45.42494
G1 X9.218 Y86.928 E45.58672
G1 X8.749 Y86.025 E45.65472
G1 X7.698 Y83.843 E45.81650
G1 X7.284 Y82.914 E45.88449
G1 X6.366 Y80.673 E46.04627
G1 X6.044 Y79.819 E46.10720
G1 X5.226 Y77.428 E46.27604
G1 X4.955 Y76.557 E46.33697
G1 X4.255 Y74.019 E46.51288
G1 X4.040 Y73.133 E46.57380
G1 X3.537 Y70.764 E46.73558
G1 X3.355 Y69.762 E46.80358
G1 X2.994 Y67.368 E46.96536
G1 X2.872 Y66.357 E47.03335
G1 X2.655 Y63.945 E47.19513
G1 X2.599 Y63.035 E47.25605
G1 X2.520 Y60.403 E47.43196
G1 X2.522 Y59.491 E47.49289
G1 X2.594 Y57.071 E47.65467
G1 X2.655 Y56.055 E47.72266
G1 X2.872 Y53.643 E47.88444
G1 X2.980 Y52.737 E47.94537
G1 X3.355 Y50.238 E48.11421
G1 X3.516 Y49.340 E48.17514
G1 X4.064 Y46.764 E48.35105
G1 X4.281 Y45.879 E48.41198
G1 X4.926 Y43.544 E48.57376
G1 X5.226 Y42.572 E48.64175
G1 X6.008 Y40.280 E48.80353
G1 X6.366 Y39.327 E48.87152
G1 X7.284 Y37.086 E49.03330
G1 X7.654 Y36.253 E49.09423
G1 X8.796 Y33.880 E49.27014
G1 X9.218 Y33.072 E49.33107
G1 X10.450 Y30.865 E49.49991
G1 X10.919 Y30.083 E49.56084
G1 X12.223 Y28.042 E49.72262
G1 X12.796 Y27.201 E49.79061
G1 X14.220 Y25.242 E49.95239
G1 X14.842 Y24.437 E50.02038
G1 X16.380 Y22.566 E50.18216
G1 X16.979 Y21.878 E50.24309
G1 X18.697 Y20.025 E50.41193
G1 X19.294 Y19.417 E50.46885
G1 X19.896 Y19.926 F30000.000
G1 F2100
G1 X21.750 Y18.152 E50.66085
G1 X22.411 Y17.558 E50.72734
G1 X24.289 Y15.966 E50.91164
G1 X25.016 Y15.386 E50.98121
G1 X26.987 Y13.909 E51.16551
G1 X27.747 Y13.374 E51.23508
G1 X29.802 Y12.017 E51.41938
G1 X30.558 Y11.549 E51.48587
G1 X32.762 Y10.277 E51.67633
G1 X33.544 Y9.856 E51.74282
G1 X35.784 Y8.737 E51.93020
G1 X36.591 Y8.364 E51.99669
G1 X38.855 Y7.396 E52.18099
G1 X39.720 Y7.056 E52.25056
G1 X42.039 Y6.226 E52.43487
G1 X42.923 Y5.938 E52.50443
G1 X45.287 Y5.248 E52.68874
G1 X46.147 Y5.024 E52.75523
G1 X48.628 Y4.457 E52.94569
G1 X49.500 Y4.286 E53.01218
G1 X51.970 Y3.877 E53.19956
G1 X52.851 Y3.758 E53.26605
G1 X55.300 Y3.501 E53.45035
G1 X56.227 Y3.431 E53.51992
G1 X58.687 Y3.321 E53.70422
G1 X59.576 Y3.307 E53.77071
G1 X62.120 Y3.345 E53.96117
G1 X63.008 Y3.385 E54.02766
G1 X65.464 Y3.569 E54.21196
G1 X66.388 Y3.666 E54.28153
G1 X68.829 Y3.997 E54.46583
G1 X69.746 Y4.149 E54.53540
G1 X72.162 Y4.625 E54.71970
G1 X73.029 Y4.822 E54.78619
G1 X75.492 Y5.463 E54.97665
G1 X76.344 Y5.712 E55.04314
G1 X78.726 Y6.487 E55.23052
G1 X79.562 Y6.787 E55.29701
G1 X81.854 Y7.687 E55.48132
G1 X82.709 Y8.052 E55.55088
G1 X84.944 Y9.087 E55.73519
G1 X85.775 Y9.503 E55.80475
G1 X87.944 Y10.670 E55.98906
G1 X88.714 Y11.114 E56.05555
G1 X90.879 Y12.452 E56.24601
G1 X91.620 Y12.942 E56.31250
G1 X93.667 Y14.384 E56.49988
G1 X94.377 Y14.917 E56.56637
G1 X96.303 Y16.453 E56.75067
G1 X97.012 Y17.054 E56.82024
G1 X98.842 Y18.702 E57.00454
G1 X99.514 Y19.344 E57.07411
G1 X101.243 Y21.098 E57.25841
G1 X101.847 Y21.749 E57.32490
G1 X103.522 Y23.666 E57.51536
G1 X104.086 Y24.353 E57.58185
G1 X105.617 Y26.334 E57.76923
G1 X106.139 Y27.053 E57.83572
G1 X107.526 Y29.088 E58.02003
G1 X108.026 Y29.871 E58.08959
G1 X109.290 Y31.985 E58.27390
G1 X109.742 Y32.797 E58.34346
G1 X110.877 Y34.983 E58.52777
G1 X111.263 Y35.783 E58.59426
G1 X112.298 Y38.108 E58.78472
G1 X112.634 Y38.931 E58.85121
G1 X113.514 Y41.275 E59.03859
G1 X113.800 Y42.116 E59.10508
G1 X114.526 Y44.470 E59.28938
G1 X114.773 Y45.366 E59.35895
G1 X115.357 Y47.758 E59.54325
G1 X115.550 Y48.668 E59.61282
G1 X115.990 Y51.091 E59.79712
G1 X116.123 Y51.969 E59.86361
G1 X116.423 Y54.455 E60.05099
G1 X116.503 Y55.340 E60.11748
G1 X116.655 Y57.881 E60.30794
G1 X116.681 Y58.769 E60.37443
G1 X116.681 Y61.231 E60.55873
G1 X116.653 Y62.161 E60.62830
G1 X116.506 Y64.619 E60.81261
G1 X116.423 Y65.545 E60.88217
G1 X116.129 Y67.990 E61.06648
G1 X115.997 Y68.869 E61.13297
G1 X115.543 Y71.373 E61.32343
G1 X115.357 Y72.242 E61.38991
G1 X114.763 Y74.674 E61.57730
G1 X114.526 Y75.530 E61.64379
G1 X113.800 Y77.884 E61.82809
G1 X113.500 Y78.763 E61.89766
G1 X112.634 Y81.069 E62.08196
G1 X112.282 Y81.929 E62.15153
G1 X111.263 Y84.217 E62.33891
G1 X110.877 Y85.017 E62.40540
G1 X109.742 Y87.203 E62.58970
G1 X109.290 Y88.015 E62.65927
G1 X108.026 Y90.129 E62.84357
G1 X107.526 Y90.912 E62.91314
G1 X106.139 Y92.947 E63.09744
G1 X105.617 Y93.666 E63.16393
G1 X104.086 Y95.647 E63.35131
