; generated by Slic3r 1.3.0 on 2021-10-28 at 21:42:23

; external perimeters extrusion width = 0.44mm (2.78mm^3/s)
; perimeters extrusion width = 0.40mm (7.14mm^3/s)
; infill extrusion width = 0.50mm (10.97mm^3/s)
; solid infill extrusion width = 0.60mm (6.68mm^3/s)
; top infill extrusion width = 0.40mm (2.14mm^3/s)

M107
M190 S80 ; set bed temperature and wait for it to be reached
M104 S210 ; set temperature
G28 ; home all axes
G1 Z5 F5000 ; lift nozzle

; Filament gcode

M109 S210 ; set temperature and wait for it to be reached
G21 ; set units to millimeters
G90 ; use absolute coordinates
M82 ; use absolute distances for extrusion
G92 E0
G1 Z0.300 F30000.000
G1 E-2.00000 F2400.00000
G92 E0
G1 X48.402 Y55.672 F30000.000
G1 E2.00000 F2400.00000
G1 F2100
G1 X50.116 Y54.420 E2.14175
G1 X52.550 Y53.872 E2.30845
G1 X77.450 Y53.872 E3.97191
G1 X79.535 Y54.268 E4.11366
G1 X81.328 Y55.402 E4.25542
G1 X82.580 Y57.116 E4.39717
G1 X83.128 Y59.550 E4.56387
G1 X83.128 Y70.450 E5.29205
G1 X82.732 Y72.535 E5.43380
G1 X81.598 Y74.328 E5.57556
G1 X79.884 Y75.580 E5.71731
G1 X77.450 Y76.128 E5.88401
G1 X52.550 Y76.128 E7.54746
G1 X50.465 Y75.732 E7.68922
G1 X48.672 Y74.598 E7.83097
G1 X47.420 Y72.884 E7.97273
G1 X46.872 Y70.450 E8.13942
G1 X46.872 Y59.550 E8.86760
G1 X47.268 Y57.465 E9.00936
G1 X48.370 Y55.723 E9.14710
G1 X48.931 Y55.897 F30000.000
G1 F2100
G1 X50.616 Y54.785 E9.28194
G1 X52.550 Y54.408 E9.41360
G1 X77.450 Y54.408 E11.07705
G1 X79.429 Y54.804 E11.21189
G1 X81.103 Y55.931 E11.34673
G1 X82.215 Y57.616 E11.48158
G1 X82.592 Y59.550 E11.61323
G1 X82.592 Y70.450 E12.34141
G1 X82.196 Y72.429 E12.47625
G1 X81.069 Y74.103 E12.61109
G1 X79.384 Y75.215 E12.74593
G1 X77.450 Y75.592 E12.87759
G1 X52.550 Y75.592 E14.54104
G1 X50.571 Y75.196 E14.67588
G1 X48.897 Y74.069 E14.81072
G1 X47.785 Y72.384 E14.94557
G1 X47.408 Y70.450 E15.07722
G1 X47.408 Y59.550 E15.80540
G1 X47.804 Y57.571 E15.94024
G1 X48.897 Y55.946 E16.07107
G1 X49.458 Y56.135 F30000.000
G1 F2100
G1 X51.108 Y55.175 E16.19863
G1 X52.550 Y54.943 E16.29619
G1 X77.450 Y54.943 E17.95965
G1 X79.318 Y55.339 E18.08720
G1 X80.865 Y56.458 E18.21475
G1 X81.825 Y58.108 E18.34231
G1 X82.057 Y59.550 E18.43988
G1 X82.057 Y70.450 E19.16805
G1 X81.661 Y72.318 E19.29561
G1 X80.542 Y73.865 E19.42316
G1 X78.892 Y74.825 E19.55071
G1 X77.450 Y75.057 E19.64828
G1 X52.550 Y75.057 E21.31174
G1 X50.682 Y74.661 E21.43929
G1 X49.135 Y73.542 E21.56684
G1 X48.175 Y71.892 E21.69439
G1 X47.943 Y70.450 E21.79196
G1 X47.943 Y59.550 E22.52014
G1 X48.339 Y57.682 E22.64769
G1 X49.423 Y56.184 E22.77124
G1 X49.982 Y56.390 F30000.000
G1 F2100
G1 X51.589 Y55.594 E22.89106
G1 X52.550 Y55.479 E22.95570
G1 X77.450 Y55.479 E24.61915
G1 X79.200 Y55.874 E24.73897
G1 X80.610 Y56.982 E24.85879
G1 X81.406 Y58.589 E24.97862
G1 X81.521 Y59.550 E25.04325
G1 X81.521 Y70.450 E25.77143
G1 X81.126 Y72.200 E25.89125
G1 X80.018 Y73.610 E26.01107
G1 X78.411 Y74.406 E26.13090
G1 X77.450 Y74.521 E26.19553
G1 X52.550 Y74.521 E27.85899
G1 X50.800 Y74.126 E27.97881
G1 X49.390 Y73.018 E28.09863
G1 X48.594 Y71.411 E28.21845
G1 X48.479 Y70.450 E28.28309
G1 X48.479 Y59.550 E29.01127
G1 X48.874 Y57.800 E29.13109
G1 X49.945 Y56.438 E29.24690
G1 X50.504 Y56.667 F30000.000
G1 F2100
G1 X52.550 Y56.014 E29.39038
G1 X77.450 Y56.014 E31.05383
G1 X79.073 Y56.409 E31.16539
G1 X80.333 Y57.504 E31.27695
G1 X80.986 Y59.550 E31.42042
G1 X80.986 Y70.450 E32.14860
G1 X80.591 Y72.073 E32.26016
G1 X79.496 Y73.333 E32.37171
G1 X77.450 Y73.986 E32.51519
G1 X52.550 Y73.986 E34.17864
G1 X50.927 Y73.591 E34.29020
G1 X49.667 Y72.496 E34.40176
G1 X49.014 Y70.450 E34.54523
G1 X49.014 Y59.550 E35.27341
G1 X49.409 Y57.927 E35.38497
G1 X50.464 Y56.712 E35.49252
G1 X51.024 Y57.187 F30000.000
G1 F2100
G1 X51.411 Y56.801 E35.53345
G1 X78.589 Y56.801 E37.56729
G1 X80.199 Y58.411 E37.73774
G1 X80.199 Y71.589 E38.72390
G1 X78.589 Y73.199 E38.89435
G1 X51.411 Y73.199 E40.92820
G1 X49.801 Y71.589 E41.09865
G1 X49.801 Y58.411 E42.08480
G1 X50.982 Y57.230 E42.20983
G1 X51.449 Y57.612 F30000.000
G1 F2100
G1 X51.660 Y57.401 E42.23216
G1 X78.340 Y57.401 E44.22881
G1 X79.599 Y58.660 E44.36206
G1 X79.599 Y71.340 E45.31102
G1 X78.340 Y72.599 E45.44427
G1 X51.660 Y72.599 E47.44092
G1 X50.401 Y71.340 E47.57418
G1 X50.401 Y58.660 E48.52313
G1 X51.406 Y57.654 E48.62957
G1 X51.873 Y58.036 F30000.000
G1 F2100
G1 X51.908 Y58.001 E48.63330
G1 X78.092 Y58.001 E50.59275
G1 X78.999 Y58.908 E50.68881
G1 X78.999 Y71.092 E51.60057
G1 X78.092 Y71.999 E51.69662
G1 X51.908 Y71.999 E53.65607
G1 X51.001 Y71.092 E53.75213
G1 X51.001 Y58.908 E54.66389
G1 X51.831 Y58.078 E54.75172
G1 X52.157 Y58.601 F30000.000
G1 F2100
G1 X77.843 Y58.601 E56.67398
G1 X78.399 Y59.157 E56.73284
G1 X78.399 Y70.843 E57.60740
G1 X77.843 Y71.399 E57.66626
G1 X52.157 Y71.399 E59.58851
G1 X51.601 Y70.843 E59.64737
G1 X51.601 Y59.157 E60.52193
G1 X52.114 Y58.643 E60.57630
G1 X52.405 Y59.201 F30000.000
G1 F2100
G1 X77.595 Y59.201 E62.46136
G1 X77.799 Y59.405 E62.48302
G1 X77.799 Y70.595 E63.32038
G1 X77.595 Y70.799 E63.34204
G1 X52.405 Y70.799 E65.22710
G1 X52.201 Y70.595 E65.24876
G1 X52.201 Y59.405 E66.08613
G1 X52.363 Y59.243 E66.10330
G1 E64.10330 F2400.00000
G92 E0
G1 X77.150 Y70.150 F30000.000
G1 E2.00000 F2400.00000
G1 F2100
G1 X52.850 Y70.150 E3.62337
G1 X52.850 Y59.850 E4.31147
G1 X77.150 Y59.850 E5.93484
G1 X77.150 Y70.090 E6.61893
G1 X76.754 Y70.097 F30000.000
G1 X76.350 Y69.350 F30000.000
G1 F2100
G1 X53.650 Y69.350 E8.13541
G1 X53.650 Y60.650 E8.71662
G1 X76.350 Y60.650 E10.23310
G1 X76.350 Y69.290 E10.81030
G1 X76.506 Y69.718 F30000.000
G1 X76.727 Y69.727 F30000.000
G1 F2100
G1 X76.618 Y69.750 E10.81372
G1 X53.382 Y69.750 E11.52479
G1 X53.273 Y69.727 E11.52822
G1 X53.250 Y69.618 E11.53164
G1 X53.250 Y60.382 E11.81427
G1 X53.273 Y60.273 E11.81769
G1 X53.382 Y60.250 E11.82112
G1 X76.618 Y60.250 E12.53219
G1 X76.727 Y60.273 E12.53561
G1 X76.750 Y60.382 E12.53903
G1 X76.739 Y69.669 E12.82322
G1 Z0.500 F30000.000
G1 X76.270 Y69.270 F30000.000
G1 F2100
G1 X53.730 Y69.270 E13.56743
G1 X53.730 Y60.730 E13.84940
G1 X76.270 Y60.730 E14.59361
G1 X76.270 Y69.210 E14.87360
G1 X76.427 Y69.638 F30000.000
G1 X77.230 Y70.230 F30000.000
G1 F2100
G1 X52.770 Y70.230 E15.68120
G1 X52.770 Y59.770 E16.02656
G1 X77.230 Y59.770 E16.83417
G1 X77.230 Y70.170 E17.17755
G1 X76.834 Y70.176 F30000.000
G1 X76.700 Y69.700 F30000.000
G1 F1200
G1 X76.620 Y69.717 E17.18192
G1 F1200
G1 X76.459 Y69.750 E17.18976
G1 X53.541 Y69.750 E18.28229
G1 X53.461 Y69.733 E18.28621
G1 F1200
G1 X53.300 Y69.700 E18.29496
G1 X53.283 Y69.620 E18.29933
G1 F1200
G1 X53.250 Y69.459 E18.30717
G1 X53.250 Y60.541 E18.73228
G1 X53.267 Y60.461 E18.73620
G1 F1200
G1 X53.300 Y60.300 E18.74494
G1 F1200
G1 X53.380 Y60.283 E18.74932
G1 F1200
G1 X53.541 Y60.250 E18.75715
G1 X76.459 Y60.250 E19.84969
G1 X76.539 Y60.267 E19.85361
G1 F1200
G1 X76.700 Y60.300 E19.86236
G1 X76.717 Y60.380 E19.86673
G1 F1200
G1 X76.750 Y60.541 E19.87457
G1 X76.750 Y69.459 E20.29968
G1 X76.733 Y69.539 E20.30359
G1 F1200
G1 X76.712 Y69.641 E20.30915
G1 Z0.700 F30000.000
G1 X76.270 Y69.270 F30000.000
G1 F2100
G1 X53.730 Y69.270 E21.05336
G1 X53.730 Y60.730 E21.33533
G1 X76.270 Y60.730 E22.07954
G1 X76.270 Y69.210 E22.35952
G1 X76.427 Y69.638 F30000.000
G1 X77.230 Y70.230 F30000.000
G1 F2100
G1 X52.770 Y70.230 E23.16713
G1 X52.770 Y59.770 E23.51249
G1 X77.230 Y59.770 E24.32009
G1 X77.230 Y70.170 E24.66347
G1 X76.834 Y70.176 F30000.000
G1 X76.700 Y69.700 F30000.000
G1 F1200
G1 X76.620 Y69.717 E24.66785
G1 F1200
G1 X76.459 Y69.750 E24.67568
G1 X53.541 Y69.750 E25.76822
G1 X53.461 Y69.733 E25.77214
G1 F1200
G1 X53.300 Y69.700 E25.78088
G1 X53.283 Y69.620 E25.78526
G1 F1200
G1 X53.250 Y69.459 E25.79309
G1 X53.250 Y60.541 E26.21820
G1 X53.267 Y60.461 E26.22212
G1 F1200
G1 X53.300 Y60.300 E26.23087
G1 F1200
G1 X53.380 Y60.283 E26.23524
G1 F1200
G1 X53.541 Y60.250 E26.24308
G1 X76.459 Y60.250 E27.33562
G1 X76.539 Y60.267 E27.33954
G1 F1200
G1 X76.700 Y60.300 E27.34828
G1 X76.717 Y60.380 E27.35266
G1 F1200
G1 X76.750 Y60.541 E27.36049
G1 X76.750 Y69.459 E27.78560
G1 X76.733 Y69.539 E27.78952
G1 F1200
G1 X76.712 Y69.641 E27.79507
M106 S247.35
G1 Z0.900 F30000.000
G1 X76.270 Y69.270 F30000.000
G1 F2100
G1 X53.730 Y69.270 E28.53928
G1 X53.730 Y60.730 E28.82125
G1 X76.270 Y60.730 E29.56546
G1 X76.270 Y69.210 E29.84545
G1 X76.427 Y69.638 F30000.000
G1 X77.230 Y70.230 F30000.000
G1 F2100
G1 X52.770 Y70.230 E30.65305
G1 X52.770 Y59.770 E30.99841
G1 X77.230 Y59.770 E31.80602
G1 X77.230 Y70.170 E32.14940
G1 X76.834 Y70.176 F30000.000
G1 X76.700 Y69.700 F30000.000
G1 F1200
G1 X76.620 Y69.717 E32.15377
G1 F1200
G1 X76.459 Y69.750 E32.16161
G1 X53.541 Y69.750 E33.25414
G1 X53.461 Y69.733 E33.25806
G1 F1200
G1 X53.300 Y69.700 E33.26681
G1 X53.283 Y69.620 E33.27118
G1 F1200
G1 X53.250 Y69.459 E33.27902
G1 X53.250 Y60.541 E33.70413
G1 X53.267 Y60.461 E33.70805
G1 F1200
G1 X53.300 Y60.300 E33.71679
G1 F1200
G1 X53.380 Y60.283 E33.72117
G1 F1200
G1 X53.541 Y60.250 E33.72901
G1 X76.459 Y60.250 E34.82154
G1 X76.539 Y60.267 E34.82546
G1 F1200
G1 X76.700 Y60.300 E34.83421
G1 X76.717 Y60.380 E34.83858
G1 F1200
G1 X76.750 Y60.541 E34.84642
G1 X76.750 Y69.459 E35.27153
G1 X76.733 Y69.539 E35.27545
G1 F1200
G1 X76.712 Y69.641 E35.28100
G1 Z1.100 F30000.000
G1 X76.270 Y69.270 F30000.000
G1 F2100
G1 X53.730 Y69.270 E36.02521
G1 X53.730 Y60.730 E36.30718
G1 X76.270 Y60.730 E37.05139
G1 X76.270 Y69.210 E37.33138
G1 X76.427 Y69.638 F30000.000
G1 X77.230 Y70.230 F30000.000
G1 F2100
G1 X52.770 Y70.230 E38.13898
G1 X52.770 Y59.770 E38.48434
G1 X77.230 Y59.770 E39.29194
G1 X77.230 Y70.170 E39.63532
G1 X76.834 Y70.176 F30000.000
G1 X76.700 Y69.700 F30000.000
G1 F1200
G1 X76.620 Y69.717 E39.63970
G1 F1200
G1 X76.459 Y69.750 E39.64753
G1 X53.541 Y69.750 E40.74007
G1 X53.461 Y69.733 E40.74399
G1 F1200
G1 X53.300 Y69.700 E40.75274
G1 X53.283 Y69.620 E40.75711
G1 F1200
G1 X53.250 Y69.459 E40.76495
G1 X53.250 Y60.541 E41.19005
G1 X53.267 Y60.461 E41.19397
G1 F1200
G1 X53.300 Y60.300 E41.20272
G1 F1200
G1 X53.380 Y60.283 E41.20709
G1 F1200
G1 X53.541 Y60.250 E41.21493
G1 X76.459 Y60.250 E42.30747
G1 X76.539 Y60.267 E42.31139
G1 F1200
G1 X76.700 Y60.300 E42.32013
G1 X76.717 Y60.380 E42.32451
G1 F1200
G1 X76.750 Y60.541 E42.33235
G1 X76.750 Y69.459 E42.75745
G1 X76.733 Y69.539 E42.76137
G1 F1200
G1 X76.712 Y69.641 E42.76693
G1 Z1.300 F30000.000
G1 X76.270 Y69.270 F30000.000
G1 F2100
G1 X53.730 Y69.270 E43.51114
G1 X53.730 Y60.730 E43.79310
G1 X76.270 Y60.730 E44.53731
G1 X76.270 Y69.210 E44.81730
G1 X76.427 Y69.638 F30000.000
G1 X77.230 Y70.230 F30000.000
G1 F2100
G1 X52.770 Y70.230 E45.62490
G1 X52.770 Y59.770 E45.97027
G1 X77.230 Y59.770 E46.77787
G1 X77.230 Y70.170 E47.12125
G1 X76.834 Y70.176 F30000.000
G1 X76.700 Y69.700 F30000.000
G1 F1200
G1 X76.620 Y69.717 E47.12562
G1 F1200
G1 X76.459 Y69.750 E47.13346
G1 X53.541 Y69.750 E48.22599
G1 X53.461 Y69.733 E48.22991
G1 F1200
G1 X53.300 Y69.700 E48.23866
G1 X53.283 Y69.620 E48.24303
G1 F1200
G1 X53.250 Y69.459 E48.25087
G1 X53.250 Y60.541 E48.67598
G1 X53.267 Y60.461 E48.67990
G1 F1200
G1 X53.300 Y60.300 E48.68865
G1 F1200
G1 X53.380 Y60.283 E48.69302
G1 F1200
G1 X53.541 Y60.250 E48.70086
G1 X76.459 Y60.250 E49.79339
G1 X76.539 Y60.267 E49.79731
G1 F1200
G1 X76.700 Y60.300 E49.80606
G1 X76.717 Y60.380 E49.81043
G1 F1200
G1 X76.750 Y60.541 E49.81827
G1 X76.750 Y69.459 E50.24338
G1 X76.733 Y69.539 E50.24730
G1 F1200
G1 X76.712 Y69.641 E50.25285
G1 Z1.500 F30000.000
G1 X76.270 Y69.270 F30000.000
G1 F2100
G1 X53.730 Y69.270 E50.99706
G1 X53.730 Y60.730 E51.27903
G1 X76.270 Y60.730 E52.02324
G1 X76.270 Y69.210 E52.30323
G1 X76.427 Y69.638 F30000.000
G1 X77.230 Y70.230 F30000.000
G1 F2100
G1 X52.770 Y70.230 E53.11083
G1 X52.770 Y59.770 E53.45619
G1 X77.230 Y59.770 E54.26379
G1 X77.230 Y70.170 E54.60717
G1 X76.834 Y70.176 F30000.000
G1 X76.700 Y69.700 F30000.000
G1 F1200
G1 X76.620 Y69.717 E54.61155
G1 F1200
G1 X76.459 Y69.750 E54.61939
G1 X53.541 Y69.750 E55.71192
G1 X53.461 Y69.733 E55.71584
G1 F1200
G1 X53.300 Y69.700 E55.72459
G1 X53.283 Y69.620 E55.72896
G1 F1200
G1 X53.250 Y69.459 E55.73680
G1 X53.250 Y60.541 E56.16191
G1 X53.267 Y60.461 E56.16582
G1 F1200
G1 X53.300 Y60.300 E56.17457
G1 F1200
G1 X53.380 Y60.283 E56.17895
G1 F1200
G1 X53.541 Y60.250 E56.18678
G1 X76.459 Y60.250 E57.27932
G1 X76.539 Y60.267 E57.28324
G1 F1200
G1 X76.700 Y60.300 E57.29199
G1 X76.717 Y60.380 E57.29636
G1 F1200
G1 X76.750 Y60.541 E57.30420
G1 X76.750 Y69.459 E57.72930
G1 X76.733 Y69.539 E57.73322
G1 F1200
G1 X76.712 Y69.641 E57.73878
G1 Z1.700 F30000.000
G1 X76.270 Y69.270 F30000.000
G1 F2100
G1 X53.730 Y69.270 E58.48299
G1 X53.730 Y60.730 E58.76496
G1 X76.270 Y60.730 E59.50917
G1 X76.270 Y69.210 E59.78915
G1 X76.427 Y69.638 F30000.000
G1 X77.230 Y70.230 F30000.000
G1 F2100
G1 X52.770 Y70.230 E60.59676
G1 X52.770 Y59.770 E60.94212
G1 X77.230 Y59.770 E61.74972
G1 X77.230 Y70.170 E62.09310
G1 X76.834 Y70.176 F30000.000
G1 X76.700 Y69.700 F30000.000
G1 F1200
G1 X76.620 Y69.717 E62.09747
G1 F1200
G1 X76.459 Y69.750 E62.10531
G1 X53.541 Y69.750 E63.19785
G1 X53.461 Y69.733 E63.20176
G1 F1200
G1 X53.300 Y69.700 E63.21051
G1 X53.283 Y69.620 E63.21489
G1 F1200
G1 X53.250 Y69.459 E63.22272
G1 X53.250 Y60.541 E63.64783
G1 X53.267 Y60.461 E63.65175
G1 F1200
G1 X53.300 Y60.300 E63.66050
G1 F1200
G1 X53.380 Y60.283 E63.66487
G1 F1200
G1 X53.541 Y60.250 E63.67271
G1 X76.459 Y60.250 E64.76525
G1 X76.539 Y60.267 E64.76916
G1 F1200
G1 X76.700 Y60.300 E64.77791
G1 X76.717 Y60.380 E64.78229
G1 F1200
G1 X76.750 Y60.541 E64.79012
G1 X76.750 Y69.459 E65.21523
G1 X76.733 Y69.539 E65.21915
G1 F1200
G1 X76.712 Y69.641 E65.22470
G1 Z1.900 F30000.000
G1 X76.270 Y69.270 F30000.000
G1 F2100
G1 X53.730 Y69.270 E65.96891
G1 X53.730 Y60.730 E66.25088
G1 X76.270 Y60.730 E66.99509
G1 X76.270 Y69.210 E67.27508
G1 X76.427 Y69.638 F30000.000
G1 X77.230 Y70.230 F30000.000
G1 F2100
G1 X52.770 Y70.230 E68.08268
G1 X52.770 Y59.770 E68.42804
G1 X77.230 Y59.770 E69.23565
G1 X77.230 Y70.170 E69.57903
G1 X76.834 Y70.176 F30000.000
G1 X76.700 Y69.700 F30000.000
G1 F1200
G1 X76.620 Y69.717 E69.58340
G1 F1200
G1 X76.459 Y69.750 E69.59124
G1 X53.541 Y69.750 E70.68377
G1 X53.461 Y69.733 E70.68769
G1 F1200
G1 X53.300 Y69.700 E70.69644
G1 X53.283 Y69.620 E70.70081
G1 F1200
G1 X53.250 Y69.459 E70.70865
G1 X53.250 Y60.541 E71.13376
G1 X53.267 Y60.461 E71.13768
G1 F1200
G1 X53.300 Y60.300 E71.14642
G1 F1200
G1 X53.380 Y60.283 E71.15080
G1 F1200
G1 X53.541 Y60.250 E71.15863
G1 X76.459 Y60.250 E72.25117
G1 X76.539 Y60.267 E72.25509
G1 F1200
G1 X76.700 Y60.300 E72.26384
G1 X76.717 Y60.380 E72.26821
G1 F1200
G1 X76.750 Y60.541 E72.27605
G1 X76.750 Y69.459 E72.70116
G1 X76.733 Y69.539 E72.70507
G1 F1200
G1 X76.712 Y69.641 E72.71063
G1 Z2.100 F30000.000
G1 X76.270 Y69.270 F30000.000
G1 F2100
G1 X53.730 Y69.270 E73.45484
G1 X53.730 Y60.730 E73.73681
G1 X76.270 Y60.730 E74.48102
G1 X76.270 Y69.210 E74.76100
G1 X76.427 Y69.638 F30000.000
G1 X77.230 Y70.230 F30000.000
G1 F2100
G1 X52.770 Y70.230 E75.56861
G1 X52.770 Y59.770 E75.91397
G1 X77.230 Y59.770 E76.72157
G1 X77.230 Y70.170 E77.06495
G1 X76.834 Y70.176 F30000.000
G1 X76.700 Y69.700 F30000.000
G1 F1200
G1 X76.620 Y69.717 E77.06933
G1 F1200
G1 X76.459 Y69.750 E77.07716
G1 X53.541 Y69.750 E78.16970
G1 X53.461 Y69.733 E78.17362
G1 F1200
G1 X53.300 Y69.700 E78.18236
G1 X53.283 Y69.620 E78.18674
G1 F1200
G1 X53.250 Y69.459 E78.19458
G1 X53.250 Y60.541 E78.61968
G1 X53.267 Y60.461 E78.62360
G1 F1200
G1 X53.300 Y60.300 E78.63235
G1 F1200
G1 X53.380 Y60.283 E78.63672
G1 F1200
G1 X53.541 Y60.250 E78.64456
G1 X76.459 Y60.250 E79.73710
G1 X76.539 Y60.267 E79.74102
G1 F1200
G1 X76.700 Y60.300 E79.74976
G1 X76.717 Y60.380 E79.75414
G1 F1200
G1 X76.750 Y60.541 E79.76197
G1 X76.750 Y69.459 E80.18708
G1 X76.733 Y69.539 E80.19100
G1 F1200
G1 X76.712 Y69.641 E80.19656
G1 Z2.300 F30000.000
G1 X76.270 Y69.270 F30000.000
G1 F2100
G1 X53.730 Y69.270 E80.94077
G1 X53.730 Y60.730 E81.22273
G1 X76.270 Y60.730 E81.96694
G1 X76.270 Y69.210 E82.24693
G1 X76.427 Y69.638 F30000.000
G1 X77.230 Y70.230 F30000.000
G1 F2100
