; generated by Slic3r 1.3.0 on 2021-08-22 at 00:04:02

; external perimeters extrusion width = 0.44mm (2.78mm^3/s)
; perimeters extrusion width = 0.40mm (7.14mm^3/s)
; infill extrusion width = 0.50mm (10.97mm^3/s)
; solid infill extrusion width = 0.60mm (6.68mm^3/s)
; top infill extrusion width = 0.40mm (2.14mm^3/s)

M107
M190 S80 ; set bed temperature and wait for it to be reached
M104 S210 ; set temperature
G28 ; home all axes
G1 Z5 F5000 ; lift nozzle

; Filament gcode

M109 S210 ; set temperature and wait for it to be reached
G21 ; set units to millimeters
G90 ; use absolute coordinates
M82 ; use absolute distances for extrusion
G92 E0
G1 Z0.300 F30000.000
G1 E-2.00000 F2400.00000
G92 E0
G1 X44.374 Y54.062 F30000.000
G1 E2.00000 F2400.00000
G1 F2100
G1 X46.609 Y52.439 E2.18457
G1 X53.166 Y49.637 E2.66093
G1 X55.608 Y49.137 E2.82741
G1 X64.392 Y49.137 E3.41424
G1 X66.834 Y49.637 E3.58073
G1 X73.390 Y52.439 E4.05707
G1 X75.244 Y53.662 E4.20542
G1 X76.548 Y55.459 E4.35377
G1 X77.163 Y58.153 E4.53835
G1 X77.163 Y61.847 E4.78518
G1 X76.766 Y64.032 E4.93353
G1 X75.626 Y65.938 E5.08188
G1 X73.390 Y67.561 E5.26646
G1 X66.834 Y70.363 E5.74281
G1 X64.392 Y70.863 E5.90929
G1 X55.608 Y70.863 E6.49612
G1 X53.166 Y70.363 E6.66260
G1 X46.610 Y67.561 E7.13895
G1 X44.756 Y66.338 E7.28730
G1 X43.452 Y64.541 E7.43564
G1 X42.837 Y61.847 E7.62023
G1 X42.837 Y58.153 E7.86706
G1 X43.234 Y55.968 E8.01541
G1 X44.343 Y54.113 E8.15975
G1 X44.903 Y54.275 F30000.000
G1 F2100
G1 X46.820 Y52.931 E8.31609
G1 X53.377 Y50.130 E8.79245
G1 X55.608 Y49.673 E8.94458
G1 X64.392 Y49.673 E9.53142
G1 X66.623 Y50.130 E9.68355
G1 X73.180 Y52.931 E10.15990
G1 X74.941 Y54.115 E10.30165
G1 X76.145 Y55.862 E10.44341
G1 X76.627 Y58.153 E10.59977
G1 X76.627 Y61.847 E10.84660
G1 X76.231 Y63.932 E10.98836
G1 X75.097 Y65.725 E11.13011
G1 X73.180 Y67.069 E11.28647
G1 X66.623 Y69.870 E11.76282
G1 X64.392 Y70.327 E11.91495
G1 X55.608 Y70.327 E12.50178
G1 X53.377 Y69.870 E12.65391
G1 X46.820 Y67.069 E13.13026
G1 X45.059 Y65.885 E13.27201
G1 X43.855 Y64.138 E13.41377
G1 X43.373 Y61.847 E13.57013
G1 X43.373 Y58.153 E13.81697
G1 X43.769 Y56.068 E13.95872
G1 X44.871 Y54.325 E14.09647
G1 X45.432 Y54.499 F30000.000
G1 F2100
G1 X47.030 Y53.424 E14.22516
G1 X53.587 Y50.622 E14.70152
G1 X55.608 Y50.209 E14.83930
G1 X64.392 Y50.209 E15.42614
G1 X66.413 Y50.622 E15.56392
G1 X72.970 Y53.424 E16.04026
G1 X74.634 Y54.566 E16.17511
G1 X75.731 Y56.260 E16.30995
G1 X76.091 Y58.153 E16.43865
G1 X76.091 Y61.847 E16.68549
G1 X75.695 Y63.827 E16.82033
G1 X74.568 Y65.501 E16.95517
G1 X72.970 Y66.576 E17.08388
G1 X66.413 Y69.378 E17.56023
G1 X64.392 Y69.791 E17.69801
G1 X55.608 Y69.791 E18.28484
G1 X53.587 Y69.378 E18.42262
G1 X47.030 Y66.576 E18.89897
G1 X45.366 Y65.434 E19.03381
G1 X44.269 Y63.740 E19.16865
G1 X43.909 Y61.847 E19.29736
G1 X43.909 Y58.153 E19.54419
G1 X44.305 Y56.173 E19.67903
G1 X45.398 Y54.549 E19.80987
G1 X45.959 Y54.738 F30000.000
G1 F2100
G1 X47.241 Y53.916 E19.91158
G1 X53.798 Y51.115 E20.38793
G1 X55.608 Y50.744 E20.51136
G1 X64.392 Y50.744 E21.09820
G1 X66.202 Y51.115 E21.22163
G1 X72.759 Y53.916 E21.69798
G1 X74.321 Y55.014 E21.82553
G1 X75.304 Y56.651 E21.95308
G1 X75.556 Y58.153 E22.05480
G1 X75.556 Y61.847 E22.30164
G1 X75.160 Y63.715 E22.42919
G1 X74.041 Y65.262 E22.55674
G1 X72.759 Y66.084 E22.65847
G1 X66.202 Y68.885 E23.13481
G1 X64.392 Y69.256 E23.25824
G1 X55.608 Y69.256 E23.84508
G1 X53.798 Y68.885 E23.96851
G1 X47.241 Y66.084 E24.44485
G1 X45.679 Y64.986 E24.57240
G1 X44.696 Y63.349 E24.69996
G1 X44.444 Y61.847 E24.80168
G1 X44.444 Y58.153 E25.04852
G1 X44.840 Y56.285 E25.17607
G1 X45.924 Y54.786 E25.29961
G1 X46.483 Y54.993 F30000.000
G1 F2100
G1 X47.451 Y54.409 E25.37513
G1 X54.008 Y51.607 E25.85149
G1 X55.608 Y51.280 E25.96057
G1 X64.392 Y51.280 E26.54740
G1 X65.992 Y51.607 E26.65648
G1 X72.549 Y54.409 E27.13283
G1 X74.002 Y55.460 E27.25265
G1 X74.863 Y57.033 E27.37247
G1 X75.020 Y58.153 E27.44800
G1 X75.020 Y61.847 E27.69484
G1 X74.625 Y63.597 E27.81466
G1 X73.517 Y65.007 E27.93448
G1 X72.549 Y65.591 E28.01001
G1 X65.992 Y68.393 E28.48636
G1 X64.392 Y68.720 E28.59544
G1 X55.608 Y68.720 E29.18227
G1 X54.008 Y68.393 E29.29135
G1 X47.451 Y65.591 E29.76770
G1 X45.998 Y64.541 E29.88752
G1 X45.137 Y62.967 E30.00734
G1 X44.980 Y61.847 E30.08287
G1 X44.980 Y58.153 E30.32971
G1 X45.375 Y56.403 E30.44953
G1 X46.446 Y55.040 E30.56534
G1 X47.662 Y54.901 F30000.000
G1 F2100
G1 X54.219 Y52.100 E31.04170
G1 X55.608 Y51.815 E31.13643
G1 X64.392 Y51.815 E31.72326
G1 X65.781 Y52.100 E31.81799
G1 X72.338 Y54.901 E32.29433
G1 X73.675 Y55.902 E32.40589
G1 X74.485 Y58.153 E32.56570
G1 X74.485 Y61.847 E32.81253
G1 X74.090 Y63.470 E32.92409
G1 X72.338 Y65.099 E33.08390
G1 X65.781 Y67.900 E33.56024
G1 X64.392 Y68.185 E33.65497
G1 X55.608 Y68.185 E34.24180
G1 X54.219 Y67.900 E34.33653
G1 X47.662 Y65.099 E34.81288
G1 X46.325 Y64.099 E34.92443
G1 X45.515 Y61.847 E35.08424
G1 X45.515 Y58.153 E35.33108
G1 X45.910 Y56.530 E35.44263
G1 X47.618 Y54.942 E35.59842
G1 X47.971 Y55.624 F30000.000
G1 F2100
G1 X54.784 Y52.713 E36.15287
G1 X55.329 Y52.602 E36.19455
G1 X64.671 Y52.602 E36.89361
G1 X65.216 Y52.713 E36.93529
G1 X72.789 Y55.949 E37.55152
G1 X73.698 Y57.327 E37.67510
G1 X73.698 Y62.673 E38.07519
G1 X72.789 Y64.051 E38.19877
G1 X65.216 Y67.287 E38.81500
G1 X64.671 Y67.398 E38.85669
G1 X55.329 Y67.398 E39.55574
G1 X54.784 Y67.287 E39.59742
G1 X47.211 Y64.051 E40.21365
G1 X46.302 Y62.673 E40.33724
G1 X46.302 Y57.327 E40.73732
G1 X47.211 Y55.949 E40.86090
G1 X47.915 Y55.648 E40.91820
G1 X48.206 Y56.176 F30000.000
G1 F2100
G1 X54.964 Y53.289 E41.46810
G1 X55.390 Y53.202 E41.50068
G1 X64.610 Y53.202 E42.19064
G1 X65.036 Y53.289 E42.22322
G1 X72.387 Y56.430 E42.82142
G1 X73.098 Y57.507 E42.91804
G1 X73.098 Y62.493 E43.29115
G1 X72.387 Y63.570 E43.38777
G1 X65.036 Y66.711 E43.98597
G1 X64.610 Y66.798 E44.01855
G1 X55.390 Y66.798 E44.70851
G1 X54.964 Y66.711 E44.74109
G1 X47.613 Y63.570 E45.33929
G1 X46.902 Y62.493 E45.43591
G1 X46.902 Y57.507 E45.80902
G1 X47.613 Y56.430 E45.90563
G1 X48.151 Y56.200 E45.94945
G1 X48.442 Y56.728 F30000.000
G1 F2100
G1 X55.143 Y53.865 E46.49480
G1 X55.451 Y53.802 E46.51829
G1 X64.549 Y53.802 E47.19914
G1 X64.857 Y53.865 E47.22263
G1 X71.986 Y56.911 E47.80280
G1 X72.498 Y57.687 E47.87244
G1 X72.498 Y62.313 E48.21859
G1 X71.986 Y63.089 E48.28823
G1 X64.857 Y66.135 E48.86840
G1 X64.549 Y66.198 E48.89189
G1 X55.451 Y66.198 E49.57275
G1 X55.143 Y66.135 E49.59624
G1 X48.014 Y63.089 E50.17641
G1 X47.502 Y62.313 E50.24605
G1 X47.502 Y57.687 E50.59220
G1 X48.014 Y56.911 E50.66184
G1 X48.387 Y56.751 E50.69217
G1 X48.678 Y57.280 F30000.000
G1 F2100
G1 X55.323 Y54.440 E51.23297
G1 X55.512 Y54.402 E51.24736
G1 X64.488 Y54.402 E51.91912
G1 X64.677 Y54.440 E51.93352
G1 X71.584 Y57.392 E52.49565
G1 X71.898 Y57.867 E52.53833
G1 X71.898 Y62.133 E52.85750
G1 X71.584 Y62.608 E52.90018
G1 X64.677 Y65.560 E53.46231
G1 X64.488 Y65.598 E53.47670
G1 X55.512 Y65.598 E54.14847
G1 X55.323 Y65.560 E54.16286
G1 X48.416 Y62.608 E54.72499
G1 X48.102 Y62.133 E54.76767
G1 X48.102 Y57.867 E55.08685
G1 X48.416 Y57.392 E55.12952
G1 X48.623 Y57.303 E55.14636
G1 X48.817 Y57.873 F30000.000
G1 F2100
G1 X55.503 Y55.016 E55.69047
G1 X55.573 Y55.002 E55.69576
G1 X64.427 Y55.002 E56.35843
G1 X64.497 Y55.016 E56.36373
G1 X71.183 Y57.873 E56.90783
G1 X71.298 Y58.048 E56.92353
G1 X71.298 Y61.952 E57.21574
G1 X71.183 Y62.127 E57.23144
G1 X64.497 Y64.984 E57.77555
G1 X64.427 Y64.998 E57.78084
G1 X55.573 Y64.998 E58.44351
G1 X55.503 Y64.984 E58.44881
G1 X48.817 Y62.127 E58.99291
G1 X48.702 Y61.952 E59.00861
G1 X48.702 Y58.048 E59.30082
G1 X48.784 Y57.923 E59.31203
G1 E57.31203 F2400.00000
G92 E0
G1 X70.649 Y61.649 F30000.000
G1 E2.00000 F2400.00000
G1 F2100
G1 X64.331 Y64.349 E2.45901
G1 X55.669 Y64.349 E3.03764
G1 X49.351 Y61.649 E3.49665
G1 X49.351 Y58.351 E3.71702
G1 X55.669 Y55.651 E4.17604
G1 X64.331 Y55.651 E4.75466
G1 X70.649 Y58.351 E5.21368
G1 X70.649 Y61.589 E5.43004
G1 X70.249 Y61.656 F30000.000
G1 X70.113 Y61.296 F30000.000
G1 F2100
G1 X64.221 Y63.813 E5.85811
G1 X55.779 Y63.813 E6.42209
G1 X49.887 Y61.296 E6.85015
G1 X49.887 Y58.704 E7.02328
G1 X55.779 Y56.187 E7.45134
G1 X64.221 Y56.187 E8.01532
G1 X70.113 Y58.704 E8.44339
G1 X70.113 Y61.236 E8.61251
G1 X69.521 Y60.999 F30000.000
G1 F2100
G1 X69.635 Y60.885 E8.62357
G1 X69.635 Y60.106 E8.67713
G1 X68.160 Y61.580 E8.82043
G1 X66.800 Y62.162 E8.92212
G1 X69.635 Y59.327 E9.19766
G1 X69.635 Y59.001 E9.22004
G1 X69.317 Y58.865 E9.24379
G1 X65.439 Y62.743 E9.62069
G1 X64.078 Y63.324 E9.72237
G1 X68.771 Y58.632 E10.17844
G1 X68.225 Y58.399 E10.21924
G1 X63.289 Y63.335 E10.69897
G1 X62.510 Y63.335 E10.75252
G1 X67.679 Y58.165 E11.25492
G1 X67.133 Y57.932 E11.29573
G1 X61.730 Y63.335 E11.82080
G1 X60.951 Y63.335 E11.87436
G1 X66.587 Y57.699 E12.42210
G1 X66.041 Y57.466 E12.46290
G1 X60.172 Y63.335 E13.03332
G1 X59.393 Y63.335 E13.08688
G1 X65.495 Y57.232 E13.67997
G1 X64.949 Y56.999 E13.72077
G1 X58.614 Y63.335 E14.33653
G1 X57.834 Y63.335 E14.39009
G1 X64.403 Y56.766 E15.02852
G1 X64.168 Y56.665 E15.04608
G1 X63.724 Y56.665 E15.07659
G1 X57.055 Y63.335 E15.72478
G1 X56.276 Y63.335 E15.77834
G1 X62.945 Y56.665 E16.42652
G1 X62.166 Y56.665 E16.48008
G1 X55.597 Y63.234 E17.11851
G1 X55.051 Y63.001 E17.15932
G1 X61.386 Y56.665 E17.77508
G1 X60.607 Y56.665 E17.82863
G1 X54.505 Y62.768 E18.42173
G1 X53.959 Y62.534 E18.46253
G1 X59.828 Y56.665 E19.03295
G1 X59.049 Y56.665 E19.08650
G1 X53.413 Y62.301 E19.63425
G1 X52.867 Y62.068 E19.67505
G1 X58.270 Y56.665 E20.20012
G1 X57.490 Y56.665 E20.25368
G1 X52.321 Y61.835 E20.75608
G1 X51.775 Y61.601 E20.79688
G1 X56.711 Y56.665 E21.27661
G1 X55.922 Y56.676 E21.33086
G1 X51.229 Y61.368 E21.78693
G1 X50.683 Y61.135 E21.82773
G1 X54.561 Y57.257 E22.20463
G1 X53.200 Y57.838 E22.30631
G1 X50.365 Y60.673 E22.58186
G1 X50.365 Y59.894 E22.63541
G1 X51.840 Y58.420 E22.77872
G1 X50.479 Y59.001 E22.88040
G1 X50.366 Y59.115 E22.89144
G1 Z0.500 F30000.000
G1 X70.352 Y61.453 F30000.000
G1 F6000
G1 X64.270 Y64.052 E23.08782
G1 X55.730 Y64.052 E23.34138
G1 X49.648 Y61.453 E23.53775
G1 X49.648 Y58.547 E23.62405
G1 X55.730 Y55.948 E23.82043
G1 X64.270 Y55.948 E24.07398
G1 X70.352 Y58.547 E24.27036
G1 X70.352 Y61.393 E24.35488
G1 X70.729 Y61.702 F30000.000
G1 F2100
G1 X64.347 Y64.429 E24.58402
G1 X55.653 Y64.429 E24.87108
G1 X49.271 Y61.702 E25.10022
G1 X49.271 Y58.298 E25.21262
G1 X55.653 Y55.571 E25.44176
G1 X64.347 Y55.571 E25.72882
G1 X70.729 Y58.298 E25.95796
G1 X70.729 Y61.642 E26.06838
G1 X70.329 Y61.708 F30000.000
G1 X69.943 Y58.897 F30000.000
G1 F3600
G1 X69.846 Y58.800 E26.07476
G1 X68.468 Y58.211 E26.14426
G1 X69.943 Y59.686 E26.24102
G1 X69.943 Y60.475 E26.27762
G1 X67.091 Y57.623 E26.46477
G1 X65.713 Y57.034 E26.53427
G1 X69.898 Y61.219 E26.80884
G1 X69.346 Y61.455 E26.83673
G1 X64.336 Y56.445 E27.16542
G1 X64.128 Y56.357 E27.17590
G1 X63.458 Y56.357 E27.20698
G1 X68.793 Y61.692 E27.55699
G1 X68.240 Y61.928 E27.58488
G1 X62.669 Y56.357 E27.95039
G1 X61.880 Y56.357 E27.98699
G1 X67.687 Y62.164 E28.36799
G1 X67.134 Y62.400 E28.39588
G1 X61.091 Y56.357 E28.79238
G1 X60.302 Y56.357 E28.82898
G1 X66.581 Y62.636 E29.24098
G1 X66.029 Y62.873 E29.26886
G1 X59.513 Y56.357 E29.69635
G1 X58.724 Y56.357 E29.73296
G1 X65.476 Y63.109 E30.17595
G1 X64.923 Y63.345 E30.20383
G1 X57.935 Y56.357 E30.66232
G1 X57.146 Y56.357 E30.69892
G1 X64.370 Y63.581 E31.17290
G1 X64.225 Y63.643 E31.18024
G1 X63.643 Y63.643 E31.20721
G1 X56.357 Y56.357 E31.68527
G1 X55.775 Y56.357 E31.71225
G1 X55.630 Y56.419 E31.71958
G1 X62.854 Y63.643 E32.19356
G1 X62.065 Y63.643 E32.23017
G1 X55.077 Y56.655 E32.68865
G1 X54.524 Y56.891 E32.71654
G1 X61.276 Y63.643 E33.15953
G1 X60.487 Y63.643 E33.19613
G1 X53.971 Y57.127 E33.62362
G1 X53.419 Y57.364 E33.65151
G1 X59.698 Y63.643 E34.06351
G1 X58.909 Y63.643 E34.10011
G1 X52.866 Y57.600 E34.49661
G1 X52.313 Y57.836 E34.52450
G1 X58.120 Y63.643 E34.90550
G1 X57.331 Y63.643 E34.94210
G1 X51.760 Y58.072 E35.30761
G1 X51.207 Y58.308 E35.33550
G1 X56.542 Y63.643 E35.68550
G1 X55.872 Y63.643 E35.71659
G1 X55.664 Y63.555 E35.72707
G1 X50.654 Y58.545 E36.05576
G1 X50.102 Y58.781 E36.08365
G1 X54.287 Y62.966 E36.35822
G1 X52.909 Y62.377 E36.42772
G1 X50.057 Y59.525 E36.61487
G1 X50.057 Y60.314 E36.65147
G1 X51.532 Y61.789 E36.74823
G1 X50.154 Y61.200 E36.81773
G1 X50.057 Y61.103 E36.82411
G1 Z0.700 F30000.000
G1 X70.352 Y61.453 F30000.000
G1 F6000
G1 X64.270 Y64.052 E37.02049
G1 X55.730 Y64.052 E37.27405
G1 X49.648 Y61.453 E37.47042
G1 X49.648 Y58.547 E37.55672
G1 X55.730 Y55.948 E37.75310
G1 X64.270 Y55.948 E38.00665
G1 X70.352 Y58.547 E38.20303
G1 X70.352 Y61.393 E38.28755
G1 X70.729 Y61.702 F30000.000
G1 F2100
G1 X64.347 Y64.429 E38.51669
G1 X55.653 Y64.429 E38.80375
G1 X49.271 Y61.702 E39.03289
G1 X49.271 Y58.298 E39.14529
G1 X55.653 Y55.571 E39.37443
G1 X64.347 Y55.571 E39.66149
G1 X70.729 Y58.298 E39.89063
G1 X70.729 Y61.642 E40.00105
G1 X70.341 Y61.606 F30000.000
G1 X69.846 Y61.200 F30000.000
G1 F3600
G1 X69.943 Y61.103 E40.00743
G1 X69.943 Y60.314 E40.04404
G1 X68.468 Y61.789 E40.14080
G1 X67.091 Y62.377 E40.21030
G1 X69.943 Y59.525 E40.39744
G1 X69.943 Y58.800 E40.43107
G1 X69.898 Y58.781 E40.43333
G1 X65.713 Y62.966 E40.70791
G1 X64.336 Y63.555 E40.77741
G1 X69.346 Y58.545 E41.10610
G1 X68.793 Y58.308 E41.13399
G1 X63.458 Y63.643 E41.48400
G1 X62.669 Y63.643 E41.52060
G1 X68.240 Y58.072 E41.88611
G1 X67.687 Y57.836 E41.91400
G1 X61.880 Y63.643 E42.29500
G1 X61.091 Y63.643 E42.33160
G1 X67.134 Y57.600 E42.72810
G1 X66.581 Y57.364 E42.75599
G1 X60.302 Y63.643 E43.16798
G1 X59.513 Y63.643 E43.20459
G1 X66.029 Y57.127 E43.63208
G1 X65.476 Y56.891 E43.65997
G1 X58.724 Y63.643 E44.10295
G1 X57.935 Y63.643 E44.13956
G1 X64.923 Y56.655 E44.59804
G1 X64.370 Y56.419 E44.62593
G1 X57.146 Y63.643 E45.09991
G1 X56.357 Y63.643 E45.13651
G1 X63.643 Y56.357 E45.61457
G1 X62.854 Y56.357 E45.65117
G1 X55.630 Y63.581 E46.12516
G1 X55.077 Y63.345 E46.15304
G1 X62.065 Y56.357 E46.61153
G1 X61.276 Y56.357 E46.64813
G1 X54.524 Y63.109 E47.09112
G1 X53.971 Y62.873 E47.11901
G1 X60.487 Y56.357 E47.54650
G1 X59.698 Y56.357 E47.58310
G1 X53.419 Y62.636 E47.99510
G1 X52.866 Y62.400 E48.02299
G1 X58.909 Y56.357 E48.41948
G1 X58.120 Y56.357 E48.45609
G1 X52.313 Y62.164 E48.83709
G1 X51.760 Y61.928 E48.86498
G1 X57.331 Y56.357 E49.23048
G1 X56.542 Y56.357 E49.26709
G1 X51.207 Y61.692 E49.61709
G1 X50.654 Y61.455 E49.64498
G1 X55.664 Y56.445 E49.97367
G1 X54.287 Y57.034 E50.04317
G1 X50.102 Y61.219 E50.31775
G1 X50.057 Y61.200 E50.32002
G1 X50.057 Y60.475 E50.35364
G1 X52.909 Y57.623 E50.54079
G1 X51.532 Y58.211 E50.61029
G1 X50.057 Y59.686 E50.70705
G1 X50.057 Y58.897 E50.74365
G1 X50.154 Y58.800 E50.75003
M106 S255
G1 Z0.900 F30000.000
G1 X70.352 Y61.453 F30000.000
G1 F3104.71
G1 X64.270 Y64.052 E50.94641
G1 X55.730 Y64.052 E51.19996
G1 X49.648 Y61.453 E51.39634
G1 X49.648 Y58.547 E51.48264
G1 X55.730 Y55.948 E51.67901
G1 X64.270 Y55.948 E51.93257
G1 X70.352 Y58.547 E52.12895
G1 X70.352 Y61.393 E52.21346
G1 X70.729 Y61.702 F30000.000
G1 F1086.65
G1 X64.347 Y64.429 E52.44261
G1 X55.653 Y64.429 E52.72966
G1 X49.271 Y61.702 E52.95881
G1 X49.271 Y58.298 E53.07121
G1 X55.653 Y55.571 E53.30035
G1 X64.347 Y55.571 E53.58741
G1 X70.729 Y58.298 E53.81655
G1 X70.729 Y61.642 E53.92697
G1 X70.340 Y61.609 F30000.000
G1 X69.988 Y60.292 F30000.000
G1 F3725.65
G1 X67.399 Y57.703 E54.06612
G1 X64.143 Y56.312 E54.20068
G1 X62.776 Y56.312 E54.25265
G1 X68.379 Y61.915 E54.55381
G1 X66.115 Y62.883 E54.64741
G1 X59.544 Y56.312 E55.00057
G1 X56.312 Y56.312 E55.12341
G1 X63.688 Y63.688 E55.51987
G1 X60.456 Y63.688 E55.64271
G1 X53.885 Y57.117 E55.99587
G1 X51.621 Y58.085 E56.08946
G1 X57.224 Y63.688 E56.39063
G1 X55.857 Y63.688 E56.44260
G1 X52.601 Y62.297 E56.57716
G1 X50.012 Y59.708 E56.71631
G1 Z1.100 F30000.000
G1 X70.352 Y61.453 F30000.000
G1 F3138.72
G1 X64.270 Y64.052 E56.91268
G1 X55.730 Y64.052 E57.16624
G1 X49.648 Y61.453 E57.36262
G1 X49.648 Y58.547 E57.44891
G1 X55.730 Y55.948 E57.64529
G1 X64.270 Y55.948 E57.89885
