; generated by Slic3r 1.3.0 on 2020-04-22 at 19:46:52

; external perimeters extrusion width = 0.44mm (2.78mm^3/s)
; perimeters extrusion width = 0.40mm (7.14mm^3/s)
; infill extrusion width = 0.50mm (10.97mm^3/s)
; solid infill extrusion width = 0.60mm (6.68mm^3/s)
; top infill extrusion width = 0.40mm (2.14mm^3/s)

M107
M190 S80 ; set bed temperature and wait for it to be reached
M104 S200 ; set temperature
G28 ; home all axes
G1 Z5 F5000 ; lift nozzle

; Filament gcode

M109 S200 ; set temperature and wait for it to be reached
G21 ; set units to millimeters
G90 ; use absolute coordinates
M82 ; use absolute distances for extrusion
G92 E0
G1 Z0.300 F30000.000
G1 E-2.00000 F2400.00000
G92 E0
G1 X85.902 Y86.172 F30000.000
G1 E2.00000 F2400.00000
G1 F2100
G1 X87.616 Y84.920 E2.14175
G1 X90.050 Y84.372 E2.30845
G1 X109.950 Y84.372 E3.63788
G1 X112.035 Y84.768 E3.77963
G1 X113.828 Y85.902 E3.92139
G1 X115.080 Y87.616 E4.06314
G1 X115.628 Y90.050 E4.22984
G1 X115.628 Y109.950 E5.55927
G1 X115.232 Y112.035 E5.70102
G1 X114.098 Y113.828 E5.84278
G1 X112.384 Y115.080 E5.98453
G1 X109.950 Y115.628 E6.15123
G1 X90.050 Y115.628 E7.48066
G1 X87.965 Y115.232 E7.62241
G1 X86.172 Y114.098 E7.76417
G1 X84.920 Y112.384 E7.90592
G1 X84.372 Y109.950 E8.07262
G1 X84.372 Y90.050 E9.40204
G1 X84.768 Y87.965 E9.54380
G1 X85.870 Y86.223 E9.68155
G1 X86.431 Y86.397 F30000.000
G1 F2100
G1 X88.116 Y85.285 E9.81639
G1 X90.050 Y84.908 E9.94804
G1 X109.950 Y84.908 E11.27747
G1 X111.929 Y85.304 E11.41231
G1 X113.603 Y86.431 E11.54715
G1 X114.715 Y88.116 E11.68199
G1 X115.092 Y90.050 E11.81365
G1 X115.092 Y109.950 E13.14308
G1 X114.696 Y111.929 E13.27792
G1 X113.569 Y113.603 E13.41276
G1 X111.884 Y114.715 E13.54760
G1 X109.950 Y115.092 E13.67925
G1 X90.050 Y115.092 E15.00868
G1 X88.071 Y114.696 E15.14352
G1 X86.397 Y113.569 E15.27836
G1 X85.285 Y111.884 E15.41320
G1 X84.908 Y109.950 E15.54486
G1 X84.908 Y90.050 E16.87429
G1 X85.304 Y88.071 E17.00913
G1 X86.397 Y86.446 E17.13996
G1 X86.958 Y86.635 F30000.000
G1 F2100
G1 X88.608 Y85.675 E17.26751
G1 X90.050 Y85.443 E17.36508
G1 X109.950 Y85.443 E18.69451
G1 X111.818 Y85.839 E18.82206
G1 X113.365 Y86.958 E18.94961
G1 X114.325 Y88.608 E19.07717
G1 X114.557 Y90.050 E19.17474
G1 X114.557 Y109.950 E20.50416
G1 X114.161 Y111.818 E20.63172
G1 X113.042 Y113.365 E20.75927
G1 X111.392 Y114.325 E20.88682
G1 X109.950 Y114.557 E20.98439
G1 X90.050 Y114.557 E22.31382
G1 X88.182 Y114.161 E22.44137
G1 X86.635 Y113.042 E22.56892
G1 X85.675 Y111.392 E22.69648
G1 X85.443 Y109.950 E22.79404
G1 X85.443 Y90.050 E24.12347
G1 X85.839 Y88.182 E24.25102
G1 X86.923 Y86.684 E24.37457
G1 X87.482 Y86.890 F30000.000
G1 F2100
G1 X89.089 Y86.094 E24.49439
G1 X90.050 Y85.979 E24.55903
G1 X109.950 Y85.979 E25.88845
G1 X111.700 Y86.374 E26.00828
G1 X113.110 Y87.482 E26.12810
G1 X113.906 Y89.089 E26.24792
G1 X114.021 Y90.050 E26.31255
G1 X114.021 Y109.950 E27.64198
G1 X113.626 Y111.700 E27.76180
G1 X112.518 Y113.110 E27.88163
G1 X110.911 Y113.906 E28.00145
G1 X109.950 Y114.021 E28.06608
G1 X90.050 Y114.021 E29.39551
G1 X88.300 Y113.626 E29.51533
G1 X86.890 Y112.518 E29.63515
G1 X86.094 Y110.911 E29.75498
G1 X85.979 Y109.950 E29.81961
G1 X85.979 Y90.050 E31.14904
G1 X86.374 Y88.300 E31.26886
G1 X87.445 Y86.938 E31.38468
G1 X88.004 Y87.167 F30000.000
G1 F2100
G1 X90.050 Y86.514 E31.52815
G1 X109.950 Y86.514 E32.85758
G1 X111.573 Y86.909 E32.96914
G1 X112.833 Y88.004 E33.08069
G1 X113.486 Y90.050 E33.22417
G1 X113.486 Y109.950 E34.55360
G1 X113.091 Y111.573 E34.66515
G1 X111.996 Y112.833 E34.77671
G1 X109.950 Y113.486 E34.92018
G1 X90.050 Y113.486 E36.24961
G1 X88.427 Y113.091 E36.36117
G1 X87.167 Y111.996 E36.47273
G1 X86.514 Y109.950 E36.61620
G1 X86.514 Y90.050 E37.94563
G1 X86.909 Y88.427 E38.05719
G1 X87.964 Y87.212 E38.16474
G1 X88.524 Y87.687 F30000.000
G1 F2100
G1 X88.911 Y87.301 E38.20566
G1 X111.089 Y87.301 E39.86533
G1 X112.699 Y88.911 E40.03578
G1 X112.699 Y111.089 E41.69546
G1 X111.089 Y112.699 E41.86591
G1 X88.911 Y112.699 E43.52558
G1 X87.301 Y111.089 E43.69603
G1 X87.301 Y88.911 E45.35570
G1 X88.482 Y87.730 E45.48073
G1 X88.949 Y88.112 F30000.000
G1 F2100
G1 X89.160 Y87.901 E45.50306
G1 X110.840 Y87.901 E47.12553
G1 X112.099 Y89.160 E47.25879
G1 X112.099 Y110.840 E48.88126
G1 X110.840 Y112.099 E49.01451
G1 X89.160 Y112.099 E50.63699
G1 X87.901 Y110.840 E50.77024
G1 X87.901 Y89.160 E52.39272
G1 X88.906 Y88.154 E52.49915
G1 X89.373 Y88.536 F30000.000
G1 F2100
G1 X89.408 Y88.501 E52.50288
G1 X110.592 Y88.501 E54.08816
G1 X111.499 Y89.408 E54.18421
G1 X111.499 Y110.592 E55.76949
G1 X110.592 Y111.499 E55.86554
G1 X89.408 Y111.499 E57.45082
G1 X88.501 Y110.592 E57.54687
G1 X88.501 Y89.408 E59.13215
G1 X89.331 Y88.578 E59.21999
G1 X89.657 Y89.101 F30000.000
G1 F2100
G1 X110.343 Y89.101 E60.76807
G1 X110.899 Y89.657 E60.82692
G1 X110.899 Y110.343 E62.37500
G1 X110.343 Y110.899 E62.43386
G1 X89.657 Y110.899 E63.98194
G1 X89.101 Y110.343 E64.04080
G1 X89.101 Y89.657 E65.58888
G1 X89.614 Y89.143 E65.64325
G1 X89.905 Y89.701 F30000.000
G1 F2100
G1 X110.095 Y89.701 E67.15413
G1 X110.299 Y89.905 E67.17579
G1 X110.299 Y110.095 E68.68667
G1 X110.095 Y110.299 E68.70833
G1 X89.905 Y110.299 E70.21921
G1 X89.701 Y110.095 E70.24087
G1 X89.701 Y89.905 E71.75176
G1 X89.863 Y89.743 E71.76893
G1 E69.76893 F2400.00000
G92 E0
G1 X109.650 Y109.650 F30000.000
G1 E2.00000 F2400.00000
G1 F2100
G1 X90.350 Y109.650 E3.28934
G1 X90.350 Y90.350 E4.57869
G1 X109.650 Y90.350 E5.86803
G1 X109.650 Y109.590 E7.15337
G1 X109.264 Y109.546 F30000.000
G1 X109.114 Y109.114 F30000.000
G1 F2100
G1 X90.886 Y109.114 E8.37115
G1 X90.886 Y90.886 E9.58893
G1 X109.114 Y90.886 E10.80671
G1 X109.114 Y109.054 E12.02048
G1 X108.522 Y108.636 F30000.000
G1 F2100
G1 X108.636 Y108.522 E12.03130
G1 X108.636 Y107.759 E12.08258
G1 X107.759 Y108.636 E12.16593
G1 X106.997 Y108.636 E12.21721
G1 X108.636 Y106.997 E12.37309
G1 X108.636 Y106.234 E12.42437
G1 X106.234 Y108.636 E12.65277
G1 X105.472 Y108.636 E12.70405
G1 X108.636 Y105.472 E13.00497
G1 X108.636 Y104.709 E13.05626
G1 X104.709 Y108.636 E13.42971
G1 X103.947 Y108.636 E13.48099
G1 X108.636 Y103.947 E13.92696
G1 X108.636 Y103.184 E13.97825
G1 X103.184 Y108.636 E14.49675
G1 X102.421 Y108.636 E14.54803
G1 X108.636 Y102.421 E15.13906
G1 X108.636 Y101.659 E15.19034
G1 X101.659 Y108.636 E15.85390
G1 X100.896 Y108.636 E15.90518
G1 X108.636 Y100.896 E16.64126
G1 X108.636 Y100.134 E16.69254
G1 X100.134 Y108.636 E17.50115
G1 X99.371 Y108.636 E17.55243
G1 X108.636 Y99.371 E18.43356
G1 X108.636 Y98.609 E18.48484
G1 X98.609 Y108.636 E19.43850
G1 X97.846 Y108.636 E19.48978
G1 X108.636 Y97.846 E20.51597
G1 X108.636 Y97.084 E20.56725
G1 X97.084 Y108.636 E21.66596
G1 X96.321 Y108.636 E21.71724
G1 X108.636 Y96.321 E22.88848
G1 X108.636 Y95.558 E22.93976
G1 X95.558 Y108.636 E24.18352
G1 X94.796 Y108.636 E24.23480
G1 X108.636 Y94.796 E25.55109
G1 X108.636 Y94.033 E25.60237
G1 X94.033 Y108.636 E26.99119
G1 X93.271 Y108.636 E27.04247
G1 X108.636 Y93.271 E28.50381
G1 X108.636 Y92.508 E28.55509
G1 X92.508 Y108.636 E30.08896
G1 X91.746 Y108.636 E30.14024
G1 X108.636 Y91.746 E31.74663
G1 X108.636 Y91.364 E31.77227
G1 X108.254 Y91.364 E31.79791
G1 X91.364 Y108.254 E33.40431
G1 X91.364 Y107.492 E33.45559
G1 X107.492 Y91.364 E34.98946
G1 X106.729 Y91.364 E35.04074
G1 X91.364 Y106.729 E36.50209
G1 X91.364 Y105.967 E36.55337
G1 X105.967 Y91.364 E37.94219
G1 X105.204 Y91.364 E37.99347
G1 X91.364 Y105.204 E39.30976
G1 X91.364 Y104.442 E39.36105
G1 X104.442 Y91.364 E40.60481
G1 X103.679 Y91.364 E40.65609
G1 X91.364 Y103.679 E41.82733
G1 X91.364 Y102.916 E41.87862
G1 X102.916 Y91.364 E42.97733
G1 X102.154 Y91.364 E43.02861
G1 X91.364 Y102.154 E44.05480
G1 X91.364 Y101.391 E44.10608
G1 X101.391 Y91.364 E45.05975
G1 X100.629 Y91.364 E45.11103
G1 X91.364 Y100.629 E45.99217
G1 X91.364 Y99.866 E46.04345
G1 X99.866 Y91.364 E46.85206
G1 X99.104 Y91.364 E46.90334
G1 X91.364 Y99.104 E47.63943
G1 X91.364 Y98.341 E47.69071
G1 X98.341 Y91.364 E48.35427
G1 X97.579 Y91.364 E48.40555
G1 X91.364 Y97.579 E48.99658
G1 X91.364 Y96.816 E49.04787
G1 X96.816 Y91.364 E49.56637
G1 X96.054 Y91.364 E49.61766
G1 X91.364 Y96.054 E50.06364
G1 X91.364 Y95.291 E50.11492
G1 X95.291 Y91.364 E50.48837
G1 X94.528 Y91.364 E50.53966
G1 X91.364 Y94.528 E50.84059
G1 X91.364 Y93.766 E50.89187
G1 X93.766 Y91.364 E51.12027
G1 X93.003 Y91.364 E51.17156
G1 X91.364 Y93.003 E51.32743
G1 X91.364 Y92.241 E51.37872
G1 X92.241 Y91.364 E51.46207
G1 X91.478 Y91.364 E51.51335
G1 X91.365 Y91.478 E51.52416
G1 Z0.500 F30000.000
G1 X109.353 Y109.353 F30000.000
G1 F6000
G1 X90.647 Y109.353 E52.07956
G1 X90.647 Y90.647 E52.63496
G1 X109.353 Y90.647 E53.19036
G1 X109.353 Y109.293 E53.74398
G1 X109.730 Y109.730 F30000.000
G1 F2100
G1 X90.270 Y109.730 E54.38650
G1 X90.270 Y90.270 E55.02901
G1 X109.730 Y90.270 E55.67153
G1 X109.730 Y109.670 E56.31206
G1 X109.344 Y109.626 F30000.000
G1 X108.944 Y91.153 F30000.000
G1 F3600
G1 X108.847 Y91.056 E56.31845
G1 X108.057 Y91.056 E56.35521
G1 X108.944 Y91.943 E56.41359
G1 X108.944 Y92.734 E56.45035
G1 X107.266 Y91.056 E56.56072
G1 X106.475 Y91.056 E56.59748
G1 X108.944 Y93.525 E56.75984
G1 X108.944 Y94.316 E56.79660
G1 X105.684 Y91.056 E57.01095
G1 X104.894 Y91.056 E57.04771
G1 X108.944 Y95.106 E57.31405
G1 X108.944 Y95.897 E57.35081
G1 X104.103 Y91.056 E57.66914
G1 X103.312 Y91.056 E57.70591
G1 X108.944 Y96.688 E58.07623
G1 X108.944 Y97.479 E58.11299
G1 X102.521 Y91.056 E58.53530
G1 X101.731 Y91.056 E58.57206
G1 X108.944 Y98.269 E59.04637
G1 X108.944 Y99.060 E59.08313
G1 X100.940 Y91.056 E59.60942
G1 X100.149 Y91.056 E59.64619
G1 X108.944 Y99.851 E60.22447
G1 X108.944 Y100.642 E60.26123
G1 X99.358 Y91.056 E60.89151
G1 X98.568 Y91.056 E60.92827
G1 X108.944 Y101.432 E61.61054
G1 X108.944 Y102.223 E61.64730
G1 X97.777 Y91.056 E62.38156
G1 X96.986 Y91.056 E62.41832
G1 X108.944 Y103.014 E63.20457
G1 X108.944 Y103.805 E63.24133
G1 X96.195 Y91.056 E64.07957
G1 X95.405 Y91.056 E64.11633
G1 X108.944 Y104.595 E65.00656
G1 X108.944 Y105.386 E65.04333
G1 X94.614 Y91.056 E65.98555
G1 X93.823 Y91.056 E66.02231
G1 X108.944 Y106.177 E67.01652
G1 X108.944 Y106.967 E67.05329
G1 X93.033 Y91.056 E68.09949
G1 X92.242 Y91.056 E68.13625
G1 X108.944 Y107.758 E69.23445
G1 X108.944 Y108.549 E69.27121
G1 X91.451 Y91.056 E70.42139
G1 X91.056 Y91.056 E70.43978
G1 X91.056 Y91.451 E70.45816
G1 X108.549 Y108.944 E71.60834
G1 X107.758 Y108.944 E71.64511
G1 X91.056 Y92.242 E72.74330
G1 X91.056 Y93.032 E72.78006
G1 X106.968 Y108.944 E73.82627
G1 X106.177 Y108.944 E73.86303
G1 X91.056 Y93.823 E74.85725
G1 X91.056 Y94.614 E74.89401
G1 X105.386 Y108.944 E75.83623
G1 X104.595 Y108.944 E75.87300
G1 X91.056 Y95.405 E76.76323
G1 X91.056 Y96.195 E76.79999
G1 X103.805 Y108.944 E77.63823
G1 X103.014 Y108.944 E77.67500
G1 X91.056 Y96.986 E78.46125
G1 X91.056 Y97.777 E78.49801
G1 X102.223 Y108.944 E79.23227
G1 X101.432 Y108.944 E79.26903
G1 X91.056 Y98.568 E79.95130
G1 X91.056 Y99.358 E79.98807
G1 X100.642 Y108.944 E80.61834
G1 X99.851 Y108.944 E80.65511
G1 X91.056 Y100.149 E81.23339
G1 X91.056 Y100.940 E81.27016
G1 X99.060 Y108.944 E81.79645
G1 X98.269 Y108.944 E81.83322
G1 X91.056 Y101.731 E82.30752
G1 X91.056 Y102.521 E82.34428
G1 X97.479 Y108.944 E82.76660
G1 X96.688 Y108.944 E82.80336
G1 X91.056 Y103.312 E83.17368
G1 X91.056 Y104.103 E83.21045
G1 X95.897 Y108.944 E83.52878
G1 X95.106 Y108.944 E83.56554
G1 X91.056 Y104.894 E83.83188
G1 X91.056 Y105.684 E83.86865
G1 X94.316 Y108.944 E84.08300
G1 X93.525 Y108.944 E84.11976
G1 X91.056 Y106.475 E84.28212
G1 X91.056 Y107.266 E84.31888
G1 X92.734 Y108.944 E84.42925
G1 X91.944 Y108.944 E84.46602
G1 X91.056 Y108.056 E84.52439
G1 X91.056 Y108.847 E84.56116
G1 X91.153 Y108.944 E84.56753
G1 Z0.700 F30000.000
G1 X109.353 Y109.353 F30000.000
G1 F6000
G1 X90.647 Y109.353 E85.12293
G1 X90.647 Y90.647 E85.67833
G1 X109.353 Y90.647 E86.23373
G1 X109.353 Y109.293 E86.78735
G1 X109.730 Y109.730 F30000.000
G1 F2100
G1 X90.270 Y109.730 E87.42987
G1 X90.270 Y90.270 E88.07239
G1 X109.730 Y90.270 E88.71490
G1 X109.730 Y109.670 E89.35544
G1 X109.344 Y109.626 F30000.000
G1 X108.847 Y108.944 F30000.000
G1 F3600
G1 X108.944 Y108.847 E89.36182
G1 X108.944 Y108.057 E89.39859
G1 X108.057 Y108.944 E89.45696
G1 X107.266 Y108.944 E89.49373
G1 X108.944 Y107.266 E89.60409
G1 X108.944 Y106.475 E89.64085
G1 X106.475 Y108.944 E89.80321
G1 X105.684 Y108.944 E89.83998
G1 X108.944 Y105.684 E90.05432
G1 X108.944 Y104.894 E90.09109
G1 X104.894 Y108.944 E90.35743
G1 X104.103 Y108.944 E90.39419
G1 X108.944 Y104.103 E90.71252
G1 X108.944 Y103.312 E90.74928
G1 X103.312 Y108.944 E91.11960
G1 X102.521 Y108.944 E91.15637
G1 X108.944 Y102.521 E91.57868
G1 X108.944 Y101.731 E91.61544
G1 X101.731 Y108.944 E92.08974
G1 X100.940 Y108.944 E92.12651
G1 X108.944 Y100.940 E92.65280
G1 X108.944 Y100.149 E92.68956
G1 X100.149 Y108.944 E93.26785
G1 X99.358 Y108.944 E93.30461
G1 X108.944 Y99.358 E93.93489
G1 X108.944 Y98.568 E93.97165
G1 X98.568 Y108.944 E94.65392
G1 X97.777 Y108.944 E94.69068
G1 X108.944 Y97.777 E95.42493
G1 X108.944 Y96.986 E95.46170
G1 X96.986 Y108.944 E96.24795
G1 X96.195 Y108.944 E96.28471
G1 X108.944 Y96.195 E97.12295
G1 X108.944 Y95.405 E97.15971
G1 X95.405 Y108.944 E98.04994
G1 X94.614 Y108.944 E98.08670
G1 X108.944 Y94.614 E99.02892
G1 X108.944 Y93.823 E99.06569
G1 X93.823 Y108.944 E100.05990
G1 X93.033 Y108.944 E100.09666
G1 X108.944 Y93.033 E101.14287
G1 X108.944 Y92.242 E101.17963
G1 X92.242 Y108.944 E102.27782
G1 X91.451 Y108.944 E102.31458
G1 X108.944 Y91.451 E103.46477
G1 X108.944 Y91.056 E103.48315
G1 X108.549 Y91.056 E103.50153
G1 X91.056 Y108.549 E104.65172
G1 X91.056 Y107.758 E104.68848
G1 X107.758 Y91.056 E105.78668
G1 X106.968 Y91.056 E105.82344
G1 X91.056 Y106.968 E106.86965
G1 X91.056 Y106.177 E106.90641
G1 X106.177 Y91.056 E107.90062
G1 X105.386 Y91.056 E107.93739
G1 X91.056 Y105.386 E108.87961
G1 X91.056 Y104.595 E108.91637
G1 X104.595 Y91.056 E109.80661
G1 X103.805 Y91.056 E109.84337
G1 X91.056 Y103.805 E110.68161
G1 X91.056 Y103.014 E110.71837
G1 X103.014 Y91.056 E111.50462
G1 X102.223 Y91.056 E111.54139
G1 X91.056 Y102.223 E112.27565
G1 X91.056 Y101.432 E112.31241
G1 X101.432 Y91.056 E112.99468
G1 X100.642 Y91.056 E113.03144
G1 X91.056 Y100.642 E113.66172
G1 X91.056 Y99.851 E113.69848
G1 X99.851 Y91.056 E114.27677
G1 X99.060 Y91.056 E114.31353
G1 X91.056 Y99.060 E114.83983
G1 X91.056 Y98.269 E114.87659
G1 X98.269 Y91.056 E115.35090
G1 X97.479 Y91.056 E115.38766
G1 X91.056 Y97.479 E115.80998
G1 X91.056 Y96.688 E115.84674
G1 X96.688 Y91.056 E116.21706
G1 X95.897 Y91.056 E116.25382
G1 X91.056 Y95.897 E116.57216
G1 X91.056 Y95.106 E116.60892
G1 X95.106 Y91.056 E116.87526
G1 X94.316 Y91.056 E116.91203
G1 X91.056 Y94.316 E117.12638
G1 X91.056 Y93.525 E117.16314
G1 X93.525 Y91.056 E117.32550
G1 X92.734 Y91.056 E117.36226
G1 X91.056 Y92.734 E117.47263
G1 X91.056 Y91.944 E117.50939
G1 X91.944 Y91.056 E117.56777
G1 X91.153 Y91.056 E117.60454
G1 X91.056 Y91.153 E117.61091
M106 S255
G1 Z0.900 F30000.000
G1 X109.353 Y109.353 F30000.000
G1 F5312.6
G1 X90.647 Y109.353 E118.16631
G1 X90.647 Y90.647 E118.72171
G1 X109.353 Y90.647 E119.27711
G1 X109.353 Y109.293 E119.83073
G1 X109.730 Y109.730 F30000.000
G1 F1859.41
G1 X90.270 Y109.730 E120.47325
G1 X90.270 Y90.270 E121.11577
G1 X109.730 Y90.270 E121.75828
G1 X109.730 Y109.670 E122.39882
G1 X109.344 Y109.626 F30000.000
G1 X108.989 Y92.829 F30000.000
G1 F6375.12
G1 X107.171 Y91.011 E122.49653
G1 X103.939 Y91.011 E122.61937
G1 X108.989 Y96.061 E122.89079
G1 X108.989 Y99.293 E123.01363
G1 X100.707 Y91.011 E123.45878
G1 X97.475 Y91.011 E123.58162
G1 X108.989 Y102.525 E124.20048
G1 X108.989 Y105.757 E124.32332
G1 X94.243 Y91.011 E125.11591
G1 X91.011 Y91.011 E125.23874
G1 X108.989 Y108.989 E126.20505
G1 X105.757 Y108.989 E126.32789
G1 X91.011 Y94.243 E127.12047
G1 X91.011 Y97.475 E127.24331
G1 X102.525 Y108.989 E127.86217
G1 X99.293 Y108.989 E127.98501
G1 X91.011 Y100.707 E128.43016
G1 X91.011 Y103.939 E128.55300
G1 X96.061 Y108.989 E128.82443
G1 X92.829 Y108.989 E128.94726
G1 X91.011 Y107.171 E129.04497
M106 S232.05
G1 Z1.100 F30000.000
