; generated by Slic3r 1.3.0 on 2023-07-27 at 23:17:22

; external perimeters extrusion width = 0.44mm (2.78mm^3/s)
; perimeters extrusion width = 0.40mm (7.14mm^3/s)
; infill extrusion width = 0.50mm (10.97mm^3/s)
; solid infill extrusion width = 0.60mm (6.68mm^3/s)
; top infill extrusion width = 0.40mm (2.14mm^3/s)

M107
M190 S80 ; set bed temperature and wait for it to be reached
M104 S250 ; set temperature
G28 ; home all axes
G1 Z5 F5000 ; lift nozzle

; Filament gcode

M109 S250 ; set temperature and wait for it to be reached
G21 ; set units to millimeters
G90 ; use absolute coordinates
M82 ; use absolute distances for extrusion
G92 E0
G1 Z0.300 F30000.000
G1 E-2.00000 F2400.00000
G92 E0
G1 X31.230 Y38.230 F30000.000
G1 E2.00000 F2400.00000
G1 F2100
G1 X38.230 Y31.230 E2.66137
G1 X39.747 Y30.272 E2.78120
G1 X41.528 Y30.059 E2.90102
G1 X43.227 Y30.632 E3.02084
G1 X43.988 Y31.230 E3.08547
G1 X128.770 Y116.012 E11.09544
G1 X129.728 Y117.529 E11.21527
G1 X129.941 Y119.309 E11.33509
G1 X129.368 Y121.009 E11.45491
G1 X128.770 Y121.770 E11.51954
G1 X121.770 Y128.770 E12.18092
G1 X120.253 Y129.728 E12.30074
G1 X118.472 Y129.941 E12.42056
G1 X116.773 Y129.368 E12.54038
G1 X116.012 Y128.770 E12.60502
G1 X31.230 Y43.988 E20.61499
G1 X30.272 Y42.471 E20.73481
G1 X30.059 Y40.691 E20.85463
G1 X30.632 Y38.991 E20.97445
G1 X31.193 Y38.277 E21.03508
G1 X31.609 Y38.609 F30000.000
G1 F2100
G1 X38.609 Y31.609 E21.69645
G1 X40.035 Y30.740 E21.80801
G1 X41.701 Y30.623 E21.91957
G1 X43.609 Y31.609 E22.06304
G1 X128.391 Y116.391 E30.07301
G1 X129.260 Y117.817 E30.18457
G1 X129.377 Y119.483 E30.29613
G1 X128.391 Y121.391 E30.43960
G1 X121.391 Y128.391 E31.10097
G1 X119.965 Y129.260 E31.21253
G1 X118.299 Y129.377 E31.32409
G1 X116.391 Y128.391 E31.46756
G1 X31.609 Y43.609 E39.47753
G1 X30.740 Y42.183 E39.58909
G1 X30.623 Y40.517 E39.70065
G1 X31.581 Y38.662 E39.84011
G1 E37.84011 F2400.00000
G92 E0
G1 X79.721 Y80.279 F30000.000
G1 E2.00000 F2400.00000
G1 F2100
G1 X86.098 Y80.279 E2.42599
G1 X115.076 Y109.258 E5.16382
G1 X115.076 Y115.634 E5.58981
G1 X121.453 Y115.634 E6.01581
G1 X124.709 Y118.891 E6.32347
G1 X118.891 Y124.709 E6.87320
G1 X35.291 Y41.109 E14.77152
G1 X41.109 Y35.291 E15.32125
G1 X44.366 Y38.547 E15.62891
G1 X44.366 Y44.924 E16.05491
G1 X50.742 Y44.924 E16.48090
G1 X79.721 Y73.902 E19.21872
G1 X79.721 Y80.219 E19.64071
G1 X80.257 Y79.743 F30000.000
G1 F2100
G1 X86.319 Y79.743 E20.04574
G1 X115.612 Y109.036 E22.81321
G1 X115.612 Y115.099 E23.21824
G1 X121.675 Y115.099 E23.62328
G1 X125.467 Y118.891 E23.98155
G1 X118.891 Y125.467 E24.60284
G1 X34.533 Y41.109 E32.57272
G1 X41.109 Y34.533 E33.19401
G1 X44.901 Y38.325 E33.55228
G1 X44.901 Y44.388 E33.95732
G1 X50.964 Y44.388 E34.36235
G1 X80.257 Y73.681 E37.12982
G1 X80.257 Y79.683 E37.53084
G1 X80.348 Y80.133 F30000.000
G1 E35.53084 F2400.00000
G92 E0
G1 X79.557 Y80.443 F30000.000
G1 X77.610 Y80.443 F30000.000
G1 X75.607 Y75.607 F30000.000
G1 X49.038 Y49.038 F30000.000
G1 X44.201 Y47.035 F30000.000
G1 X42.255 Y45.088 F30000.000
G1 X40.607 Y41.109 F30000.000
G1 X41.109 Y39.896 F30000.000
G1 X41.109 Y35.523 F30000.000
G1 X41.166 Y35.991 F30000.000
G1 E2.00000 F2400.00000
G1 F2100
G1 X35.991 Y41.166 E2.49054
G1 X36.371 Y41.546 E2.52656
G1 X41.546 Y36.371 E3.01711
G1 X41.926 Y36.751 E3.05313
G1 X36.751 Y41.926 E3.54367
G1 X37.131 Y42.306 E3.57969
G1 X42.306 Y37.131 E4.07024
G1 X42.686 Y37.511 E4.10626
G1 X37.511 Y42.686 E4.59680
G1 X37.891 Y43.066 E4.63282
G1 X43.066 Y37.891 E5.12336
G1 X43.446 Y38.271 E5.15939
G1 X38.271 Y43.446 E5.64993
G1 X38.651 Y43.826 E5.68595
G1 X43.826 Y38.651 E6.17649
G1 X43.887 Y38.712 E6.18225
G1 X43.887 Y39.351 E6.22505
G1 X39.031 Y44.206 E6.68533
G1 X39.411 Y44.586 E6.72135
G1 X43.887 Y40.111 E7.14561
G1 X43.887 Y40.871 E7.19655
G1 X39.791 Y44.966 E7.58478
G1 X40.171 Y45.346 E7.62080
G1 X43.887 Y41.631 E7.97301
G1 X43.887 Y42.391 E8.02395
G1 X40.551 Y45.726 E8.34014
G1 X40.931 Y46.106 E8.37616
G1 X43.887 Y43.151 E8.65632
G1 X43.887 Y43.911 E8.70727
G1 X41.311 Y46.486 E8.95140
G1 X41.691 Y46.866 E8.98743
G1 X43.887 Y44.671 E9.19554
G1 X43.887 Y45.402 E9.24459
G1 X43.915 Y45.402 E9.24649
G1 X42.071 Y47.246 E9.42126
G1 X42.451 Y47.626 E9.45729
G1 X44.675 Y45.402 E9.66809
G1 X45.435 Y45.402 E9.71903
G1 X42.831 Y48.006 E9.96586
G1 X43.211 Y48.386 E10.00188
G1 X46.195 Y45.402 E10.28473
G1 X46.955 Y45.402 E10.33567
G1 X43.591 Y48.766 E10.65454
G1 X43.972 Y49.146 E10.69057
G1 X47.715 Y45.402 E11.04546
G1 X48.475 Y45.402 E11.09641
G1 X44.352 Y49.526 E11.48732
G1 X44.732 Y49.906 E11.52335
G1 X49.235 Y45.402 E11.95029
G1 X49.995 Y45.402 E12.00123
G1 X45.112 Y50.286 E12.46419
G1 X45.492 Y50.666 E12.50022
G1 X50.666 Y45.492 E12.99076
G1 X51.046 Y45.872 E13.02678
G1 X45.872 Y51.046 E13.51732
G1 X46.252 Y51.426 E13.55334
G1 X51.426 Y46.252 E14.04389
G1 X51.806 Y46.632 E14.07991
G1 X46.632 Y51.806 E14.57045
G1 X47.012 Y52.186 E14.60647
G1 X52.186 Y47.012 E15.09701
G1 X52.566 Y47.392 E15.13304
G1 X47.392 Y52.566 E15.62358
G1 X47.772 Y52.946 E15.65960
G1 X52.946 Y47.772 E16.15014
G1 X53.326 Y48.152 E16.18617
G1 X48.152 Y53.326 E16.67671
G1 X48.532 Y53.706 E16.71273
G1 X53.706 Y48.532 E17.20327
G1 X54.086 Y48.912 E17.23929
G1 X48.912 Y54.086 E17.72983
G1 X49.292 Y54.466 E17.76586
G1 X54.466 Y49.292 E18.25640
G1 X54.846 Y49.672 E18.29242
G1 X49.672 Y54.846 E18.78296
G1 X50.052 Y55.226 E18.81899
G1 X55.226 Y50.052 E19.30953
G1 X55.607 Y50.432 E19.34555
G1 X50.432 Y55.607 E19.83609
G1 X50.812 Y55.987 E19.87211
G1 X55.987 Y50.812 E20.36266
G1 X56.367 Y51.192 E20.39868
G1 X51.192 Y56.367 E20.88922
G1 X51.572 Y56.747 E20.92524
G1 X56.747 Y51.572 E21.41578
G1 X57.127 Y51.952 E21.45181
G1 X51.952 Y57.127 E21.94235
G1 X52.332 Y57.507 E21.97837
G1 X57.507 Y52.332 E22.46891
G1 X57.887 Y52.712 E22.50494
G1 X52.712 Y57.887 E22.99548
G1 X53.092 Y58.267 E23.03150
G1 X58.267 Y53.092 E23.52204
G1 X58.647 Y53.472 E23.55806
G1 X53.472 Y58.647 E24.04861
G1 X53.852 Y59.027 E24.08463
G1 X59.027 Y53.852 E24.57517
G1 X59.407 Y54.232 E24.61119
G1 X54.232 Y59.407 E25.10173
G1 X54.612 Y59.787 E25.13776
G1 X59.787 Y54.612 E25.62830
G1 X60.167 Y54.992 E25.66432
G1 X54.992 Y60.167 E26.15486
G1 X55.372 Y60.547 E26.19089
G1 X60.547 Y55.372 E26.68143
G1 X60.927 Y55.752 E26.71745
G1 X55.752 Y60.927 E27.20799
G1 X56.132 Y61.307 E27.24401
G1 X61.307 Y56.132 E27.73456
G1 X61.687 Y56.512 E27.77058
G1 X56.512 Y61.687 E28.26112
G1 X56.892 Y62.067 E28.29714
G1 X62.067 Y56.892 E28.78768
G1 X62.447 Y57.272 E28.82371
G1 X57.272 Y62.447 E29.31425
G1 X57.652 Y62.827 E29.35027
G1 X62.827 Y57.652 E29.84081
G1 X63.207 Y58.032 E29.87684
G1 X58.032 Y63.207 E30.36738
G1 X58.412 Y63.587 E30.40340
G1 X63.587 Y58.412 E30.89394
G1 X63.967 Y58.792 E30.92996
G1 X58.792 Y63.967 E31.42051
G1 X59.172 Y64.347 E31.45653
G1 X64.347 Y59.172 E31.94707
G1 X64.727 Y59.552 E31.98309
G1 X59.552 Y64.727 E32.47363
G1 X59.932 Y65.107 E32.50966
G1 X65.107 Y59.932 E33.00020
G1 X65.487 Y60.312 E33.03622
G1 X60.312 Y65.487 E33.52676
G1 X60.692 Y65.867 E33.56279
G1 X65.867 Y60.692 E34.05333
G1 X66.247 Y61.072 E34.08935
G1 X61.072 Y66.247 E34.57989
G1 X61.452 Y66.627 E34.61591
G1 X66.627 Y61.452 E35.10645
G1 X67.007 Y61.832 E35.14248
G1 X61.832 Y67.007 E35.63302
G1 X62.212 Y67.387 E35.66904
G1 X67.387 Y62.212 E36.15958
G1 X67.767 Y62.592 E36.19561
G1 X62.592 Y67.767 E36.68615
G1 X62.972 Y68.147 E36.72217
G1 X68.147 Y62.972 E37.21271
G1 X68.527 Y63.352 E37.24874
G1 X63.352 Y68.527 E37.73928
G1 X63.732 Y68.907 E37.77530
G1 X68.907 Y63.732 E38.26584
G1 X69.287 Y64.112 E38.30186
G1 X64.112 Y69.287 E38.79241
G1 X64.492 Y69.667 E38.82843
G1 X69.667 Y64.492 E39.31897
G1 X70.047 Y64.872 E39.35499
G1 X64.872 Y70.047 E39.84553
G1 X65.252 Y70.427 E39.88156
G1 X70.427 Y65.252 E40.37210
G1 X70.807 Y65.632 E40.40812
G1 X65.632 Y70.807 E40.89866
G1 X66.012 Y71.187 E40.93469
G1 X71.187 Y66.012 E41.42523
G1 X71.567 Y66.392 E41.46125
G1 X66.392 Y71.567 E41.95179
G1 X66.772 Y71.947 E41.98781
G1 X71.947 Y66.772 E42.47836
G1 X72.327 Y67.152 E42.51438
G1 X67.152 Y72.327 E43.00492
G1 X67.532 Y72.707 E43.04094
G1 X72.707 Y67.532 E43.53148
G1 X73.087 Y67.912 E43.56751
G1 X67.912 Y73.087 E44.05805
G1 X68.292 Y73.467 E44.09407
G1 X73.467 Y68.292 E44.58461
G1 X73.847 Y68.672 E44.62064
G1 X68.672 Y73.847 E45.11118
G1 X69.052 Y74.227 E45.14720
G1 X74.227 Y69.052 E45.63774
G1 X74.607 Y69.432 E45.67376
G1 X69.432 Y74.607 E46.16431
G1 X69.812 Y74.987 E46.20033
G1 X74.987 Y69.812 E46.69087
G1 X75.367 Y70.192 E46.72689
G1 X70.192 Y75.367 E47.21743
G1 X70.572 Y75.747 E47.25346
G1 X75.747 Y70.572 E47.74400
G1 X76.127 Y70.952 E47.78002
G1 X70.952 Y76.127 E48.27056
G1 X71.332 Y76.507 E48.30659
G1 X76.507 Y71.332 E48.79713
G1 X76.887 Y71.712 E48.83315
G1 X71.712 Y76.887 E49.32369
G1 X72.092 Y77.267 E49.35972
G1 X77.267 Y72.092 E49.85026
G1 X77.647 Y72.472 E49.88628
G1 X72.472 Y77.647 E50.37682
G1 X72.852 Y78.027 E50.41284
G1 X78.027 Y72.852 E50.90339
G1 X78.407 Y73.232 E50.93941
G1 X73.232 Y78.407 E51.42995
G1 X73.612 Y78.787 E51.46597
G1 X78.787 Y73.612 E51.95651
G1 X79.167 Y73.993 E51.99254
G1 X73.993 Y79.167 E52.48308
G1 X74.373 Y79.547 E52.51910
G1 X79.242 Y74.678 E52.98072
G1 X79.242 Y75.438 E53.03167
G1 X74.753 Y79.927 E53.45726
G1 X75.133 Y80.307 E53.49328
G1 X79.242 Y76.198 E53.88286
G1 X79.242 Y76.958 E53.93380
G1 X75.513 Y80.687 E54.28735
G1 X75.893 Y81.067 E54.32338
G1 X79.242 Y77.718 E54.64090
G1 X79.242 Y78.478 E54.69185
G1 X76.273 Y81.447 E54.97335
G1 X76.653 Y81.827 E55.00937
G1 X79.242 Y79.238 E55.25485
G1 X79.242 Y79.998 E55.30580
G1 X77.033 Y82.207 E55.51526
G1 X77.413 Y82.587 E55.55128
G1 X79.242 Y80.758 E55.72471
G1 X80.002 Y80.758 E55.77566
G1 X77.793 Y82.967 E55.98512
G1 X78.173 Y83.347 E56.02114
G1 X80.762 Y80.758 E56.26662
G1 X81.522 Y80.758 E56.31757
G1 X78.553 Y83.727 E56.59907
G1 X78.933 Y84.107 E56.63509
G1 X82.282 Y80.758 E56.95262
G1 X83.042 Y80.758 E57.00357
G1 X79.313 Y84.487 E57.35712
G1 X79.693 Y84.867 E57.39314
G1 X83.802 Y80.758 E57.78271
G1 X84.562 Y80.758 E57.83366
G1 X80.073 Y85.247 E58.25925
G1 X80.453 Y85.627 E58.29528
G1 X85.322 Y80.758 E58.75690
G1 X85.933 Y80.758 E58.79780
G1 X86.008 Y80.833 E58.80490
G1 X80.833 Y86.008 E59.29544
G1 X81.213 Y86.388 E59.33146
G1 X86.388 Y81.213 E59.82201
G1 X86.768 Y81.593 E59.85803
G1 X81.593 Y86.768 E60.34857
G1 X81.973 Y87.148 E60.38459
G1 X87.148 Y81.973 E60.87513
G1 X87.528 Y82.353 E60.91116
G1 X82.353 Y87.528 E61.40170
G1 X82.733 Y87.908 E61.43772
G1 X87.908 Y82.733 E61.92826
G1 X88.288 Y83.113 E61.96428
G1 X83.113 Y88.288 E62.45483
G1 X83.493 Y88.668 E62.49085
G1 X88.668 Y83.493 E62.98139
G1 X89.048 Y83.873 E63.01741
G1 X83.873 Y89.048 E63.50795
G1 X84.253 Y89.428 E63.54398
G1 X89.428 Y84.253 E64.03452
G1 X89.808 Y84.633 E64.07054
G1 X84.633 Y89.808 E64.56108
G1 X85.013 Y90.188 E64.59710
G1 X90.188 Y85.013 E65.08765
G1 X90.568 Y85.393 E65.12367
G1 X85.393 Y90.568 E65.61421
G1 X85.773 Y90.948 E65.65023
G1 X90.948 Y85.773 E66.14077
G1 X91.328 Y86.153 E66.17680
G1 X86.153 Y91.328 E66.66734
G1 X86.533 Y91.708 E66.70336
G1 X91.708 Y86.533 E67.19390
G1 X92.088 Y86.913 E67.22993
G1 X86.913 Y92.088 E67.72047
G1 X87.293 Y92.468 E67.75649
G1 X92.468 Y87.293 E68.24703
G1 X92.848 Y87.673 E68.28305
G1 X87.673 Y92.848 E68.77359
G1 X88.053 Y93.228 E68.80962
G1 X93.228 Y88.053 E69.30016
G1 X93.608 Y88.433 E69.33618
G1 X88.433 Y93.608 E69.82672
G1 X88.813 Y93.988 E69.86275
G1 X93.988 Y88.813 E70.35329
G1 X94.368 Y89.193 E70.38931
G1 X89.193 Y94.368 E70.87985
G1 X89.573 Y94.748 E70.91587
G1 X94.748 Y89.573 E71.40641
G1 X95.128 Y89.953 E71.44244
G1 X89.953 Y95.128 E71.93298
G1 X90.333 Y95.508 E71.96900
G1 X95.508 Y90.333 E72.45954
G1 X95.888 Y90.713 E72.49557
G1 X90.713 Y95.888 E72.98611
G1 X91.093 Y96.268 E73.02213
G1 X96.268 Y91.093 E73.51267
G1 X96.648 Y91.473 E73.54869
G1 X91.473 Y96.648 E74.03923
G1 X91.853 Y97.028 E74.07526
G1 X97.028 Y91.853 E74.56580
G1 X97.408 Y92.233 E74.60182
G1 X92.233 Y97.408 E75.09236
G1 X92.613 Y97.788 E75.12839
G1 X97.788 Y92.613 E75.61893
G1 X98.168 Y92.993 E75.65495
G1 X92.993 Y98.168 E76.14549
G1 X93.373 Y98.548 E76.18151
G1 X98.548 Y93.373 E76.67205
G1 X98.928 Y93.753 E76.70808
G1 X93.753 Y98.928 E77.19862
G1 X94.133 Y99.308 E77.23464
G1 X99.308 Y94.133 E77.72518
G1 X99.688 Y94.513 E77.76121
G1 X94.513 Y99.688 E78.25175
G1 X94.893 Y100.068 E78.28777
G1 X100.068 Y94.893 E78.77831
G1 X100.448 Y95.273 E78.81433
G1 X95.273 Y100.448 E79.30488
G1 X95.653 Y100.828 E79.34090
G1 X100.828 Y95.653 E79.83144
G1 X101.208 Y96.033 E79.86746
G1 X96.033 Y101.208 E80.35800
G1 X96.413 Y101.588 E80.39403
G1 X101.588 Y96.413 E80.88457
G1 X101.968 Y96.793 E80.92059
G1 X96.793 Y101.968 E81.41113
G1 X97.173 Y102.348 E81.44715
G1 X102.348 Y97.173 E81.93770
G1 X102.728 Y97.553 E81.97372
G1 X97.553 Y102.728 E82.46426
G1 X97.933 Y103.108 E82.50028
G1 X103.108 Y97.933 E82.99082
G1 X103.488 Y98.313 E83.02685
G1 X98.313 Y103.488 E83.51739
G1 X98.693 Y103.868 E83.55341
G1 X103.868 Y98.693 E84.04395
G1 X104.248 Y99.073 E84.07997
G1 X99.073 Y104.248 E84.57052
G1 X99.453 Y104.628 E84.60654
G1 X104.628 Y99.453 E85.09708
G1 X105.008 Y99.833 E85.13310
G1 X99.833 Y105.008 E85.62364
G1 X100.213 Y105.388 E85.65967
G1 X105.388 Y100.213 E86.15021
G1 X105.768 Y100.593 E86.18623
G1 X100.593 Y105.768 E86.67677
G1 X100.973 Y106.148 E86.71279
G1 X106.148 Y100.973 E87.20334
G1 X106.528 Y101.353 E87.23936
G1 X101.353 Y106.528 E87.72990
G1 X101.733 Y106.908 E87.76592
G1 X106.908 Y101.733 E88.25646
G1 X107.288 Y102.113 E88.29249
G1 X102.113 Y107.288 E88.78303
G1 X102.493 Y107.668 E88.81905
G1 X107.668 Y102.493 E89.30959
G1 X108.048 Y102.873 E89.34561
G1 X102.873 Y108.048 E89.83616
G1 X103.253 Y108.428 E89.87218
G1 X108.428 Y103.253 E90.36272
G1 X108.808 Y103.633 E90.39874
G1 X103.633 Y108.808 E90.88928
G1 X104.014 Y109.188 E90.92531
G1 X109.188 Y104.013 E91.41585
G1 X109.568 Y104.394 E91.45187
G1 X104.394 Y109.568 E91.94241
G1 X104.774 Y109.948 E91.97844
G1 X109.948 Y104.774 E92.46898
G1 X110.328 Y105.154 E92.50500
G1 X105.154 Y110.328 E92.99554
G1 X105.534 Y110.708 E93.03156
G1 X110.708 Y105.534 E93.52210
G1 X111.088 Y105.914 E93.55813
G1 X105.914 Y111.088 E94.04867
G1 X106.294 Y111.468 E94.08469
G1 X111.468 Y106.294 E94.57523
G1 X111.848 Y106.674 E94.61126
G1 X106.674 Y111.848 E95.10180
G1 X107.054 Y112.228 E95.13782
G1 X112.228 Y107.054 E95.62836
G1 X112.608 Y107.434 E95.66438
G1 X107.434 Y112.608 E96.15492
G1 X107.814 Y112.988 E96.19095
G1 X112.988 Y107.814 E96.68149
G1 X113.368 Y108.194 E96.71751
G1 X108.194 Y113.368 E97.20805
G1 X108.574 Y113.748 E97.24408
G1 X113.748 Y108.574 E97.73462
G1 X114.128 Y108.954 E97.77064
G1 X108.954 Y114.128 E98.26118
G1 X109.334 Y114.508 E98.29720
G1 X114.508 Y109.334 E98.78775
G1 X114.598 Y109.423 E98.79619
G1 X114.598 Y110.005 E98.83519
G1 X109.714 Y114.888 E99.29815
G1 X110.094 Y115.268 E99.33418
G1 X114.598 Y110.765 E99.76112
G1 X114.598 Y111.525 E99.81206
G1 X110.474 Y115.648 E100.20297
G1 X110.854 Y116.029 E100.23900
G1 X114.598 Y112.285 E100.59389
G1 X114.598 Y113.045 E100.64483
G1 X111.234 Y116.409 E100.96370
G1 X111.614 Y116.789 E100.99973
G1 X114.598 Y113.805 E101.28257
G1 X114.598 Y114.565 E101.33352
G1 X111.994 Y117.169 E101.58034
G1 X112.374 Y117.549 E101.61636
G1 X114.598 Y115.325 E101.82716
G1 X114.598 Y116.085 E101.87811
G1 X112.754 Y117.929 E102.05288
G1 X113.134 Y118.309 E102.08891
G1 X115.329 Y116.113 E102.29702
G1 X116.089 Y116.113 E102.34797
G1 X113.514 Y118.689 E102.59211
G1 X113.894 Y119.069 E102.62813
G1 X116.849 Y116.113 E102.90829
G1 X117.609 Y116.113 E102.95923
G1 X114.274 Y119.449 E103.27542
G1 X114.654 Y119.829 E103.31144
G1 X118.369 Y116.113 E103.66365
G1 X119.129 Y116.113 E103.71459
G1 X115.034 Y120.209 E104.10283
G1 X115.414 Y120.589 E104.13885
G1 X119.889 Y116.113 E104.56310
G1 X120.649 Y116.113 E104.61405
G1 X115.794 Y120.969 E105.07432
G1 X116.174 Y121.349 E105.11035
G1 X121.349 Y116.174 E105.60089
G1 X121.729 Y116.554 E105.63691
G1 X116.554 Y121.729 E106.12745
G1 X116.934 Y122.109 E106.16347
G1 X122.109 Y116.934 E106.65402
G1 X122.489 Y117.314 E106.69004
G1 X117.314 Y122.489 E107.18058
G1 X117.694 Y122.869 E107.21660
