; generated by Slic3r 1.3.0 on 2022-07-11 at 13:44:41

; external perimeters extrusion width = 0.44mm (3.38mm^3/s)
; perimeters extrusion width = 0.48mm (7.54mm^3/s)
; infill extrusion width = 0.48mm (10.05mm^3/s)
; solid infill extrusion width = 0.48mm (2.51mm^3/s)
; top infill extrusion width = 0.48mm (1.88mm^3/s)
; support material extrusion width = 0.44mm (6.76mm^3/s)

M107
M104 S205 ; set temperature
G28 ; home all axes
G1 Z5 F5000 ; lift nozzle

; Filament gcode

M109 S205 ; set temperature and wait for it to be reached
G21 ; set units to millimeters
G90 ; use absolute coordinates
M82 ; use absolute distances for extrusion
G92 E0
G1 Z0.350 F7800.000
G1 E-2.00000 F2400.00000
G92 E0
G1 X66.422 Y33.754 F7800.000
G1 E2.00000 F2400.00000
G1 F1800
G1 X69.941 Y29.775 E2.48300
G1 X76.777 Y22.431 E3.39529
G1 X79.102 Y20.135 E3.69240
G1 X80.310 Y19.195 E3.83159
G1 X81.560 Y18.436 E3.96453
G1 X82.060 Y18.162 E4.01643
G1 X83.310 Y17.543 E4.14321
G1 X83.768 Y17.338 E4.18889
G1 X85.018 Y16.833 E4.31144
G1 X85.558 Y16.642 E4.36354
G1 X86.808 Y16.260 E4.48239
G1 X87.588 Y16.072 E4.55535
G1 X88.389 Y15.935 E4.62928
G1 X89.117 Y15.838 E4.69604
G1 X90.719 Y15.700 E4.84228
G1 X92.445 Y15.670 E4.99927
G1 X93.100 Y15.698 E5.05882
G1 X94.350 Y15.812 E5.17294
G1 X95.118 Y15.928 E5.24358
G1 X95.702 Y16.059 E5.29801
G1 X96.664 Y16.309 E5.38844
G1 X97.198 Y16.472 E5.43916
G1 X99.675 Y17.346 E5.67800
G1 X100.630 Y17.770 E5.77300
G1 X101.902 Y18.459 E5.90462
G1 X102.588 Y18.887 E5.97815
G1 X103.862 Y19.795 E6.12030
G1 X104.653 Y20.429 E6.21250
G1 X105.760 Y21.460 E6.35004
G1 X106.737 Y22.602 E6.48675
G1 X109.236 Y26.308 E6.89317
G1 X109.734 Y27.184 E6.98479
G1 X110.001 Y27.749 E7.04160
G1 X110.310 Y28.526 E7.11765
G1 X110.896 Y30.325 E7.28972
G1 X111.102 Y31.123 E7.36468
G1 X111.370 Y32.516 E7.49364
G1 X111.474 Y33.344 E7.56949
G1 X111.606 Y35.429 E7.75944
G1 X111.619 Y36.161 E7.82608
G1 X111.594 Y36.731 E7.87795
G1 X110.335 Y51.309 E9.20840
G1 X104.249 Y111.950 E14.75020
G1 X104.165 Y112.530 E14.80348
G1 X104.024 Y113.270 E14.87200
G1 X103.817 Y114.076 E14.94765
G1 X103.584 Y114.793 E15.01617
G1 X103.278 Y115.566 E15.09182
G1 X102.957 Y116.249 E15.16042
G1 X102.556 Y116.977 E15.23597
G1 X102.153 Y117.613 E15.30451
G1 X101.664 Y118.286 E15.38015
G1 X101.183 Y118.867 E15.44866
G1 X100.614 Y119.473 E15.52431
G1 X100.065 Y119.989 E15.59282
G1 X99.416 Y120.525 E15.66927
G1 X98.814 Y120.962 E15.73698
G1 X98.112 Y121.408 E15.81263
G1 X97.451 Y121.771 E15.88114
G1 X96.702 Y122.124 E15.95647
G1 X95.998 Y122.403 E16.02532
G1 X95.207 Y122.660 E16.10096
G1 X94.477 Y122.847 E16.16948
G1 X93.661 Y123.003 E16.24503
G1 X92.912 Y123.097 E16.31364
G1 X92.082 Y123.150 E16.38929
G1 X91.328 Y123.150 E16.45780
G1 X90.498 Y123.097 E16.53346
G1 X89.750 Y123.003 E16.60197
G1 X88.935 Y122.848 E16.67745
G1 X88.203 Y122.660 E16.74613
G1 X87.412 Y122.403 E16.82178
G1 X86.712 Y122.125 E16.89030
G1 X86.116 Y121.855 E16.94973
G1 X36.111 Y96.083 E22.06506
G1 X35.463 Y95.699 E22.13358
G1 X34.775 Y95.231 E22.20923
G1 X34.179 Y94.769 E22.27775
G1 X33.555 Y94.219 E22.35339
G1 X33.028 Y93.692 E22.42121
G1 X32.472 Y93.062 E22.49756
G1 X32.010 Y92.467 E22.56614
G1 X31.543 Y91.779 E22.64172
G1 X31.158 Y91.129 E22.71037
G1 X30.781 Y90.389 E22.78589
G1 X30.482 Y89.698 E22.85440
G1 X30.200 Y88.915 E22.93005
G1 X29.990 Y88.191 E22.99857
G1 X29.809 Y87.379 E23.07421
G1 X29.691 Y86.634 E23.14281
G1 X29.613 Y85.807 E23.21838
G1 X29.589 Y85.053 E23.28697
G1 X29.615 Y84.222 E23.36254
G1 X29.686 Y83.472 E23.43110
G1 X29.816 Y82.650 E23.50671
G1 X29.981 Y81.914 E23.57530
G1 X30.212 Y81.116 E23.65087
G1 X30.468 Y80.407 E23.71938
G1 X30.798 Y79.644 E23.79504
G1 X31.140 Y78.972 E23.86355
G1 X31.564 Y78.256 E23.93920
G1 X32.256 Y77.265 E24.04911
G1 X66.385 Y33.801 E29.07409
G1 E27.07409 F2400.00000
G92 E0
G1 X92.544 Y106.139 F7800.000
G1 E2.00000 F2400.00000
G1 F1800
G1 X93.088 Y106.279 E2.05112
G1 X93.611 Y106.486 E2.10224
G1 X94.104 Y106.757 E2.15336
G1 X94.559 Y107.087 E2.20448
G1 X94.968 Y107.472 E2.25560
G1 X95.327 Y107.905 E2.30672
G1 X95.628 Y108.380 E2.35785
G1 X95.867 Y108.889 E2.40897
G1 X96.041 Y109.423 E2.46009
G1 X96.146 Y109.976 E2.51121
G1 X96.182 Y110.537 E2.56233
G1 X96.146 Y111.098 E2.61345
G1 X96.041 Y111.650 E2.66457
G1 X95.867 Y112.185 E2.71569
G1 X95.628 Y112.693 E2.76681
G1 X95.327 Y113.168 E2.81793
G1 X94.968 Y113.601 E2.86905
G1 X94.559 Y113.986 E2.92018
G1 X94.104 Y114.317 E2.97130
G1 X93.611 Y114.587 E3.02242
G1 X93.088 Y114.794 E3.07354
G1 X92.544 Y114.934 E3.12466
G1 X91.986 Y115.005 E3.17578
G1 X91.424 Y115.005 E3.22690
G1 X90.866 Y114.934 E3.27802
G1 X90.322 Y114.794 E3.32914
G1 X89.799 Y114.587 E3.38026
G1 X89.311 Y114.319 E3.43085
G1 X88.852 Y113.987 E3.48244
G1 X88.442 Y113.601 E3.53362
G1 X88.083 Y113.168 E3.58474
G1 X87.782 Y112.693 E3.63587
G1 X87.543 Y112.185 E3.68699
G1 X87.369 Y111.650 E3.73811
G1 X87.263 Y111.098 E3.78923
G1 X87.228 Y110.537 E3.84035
G1 X87.263 Y109.976 E3.89147
G1 X87.369 Y109.423 E3.94259
G1 X87.543 Y108.889 E3.99371
G1 X87.782 Y108.379 E4.04490
G1 X88.087 Y107.901 E4.09648
G1 X88.442 Y107.472 E4.14707
G1 X88.851 Y107.087 E4.19819
G1 X89.306 Y106.757 E4.24931
G1 X89.799 Y106.486 E4.30043
G1 X90.322 Y106.279 E4.35155
G1 X90.860 Y106.141 E4.40214
G1 X91.423 Y106.069 E4.45373
G1 X91.986 Y106.069 E4.50491
G1 X92.484 Y106.132 E4.55058
G1 X92.427 Y106.754 F7800.000
G1 F1800
G1 X92.895 Y106.874 E4.59455
G1 X93.345 Y107.052 E4.63852
G1 X93.768 Y107.285 E4.68249
G1 X94.159 Y107.570 E4.72646
G1 X94.512 Y107.901 E4.77043
G1 X94.820 Y108.273 E4.81440
G1 X95.079 Y108.682 E4.85838
G1 X95.285 Y109.119 E4.90235
G1 X95.435 Y109.579 E4.94632
G1 X95.525 Y110.054 E4.99029
G1 X95.556 Y110.537 E5.03426
G1 X95.525 Y111.019 E5.07823
G1 X95.435 Y111.494 E5.12220
G1 X95.285 Y111.954 E5.16617
G1 X95.079 Y112.392 E5.21014
G1 X94.820 Y112.800 E5.25412
G1 X94.512 Y113.173 E5.29809
G1 X94.159 Y113.504 E5.34206
G1 X93.768 Y113.788 E5.38603
G1 X93.345 Y114.021 E5.43000
G1 X92.895 Y114.199 E5.47397
G1 X92.427 Y114.319 E5.51794
G1 X91.947 Y114.380 E5.56191
G1 X91.463 Y114.380 E5.60589
G1 X90.983 Y114.319 E5.64986
G1 X90.515 Y114.199 E5.69383
G1 X90.065 Y114.021 E5.73780
G1 X89.646 Y113.790 E5.78128
G1 X89.251 Y113.504 E5.82571
G1 X88.898 Y113.173 E5.86971
G1 X88.590 Y112.800 E5.91368
G1 X88.331 Y112.392 E5.95765
G1 X88.125 Y111.954 E6.00162
G1 X87.975 Y111.494 E6.04559
G1 X87.885 Y111.019 E6.08956
G1 X87.854 Y110.537 E6.13354
G1 X87.885 Y110.054 E6.17751
G1 X87.975 Y109.579 E6.22148
G1 X88.125 Y109.119 E6.26545
G1 X88.331 Y108.681 E6.30944
G1 X88.593 Y108.269 E6.35388
G1 X88.898 Y107.901 E6.39736
G1 X89.250 Y107.570 E6.44133
G1 X89.642 Y107.285 E6.48530
G1 X90.065 Y107.052 E6.52927
G1 X90.515 Y106.874 E6.57324
G1 X90.978 Y106.756 E6.61673
G1 X91.463 Y106.694 E6.66116
G1 X91.947 Y106.694 E6.70515
G1 X92.367 Y106.747 E6.74367
G1 X92.427 Y106.754 F7800.000
G1 E4.74367 F2400.00000
G92 E0
G1 X82.436 Y87.636 F7800.000
G1 E2.00000 F2400.00000
G1 F1800
G1 X80.603 Y88.329 E2.17817
G1 X78.803 Y88.761 E2.34651
G1 X76.755 Y89.001 E2.53394
G1 X74.791 Y88.971 E2.71261
G1 X72.958 Y88.710 E2.88095
G1 X70.966 Y88.180 E3.06838
G1 X69.151 Y87.428 E3.24706
G1 X67.449 Y86.457 E3.42523
G1 X65.882 Y85.280 E3.60340
G1 X64.475 Y83.917 E3.78157
G1 X63.249 Y82.387 E3.95974
G1 X62.226 Y80.717 E4.13791
G1 X61.419 Y78.931 E4.31608
G1 X60.843 Y77.058 E4.49425
G1 X60.505 Y75.122 E4.67292
G1 X60.422 Y73.063 E4.86035
G1 X60.568 Y71.217 E5.02869
G1 X60.965 Y69.299 E5.20686
G1 X61.600 Y67.445 E5.38503
G1 X62.462 Y65.685 E5.56320
G1 X63.538 Y64.047 E5.74137
G1 X64.810 Y62.557 E5.91954
G1 X66.259 Y61.239 E6.09771
G1 X67.862 Y60.112 E6.27588
G1 X69.594 Y59.195 E6.45405
G1 X71.427 Y58.503 E6.63222
G1 X73.332 Y58.045 E6.81039
G1 X75.172 Y57.842 E6.97874
G1 X77.234 Y57.860 E7.16616
G1 X79.179 Y58.137 E7.34484
G1 X81.069 Y58.654 E7.52301
G1 X82.879 Y59.404 E7.70118
G1 X84.581 Y60.375 E7.87935
G1 X86.148 Y61.551 E8.05752
G1 X87.555 Y62.915 E8.23569
G1 X88.780 Y64.444 E8.41386
G1 X89.807 Y66.119 E8.59254
G1 X90.642 Y68.004 E8.77996
G1 X91.187 Y69.773 E8.94830
G1 X91.524 Y71.704 E9.12647
G1 X91.616 Y73.661 E9.30464
G1 X91.462 Y75.614 E9.48281
G1 X91.065 Y77.533 E9.66098
G1 X90.430 Y79.387 E9.83915
G1 X89.568 Y81.146 E10.01733
G1 X88.492 Y82.784 E10.19550
G1 X87.220 Y84.274 E10.37367
G1 X85.771 Y85.593 E10.55184
G1 X84.167 Y86.719 E10.73001
G1 X82.489 Y87.608 E10.90272
G1 X82.178 Y87.066 F7800.000
G1 F1800
G1 X80.419 Y87.730 E11.07374
G1 X78.693 Y88.145 E11.23513
G1 X76.724 Y88.376 E11.41541
G1 X74.840 Y88.346 E11.58674
G1 X73.083 Y88.096 E11.74812
G1 X71.167 Y87.586 E11.92840
G1 X69.426 Y86.865 E12.09973
G1 X67.792 Y85.933 E12.27075
G1 X66.288 Y84.804 E12.44177
G1 X64.938 Y83.495 E12.61279
G1 X63.762 Y82.027 E12.78381
G1 X62.779 Y80.424 E12.95483
G1 X62.005 Y78.710 E13.12585
G1 X61.452 Y76.912 E13.29687
G1 X61.128 Y75.056 E13.46820
G1 X61.048 Y73.075 E13.64848
G1 X61.188 Y71.305 E13.80987
G1 X61.569 Y69.464 E13.98089
G1 X62.178 Y67.684 E14.15191
G1 X63.006 Y65.995 E14.32293
G1 X64.038 Y64.423 E14.49395
G1 X65.260 Y62.993 E14.66497
G1 X66.651 Y61.727 E14.83599
G1 X68.190 Y60.646 E15.00701
G1 X69.852 Y59.766 E15.17803
G1 X71.611 Y59.101 E15.34905
G1 X73.440 Y58.662 E15.52007
G1 X75.204 Y58.467 E15.68146
G1 X77.187 Y58.485 E15.86174
G1 X79.052 Y58.750 E16.03307
G1 X80.866 Y59.246 E16.20409
G1 X82.604 Y59.966 E16.37511
G1 X84.238 Y60.898 E16.54613
G1 X85.742 Y62.027 E16.71715
G1 X87.092 Y63.336 E16.88817
G1 X88.268 Y64.804 E17.05919
G1 X89.253 Y66.411 E17.23052
G1 X90.056 Y68.223 E17.41080
G1 X90.578 Y69.919 E17.57218
G1 X90.901 Y71.772 E17.74320
G1 X90.990 Y73.651 E17.91423
G1 X90.842 Y75.526 E18.08525
G1 X90.461 Y77.368 E18.25627
G1 X89.852 Y79.147 E18.42729
G1 X89.024 Y80.836 E18.59831
G1 X87.992 Y82.408 E18.76933
G1 X86.770 Y83.838 E18.94035
G1 X85.379 Y85.104 E19.11137
G1 X83.840 Y86.186 E19.28239
G1 X82.231 Y87.038 E19.44796
G1 X81.920 Y86.495 F7800.000
G1 F1800
G1 X80.235 Y87.132 E19.61183
G1 X78.583 Y87.528 E19.76626
G1 X76.692 Y87.750 E19.93939
G1 X74.889 Y87.722 E20.10337
G1 X73.208 Y87.483 E20.25781
G1 X71.368 Y86.993 E20.43093
G1 X69.702 Y86.303 E20.59491
G1 X68.136 Y85.410 E20.75879
G1 X66.695 Y84.328 E20.92266
G1 X65.401 Y83.074 E21.08653
G1 X64.274 Y81.667 E21.25040
G1 X63.332 Y80.131 E21.41427
G1 X62.591 Y78.488 E21.57814
G1 X62.061 Y76.766 E21.74201
G1 X61.751 Y74.989 E21.90599
G1 X61.674 Y73.087 E22.07912
G1 X61.807 Y71.394 E22.23355
G1 X62.173 Y69.629 E22.39743
G1 X62.757 Y67.924 E22.56130
G1 X63.549 Y66.306 E22.72517
G1 X64.539 Y64.799 E22.88904
G1 X65.709 Y63.429 E23.05291
G1 X67.042 Y62.216 E23.21678
G1 X68.517 Y61.180 E23.38065
G1 X70.109 Y60.336 E23.54452
G1 X71.795 Y59.699 E23.70839
G1 X73.548 Y59.279 E23.87226
G1 X75.236 Y59.092 E24.02670
G1 X77.140 Y59.109 E24.19983
G1 X78.925 Y59.363 E24.36381
G1 X80.663 Y59.839 E24.52768
G1 X82.328 Y60.528 E24.69155
G1 X83.894 Y61.421 E24.85542
G1 X85.335 Y62.503 E25.01929
G1 X86.629 Y63.758 E25.18316
G1 X87.756 Y65.164 E25.34703
G1 X88.698 Y66.702 E25.51102
G1 X89.470 Y68.442 E25.68414
G1 X89.969 Y70.066 E25.83858
G1 X90.279 Y71.841 E26.00245
G1 X90.364 Y73.641 E26.16632
G1 X90.222 Y75.438 E26.33019
G1 X89.857 Y77.202 E26.49406
G1 X89.273 Y78.907 E26.65793
G1 X88.480 Y80.526 E26.82180
G1 X87.491 Y82.032 E26.98567
G1 X86.321 Y83.403 E27.14955
G1 X84.988 Y84.615 E27.31342
G1 X83.513 Y85.652 E27.47729
G1 X81.973 Y86.467 E27.63570
G1 X81.920 Y86.495 F7800.000
G1 E25.63570 F2400.00000
G92 E0
G1 X96.307 Y107.803 F7800.000
G1 E2.00000 F2400.00000
G1 F1800
G1 X96.044 Y107.869 E2.02464
G1 X95.833 Y107.537 E2.06039
G1 X95.425 Y107.043 E2.11866
G1 X94.958 Y106.605 E2.17693
G1 X94.439 Y106.228 E2.23520
G1 X93.878 Y105.919 E2.29347
G1 X93.282 Y105.683 E2.35174
G1 X92.661 Y105.524 E2.41001
G1 X92.025 Y105.444 E2.46828
G1 X91.383 Y105.444 E2.52666
G1 X90.743 Y105.526 E2.58539
G1 X90.128 Y105.683 E2.64309
G1 X89.532 Y105.919 E2.70136
G1 X88.971 Y106.228 E2.75963
G1 X88.452 Y106.605 E2.81790
G1 X87.985 Y107.043 E2.87617
G1 X87.581 Y107.532 E2.93387
G1 X87.234 Y108.077 E2.99260
G1 X86.960 Y108.658 E3.05098
G1 X86.762 Y109.268 E3.10925
G1 X86.642 Y109.897 E3.16752
G1 X86.602 Y110.537 E3.22579
G1 X86.642 Y111.176 E3.28406
G1 X86.762 Y111.806 E3.34233
G1 X86.960 Y112.415 E3.40060
G1 X87.170 Y112.860 E3.44527
G1 X86.976 Y113.046 E3.46969
G1 X42.571 Y90.171 E8.01166
G1 X43.631 Y89.934 E8.11039
G1 X44.234 Y89.717 E8.16867
G1 X44.805 Y89.426 E8.22694
G1 X45.335 Y89.066 E8.28521
G1 X45.816 Y88.642 E8.34348
G1 X46.240 Y88.162 E8.40175
G1 X46.600 Y87.632 E8.46002
G1 X46.891 Y87.061 E8.51829
G1 X47.108 Y86.458 E8.57656
G1 X47.248 Y85.832 E8.63483
G1 X47.308 Y85.194 E8.69310
G1 X47.288 Y84.554 E8.75137
G1 X47.188 Y83.921 E8.80964
G1 X47.009 Y83.306 E8.86791
G1 X46.754 Y82.717 E8.92618
G1 X46.428 Y82.166 E8.98445
G1 X46.035 Y81.659 E9.04272
G1 X45.581 Y81.206 E9.10110
G1 X45.070 Y80.810 E9.15983
G1 X44.524 Y80.487 E9.21753
G1 X43.936 Y80.233 E9.27580
G1 X43.321 Y80.054 E9.33407
G1 X42.687 Y79.954 E9.39245
G1 X42.041 Y79.934 E9.45118
G1 X41.409 Y79.994 E9.50888
G1 X40.906 Y80.106 E9.55576
G1 X40.766 Y79.878 E9.58012
G1 X72.188 Y41.897 E14.06243
G1 X72.910 Y41.092 E14.16072
G1 X98.237 Y53.322 E16.71815
G1 X98.844 Y53.642 E16.78058
G1 X99.387 Y53.957 E16.83762
G1 X100.025 Y54.394 E16.90792
G1 X100.207 Y54.557 E16.93009
G1 X100.103 Y55.519 E17.01807
G1 X96.311 Y107.743 E21.77931
G1 E19.77931 F2400.00000
G92 E0
G1 X46.316 Y86.812 F7800.000
G1 E2.00000 F2400.00000
G1 F1800
G1 X46.061 Y87.313 E2.05112
G1 X45.745 Y87.778 E2.10224
G1 X45.373 Y88.200 E2.15336
G1 X44.951 Y88.572 E2.20448
G1 X44.486 Y88.888 E2.25560
G1 X43.985 Y89.143 E2.30672
G1 X43.456 Y89.333 E2.35785
G1 X42.908 Y89.456 E2.40897
G1 X42.348 Y89.509 E2.46009
G1 X41.786 Y89.491 E2.51121
G1 X41.237 Y89.404 E2.56180
G1 X40.692 Y89.247 E2.61338
G1 X40.175 Y89.023 E2.66457
G1 X39.696 Y88.740 E2.71516
G1 X39.247 Y88.393 E2.76674
G1 X38.849 Y87.995 E2.81793
G1 X38.505 Y87.550 E2.86905
G1 X38.219 Y87.067 E2.92017
G1 X37.995 Y86.551 E2.97129
G1 X37.838 Y86.011 E3.02241
G1 X37.751 Y85.455 E3.07353
G1 X37.733 Y84.894 E3.12465
G1 X37.786 Y84.334 E3.17577
G1 X37.908 Y83.785 E3.22689
G1 X38.099 Y83.256 E3.27801
G1 X38.354 Y82.755 E3.32914
G1 X38.670 Y82.290 E3.38026
G1 X39.042 Y81.869 E3.43138
G1 X39.464 Y81.497 E3.48250
G1 X39.929 Y81.181 E3.53362
G1 X40.430 Y80.926 E3.58474
G1 X40.959 Y80.735 E3.63586
G1 X41.507 Y80.612 E3.68698
G1 X42.061 Y80.560 E3.73757
G1 X42.628 Y80.577 E3.78916
G1 X43.184 Y80.665 E3.84034
G1 X43.724 Y80.822 E3.89146
G1 X44.240 Y81.045 E3.94258
G1 X44.719 Y81.328 E3.99317
G1 X45.168 Y81.676 E4.04476
G1 X45.566 Y82.074 E4.09594
G1 X45.910 Y82.518 E4.14706
G1 X46.196 Y83.002 E4.19818
G1 X46.420 Y83.518 E4.24930
G1 X46.576 Y84.058 E4.30043
G1 X46.664 Y84.613 E4.35155
G1 X46.682 Y85.175 E4.40267
G1 X46.629 Y85.734 E4.45379
G1 X46.507 Y86.283 E4.50491
G1 X46.336 Y86.756 E4.55058
G1 X45.741 Y86.563 F7800.000
G1 F1800
G1 X45.522 Y86.994 E4.59455
G1 X45.250 Y87.394 E4.63852
G1 X44.930 Y87.757 E4.68249
G1 X44.568 Y88.077 E4.72646
G1 X44.168 Y88.349 E4.77043
G1 X43.737 Y88.568 E4.81440
G1 X43.282 Y88.732 E4.85837
G1 X42.810 Y88.837 E4.90234
G1 X42.328 Y88.883 E4.94631
G1 X41.845 Y88.868 E4.99029
G1 X41.373 Y88.793 E5.03377
G1 X40.903 Y88.657 E5.07820
G1 X40.459 Y88.465 E5.12220
G1 X40.048 Y88.222 E5.16568
G1 X39.661 Y87.923 E5.21011
G1 X39.319 Y87.581 E5.25411
G1 X39.023 Y87.199 E5.29808
G1 X38.777 Y86.782 E5.34205
G1 X38.584 Y86.339 E5.38602
G1 X38.450 Y85.874 E5.42999
G1 X38.374 Y85.397 E5.47396
G1 X38.359 Y84.913 E5.51793
G1 X38.404 Y84.432 E5.56190
G1 X38.510 Y83.960 E5.60588
G1 X38.674 Y83.505 E5.64985
G1 X38.893 Y83.074 E5.69382
G1 X39.165 Y82.674 E5.73779
G1 X39.485 Y82.311 E5.78176
G1 X39.847 Y81.991 E5.82573
G1 X40.247 Y81.720 E5.86970
G1 X40.678 Y81.500 E5.91367
G1 X41.133 Y81.336 E5.95765
G1 X41.605 Y81.231 E6.00162
G1 X42.081 Y81.186 E6.04510
G1 X42.570 Y81.200 E6.08953
G1 X43.047 Y81.276 E6.13353
G1 X43.512 Y81.411 E6.17750
G1 X43.956 Y81.603 E6.22147
G1 X44.367 Y81.847 E6.26495
G1 X44.754 Y82.146 E6.30938
G1 X45.096 Y82.488 E6.35338
G1 X45.392 Y82.870 E6.39735
G1 X45.638 Y83.286 E6.44132
