; generated by Slic3r 1.3.0 on 2022-07-11 at 16:18:26

; external perimeters extrusion width = 0.44mm (3.38mm^3/s)
; perimeters extrusion width = 0.48mm (7.54mm^3/s)
; infill extrusion width = 0.48mm (10.05mm^3/s)
; solid infill extrusion width = 0.48mm (2.51mm^3/s)
; top infill extrusion width = 0.48mm (1.88mm^3/s)
; support material extrusion width = 0.44mm (6.76mm^3/s)

M107
M104 S205 ; set temperature
G28 ; home all axes
G1 Z5 F5000 ; lift nozzle

; Filament gcode

M109 S205 ; set temperature and wait for it to be reached
G21 ; set units to millimeters
G90 ; use absolute coordinates
M82 ; use absolute distances for extrusion
G92 E0
G1 Z0.350 F7800.000
G1 E-2.00000 F2400.00000
G92 E0
G1 X32.533 Y23.432 F7800.000
G1 E2.00000 F2400.00000
G1 F1800
G1 X32.859 Y23.007 E2.04878
G1 X33.558 Y22.167 E2.14807
G1 X34.134 Y21.558 E2.22429
G1 X35.347 Y20.429 E2.37502
G1 X36.138 Y19.794 E2.46721
G1 X37.761 Y18.682 E2.64611
G1 X38.345 Y18.325 E2.70830
G1 X39.509 Y17.694 E2.82873
G1 X40.268 Y17.343 E2.90482
G1 X41.357 Y16.920 E3.01099
G1 X41.850 Y16.750 E3.05844
G1 X43.100 Y16.375 E3.17709
G1 X44.298 Y16.059 E3.28977
G1 X44.882 Y15.928 E3.34420
G1 X45.650 Y15.812 E3.41484
G1 X46.900 Y15.698 E3.52896
G1 X47.555 Y15.670 E3.58851
G1 X48.804 Y15.680 E3.70216
G1 X49.435 Y15.715 E3.75964
G1 X52.184 Y15.999 E4.01087
G1 X53.585 Y16.228 E4.14001
G1 X55.521 Y16.888 E4.32596
G1 X58.084 Y18.235 E4.58919
G1 X59.690 Y19.195 E4.75940
G1 X60.929 Y20.165 E4.90245
G1 X62.627 Y21.862 E5.12074
G1 X70.002 Y29.712 E6.10015
G1 X74.034 Y34.267 E6.65327
G1 X107.747 Y77.269 E11.62186
G1 X108.436 Y78.256 E11.73132
G1 X108.860 Y78.972 E11.80691
G1 X109.202 Y79.644 E11.87548
G1 X109.532 Y80.407 E11.95113
G1 X109.788 Y81.116 E12.01964
G1 X110.019 Y81.913 E12.09513
G1 X110.184 Y82.650 E12.16381
G1 X110.314 Y83.472 E12.23945
G1 X110.385 Y84.222 E12.30797
G1 X110.411 Y85.054 E12.38362
G1 X110.387 Y85.807 E12.45214
G1 X110.309 Y86.635 E12.52779
G1 X110.191 Y87.379 E12.59630
G1 X110.010 Y88.191 E12.67195
G1 X109.800 Y88.915 E12.74046
G1 X109.519 Y89.695 E12.81587
G1 X109.219 Y90.389 E12.88463
G1 X108.841 Y91.130 E12.96028
G1 X108.457 Y91.779 E13.02880
G1 X107.990 Y92.466 E13.10436
G1 X107.528 Y93.062 E13.17295
G1 X106.978 Y93.687 E13.24860
G1 X106.445 Y94.219 E13.31712
G1 X105.821 Y94.769 E13.39277
G1 X105.225 Y95.232 E13.46135
G1 X104.537 Y95.699 E13.53694
G1 X103.550 Y96.270 E13.64060
G1 X53.884 Y121.855 E18.72079
G1 X53.288 Y122.125 E18.78022
G1 X52.588 Y122.403 E18.84874
G1 X51.797 Y122.660 E18.92439
G1 X51.066 Y122.847 E18.99299
G1 X50.250 Y123.003 E19.06855
G1 X49.502 Y123.097 E19.13706
G1 X48.672 Y123.150 E19.21271
G1 X47.918 Y123.150 E19.28123
G1 X47.088 Y123.097 E19.35688
G1 X46.339 Y123.003 E19.42548
G1 X45.523 Y122.847 E19.50104
G1 X44.793 Y122.660 E19.56956
G1 X44.002 Y122.403 E19.64520
G1 X43.299 Y122.124 E19.71402
G1 X42.549 Y121.771 E19.78937
G1 X41.888 Y121.408 E19.85789
G1 X41.186 Y120.962 E19.93353
G1 X40.583 Y120.524 E20.00130
G1 X39.935 Y119.989 E20.07769
G1 X39.386 Y119.473 E20.14621
G1 X38.817 Y118.867 E20.22186
G1 X38.336 Y118.286 E20.29037
G1 X37.847 Y117.613 E20.36603
G1 X37.444 Y116.977 E20.43454
G1 X37.043 Y116.249 E20.51012
G1 X36.722 Y115.566 E20.57870
G1 X36.416 Y114.793 E20.65435
G1 X36.183 Y114.076 E20.72287
G1 X35.976 Y113.270 E20.79852
G1 X35.835 Y112.530 E20.86703
G1 X35.751 Y111.950 E20.92032
G1 X29.669 Y51.342 E26.45905
G1 X28.516 Y37.577 E27.71505
G1 X28.417 Y35.769 E27.87977
G1 X28.421 Y35.002 E27.94945
G1 X28.526 Y33.344 E28.10054
G1 X28.611 Y32.377 E28.18883
G1 X28.909 Y30.922 E28.32384
G1 X29.690 Y28.526 E28.55302
G1 X29.999 Y27.749 E28.62906
G1 X30.707 Y26.249 E28.77988
G1 X31.112 Y25.516 E28.85602
G1 X31.461 Y24.968 E28.91512
G1 X32.499 Y23.482 E29.07994
G1 E27.07994 F2400.00000
G92 E0
G1 X49.678 Y106.279 F7800.000
G1 E2.00000 F2400.00000
G1 F1800
G1 X50.201 Y106.486 E2.05112
G1 X50.694 Y106.757 E2.10224
G1 X51.149 Y107.087 E2.15336
G1 X51.558 Y107.472 E2.20448
G1 X51.913 Y107.901 E2.25507
G1 X52.218 Y108.379 E2.30666
G1 X52.457 Y108.889 E2.35784
G1 X52.629 Y109.418 E2.40843
G1 X52.736 Y109.975 E2.46002
G1 X52.772 Y110.537 E2.51120
G1 X52.737 Y111.092 E2.56179
G1 X52.631 Y111.649 E2.61338
G1 X52.457 Y112.185 E2.66456
G1 X52.218 Y112.693 E2.71568
G1 X51.917 Y113.168 E2.76680
G1 X51.558 Y113.601 E2.81792
G1 X51.148 Y113.987 E2.86911
G1 X50.689 Y114.319 E2.92069
G1 X50.201 Y114.587 E2.97128
G1 X49.678 Y114.794 E3.02240
G1 X49.134 Y114.934 E3.07352
G1 X48.575 Y115.005 E3.12471
G1 X48.008 Y115.004 E3.17629
G1 X47.456 Y114.934 E3.22688
G1 X46.912 Y114.794 E3.27800
G1 X46.389 Y114.587 E3.32913
G1 X45.896 Y114.317 E3.38025
G1 X45.441 Y113.986 E3.43137
G1 X45.032 Y113.601 E3.48249
G1 X44.673 Y113.168 E3.53361
G1 X44.372 Y112.693 E3.58473
G1 X44.133 Y112.185 E3.63585
G1 X43.959 Y111.650 E3.68697
G1 X43.854 Y111.098 E3.73809
G1 X43.818 Y110.537 E3.78921
G1 X43.854 Y109.976 E3.84033
G1 X43.959 Y109.423 E3.89145
G1 X44.133 Y108.889 E3.94258
G1 X44.372 Y108.380 E3.99370
G1 X44.670 Y107.910 E4.04429
G1 X45.031 Y107.473 E4.09587
G1 X45.441 Y107.087 E4.14705
G1 X45.896 Y106.757 E4.19818
G1 X46.389 Y106.486 E4.24930
G1 X46.912 Y106.279 E4.30042
G1 X47.456 Y106.139 E4.35154
G1 X48.015 Y106.069 E4.40272
G1 X48.582 Y106.069 E4.45431
G1 X49.134 Y106.139 E4.50490
G1 X49.620 Y106.264 E4.55056
G1 X49.485 Y106.874 F7800.000
G1 F1800
G1 X49.935 Y107.052 E4.59453
G1 X50.358 Y107.285 E4.63851
G1 X50.750 Y107.570 E4.68248
G1 X51.102 Y107.901 E4.72645
G1 X51.407 Y108.269 E4.76993
G1 X51.669 Y108.681 E4.81436
G1 X51.875 Y109.119 E4.85836
G1 X52.023 Y109.574 E4.90184
G1 X52.115 Y110.054 E4.94627
G1 X52.146 Y110.537 E4.99027
G1 X52.116 Y111.014 E5.03375
G1 X52.025 Y111.494 E5.07818
G1 X51.875 Y111.954 E5.12218
G1 X51.669 Y112.392 E5.16615
G1 X51.410 Y112.800 E5.21012
G1 X51.102 Y113.173 E5.25409
G1 X50.749 Y113.504 E5.29808
G1 X50.354 Y113.790 E5.34252
G1 X49.935 Y114.021 E5.38600
G1 X49.485 Y114.199 E5.42997
G1 X49.017 Y114.319 E5.47394
G1 X48.537 Y114.380 E5.51794
G1 X48.048 Y114.379 E5.56237
G1 X47.573 Y114.319 E5.60585
G1 X47.105 Y114.199 E5.64982
G1 X46.655 Y114.021 E5.69380
G1 X46.232 Y113.788 E5.73777
G1 X45.841 Y113.504 E5.78174
G1 X45.488 Y113.173 E5.82571
G1 X45.180 Y112.800 E5.86968
G1 X44.921 Y112.392 E5.91365
G1 X44.715 Y111.954 E5.95762
G1 X44.565 Y111.494 E6.00159
G1 X44.475 Y111.019 E6.04556
G1 X44.444 Y110.537 E6.08954
G1 X44.475 Y110.054 E6.13351
G1 X44.565 Y109.579 E6.17748
G1 X44.715 Y109.119 E6.22145
G1 X44.921 Y108.682 E6.26542
G1 X45.177 Y108.278 E6.30890
G1 X45.488 Y107.901 E6.35334
G1 X45.841 Y107.570 E6.39733
G1 X46.232 Y107.285 E6.44130
G1 X46.655 Y107.052 E6.48527
G1 X47.105 Y106.874 E6.52924
G1 X47.573 Y106.754 E6.57321
G1 X48.053 Y106.694 E6.61721
G1 X48.542 Y106.694 E6.66164
G1 X49.017 Y106.754 E6.70512
G1 X49.427 Y106.860 E6.74364
G1 X49.485 Y106.874 F7800.000
G1 E4.74364 F2400.00000
G92 E0
G1 X93.684 Y86.812 F7800.000
G1 E2.00000 F2400.00000
G1 F1800
G1 X93.493 Y86.283 E2.05112
G1 X93.371 Y85.734 E2.10224
G1 X93.318 Y85.175 E2.15336
G1 X93.336 Y84.613 E2.20448
G1 X93.423 Y84.063 E2.25508
G1 X93.580 Y83.518 E2.30666
G1 X93.804 Y83.002 E2.35784
G1 X94.087 Y82.523 E2.40843
G1 X94.434 Y82.074 E2.46002
G1 X94.832 Y81.676 E2.51120
G1 X95.276 Y81.331 E2.56232
G1 X95.760 Y81.045 E2.61345
G1 X96.276 Y80.822 E2.66456
G1 X96.817 Y80.665 E2.71575
G1 X97.377 Y80.577 E2.76733
G1 X97.933 Y80.560 E2.81793
G1 X98.493 Y80.612 E2.86905
G1 X99.041 Y80.735 E2.92017
G1 X99.570 Y80.926 E2.97129
G1 X100.071 Y81.181 E3.02241
G1 X100.536 Y81.497 E3.07353
G1 X100.958 Y81.869 E3.12465
G1 X101.330 Y82.290 E3.17577
G1 X101.646 Y82.755 E3.22689
G1 X101.901 Y83.256 E3.27801
G1 X102.092 Y83.785 E3.32913
G1 X102.214 Y84.334 E3.38025
G1 X102.267 Y84.894 E3.43138
G1 X102.249 Y85.455 E3.48250
G1 X102.162 Y86.005 E3.53309
G1 X102.005 Y86.550 E3.58467
G1 X101.781 Y87.067 E3.63586
G1 X101.498 Y87.545 E3.68645
G1 X101.151 Y87.994 E3.73803
G1 X100.753 Y88.392 E3.78921
G1 X100.309 Y88.737 E3.84034
G1 X99.825 Y89.023 E3.89146
G1 X99.309 Y89.246 E3.94258
G1 X98.769 Y89.403 E3.99370
G1 X98.214 Y89.491 E4.04482
G1 X97.652 Y89.509 E4.09594
G1 X97.091 Y89.456 E4.14712
G1 X96.538 Y89.331 E4.19871
G1 X96.015 Y89.143 E4.24930
G1 X95.514 Y88.888 E4.30042
G1 X95.049 Y88.572 E4.35154
G1 X94.627 Y88.200 E4.40266
G1 X94.255 Y87.778 E4.45378
G1 X93.939 Y87.313 E4.50490
G1 X93.711 Y86.866 E4.55057
G1 X94.259 Y86.563 F7800.000
G1 F1800
G1 X94.095 Y86.108 E4.59454
G1 X93.989 Y85.637 E4.63851
G1 X93.944 Y85.155 E4.68248
G1 X93.959 Y84.672 E4.72645
G1 X94.034 Y84.199 E4.76994
G1 X94.169 Y83.730 E4.81437
G1 X94.362 Y83.286 E4.85836
G1 X94.605 Y82.874 E4.90185
G1 X94.904 Y82.488 E4.94628
G1 X95.246 Y82.146 E4.99027
G1 X95.628 Y81.849 E5.03424
G1 X96.044 Y81.603 E5.07822
G1 X96.488 Y81.411 E5.12219
G1 X96.953 Y81.276 E5.16618
G1 X97.435 Y81.200 E5.21061
G1 X97.913 Y81.185 E5.25410
G1 X98.395 Y81.231 E5.29807
G1 X98.867 Y81.336 E5.34204
G1 X99.322 Y81.500 E5.38601
G1 X99.753 Y81.720 E5.42998
G1 X100.153 Y81.991 E5.47395
G1 X100.515 Y82.311 E5.51792
G1 X100.835 Y82.674 E5.56189
G1 X101.107 Y83.074 E5.60587
G1 X101.326 Y83.505 E5.64984
G1 X101.490 Y83.960 E5.69381
G1 X101.596 Y84.432 E5.73778
G1 X101.641 Y84.913 E5.78175
G1 X101.626 Y85.397 E5.82572
G1 X101.551 Y85.869 E5.86920
G1 X101.416 Y86.338 E5.91364
G1 X101.223 Y86.782 E5.95763
G1 X100.980 Y87.194 E6.00111
G1 X100.681 Y87.580 E6.04555
G1 X100.339 Y87.923 E6.08954
G1 X99.957 Y88.219 E6.13351
G1 X99.541 Y88.465 E6.17748
G1 X99.097 Y88.657 E6.22145
G1 X98.633 Y88.792 E6.26543
G1 X98.155 Y88.868 E6.30940
G1 X97.672 Y88.883 E6.35337
G1 X97.190 Y88.837 E6.39736
G1 X96.713 Y88.730 E6.44180
G1 X96.263 Y88.568 E6.48528
G1 X95.832 Y88.349 E6.52925
G1 X95.432 Y88.077 E6.57322
G1 X95.070 Y87.757 E6.61719
G1 X94.750 Y87.394 E6.66116
G1 X94.478 Y86.994 E6.70513
G1 X94.286 Y86.617 E6.74365
G1 X94.259 Y86.563 F7800.000
G1 E4.74365 F2400.00000
G92 E0
G1 X78.373 Y79.391 F7800.000
G1 E2.00000 F2400.00000
G1 F1800
G1 X77.774 Y80.717 E2.13229
G1 X76.807 Y82.295 E2.30063
G1 X75.529 Y83.913 E2.48805
G1 X74.118 Y85.280 E2.66673
G1 X72.551 Y86.457 E2.84490
G1 X70.845 Y87.430 E3.02357
G1 X68.935 Y88.206 E3.21100
G1 X67.149 Y88.694 E3.37934
G1 X65.209 Y88.971 E3.55751
G1 X63.250 Y89.001 E3.73568
G1 X61.302 Y88.786 E3.91385
G1 X59.397 Y88.329 E4.09202
G1 X57.564 Y87.636 E4.27019
G1 X55.833 Y86.719 E4.44836
G1 X54.229 Y85.593 E4.62653
G1 X52.780 Y84.274 E4.80470
G1 X51.508 Y82.784 E4.98287
G1 X50.491 Y81.237 E5.15122
G1 X49.572 Y79.392 E5.33864
G1 X48.935 Y77.533 E5.51732
G1 X48.560 Y75.720 E5.68566
G1 X48.384 Y73.666 E5.87308
G1 X48.476 Y71.704 E6.05176
G1 X48.813 Y69.773 E6.22993
G1 X49.389 Y67.900 E6.40810
G1 X50.196 Y66.115 E6.58627
G1 X51.163 Y64.536 E6.75461
G1 X52.441 Y62.919 E6.94204
G1 X53.852 Y61.551 E7.12071
G1 X55.419 Y60.375 E7.29888
G1 X57.121 Y59.404 E7.47705
G1 X58.931 Y58.654 E7.65522
G1 X60.824 Y58.136 E7.83366
G1 X62.817 Y57.860 E8.01666
G1 X64.720 Y57.830 E8.18970
G1 X66.668 Y58.045 E8.36787
G1 X68.573 Y58.503 E8.54604
G1 X70.406 Y59.195 E8.72421
G1 X72.138 Y60.112 E8.90238
G1 X73.741 Y61.239 E9.08055
G1 X75.190 Y62.557 E9.25872
G1 X76.466 Y64.052 E9.43744
G1 X77.538 Y65.685 E9.61510
G1 X78.400 Y67.445 E9.79324
G1 X79.035 Y69.299 E9.97141
G1 X79.410 Y71.111 E10.13975
G1 X79.586 Y73.165 E10.32717
G1 X79.494 Y75.128 E10.50585
G1 X79.157 Y77.058 E10.68402
G1 X78.581 Y78.931 E10.86219
G1 X78.398 Y79.336 E10.90262
G1 X77.804 Y79.134 F7800.000
G1 F1800
G1 X77.221 Y80.424 E11.03133
G1 X76.294 Y81.937 E11.19272
G1 X75.065 Y83.493 E11.37300
G1 X73.712 Y84.804 E11.54432
G1 X72.208 Y85.933 E11.71534
G1 X70.571 Y86.867 E11.88667
G1 X68.734 Y87.613 E12.06695
G1 X67.022 Y88.081 E12.22834
G1 X65.160 Y88.346 E12.39936
G1 X63.280 Y88.376 E12.57038
G1 X61.410 Y88.170 E12.74140
G1 X59.581 Y87.730 E12.91242
G1 X57.822 Y87.066 E13.08344
G1 X56.160 Y86.186 E13.25446
G1 X54.621 Y85.104 E13.42548
G1 X53.230 Y83.838 E13.59650
G1 X52.008 Y82.408 E13.76752
G1 X51.034 Y80.925 E13.92891
G1 X50.149 Y79.150 E14.10919
G1 X49.539 Y77.368 E14.28052
G1 X49.179 Y75.630 E14.44190
G1 X49.010 Y73.654 E14.62218
G1 X49.099 Y71.772 E14.79351
G1 X49.422 Y69.919 E14.96453
G1 X49.975 Y68.122 E15.13555
G1 X50.749 Y66.408 E15.30657
G1 X51.676 Y64.894 E15.46796
G1 X52.905 Y63.338 E15.64824
G1 X54.258 Y62.027 E15.81956
G1 X55.762 Y60.898 E15.99059
G1 X57.396 Y59.966 E16.16161
G1 X59.134 Y59.246 E16.33263
G1 X60.950 Y58.750 E16.50381
G1 X62.865 Y58.484 E16.67965
G1 X64.691 Y58.456 E16.84565
G1 X66.560 Y58.662 E17.01667
G1 X68.389 Y59.101 E17.18769
G1 X70.148 Y59.766 E17.35871
G1 X71.810 Y60.646 E17.52973
G1 X73.349 Y61.727 E17.70076
G1 X74.740 Y62.993 E17.87178
G1 X75.966 Y64.428 E18.04333
G1 X76.994 Y65.996 E18.21384
G1 X77.822 Y67.684 E18.38484
G1 X78.431 Y69.464 E18.55586
G1 X78.791 Y71.202 E18.71725
G1 X78.960 Y73.177 E18.89753
G1 X78.871 Y75.059 E19.06886
G1 X78.548 Y76.912 E19.23988
G1 X77.995 Y78.710 E19.41090
G1 X77.828 Y79.079 E19.44775
G1 X77.234 Y78.877 F7800.000
G1 F1800
G1 X76.668 Y80.131 E19.57289
G1 X75.780 Y81.579 E19.72732
G1 X74.600 Y83.073 E19.90045
G1 X73.305 Y84.328 E20.06443
G1 X71.864 Y85.410 E20.22830
G1 X70.297 Y86.304 E20.39228
G1 X68.533 Y87.020 E20.56541
G1 X66.895 Y87.468 E20.71985
G1 X65.111 Y87.722 E20.88372
G1 X63.309 Y87.750 E21.04759
G1 X61.518 Y87.553 E21.21146
G1 X59.765 Y87.132 E21.37533
G1 X58.080 Y86.495 E21.53920
G1 X56.487 Y85.652 E21.70307
G1 X55.012 Y84.615 E21.86694
G1 X53.679 Y83.403 E22.03081
G1 X52.509 Y82.032 E22.19468
G1 X51.577 Y80.613 E22.34912
G1 X50.727 Y78.909 E22.52225
G1 X50.143 Y77.202 E22.68623
G1 X49.799 Y75.539 E22.84066
G1 X49.636 Y73.642 E23.01379
G1 X49.721 Y71.841 E23.17777
G1 X50.031 Y70.066 E23.34164
G1 X50.561 Y68.343 E23.50551
G1 X51.302 Y66.701 E23.66938
G1 X52.190 Y65.252 E23.82382
G1 X53.370 Y63.758 E23.99695
G1 X54.665 Y62.503 E24.16093
G1 X56.106 Y61.421 E24.32480
G1 X57.672 Y60.528 E24.48867
G1 X59.337 Y59.839 E24.65254
G1 X61.076 Y59.363 E24.81647
G1 X62.913 Y59.108 E24.98516
G1 X64.661 Y59.081 E25.14412
G1 X66.452 Y59.279 E25.30799
G1 X68.205 Y59.699 E25.47186
G1 X69.891 Y60.336 E25.63573
G1 X71.483 Y61.180 E25.79960
G1 X72.958 Y62.216 E25.96347
G1 X74.291 Y63.429 E26.12734
G1 X75.465 Y64.804 E26.29174
G1 X76.451 Y66.306 E26.45510
G1 X77.243 Y67.924 E26.61896
G1 X77.827 Y69.629 E26.78283
G1 X78.172 Y71.292 E26.93727
G1 X78.334 Y73.189 E27.11039
G1 X78.249 Y74.990 E27.27437
G1 X77.939 Y76.766 E27.43824
G1 X77.409 Y78.488 E27.60212
G1 X77.259 Y78.822 E27.63540
G1 X77.478 Y79.193 F7800.000
G1 E25.63540 F2400.00000
G92 E0
G1 X99.234 Y79.878 F7800.000
G1 E2.00000 F2400.00000
G1 F1800
G1 X99.094 Y80.106 E2.02436
G1 X98.591 Y79.994 E2.07124
G1 X97.953 Y79.934 E2.12951
G1 X97.319 Y79.954 E2.18721
G1 X96.680 Y80.054 E2.24594
G1 X96.064 Y80.233 E2.30432
G1 X95.476 Y80.487 E2.36259
G1 X94.924 Y80.814 E2.42086
G1 X94.418 Y81.206 E2.47913
G1 X93.964 Y81.660 E2.53750
G1 X93.569 Y82.171 E2.59624
G1 X93.246 Y82.717 E2.65394
G1 X92.991 Y83.307 E2.71231
G1 X92.811 Y83.927 E2.77105
G1 X92.712 Y84.554 E2.82875
G1 X92.692 Y85.194 E2.88701
G1 X92.752 Y85.832 E2.94529
G1 X92.892 Y86.458 E3.00356
G1 X93.109 Y87.061 E3.06183
G1 X93.400 Y87.632 E3.12010
G1 X93.760 Y88.162 E3.17837
G1 X94.184 Y88.642 E3.23664
G1 X94.665 Y89.066 E3.29491
G1 X95.195 Y89.426 E3.35318
G1 X95.766 Y89.717 E3.41145
G1 X96.363 Y89.932 E3.46915
G1 X97.427 Y90.172 E3.56837
G1 X53.024 Y113.046 E8.11022
G1 X52.830 Y112.860 E8.13464
G1 X53.040 Y112.415 E8.17931
G1 X53.238 Y111.805 E8.23769
G1 X53.358 Y111.170 E8.29642
G1 X53.398 Y110.537 E8.35412
G1 X53.358 Y109.896 E8.41250
G1 X53.236 Y109.262 E8.47123
G1 X53.040 Y108.658 E8.52893
G1 X52.766 Y108.077 E8.58730
G1 X52.419 Y107.532 E8.64604
G1 X52.015 Y107.043 E8.70374
G1 X51.548 Y106.605 E8.76200
G1 X51.029 Y106.228 E8.82028
G1 X50.468 Y105.919 E8.87855
G1 X49.872 Y105.683 E8.93682
G1 X49.251 Y105.524 E8.99509
G1 X48.622 Y105.445 E9.05279
G1 X47.976 Y105.444 E9.11152
G1 X47.339 Y105.524 E9.16990
G1 X46.718 Y105.683 E9.22817
G1 X46.122 Y105.919 E9.28644
G1 X45.561 Y106.228 E9.34471
G1 X45.042 Y106.605 E9.40298
G1 X44.574 Y107.044 E9.46135
G1 X44.163 Y107.543 E9.52009
G1 X43.956 Y107.869 E9.55526
