; generated by Slic3r 1.3.0 on 2021-02-04 at 00:36:49

; external perimeters extrusion width = 0.44mm (2.78mm^3/s)
; perimeters extrusion width = 0.40mm (7.14mm^3/s)
; infill extrusion width = 0.50mm (10.97mm^3/s)
; solid infill extrusion width = 0.60mm (6.68mm^3/s)
; top infill extrusion width = 0.40mm (2.14mm^3/s)

M107
M190 S80 ; set bed temperature and wait for it to be reached
M104 S210 ; set temperature
G28 ; home all axes
G1 Z5 F5000 ; lift nozzle

; Filament gcode

M109 S210 ; set temperature and wait for it to be reached
G21 ; set units to millimeters
G90 ; use absolute coordinates
M82 ; use absolute distances for extrusion
G92 E0
G1 Z0.300 F30000.000
G1 E-2.00000 F2400.00000
G92 E0
G1 X33.637 Y35.049 F30000.000
G1 E2.00000 F2400.00000
G1 F2100
G1 X35.350 Y33.798 E2.14175
G1 X37.784 Y33.249 E2.30845
G1 X47.684 Y33.249 E2.96983
G1 X49.769 Y33.646 E3.11158
G1 X51.562 Y34.780 E3.25333
G1 X52.814 Y36.493 E3.39509
G1 X53.362 Y38.927 E3.56179
G1 X53.362 Y68.827 E5.55927
G1 X52.966 Y70.912 E5.70102
G1 X51.832 Y72.705 E5.84278
G1 X50.119 Y73.957 E5.98453
G1 X47.684 Y74.505 E6.15123
G1 X37.784 Y74.505 E6.81260
G1 X35.700 Y74.109 E6.95436
G1 X33.906 Y72.975 E7.09611
G1 X32.654 Y71.262 E7.23787
G1 X32.106 Y68.827 E7.40456
G1 X32.106 Y38.927 E9.40204
G1 X32.503 Y36.843 E9.54380
G1 X33.605 Y35.100 E9.68155
G1 X34.165 Y35.274 F30000.000
G1 F2100
G1 X35.850 Y34.163 E9.81639
G1 X37.784 Y33.785 E9.94804
G1 X47.684 Y33.785 E10.60942
G1 X49.663 Y34.181 E10.74426
G1 X51.338 Y35.308 E10.87910
G1 X52.449 Y36.993 E11.01394
G1 X52.827 Y38.927 E11.14559
G1 X52.827 Y68.827 E13.14308
G1 X52.431 Y70.807 E13.27792
G1 X51.303 Y72.481 E13.41276
G1 X49.618 Y73.592 E13.54760
G1 X47.684 Y73.970 E13.67925
G1 X37.784 Y73.970 E14.34063
G1 X35.805 Y73.574 E14.47547
G1 X34.131 Y72.446 E14.61031
G1 X33.019 Y70.762 E14.74515
G1 X32.642 Y68.827 E14.87680
G1 X32.642 Y38.927 E16.87429
G1 X33.038 Y36.948 E17.00913
G1 X34.132 Y35.324 E17.13996
G1 X34.692 Y35.512 F30000.000
G1 F2100
G1 X36.342 Y34.552 E17.26751
G1 X37.784 Y34.321 E17.36508
G1 X47.684 Y34.321 E18.02645
G1 X49.552 Y34.716 E18.15401
G1 X51.099 Y35.835 E18.28156
G1 X52.060 Y37.485 E18.40911
G1 X52.291 Y38.927 E18.50668
G1 X52.291 Y68.827 E20.50416
G1 X51.895 Y70.695 E20.63172
G1 X50.776 Y72.242 E20.75927
G1 X49.126 Y73.203 E20.88682
G1 X47.684 Y73.434 E20.98439
G1 X37.784 Y73.434 E21.64576
G1 X35.916 Y73.039 E21.77332
G1 X34.369 Y71.920 E21.90087
G1 X33.409 Y70.269 E22.02842
G1 X33.177 Y68.827 E22.12599
G1 X33.177 Y38.927 E24.12347
G1 X33.573 Y37.060 E24.25102
G1 X34.657 Y35.561 E24.37457
G1 X35.217 Y35.768 F30000.000
G1 F2100
G1 X36.824 Y34.971 E24.49439
G1 X37.784 Y34.856 E24.55903
G1 X47.684 Y34.856 E25.22040
G1 X49.434 Y35.251 E25.34022
G1 X50.844 Y36.360 E25.46004
G1 X51.641 Y37.967 E25.57987
G1 X51.756 Y38.927 E25.64450
G1 X51.756 Y68.827 E27.64198
G1 X51.360 Y70.577 E27.76180
G1 X50.252 Y71.987 E27.88163
G1 X48.645 Y72.784 E28.00145
G1 X47.684 Y72.899 E28.06608
G1 X37.784 Y72.899 E28.72746
G1 X36.035 Y72.504 E28.84728
G1 X34.625 Y71.395 E28.96710
G1 X33.828 Y69.788 E29.08692
G1 X33.713 Y68.827 E29.15156
G1 X33.713 Y38.927 E31.14904
G1 X34.108 Y37.178 E31.26886
G1 X35.180 Y35.815 E31.38468
G1 X35.738 Y36.044 F30000.000
G1 F2100
G1 X37.784 Y35.392 E31.52815
G1 X47.684 Y35.392 E32.18952
G1 X49.307 Y35.786 E32.30108
G1 X50.568 Y36.881 E32.41264
G1 X51.220 Y38.927 E32.55611
G1 X51.220 Y68.827 E34.55360
G1 X50.826 Y70.450 E34.66515
G1 X49.730 Y71.711 E34.77671
G1 X47.684 Y72.363 E34.92018
G1 X37.784 Y72.363 E35.58156
G1 X36.162 Y71.969 E35.69312
G1 X34.901 Y70.874 E35.80467
G1 X34.249 Y68.827 E35.94815
G1 X34.249 Y38.927 E37.94563
G1 X34.643 Y37.305 E38.05719
G1 X35.699 Y36.089 E38.16474
G1 X36.259 Y36.565 F30000.000
G1 F2100
G1 X36.645 Y36.178 E38.20566
G1 X48.823 Y36.178 E39.11698
G1 X50.434 Y37.789 E39.28743
G1 X50.434 Y69.966 E41.69546
G1 X48.823 Y71.577 E41.86591
G1 X36.645 Y71.577 E42.77722
G1 X35.035 Y69.966 E42.94767
G1 X35.035 Y37.789 E45.35570
G1 X36.216 Y36.607 E45.48073
G1 X36.683 Y36.989 F30000.000
G1 F2100
G1 X36.894 Y36.778 E45.50306
G1 X48.575 Y36.778 E46.37718
G1 X49.834 Y38.037 E46.51043
G1 X49.834 Y69.718 E48.88126
G1 X48.575 Y70.977 E49.01451
G1 X36.894 Y70.977 E49.88864
G1 X35.635 Y69.718 E50.02189
G1 X35.635 Y38.037 E52.39272
G1 X36.641 Y37.031 E52.49915
G1 X37.107 Y37.413 F30000.000
G1 F2100
G1 X37.143 Y37.378 E52.50288
G1 X48.326 Y37.378 E53.33980
G1 X49.234 Y38.286 E53.43586
G1 X49.234 Y69.469 E55.76949
G1 X48.326 Y70.377 E55.86554
G1 X37.143 Y70.377 E56.70247
G1 X36.235 Y69.469 E56.79852
G1 X36.235 Y38.286 E59.13215
G1 X37.065 Y37.456 E59.21999
G1 X37.391 Y37.978 F30000.000
G1 F2100
G1 X48.078 Y37.978 E60.01971
G1 X48.634 Y38.534 E60.07857
G1 X48.634 Y69.221 E62.37500
G1 X48.078 Y69.777 E62.43386
G1 X37.391 Y69.777 E63.23359
G1 X36.835 Y69.221 E63.29245
G1 X36.835 Y38.534 E65.58888
G1 X37.349 Y38.020 E65.64325
G1 X37.640 Y38.578 F30000.000
G1 F2100
G1 X47.829 Y38.578 E66.40578
G1 X48.034 Y38.783 E66.42744
G1 X48.034 Y68.972 E68.68667
G1 X47.829 Y69.177 E68.70833
G1 X37.640 Y69.177 E69.47086
G1 X37.435 Y68.972 E69.49252
G1 X37.435 Y38.783 E71.75176
G1 X37.597 Y38.620 E71.76893
G1 E69.76893 F2400.00000
G92 E0
G1 X47.384 Y68.527 F30000.000
G1 E2.00000 F2400.00000
G1 F2100
G1 X38.084 Y68.527 E2.62129
G1 X38.084 Y39.227 E4.57869
G1 X47.384 Y39.227 E5.19998
G1 X47.384 Y68.467 E7.15337
G1 X47.019 Y68.364 F30000.000
G1 X46.849 Y67.992 F30000.000
G1 F2100
G1 X38.620 Y67.992 E7.70310
G1 X38.620 Y39.763 E9.58893
G1 X46.849 Y39.763 E10.13865
G1 X46.849 Y67.932 E12.02048
G1 E10.02048 F2400.00000
G92 E0
G1 X43.261 Y55.644 F30000.000
G1 E2.00000 F2400.00000
G1 F2100
G1 X43.081 Y55.696 E2.01251
G1 X42.734 Y55.729 E2.03579
G1 X42.387 Y55.696 E2.05907
G1 X42.053 Y55.599 E2.08235
G1 X41.742 Y55.440 E2.10565
G1 X41.459 Y55.220 E2.12963
G1 X41.173 Y54.873 E2.15962
G1 X41.013 Y54.559 E2.18320
G1 X40.916 Y54.224 E2.20648
G1 X40.883 Y53.877 E2.22976
G1 X40.916 Y53.530 E2.25304
G1 X41.013 Y53.196 E2.27631
G1 X41.171 Y52.885 E2.29959
G1 X41.385 Y52.610 E2.32287
G1 X41.646 Y52.380 E2.34615
G1 X41.946 Y52.202 E2.36943
G1 X42.278 Y52.083 E2.39301
G1 X42.723 Y52.026 E2.42300
G1 X43.081 Y52.059 E2.44698
G1 X43.416 Y52.156 E2.47028
G1 X43.726 Y52.314 E2.49356
G1 X44.002 Y52.528 E2.51684
G1 X44.232 Y52.789 E2.54014
G1 X44.414 Y53.099 E2.56413
G1 X44.552 Y53.526 E2.59411
G1 X44.586 Y53.878 E2.61772
G1 X44.551 Y54.235 E2.64170
G1 X44.412 Y54.662 E2.67168
G1 X44.232 Y54.966 E2.69527
G1 X44.002 Y55.227 E2.71855
G1 X43.726 Y55.441 E2.74183
G1 X43.416 Y55.599 E2.76510
G1 X43.319 Y55.627 E2.77186
G1 X43.224 Y55.827 F30000.000
G1 X43.410 Y56.158 F30000.000
G1 F2100
G1 X43.182 Y56.224 E2.78776
G1 X42.734 Y56.267 E2.81780
G1 X42.287 Y56.224 E2.84785
G1 X41.855 Y56.099 E2.87789
G1 X41.453 Y55.894 E2.90800
G1 X41.083 Y55.606 E2.93934
G1 X40.723 Y55.169 E2.97718
G1 X40.513 Y54.757 E3.00807
G1 X40.387 Y54.325 E3.03812
G1 X40.345 Y53.877 E3.06816
G1 X40.387 Y53.430 E3.09820
G1 X40.513 Y52.998 E3.12825
G1 X40.717 Y52.597 E3.15829
G1 X40.993 Y52.242 E3.18833
G1 X41.330 Y51.944 E3.21838
G1 X41.717 Y51.715 E3.24842
G1 X42.152 Y51.559 E3.27931
G1 X42.714 Y51.487 E3.31716
G1 X43.181 Y51.530 E3.34850
G1 X43.614 Y51.656 E3.37861
G1 X44.015 Y51.860 E3.40865
G1 X44.370 Y52.136 E3.43869
G1 X44.668 Y52.474 E3.46880
G1 X44.906 Y52.878 E3.50014
G1 X45.080 Y53.417 E3.53799
G1 X45.124 Y53.878 E3.56894
G1 X45.078 Y54.345 E3.60028
G1 X44.903 Y54.884 E3.63813
G1 X44.667 Y55.282 E3.66902
G1 X44.370 Y55.619 E3.69906
G1 X44.015 Y55.895 E3.72910
G1 X43.614 Y56.099 E3.75915
G1 X43.468 Y56.141 E3.76929
G1 E1.76929 F2400.00000
G92 E0
G1 X45.551 Y54.492 F30000.000
G1 E2.00000 F2400.00000
G1 F2100
G1 X46.370 Y53.673 E2.07788
G1 X46.370 Y52.911 E2.12916
G1 X45.583 Y53.698 E2.20405
G1 X45.551 Y53.365 E2.22655
G1 X45.454 Y53.064 E2.24780
G1 X46.370 Y52.148 E2.33493
G1 X46.370 Y51.386 E2.38622
G1 X45.230 Y52.526 E2.49465
G1 X45.047 Y52.215 E2.51892
G1 X44.921 Y52.072 E2.53172
G1 X46.370 Y50.623 E2.66952
G1 X46.370 Y49.861 E2.72081
G1 X44.540 Y51.691 E2.89485
G1 X44.246 Y51.463 E2.91987
G1 X44.087 Y51.381 E2.93190
G1 X46.370 Y49.098 E3.14907
G1 X46.370 Y48.335 E3.20035
G1 X43.552 Y51.153 E3.46836
G1 X43.224 Y51.058 E3.49130
G1 X42.913 Y51.030 E3.51232
G1 X46.370 Y47.573 E3.84108
G1 X46.370 Y46.810 E3.89237
G1 X42.106 Y51.074 E4.29791
G1 X41.969 Y51.092 E4.30719
G1 X41.431 Y51.285 E4.34564
G1 X40.957 Y51.566 E4.38270
G1 X40.544 Y51.930 E4.41975
G1 X40.206 Y52.366 E4.45681
G1 X39.956 Y52.857 E4.49386
G1 X39.805 Y53.375 E4.53018
G1 E2.53018 F2400.00000
G92 E0
G1 X39.099 Y40.355 F30000.000
G1 E2.00000 F2400.00000
G1 F2100
G1 X39.213 Y40.242 E2.01081
G1 X39.975 Y40.242 E2.06209
G1 X39.099 Y41.118 E2.14544
G1 X39.099 Y41.881 E2.19672
G1 X40.738 Y40.242 E2.35260
G1 X41.500 Y40.242 E2.40389
G1 X39.099 Y42.643 E2.63229
G1 X39.099 Y43.406 E2.68357
G1 X42.263 Y40.242 E2.98450
G1 X43.025 Y40.242 E3.03578
G1 X39.099 Y44.168 E3.40924
G1 X39.099 Y44.931 E3.46052
G1 X43.788 Y40.242 E3.90650
G1 X44.550 Y40.242 E3.95779
G1 X39.099 Y45.693 E4.47629
G1 X39.099 Y46.456 E4.52758
G1 X45.313 Y40.242 E5.11861
G1 X46.075 Y40.242 E5.16989
G1 X39.099 Y47.219 E5.83345
G1 X39.099 Y47.981 E5.88473
G1 X46.370 Y40.710 E6.57629
G1 X46.370 Y41.472 E6.62758
G1 X39.099 Y48.744 E7.31914
G1 X39.099 Y49.506 E7.37042
G1 X46.370 Y42.235 E8.06198
G1 X46.370 Y42.998 E8.11326
G1 X39.099 Y50.269 E8.80482
G1 X39.099 Y51.031 E8.85611
G1 X46.370 Y43.760 E9.54766
G1 X46.370 Y44.523 E9.59895
G1 X39.099 Y51.794 E10.29051
G1 X39.099 Y52.556 E10.34179
G1 X46.370 Y45.285 E11.03335
G1 X46.370 Y46.048 E11.08463
G1 X39.099 Y53.319 E11.77619
G1 X39.099 Y54.082 E11.82748
G1 X39.919 Y53.262 E11.90546
G1 X39.864 Y53.821 E11.94323
G1 X39.886 Y54.057 E11.95918
G1 X39.099 Y54.844 E12.03407
G1 X39.099 Y55.607 E12.08535
G1 X40.010 Y54.695 E12.17206
G1 X40.069 Y54.898 E12.18628
G1 X40.238 Y55.230 E12.21130
G1 X39.099 Y56.369 E12.31968
G1 X39.099 Y57.132 E12.37096
G1 X40.552 Y55.678 E12.50920
G1 X40.764 Y55.935 E12.53161
G1 X40.929 Y56.064 E12.54567
G1 X39.099 Y57.894 E12.71976
G1 X39.099 Y58.657 E12.77105
G1 X41.382 Y56.373 E12.98821
G1 X41.713 Y56.542 E13.01323
G1 X41.917 Y56.601 E13.02746
G1 X39.099 Y59.419 E13.29548
G1 X39.099 Y60.182 E13.34676
G1 X42.555 Y56.726 E13.67549
G1 X42.791 Y56.748 E13.69144
G1 X43.350 Y56.693 E13.72922
G1 X39.099 Y60.944 E14.13358
G1 X39.099 Y61.707 E14.18486
G1 X46.370 Y54.436 E14.87642
G1 X46.370 Y55.198 E14.92770
G1 X39.099 Y62.470 E15.61926
G1 X39.099 Y63.232 E15.67055
G1 X46.370 Y55.961 E16.36210
G1 X46.370 Y56.723 E16.41339
G1 X39.099 Y63.995 E17.10495
G1 X39.099 Y64.757 E17.15623
G1 X46.370 Y57.486 E17.84779
G1 X46.370 Y58.249 E17.89907
G1 X39.099 Y65.520 E18.59063
G1 X39.099 Y66.282 E18.64192
G1 X46.370 Y59.011 E19.33348
G1 X46.370 Y59.774 E19.38476
G1 X39.099 Y67.045 E20.07632
G1 X39.099 Y67.513 E20.10780
G1 X39.393 Y67.513 E20.12760
G1 X46.370 Y60.536 E20.79116
G1 X46.370 Y61.299 E20.84244
G1 X40.156 Y67.513 E21.43347
G1 X40.918 Y67.513 E21.48475
G1 X46.370 Y62.061 E22.00325
G1 X46.370 Y62.824 E22.05453
G1 X41.681 Y67.513 E22.50051
G1 X42.443 Y67.513 E22.55179
G1 X46.370 Y63.586 E22.92524
G1 X46.370 Y64.349 E22.97653
G1 X43.206 Y67.513 E23.27745
G1 X43.968 Y67.513 E23.32873
G1 X46.370 Y65.112 E23.55713
G1 X46.370 Y65.874 E23.60841
G1 X44.731 Y67.513 E23.76429
G1 X45.494 Y67.513 E23.81557
G1 X46.370 Y66.637 E23.89892
G1 X46.370 Y67.399 E23.95020
G1 X46.256 Y67.513 E23.96102
G1 Z0.500 F30000.000
G1 X43.344 Y55.929 F30000.000
G1 F1500
G1 X43.137 Y55.989 E23.96741
G1 X42.734 Y56.027 E23.97943
G1 X42.325 Y55.988 E23.99162
G1 X41.815 Y55.829 E24.00751
G1 X41.472 Y55.616 E24.01947
G1 X41.239 Y55.421 E24.02852
G1 X40.923 Y55.037 E24.04328
G1 X40.735 Y54.669 E24.05554
G1 X40.623 Y54.280 E24.06756
G1 X40.585 Y53.877 E24.07957
G1 X40.623 Y53.475 E24.09158
G1 X40.735 Y53.086 E24.10360
G1 X40.919 Y52.725 E24.11561
G1 X41.167 Y52.406 E24.12763
G1 X41.471 Y52.138 E24.13964
G1 X41.819 Y51.932 E24.15165
G1 X42.208 Y51.792 E24.16392
G1 X42.710 Y51.727 E24.17896
G1 X43.136 Y51.765 E24.19165
G1 X43.526 Y51.879 E24.20371
G1 X43.886 Y52.062 E24.21572
G1 X44.206 Y52.310 E24.22773
G1 X44.473 Y52.614 E24.23975
G1 X44.684 Y52.970 E24.25204
G1 X44.845 Y53.465 E24.26749
G1 X44.884 Y53.877 E24.27979
G1 X44.845 Y54.290 E24.29208
G1 X44.684 Y54.785 E24.30753
G1 X44.473 Y55.141 E24.31983
G1 X44.206 Y55.444 E24.33184
G1 X43.886 Y55.692 E24.34386
G1 X43.526 Y55.876 E24.35587
G1 X43.402 Y55.912 E24.35971
G1 X43.239 Y55.567 F30000.000
G1 F1500
G1 X43.066 Y55.617 E24.36564
G1 X42.734 Y55.648 E24.37665
G1 X42.400 Y55.617 E24.38773
G1 X41.973 Y55.483 E24.40251
G1 X41.694 Y55.310 E24.41335
G1 X41.508 Y55.154 E24.42137
G1 X41.240 Y54.829 E24.43526
G1 X41.088 Y54.529 E24.44637
G1 X40.995 Y54.209 E24.45738
G1 X40.963 Y53.877 E24.46838
G1 X40.995 Y53.546 E24.47939
G1 X41.088 Y53.225 E24.49040
G1 X41.239 Y52.928 E24.50140
G1 X41.443 Y52.665 E24.51241
G1 X41.693 Y52.445 E24.52341
G1 X41.980 Y52.275 E24.53442
G1 X42.297 Y52.161 E24.54553
G1 X42.718 Y52.106 E24.55954
G1 X43.066 Y52.138 E24.57107
G1 X43.386 Y52.231 E24.58210
G1 X43.683 Y52.382 E24.59310
G1 X43.947 Y52.586 E24.60411
G1 X44.167 Y52.836 E24.61511
G1 X44.339 Y53.126 E24.62624
G1 X44.474 Y53.542 E24.64067
G1 X44.505 Y53.877 E24.65179
G1 X44.474 Y54.213 E24.66291
G1 X44.339 Y54.628 E24.67734
G1 X44.167 Y54.918 E24.68846
G1 X43.947 Y55.168 E24.69947
G1 X43.683 Y55.373 E24.71048
G1 X43.386 Y55.524 E24.72148
G1 X43.296 Y55.550 E24.72457
G1 X43.203 Y55.743 F30000.000
G1 X47.087 Y68.230 F30000.000
G1 F6000
G1 X38.381 Y68.230 E24.98306
G1 X38.381 Y39.524 E25.83537
G1 X47.087 Y39.524 E26.09386
G1 X47.087 Y68.170 E26.94439
G1 X47.464 Y68.607 F30000.000
G1 F2100
G1 X38.004 Y68.607 E27.25674
G1 X38.004 Y39.147 E28.22943
G1 X47.464 Y39.147 E28.54177
G1 X47.464 Y68.547 E29.51248
G1 X47.099 Y68.444 F30000.000
G1 X38.887 Y67.822 F30000.000
G1 F3600
G1 X38.790 Y67.725 E29.51886
G1 X38.790 Y66.934 E29.55562
G1 X39.678 Y67.822 E29.61400
G1 X40.469 Y67.822 E29.65076
G1 X38.790 Y66.143 E29.76113
G1 X38.790 Y65.352 E29.79789
G1 X41.259 Y67.822 E29.96025
G1 X42.050 Y67.822 E29.99701
G1 X38.790 Y64.562 E30.21136
G1 X38.790 Y63.771 E30.24813
G1 X42.841 Y67.822 E30.51447
G1 X43.631 Y67.822 E30.55123
G1 X38.790 Y62.980 E30.86957
G1 X38.790 Y62.189 E30.90633
G1 X44.422 Y67.822 E31.27665
G1 X45.213 Y67.822 E31.31342
G1 X38.790 Y61.399 E31.73573
G1 X38.790 Y60.608 E31.77249
G1 X46.004 Y67.822 E32.24680
G1 X46.679 Y67.822 E32.27818
G1 X46.679 Y67.706 E32.28356
G1 X38.790 Y59.817 E32.80224
G1 X38.790 Y59.026 E32.83901
G1 X46.679 Y66.915 E33.35769
G1 X46.679 Y66.124 E33.39445
G1 X38.790 Y58.236 E33.91313
G1 X38.790 Y57.445 E33.94989
G1 X46.679 Y65.334 E34.46858
G1 X46.679 Y64.543 E34.50534
G1 X38.790 Y56.654 E35.02402
G1 X38.790 Y55.864 E35.06078
G1 X46.679 Y63.752 E35.57946
G1 X46.679 Y62.961 E35.61623
G1 X38.790 Y55.073 E36.13491
G1 X38.790 Y54.282 E36.17167
G1 X46.679 Y62.171 E36.69035
G1 X46.679 Y61.380 E36.72712
G1 X41.373 Y56.074 E37.07599
G1 X41.574 Y56.199 E37.08703
G1 X42.186 Y56.391 E37.11683
G1 X42.511 Y56.421 E37.13198
G1 X46.679 Y60.589 E37.40603
G1 X46.679 Y59.799 E37.44279
G1 X43.250 Y56.370 E37.66824
G1 X43.646 Y56.255 E37.68743
G1 X43.831 Y56.160 E37.69708
G1 X46.679 Y59.008 E37.88430
G1 X46.679 Y58.217 E37.92106
G1 X44.314 Y55.853 E38.07652
G1 X44.472 Y55.731 E38.08578
G1 X44.711 Y55.459 E38.10262
G1 X46.679 Y57.426 E38.23198
G1 X46.679 Y56.636 E38.26874
G1 X45.023 Y54.980 E38.37762
G1 X45.228 Y54.394 E38.40647
G1 X46.679 Y55.845 E38.50188
G1 X46.679 Y55.054 E38.53864
G1 X45.278 Y53.654 E38.63073
G1 X45.247 Y53.323 E38.64615
G1 X45.055 Y52.732 E38.67503
G1 X44.920 Y52.505 E38.68731
G1 X46.679 Y54.263 E38.80291
G1 X46.679 Y53.473 E38.83967
G1 X38.790 Y45.584 E39.35835
G1 X38.790 Y44.793 E39.39511
G1 X46.679 Y52.682 E39.91379
G1 X46.679 Y51.891 E39.95056
G1 X38.790 Y44.002 E40.46924
G1 X38.790 Y43.212 E40.50600
G1 X46.679 Y51.100 E41.02468
G1 X46.679 Y50.310 E41.06145
G1 X38.790 Y42.421 E41.58013
G1 X38.790 Y41.630 E41.61689
G1 X46.679 Y49.519 E42.13557
G1 X46.679 Y48.728 E42.17234
G1 X38.790 Y40.840 E42.69102
G1 X38.790 Y40.049 E42.72778
