; generated by Slic3r 1.3.0 on 2023-03-14 at 17:09:49

; external perimeters extrusion width = 0.44mm (2.78mm^3/s)
; perimeters extrusion width = 0.40mm (7.14mm^3/s)
; infill extrusion width = 0.50mm (10.97mm^3/s)
; solid infill extrusion width = 0.60mm (6.68mm^3/s)
; top infill extrusion width = 0.40mm (2.14mm^3/s)

M107
M190 S80 ; set bed temperature and wait for it to be reached
M104 S210 ; set temperature
G28 ; home all axes
G1 Z5 F5000 ; lift nozzle

; Filament gcode

M109 S210 ; set temperature and wait for it to be reached
G21 ; set units to millimeters
G90 ; use absolute coordinates
M82 ; use absolute distances for extrusion
G92 E0
G1 Z0.300 F30000.000
G1 E-2.00000 F2400.00000
G92 E0
G1 X63.402 Y62.571 F30000.000
G1 E2.00000 F2400.00000
G1 F2100
G1 X65.116 Y61.319 E2.14175
G1 X67.550 Y60.771 E2.30845
G1 X82.450 Y60.771 E3.30385
G1 X84.535 Y61.167 E3.44561
G1 X86.328 Y62.301 E3.58736
G1 X87.580 Y64.015 E3.72912
G1 X88.128 Y66.449 E3.89581
G1 X88.128 Y83.551 E5.03832
G1 X87.732 Y85.636 E5.18008
G1 X86.598 Y87.429 E5.32183
G1 X84.884 Y88.681 E5.46359
G1 X82.450 Y89.229 E5.63029
G1 X67.550 Y89.229 E6.62569
G1 X65.465 Y88.833 E6.76744
G1 X63.672 Y87.699 E6.90920
G1 X62.420 Y85.985 E7.05095
G1 X61.872 Y83.551 E7.21765
G1 X61.872 Y66.449 E8.36016
G1 X62.268 Y64.364 E8.50191
G1 X63.370 Y62.622 E8.63966
G1 X63.931 Y62.796 F30000.000
G1 F2100
G1 X65.616 Y61.684 E8.77450
G1 X67.550 Y61.306 E8.90616
G1 X82.450 Y61.306 E9.90156
G1 X84.429 Y61.703 E10.03640
G1 X86.103 Y62.830 E10.17124
G1 X87.215 Y64.515 E10.30608
G1 X87.592 Y66.449 E10.43774
G1 X87.592 Y83.551 E11.58025
G1 X87.196 Y85.530 E11.71509
G1 X86.069 Y87.204 E11.84993
G1 X84.384 Y88.316 E11.98477
G1 X82.450 Y88.694 E12.11643
G1 X67.550 Y88.694 E13.11183
G1 X65.571 Y88.297 E13.24667
G1 X63.897 Y87.170 E13.38151
G1 X62.785 Y85.485 E13.51635
G1 X62.408 Y83.551 E13.64800
G1 X62.408 Y66.449 E14.79052
G1 X62.804 Y64.470 E14.92536
G1 X63.897 Y62.845 E15.05619
G1 X64.458 Y63.034 F30000.000
G1 F2100
G1 X66.108 Y62.074 E15.18374
G1 X67.550 Y61.842 E15.28131
G1 X82.450 Y61.842 E16.27671
G1 X84.318 Y62.238 E16.40426
G1 X85.865 Y63.357 E16.53182
G1 X86.825 Y65.007 E16.65937
G1 X87.057 Y66.449 E16.75694
G1 X87.057 Y83.551 E17.89945
G1 X86.661 Y85.419 E18.02700
G1 X85.542 Y86.966 E18.15456
G1 X83.892 Y87.926 E18.28211
G1 X82.450 Y88.158 E18.37968
G1 X67.550 Y88.158 E19.37508
G1 X65.682 Y87.762 E19.50263
G1 X64.135 Y86.643 E19.63018
G1 X63.175 Y84.993 E19.75774
G1 X62.943 Y83.551 E19.85530
G1 X62.943 Y66.449 E20.99782
G1 X63.339 Y64.581 E21.12537
G1 X64.423 Y63.083 E21.24891
G1 X64.982 Y63.289 F30000.000
G1 F2100
G1 X66.589 Y62.493 E21.36874
G1 X67.550 Y62.378 E21.43337
G1 X82.450 Y62.378 E22.42877
G1 X84.200 Y62.773 E22.54859
G1 X85.610 Y63.881 E22.66841
G1 X86.406 Y65.488 E22.78824
G1 X86.521 Y66.449 E22.85287
G1 X86.521 Y83.551 E23.99538
G1 X86.126 Y85.301 E24.11521
G1 X85.018 Y86.711 E24.23503
G1 X83.411 Y87.507 E24.35485
G1 X82.450 Y87.622 E24.41948
G1 X67.550 Y87.622 E25.41489
G1 X65.800 Y87.227 E25.53471
G1 X64.390 Y86.119 E25.65453
G1 X63.594 Y84.512 E25.77435
G1 X63.479 Y83.551 E25.83899
G1 X63.479 Y66.449 E26.98150
G1 X63.874 Y64.699 E27.10132
G1 X64.945 Y63.337 E27.21713
G1 X65.504 Y63.566 F30000.000
G1 F2100
G1 X67.550 Y62.913 E27.36061
G1 X82.450 Y62.913 E28.35601
G1 X84.073 Y63.308 E28.46757
G1 X85.333 Y64.403 E28.57912
G1 X85.986 Y66.449 E28.72260
G1 X85.986 Y83.551 E29.86511
G1 X85.591 Y85.174 E29.97667
G1 X84.496 Y86.434 E30.08823
G1 X82.450 Y87.087 E30.23170
G1 X67.550 Y87.087 E31.22710
G1 X65.927 Y86.692 E31.33866
G1 X64.667 Y85.597 E31.45022
G1 X64.014 Y83.551 E31.59369
G1 X64.014 Y66.449 E32.73620
G1 X64.409 Y64.826 E32.84776
G1 X65.464 Y63.611 E32.95531
G1 E30.95531 F2400.00000
G92 E0
G1 X81.614 Y82.715 F30000.000
G1 E2.00000 F2400.00000
G1 F2100
G1 X68.386 Y82.715 E2.88375
G1 X68.386 Y67.285 E3.91462
G1 X81.614 Y67.285 E4.79837
G1 X81.614 Y82.655 E5.82523
G1 X82.150 Y83.251 F30000.000
G1 F2100
G1 X67.850 Y83.251 E6.78054
G1 X67.850 Y66.749 E7.88297
G1 X82.150 Y66.749 E8.83829
G1 X82.150 Y83.191 E9.93671
G1 X81.766 Y83.138 F30000.000
G1 X81.022 Y82.237 F30000.000
G1 F2100
G1 X81.136 Y82.123 E9.94746
G1 X81.136 Y81.365 E9.99808
G1 X80.264 Y82.237 E10.08043
G1 X79.507 Y82.237 E10.13105
G1 X81.136 Y80.608 E10.28498
G1 X81.136 Y79.850 E10.33561
G1 X78.749 Y82.237 E10.56113
G1 X77.991 Y82.237 E10.61176
G1 X81.136 Y79.092 E10.90888
G1 X81.136 Y78.335 E10.95950
G1 X77.234 Y82.237 E11.32821
G1 X76.476 Y82.237 E11.37883
G1 X81.136 Y77.577 E11.81914
G1 X81.136 Y76.819 E11.86976
G1 X75.718 Y82.237 E12.38166
G1 X74.961 Y82.237 E12.43228
G1 X81.136 Y76.062 E13.01577
G1 X81.136 Y75.304 E13.06639
G1 X74.203 Y82.237 E13.72147
G1 X73.446 Y82.237 E13.77209
G1 X81.136 Y74.547 E14.49877
G1 X81.136 Y73.789 E14.54939
G1 X72.688 Y82.237 E15.34765
G1 X71.930 Y82.237 E15.39828
G1 X81.136 Y73.031 E16.26813
G1 X81.136 Y72.274 E16.31876
G1 X71.173 Y82.237 E17.26021
G1 X70.415 Y82.237 E17.31083
G1 X81.136 Y71.516 E18.32387
G1 X81.136 Y70.758 E18.37449
G1 X69.657 Y82.237 E19.45913
G1 X68.900 Y82.237 E19.50975
G1 X81.136 Y70.001 E20.66598
G1 X81.136 Y69.243 E20.71660
G1 X68.864 Y81.514 E21.87617
G1 X68.864 Y80.757 E21.92679
G1 X81.136 Y68.486 E23.08636
G1 X81.136 Y67.763 E23.13462
G1 X81.100 Y67.763 E23.13699
G1 X68.864 Y79.999 E24.29321
G1 X68.864 Y79.242 E24.34384
G1 X80.343 Y67.763 E25.42847
G1 X79.585 Y67.763 E25.47909
G1 X68.864 Y78.484 E26.49213
G1 X68.864 Y77.726 E26.54276
G1 X78.827 Y67.763 E27.48421
G1 X78.070 Y67.763 E27.53483
G1 X68.864 Y76.969 E28.40469
G1 X68.864 Y76.211 E28.45531
G1 X77.312 Y67.763 E29.25358
G1 X76.554 Y67.763 E29.30420
G1 X68.864 Y75.453 E30.03087
G1 X68.864 Y74.696 E30.08149
G1 X75.797 Y67.763 E30.73658
G1 X75.039 Y67.763 E30.78720
G1 X68.864 Y73.938 E31.37069
G1 X68.864 Y73.181 E31.42131
G1 X74.282 Y67.763 E31.93321
G1 X73.524 Y67.763 E31.98383
G1 X68.864 Y72.423 E32.42413
G1 X68.864 Y71.665 E32.47476
G1 X72.766 Y67.763 E32.84347
G1 X72.009 Y67.763 E32.89409
G1 X68.864 Y70.908 E33.19121
G1 X68.864 Y70.150 E33.24183
G1 X71.251 Y67.763 E33.46736
G1 X70.493 Y67.763 E33.51798
G1 X68.864 Y69.392 E33.67192
G1 X68.864 Y68.635 E33.72254
G1 X69.736 Y67.763 E33.80488
G1 X68.978 Y67.763 E33.85551
G1 X68.865 Y67.877 E33.86624
G1 Z0.500 F30000.000
G1 X81.853 Y83.148 F30000.000
G1 F6000
G1 X68.147 Y83.148 E34.27319
G1 X68.147 Y66.852 E34.75703
G1 X81.853 Y66.852 E35.16398
G1 X81.853 Y83.088 E35.64604
G1 X82.230 Y83.525 F30000.000
G1 F2100
G1 X67.770 Y83.525 E36.12347
G1 X67.770 Y66.475 E36.68641
G1 X82.230 Y66.475 E37.16384
G1 X82.230 Y83.465 E37.72480
G1 X81.847 Y83.411 F30000.000
G1 X68.653 Y82.739 F30000.000
G1 F3600
G1 X68.556 Y82.642 E37.73129
G1 X68.556 Y81.837 E37.76939
G1 X69.458 Y82.739 E37.82976
G1 X70.263 Y82.739 E37.86786
G1 X68.556 Y81.032 E37.98211
G1 X68.556 Y80.227 E38.02021
G1 X71.068 Y82.739 E38.18834
G1 X71.873 Y82.739 E38.22644
G1 X68.556 Y79.422 E38.44844
G1 X68.556 Y78.617 E38.48654
G1 X72.678 Y82.739 E38.76242
G1 X73.482 Y82.739 E38.80052
G1 X68.556 Y77.813 E39.13027
G1 X68.556 Y77.008 E39.16837
G1 X74.287 Y82.739 E39.55200
G1 X75.092 Y82.739 E39.59010
G1 X68.556 Y76.203 E40.02761
G1 X68.556 Y75.398 E40.06571
G1 X75.897 Y82.739 E40.55709
G1 X76.702 Y82.739 E40.59519
G1 X68.556 Y74.593 E41.14045
G1 X68.556 Y73.788 E41.17855
G1 X77.507 Y82.739 E41.77769
G1 X78.312 Y82.739 E41.81578
G1 X68.556 Y72.983 E42.46880
G1 X68.556 Y72.178 E42.50689
G1 X79.117 Y82.739 E43.21378
G1 X79.922 Y82.739 E43.25188
G1 X68.556 Y71.373 E44.01265
G1 X68.556 Y70.568 E44.05074
G1 X80.727 Y82.739 E44.86539
G1 X81.444 Y82.739 E44.89934
G1 X81.444 Y82.652 E44.90348
G1 X68.556 Y69.763 E45.76614
G1 X68.556 Y68.958 E45.80424
G1 X81.444 Y81.847 E46.66690
G1 X81.444 Y81.042 E46.70499
G1 X68.556 Y68.153 E47.56765
G1 X68.556 Y67.348 E47.60575
G1 X81.444 Y80.237 E48.46840
G1 X81.444 Y79.432 E48.50650
G1 X69.273 Y67.261 E49.32114
G1 X70.078 Y67.261 E49.35924
G1 X81.444 Y78.627 E50.12000
G1 X81.444 Y77.822 E50.15810
G1 X70.883 Y67.261 E50.86499
G1 X71.688 Y67.261 E50.90308
G1 X81.444 Y77.017 E51.55610
G1 X81.444 Y76.212 E51.59419
G1 X72.493 Y67.261 E52.19333
G1 X73.298 Y67.261 E52.23143
G1 X81.444 Y75.407 E52.77669
G1 X81.444 Y74.602 E52.81478
G1 X74.103 Y67.261 E53.30617
G1 X74.908 Y67.261 E53.34426
G1 X81.444 Y73.797 E53.78177
G1 X81.444 Y72.992 E53.81987
G1 X75.713 Y67.261 E54.20350
G1 X76.518 Y67.261 E54.24160
G1 X81.444 Y72.187 E54.57135
G1 X81.444 Y71.383 E54.60945
G1 X77.323 Y67.261 E54.88533
G1 X78.127 Y67.261 E54.92342
G1 X81.444 Y70.578 E55.14543
G1 X81.444 Y69.773 E55.18352
G1 X78.932 Y67.261 E55.35165
G1 X79.737 Y67.261 E55.38975
G1 X81.444 Y68.968 E55.50400
G1 X81.444 Y68.163 E55.54209
G1 X80.542 Y67.261 E55.60247
G1 X81.347 Y67.261 E55.64057
G1 X81.444 Y67.358 E55.64707
G1 Z0.700 F30000.000
G1 X81.853 Y83.297 F30000.000
G1 F6000
G1 X68.147 Y83.297 E56.05401
G1 X68.147 Y66.703 E56.54669
G1 X81.853 Y66.703 E56.95363
G1 X81.853 Y83.237 E57.44453
G1 X82.230 Y83.674 F30000.000
G1 F2100
G1 X67.770 Y83.674 E57.92196
G1 X67.770 Y66.326 E58.49473
G1 X82.230 Y66.326 E58.97216
G1 X82.230 Y83.614 E59.54295
G1 X81.847 Y83.559 F30000.000
G1 X81.347 Y82.888 F30000.000
G1 F3600
G1 X81.444 Y82.791 E59.54934
G1 X81.444 Y82.000 E59.58611
G1 X80.556 Y82.888 E59.64451
G1 X79.766 Y82.888 E59.68128
G1 X81.444 Y81.209 E59.79168
G1 X81.444 Y80.418 E59.82845
G1 X78.975 Y82.888 E59.99086
G1 X78.184 Y82.888 E60.02763
G1 X81.444 Y79.628 E60.24204
G1 X81.444 Y78.837 E60.27881
G1 X77.393 Y82.888 E60.54523
G1 X76.602 Y82.888 E60.58201
G1 X81.444 Y78.046 E60.90043
G1 X81.444 Y77.255 E60.93720
G1 X75.811 Y82.888 E61.30763
G1 X75.020 Y82.888 E61.34441
G1 X81.444 Y76.464 E61.76684
G1 X81.444 Y75.673 E61.80362
G1 X74.230 Y82.888 E62.27806
G1 X73.439 Y82.888 E62.31483
G1 X81.444 Y74.882 E62.84128
G1 X81.444 Y74.092 E62.87806
G1 X72.648 Y82.888 E63.45651
G1 X71.857 Y82.888 E63.49329
G1 X81.444 Y73.301 E64.12375
G1 X81.444 Y72.510 E64.16052
G1 X71.066 Y82.888 E64.84299
G1 X70.275 Y82.888 E64.87976
G1 X81.444 Y71.719 E65.61424
G1 X81.444 Y70.928 E65.65101
G1 X69.484 Y82.888 E66.43749
G1 X68.694 Y82.888 E66.47427
G1 X81.444 Y70.137 E67.31275
G1 X81.444 Y69.347 E67.34953
G1 X68.556 Y82.235 E68.19708
G1 X68.556 Y81.444 E68.23386
G1 X81.444 Y68.556 E69.08141
G1 X81.444 Y67.765 E69.11819
G1 X68.556 Y80.654 E69.96574
G1 X68.556 Y79.863 E70.00252
G1 X81.306 Y67.112 E70.84101
G1 X80.516 Y67.112 E70.87778
G1 X68.556 Y79.072 E71.66426
G1 X68.556 Y78.281 E71.70104
G1 X79.725 Y67.112 E72.43551
G1 X78.934 Y67.112 E72.47229
G1 X68.556 Y77.490 E73.15476
G1 X68.556 Y76.699 E73.19153
G1 X78.143 Y67.112 E73.82199
G1 X77.352 Y67.112 E73.85877
G1 X68.556 Y75.908 E74.43723
G1 X68.556 Y75.118 E74.47400
G1 X76.561 Y67.112 E75.00045
G1 X75.770 Y67.112 E75.03722
G1 X68.556 Y74.327 E75.51167
G1 X68.556 Y73.536 E75.54844
G1 X74.980 Y67.112 E75.97088
G1 X74.189 Y67.112 E76.00765
G1 X68.556 Y72.745 E76.37809
G1 X68.556 Y71.954 E76.41486
G1 X73.398 Y67.112 E76.73328
G1 X72.607 Y67.112 E76.77006
G1 X68.556 Y71.163 E77.03648
G1 X68.556 Y70.372 E77.07325
G1 X71.816 Y67.112 E77.28766
G1 X71.025 Y67.112 E77.32444
G1 X68.556 Y69.582 E77.48684
G1 X68.556 Y68.791 E77.52362
G1 X70.234 Y67.112 E77.63402
G1 X69.444 Y67.112 E77.67079
G1 X68.556 Y68.000 E77.72919
G1 X68.556 Y67.209 E77.76596
G1 X68.653 Y67.112 E77.77235
M106 S255
G1 Z0.900 F30000.000
G1 X81.853 Y83.433 F30000.000
G1 F4105.63
G1 X68.147 Y83.433 E78.17929
G1 X68.147 Y66.567 E78.68004
G1 X81.853 Y66.567 E79.08699
G1 X81.853 Y83.373 E79.58596
G1 X82.230 Y83.810 F30000.000
G1 F1436.97
G1 X67.770 Y83.810 E80.06339
G1 X67.770 Y66.190 E80.64513
G1 X82.230 Y66.190 E81.12256
G1 X82.230 Y83.750 E81.70233
G1 X81.847 Y83.694 F30000.000
G1 X68.511 Y81.439 F30000.000
G1 F4926.75
G1 X70.141 Y83.069 E81.78992
G1 X73.373 Y83.069 E81.91276
G1 X68.511 Y78.207 E82.17407
G1 X68.511 Y74.975 E82.29691
G1 X76.605 Y83.069 E82.73193
G1 X79.837 Y83.069 E82.85477
G1 X68.511 Y71.743 E83.46352
G1 X68.511 Y68.511 E83.58636
G1 X81.489 Y81.489 E84.28392
G1 X81.489 Y78.257 E84.40675
G1 X70.163 Y66.931 E85.01550
G1 X73.395 Y66.931 E85.13834
G1 X81.489 Y75.025 E85.57337
G1 X81.489 Y71.793 E85.69621
G1 X76.627 Y66.931 E85.95752
G1 X79.859 Y66.931 E86.08036
G1 X81.489 Y68.561 E86.16795
G1 Z1.100 F30000.000
G1 X81.853 Y83.569 F30000.000
G1 F4146.17
G1 X68.147 Y83.569 E86.57489
G1 X68.147 Y66.431 E87.08371
G1 X81.853 Y66.431 E87.49066
G1 X81.853 Y83.509 E87.99770
G1 X82.230 Y83.946 F30000.000
G1 F1451.16
G1 X67.770 Y83.946 E88.47513
G1 X67.770 Y66.054 E89.06585
G1 X82.230 Y66.054 E89.54328
G1 X82.230 Y83.886 E90.13202
G1 X81.848 Y83.829 F30000.000
G1 X79.723 Y83.205 F30000.000
G1 F4975.4
G1 X81.489 Y81.439 E90.22692
G1 X81.489 Y78.207 E90.34976
G1 X76.491 Y83.205 E90.61837
G1 X73.259 Y83.205 E90.74121
G1 X81.489 Y74.975 E91.18354
G1 X81.489 Y71.743 E91.30638
G1 X70.027 Y83.205 E91.92244
G1 X68.511 Y83.205 E91.98007
G1 X68.511 Y81.489 E92.04527
G1 X81.489 Y68.511 E92.74283
G1 X81.489 Y66.795 E92.80804
G1 X79.973 Y66.795 E92.86567
G1 X68.511 Y78.257 E93.48172
G1 X68.511 Y75.025 E93.60456
G1 X76.741 Y66.795 E94.04690
G1 X73.509 Y66.795 E94.16973
G1 X68.511 Y71.793 E94.43835
G1 X68.511 Y68.561 E94.56119
G1 X70.277 Y66.795 E94.65608
G1 Z1.300 F30000.000
G1 X81.853 Y83.696 F30000.000
G1 F4184.24
G1 X68.147 Y83.696 E95.06303
G1 X68.147 Y66.304 E95.57943
G1 X81.853 Y66.304 E95.98637
G1 X81.853 Y83.636 E96.50099
G1 X82.230 Y84.073 F30000.000
G1 F1464.48
G1 X67.770 Y84.073 E96.97842
G1 X67.770 Y65.927 E97.57757
G1 X82.230 Y65.927 E98.05500
G1 X82.230 Y84.013 E98.65217
G1 X81.848 Y83.955 F30000.000
G1 X68.511 Y81.439 F30000.000
G1 F5021.09
G1 X70.404 Y83.332 E98.75393
G1 X73.636 Y83.332 E98.87677
G1 X68.511 Y78.207 E99.15224
G1 X68.511 Y74.975 E99.27508
G1 X76.868 Y83.332 E99.72427
G1 X80.100 Y83.332 E99.84711
G1 X68.511 Y71.743 E100.47002
G1 X68.511 Y68.511 E100.59286
G1 X81.489 Y81.489 E101.29042
G1 X81.489 Y78.257 E101.41326
G1 X69.900 Y66.668 E102.03617
G1 X73.132 Y66.668 E102.15901
G1 X81.489 Y75.025 E102.60820
G1 X81.489 Y71.793 E102.73104
G1 X76.364 Y66.668 E103.00652
G1 X79.596 Y66.668 E103.12935
G1 X81.489 Y68.561 E103.23111
M106 S249.9
G1 Z1.500 F30000.000
G1 X81.853 Y83.814 F30000.000
G1 F6000
G1 X68.147 Y83.814 E103.63805
G1 X68.147 Y66.186 E104.16148
G1 X81.853 Y66.186 E104.56842
G1 X81.853 Y83.754 E105.09007
G1 X82.230 Y84.192 F30000.000
G1 F2100
G1 X67.770 Y84.192 E105.56750
G1 X67.770 Y65.808 E106.17446
G1 X82.230 Y65.808 E106.65189
G1 X82.230 Y84.132 E107.25687
G1 X81.848 Y84.073 F30000.000
G1 X79.478 Y83.451 F30000.000
G1 F7200
G1 X81.489 Y81.439 E107.36498
G1 X81.489 Y79.186 E107.45063
G1 X80.511 Y79.186 E107.48782
G1 X76.246 Y83.451 E107.71706
G1 X73.014 Y83.451 E107.83990
G1 X77.279 Y79.186 E108.06914
G1 X74.046 Y79.186 E108.19197
G1 X69.781 Y83.451 E108.42122
G1 X68.511 Y83.451 E108.46950
G1 X68.511 Y81.489 E108.54405
G1 X70.814 Y79.186 E108.66786
G1 X68.594 Y71.182 F30000.000
M106 S255

G1 F4800
G1 X68.508 Y71.268 E108.67426
G1 X68.508 Y71.907 E108.70795
G1 X69.233 Y71.182 E108.76200
G1 X69.872 Y71.182 E108.79570
G1 X68.508 Y72.546 E108.89741
G1 X68.508 Y73.185 E108.93110
G1 X70.511 Y71.182 E109.08046
G1 X71.150 Y71.182 E109.11416
G1 X68.508 Y73.824 E109.31117
G1 X68.508 Y74.463 E109.34487
G1 X71.789 Y71.182 E109.58954
G1 X72.428 Y71.182 E109.62324
G1 X68.508 Y75.102 E109.91556
G1 X68.508 Y75.741 E109.94926
G1 X73.067 Y71.182 E110.28923
G1 X73.706 Y71.182 E110.32293
G1 X68.508 Y76.380 E110.71056
G1 X68.508 Y77.019 E110.74426
G1 X74.345 Y71.182 E111.17955
G1 X74.984 Y71.182 E111.21325
G1 X68.508 Y77.658 E111.69619
G1 X68.508 Y78.297 E111.72989
G1 X75.623 Y71.182 E112.26049
G1 X76.262 Y71.182 E112.29418
G1 X68.626 Y78.818 E112.86363
G1 X69.265 Y78.818 E112.89732
G1 X76.901 Y71.182 E113.46677
G1 X77.540 Y71.182 E113.50047
G1 X69.904 Y78.818 E114.06991
G1 X70.543 Y78.818 E114.10361
G1 X78.179 Y71.182 E114.67305
G1 X78.818 Y71.182 E114.70675
G1 X71.182 Y78.818 E115.27619
G1 X71.821 Y78.818 E115.30989
G1 X79.457 Y71.182 E115.87934
G1 X80.096 Y71.182 E115.91303
G1 X72.460 Y78.818 E116.48248
G1 X73.099 Y78.818 E116.51618
G1 X80.735 Y71.182 E117.08562
G1 X81.374 Y71.182 E117.11932
