; generated by PrusaSlicer 2.7.4+MacOS-arm64 on 2024-09-02 at 05:45:56 UTC

; 

; external perimeters extrusion width = 0.45mm
; perimeters extrusion width = 0.45mm
; infill extrusion width = 0.45mm
; solid infill extrusion width = 0.45mm
; top infill extrusion width = 0.40mm
; first layer extrusion width = 0.42mm

M104 S200 ; set temperature
;TYPE:Custom
G28 ; home all axes
G1 Z5 F5000 ; lift nozzle
M109 S200 ; set temperature and wait for it to be reached
G21 ; set units to millimeters
G90 ; use absolute coordinates
M82 ; use absolute distances for extrusion
G92 E0
; Filament gcode
M107
;LAYER_CHANGE
;Z:0.35
;HEIGHT:0.35
G1 E-2 F2400
G1 Z.35 F7800
G1 X64.193 Y56.803
G1 E0 F2400
;TYPE:Skirt/Brim
;WIDTH:0.42
G1 F1800
G1 X65.935 Y55.389 E.1126
G1 X69 Y54.599 E.27145
G1 X73 Y54.599 E.47219
G1 X75.209 Y54.996 E.58483
G1 X77.141 Y56.137 E.69744
G1 X77.955 Y56.981 E.75629
G1 X85.955 Y66.981 E1.39898
G1 X87.024 Y68.953 E1.51155
G1 X87.345 Y70.944 E1.61276
G1 X87.345 Y78.944 E2.01425
G1 X86.948 Y81.153 E2.12689
G1 X85.543 Y83.374 E2.25878
G1 X75.793 Y93.374 E2.9597
G1 X73.967 Y94.678 E3.07231
G1 X71.25 Y95.289 E3.21207
G1 X69 Y95.289 E3.32499
G1 X66.791 Y94.892 E3.43763
G1 X64.859 Y93.752 E3.55021
G1 X63.444 Y92.009 E3.66288
G1 X62.655 Y88.944 E3.82171
G1 X62.655 Y60.944 E5.22692
G1 X63.052 Y58.736 E5.33951
G1 X64.162 Y56.855 E5.44912
G1 E3.44912 F2400
G92 E0
G1 X64.162 Y56.855 F7800
G92 E0
G1 X78.347 Y74.045
G1 E2 F2400
;TYPE:Perimeter
;WIDTH:0.42
G1 F1800
G1 X78.4 Y73.982 E2.00413
G1 X78.4 Y71.844 E2.11143
G1 X80.1 Y71.844 E2.19675
G1 X80.1 Y72.694 E2.23941
G1 X80.1 Y74.308 E2.32041
G1 X80.055 Y74.217 E2.3255
G1 X79.538 Y74.045 E2.35284
G1 X78.407 Y74.045 E2.4096
G1 X78.407 Y74.045 F7800
G1 X77.785 Y74.303
G1 F1800
G1 X78.055 Y73.982 E2.43065
G1 X78.055 Y71.499 E2.55526
G1 X80.445 Y71.499 E2.6752
G1 X80.445 Y72.694 E2.73517
G1 X80.445 Y74.194 E2.81045
;WIDTH:0.442667
G1 X80.434 Y78.378 E3.03423
G1 X80.066 Y78.378 E3.05391
G1 X80.066 Y74.907 E3.23955
G1 X79.848 Y74.493 E3.26457
;WIDTH:0.42
G1 X79.538 Y74.389 E3.28098
G1 X77.713 Y74.389 E3.37257
G1 X77.746 Y74.349 E3.37517
G1 E1.37517 F2400
G92 E0
G1 X77.746 Y74.349 F7800
G1 X71.663 Y74.045
G1 E2 F2400
G1 F1800
G1 X70.462 Y74.045 E2.06027
G1 X69.945 Y74.217 E2.08761
G1 X69.9 Y74.308 E2.0927
G1 X69.9 Y61.844 E2.71822
G1 X72.1 Y61.844 E2.82863
G1 X72.1 Y62.146 E2.84379
G1 X72.016 Y62.169 E2.84816
G1 X71.606 Y62.803 E2.88605
G1 X71.6 Y62.907 E2.89128
G1 X71.6 Y73.982 E3.44709
G1 X71.62 Y74.002 E3.44851
G1 E1.44851 F2400
G92 E0
G1 X71.62 Y74.002 F7800
G1 X70.364 Y88.058
G1 E2 F2400
;WIDTH:0.392997
G1 F1800
G1 X69.886 Y88.058 E2.02211
G1 X69.886 Y87.464 E2.04959
G1 X70.111 Y87.755 E2.06661
G1 X70.364 Y87.819 E2.07868
G1 X70.364 Y87.998 E2.08696
G1 E.08696 F2400
G92 E0
G1 X70.364 Y87.998 F7800
G1 X72.353 Y74.389
G1 E2 F2400
;WIDTH:0.42
G1 F1800
G1 X70.462 Y74.389 E2.0949
G1 X70.152 Y74.493 E2.11131
;WIDTH:0.442667
G1 X69.934 Y74.907 E2.13633
G1 X69.934 Y86.982 E2.78215
;WIDTH:0.448065
G1 X69.939 Y87.074 E2.78715
G1 X70.248 Y87.453 E2.81369
;WIDTH:0.42
G1 X70.343 Y87.485 E2.81872
G1 X70.695 Y87.499 E2.8364
G1 X70.695 Y88.39 E2.88112
G1 X69.555 Y88.39 E2.93833
G1 X69.555 Y87.899 E2.96297
;WIDTH:0.442667
G1 X69.555 Y74.194 E3.69597
;WIDTH:0.42
G1 X69.555 Y61.499 E4.33308
G1 X72.445 Y61.499 E4.47812
G1 X72.445 Y62.394 E4.52304
G1 X72.194 Y62.464 E4.53612
G1 X71.949 Y62.845 E4.55885
G1 X71.945 Y62.907 E4.56197
G1 X71.945 Y73.982 E5.11778
G1 X72.31 Y74.347 E5.14369
G1 E3.14369 F2400
G92 E0
G1 X72.31 Y74.347 F7800
G1 X77.71 Y73.982
G1 E2 F2400
;TYPE:External perimeter
G1 F1800
G1 X77.71 Y71.154 E2.14193
G1 X80.79 Y71.154 E2.2965
G1 X80.79 Y72.694 E2.37379
G1 X80.79 Y78.734 E2.67691
G1 X79.71 Y78.734 E2.73111
G1 X79.71 Y74.907 E2.92317
G1 X79.641 Y74.769 E2.93091
G1 X79.538 Y74.734 E2.93637
G1 X78.462 Y74.734 E2.99037
;WIDTH:0.459185
G1 X78.154 Y74.715 E3.00762
;WIDTH:0.498371
G1 X77.846 Y74.695 E3.02663
;WIDTH:0.537557
G1 X77.538 Y74.676 E3.0474
G1 X72.462 Y74.676 E3.38897
G1 X72.154 Y74.695 E3.40974
;WIDTH:0.498371
G1 X71.846 Y74.715 E3.42875
;WIDTH:0.459185
G1 X71.538 Y74.734 E3.446
;WIDTH:0.42
G1 X70.462 Y74.734 E3.5
G1 X70.359 Y74.769 E3.50546
G1 X70.29 Y74.907 E3.5132
G1 X70.29 Y86.982 E4.11919
G1 X70.391 Y87.139 E4.12856
G1 X70.462 Y87.154 E4.1322
G1 X71.04 Y87.154 E4.16121
G1 X71.04 Y88.734 E4.2405
G1 X69.21 Y88.734 E4.33234
G1 X69.21 Y61.154 E5.71647
G1 X72.79 Y61.154 E5.89614
G1 X72.79 Y62.734 E5.97543
G1 X72.373 Y62.759 E5.9964
G1 X72.29 Y62.907 E6.00492
G1 X72.29 Y73.982 E6.56073
;WIDTH:0.459185
G1 X72.347 Y74.059 E6.56608
;WIDTH:0.498371
G1 X72.405 Y74.136 E6.57202
;WIDTH:0.537557
G1 X72.462 Y74.213 E6.57847
G1 X77.538 Y74.213 E6.92004
;WIDTH:0.541061
G1 X77.578 Y74.211 E6.92276
G1 X77.622 Y74.135 E6.92871
;WIDTH:0.500707
G1 X77.666 Y74.058 E6.9342
;WIDTH:0.460353
G1 X77.68 Y74.034 E6.93576
G1 X77.706 Y73.635 F7800
G1 E4.93576 F2400
G92 E0
G1 X79.997 Y72.675 F7800
G1 E2 F2400
;TYPE:Solid infill
;WIDTH:0.434326
G1 F1800
G1 X79.424 Y72.103 E2.04232
G1 X78.916 Y72.103 E2.06887
G1 X79.842 Y73.028 E2.13728
G1 X79.842 Y73.536 E2.16383
G1 X78.658 Y72.353 E2.25132
G1 X78.658 Y72.861 E2.27787
G1 X79.599 Y73.802 E2.34743
G1 X79.552 Y73.786 E2.35003
G1 X79.075 Y73.786 E2.37496
G1 X78.503 Y73.214 E2.41724
G1 E.41724 F2400
G92 E0
G1 X78.503 Y73.214 F7800
G1 X71.36 Y61.95
G1 E2 F2400
;WIDTH:0.423423
G1 F1800
G1 X71.669 Y62.259 E2.02215
G1 X71.476 Y62.559 E2.04023
G1 X71.022 Y62.104 E2.07281
G1 X70.529 Y62.103 E2.0978
G1 X71.342 Y62.917 E2.15611
G1 X71.342 Y63.409 E2.18105
G1 X70.158 Y62.226 E2.26588
G1 X70.158 Y62.719 E2.29087
G1 X71.342 Y63.902 E2.3757
G1 X71.342 Y64.394 E2.40064
G1 X70.158 Y63.211 E2.48547
G1 X70.158 Y63.704 E2.51046
G1 X71.342 Y64.887 E2.59529
G1 X71.342 Y65.379 E2.62023
G1 X70.158 Y64.196 E2.70506
G1 X70.158 Y64.689 E2.73005
G1 X71.342 Y65.872 E2.81488
G1 X71.342 Y66.365 E2.83987
G1 X70.158 Y65.181 E2.92474
G1 X70.158 Y65.674 E2.94973
G1 X71.342 Y66.857 E3.03456
G1 X71.342 Y67.35 E3.05955
G1 X70.158 Y66.167 E3.14438
G1 X70.158 Y66.659 E3.16932
G1 X71.342 Y67.842 E3.25415
G1 X71.342 Y68.335 E3.27914
G1 X70.158 Y67.152 E3.36397
G1 X70.158 Y67.644 E3.38891
G1 X71.342 Y68.828 E3.47378
G1 X71.342 Y69.32 E3.49872
G1 X70.158 Y68.137 E3.58355
G1 X70.158 Y68.63 E3.60854
G1 X71.342 Y69.813 E3.69337
G1 X71.342 Y70.305 E3.71831
G1 X70.158 Y69.122 E3.80314
G1 X70.158 Y69.615 E3.82813
G1 X71.342 Y70.798 E3.91296
G1 X71.342 Y71.29 E3.9379
G1 X70.158 Y70.107 E4.02273
G1 X70.158 Y70.6 E4.04772
G1 X71.342 Y71.783 E4.13255
G1 X71.342 Y72.276 E4.15754
G1 X70.158 Y71.093 E4.24237
G1 X70.158 Y71.585 E4.26731
G1 X71.342 Y72.768 E4.35214
G1 X71.342 Y73.261 E4.37713
G1 X70.158 Y72.078 E4.46196
G1 X70.158 Y72.57 E4.4869
G1 X71.342 Y73.753 E4.57173
G1 X71.342 Y73.786 E4.5734
G1 X70.881 Y73.786 E4.59677
G1 X70.158 Y73.063 E4.64859
G1 X70.158 Y73.555 E4.67353
G1 X70.544 Y73.941 E4.7012
;LAYER_CHANGE
;Z:0.65
;HEIGHT:0.3
G1 Z.65 F7800
G1 E2.7012 F2400
G92 E0
G1 X70.544 Y73.941 Z.65 F7800
G1 X71.504 Y68.885
G1 E2 F2400
G92 E0
;TYPE:Perimeter
;WIDTH:0.45
G1 F900
G1 X71.504 Y73.949 E.24356
G1 X70.468 Y73.949 E.29339
G1 X69.996 Y74.106 E.31731
G1 X69.996 Y61.941 E.9024
G1 X72.004 Y61.941 E.99898
G1 X72.004 Y62.079 E1.00562
G1 X71.965 Y62.09 E1.00757
G1 X71.511 Y62.795 E1.0479
G1 X71.504 Y62.913 E1.05359
G1 X71.504 Y68.825 E1.33794
G1 X71.504 Y68.825 F7800
G1 X71.889 Y69.484
G1 F3600
G1 X71.889 Y73.977 E1.55404
G1 X72.247 Y74.334 E1.57836
G1 X70.468 Y74.334 E1.66392
G1 X70.121 Y74.45 E1.68152
G1 X70.018 Y74.681 E1.69368
;WIDTH:0.423286
G1 X69.916 Y74.913 E1.70502
;WIDTH:0.396572
G1 X69.916 Y86.977 E2.20486
;WIDTH:0.402011
G1 X69.922 Y87.073 E2.20891
;WIDTH:0.45
G1 X70.227 Y87.503 E2.23427
G1 X70.331 Y87.539 E2.23956
G1 X70.639 Y87.556 E2.2544
G1 X70.639 Y88.334 E2.29182
G1 X69.611 Y88.334 E2.34126
G1 X69.597 Y87.438 E2.38436
;WIDTH:0.423286
G1 X69.584 Y86.977 E2.405
;WIDTH:0.396572
G1 X69.584 Y74.913 E2.90484
;WIDTH:0.423286
G1 X69.597 Y74.554 E2.92092
;WIDTH:0.45
G1 X69.611 Y74.195 E2.9382
G1 X69.611 Y61.556 E3.54609
G1 X72.389 Y61.556 E3.6797
G1 X72.389 Y62.356 E3.71818
G1 X72.166 Y62.419 E3.72933
G1 X71.894 Y62.842 E3.75352
G1 X71.889 Y62.913 E3.75694
G1 X71.889 Y69.424 E4.0701
G1 E2.0701 F2400
G92 E0
G1 X71.889 Y69.424 F7800
G1 X78.496 Y73.346
G1 E2 F2400
G1 F900
G1 X78.496 Y71.941 E2.06758
G1 X80.004 Y71.941 E2.14011
G1 X80.004 Y72.695 E2.17637
G1 X80.004 Y74.106 E2.24423
G1 X79.532 Y73.949 E2.26815
G1 X78.496 Y73.949 E2.31798
G1 X78.496 Y73.406 E2.3441
G1 X78.496 Y73.406 F7800
G1 X78.111 Y73.736
G1 F900
G1 X78.111 Y71.556 E2.44895
G1 X80.389 Y71.556 E2.55851
G1 X80.389 Y72.695 E2.61329
G1 X80.403 Y74.554 E2.7027
;WIDTH:0.423286
G1 X80.416 Y74.913 E2.71878
;WIDTH:0.396572
G1 X80.416 Y78.361 E2.86164
G1 X80.084 Y78.361 E2.8754
G1 X80.084 Y74.913 E3.01826
;WIDTH:0.423286
G1 X79.982 Y74.681 E3.0296
;WIDTH:0.45
G1 X79.879 Y74.45 E3.04176
G1 X79.532 Y74.334 E3.05936
G1 X77.811 Y74.334 E3.14213
G1 X78.111 Y73.977 E3.16456
G1 X78.111 Y73.796 E3.17327
G1 X78.111 Y73.796 F7800
G1 X77.725 Y73.977
;TYPE:External perimeter
G1 F1800
G1 X77.725 Y71.17 E3.30828
G1 X80.775 Y71.17 E3.45497
G1 X80.775 Y72.695 E3.52832
G1 X80.775 Y78.72 E3.8181
G1 X79.725 Y78.72 E3.8686
G1 X79.725 Y74.913 E4.0517
G1 X79.648 Y74.759 E4.05998
G1 X79.532 Y74.72 E4.06587
G1 X78.468 Y74.72 E4.11704
;WIDTH:0.491095
G1 X78 Y74.699 E4.14197
;WIDTH:0.532191
G1 X77.532 Y74.679 E4.1693
G1 X72.468 Y74.679 E4.46477
G1 X72 Y74.699 E4.4921
;WIDTH:0.491095
G1 X71.532 Y74.72 E4.51703
;WIDTH:0.45
G1 X70.468 Y74.72 E4.5682
G1 X70.352 Y74.759 E4.57409
G1 X70.275 Y74.913 E4.58237
G1 X70.275 Y86.977 E5.16261
G1 X70.388 Y87.153 E5.17267
G1 X70.468 Y87.17 E5.1766
G1 X71.025 Y87.17 E5.20339
G1 X71.025 Y88.72 E5.27794
G1 X69.225 Y88.72 E5.36451
G1 X69.225 Y61.17 E6.68957
G1 X72.775 Y61.17 E6.86031
G1 X72.775 Y62.72 E6.93486
G1 X72.367 Y62.748 E6.95453
G1 X72.275 Y62.913 E6.96362
G1 X72.275 Y73.977 E7.49576
;WIDTH:0.491095
G1 X72.371 Y74.094 E7.50381
;WIDTH:0.532191
G1 X72.468 Y74.211 E7.51268
G1 X77.532 Y74.211 E7.80815
;WIDTH:0.535737
G1 X77.573 Y74.209 E7.81056
G1 X77.649 Y74.093 E7.81871
;WIDTH:0.492868
G1 X77.692 Y74.027 E7.82292
G1 X77.721 Y73.628 F7800
G1 E5.82292 F2400
G92 E0
G1 X70.107 Y87.899 F7800
G1 E2 F2400
;TYPE:Perimeter
;WIDTH:0.549463
G1 F3600
G1 X70.076 Y87.952 E2.00371
G1 X70.016 Y87.952 E2.00734
G1 X69.985 Y87.899 E2.01105
G1 X70.016 Y87.847 E2.01471
G1 X70.076 Y87.847 E2.01834
G1 E.01834 F2400
G92 E0
G1 X70.076 Y87.847 F7800
G1 X79.715 Y72.23
G1 E2 F2400
;TYPE:Solid infill
;WIDTH:0.45
G1 F1200
G1 X78.785 Y72.23 E2.04473
G1 X78.785 Y73.66 E2.11351
G1 X79.517 Y73.66 E2.14872
G1 X79.715 Y73.71 E2.15854
G1 X79.715 Y72.423 E2.22044
G1 X79.25 Y72.695 E2.24635
;WIDTH:0.607879
G1 X79.25 Y73.195 E2.28024
G1 E.28024 F2400
G92 E0
G1 X71.554 Y62.23 F7800
G1 E2 F2400
;WIDTH:0.45
G1 F1200
G1 X70.285 Y62.23 E2.06103
G1 X70.285 Y73.71 E2.61318
G1 X70.483 Y73.66 E2.623
G1 X71.215 Y73.66 E2.65821
G1 X71.223 Y62.799 E3.18059
G1 X71.254 Y62.695 E3.18581
G1 X71.449 Y62.392 E3.20314
G1 X70.758 Y62.703 E3.23959
;WIDTH:0.623625
G1 X70.754 Y62.799 E3.24629
;WIDTH:0.616572
G1 X70.75 Y73.195 E3.96229
;LAYER_CHANGE
;Z:0.95
;HEIGHT:0.3
G1 Z.95 F7800
G1 E1.96229 F2400
G92 E0
G1 X70.75 Y73.195 Z.95 F7800
G1 X71.504 Y68.886
G1 E2 F2400
G92 E0
;TYPE:Perimeter
;WIDTH:0.45
G1 F900
G1 X71.504 Y73.949 E.24351
G1 X70.468 Y73.949 E.29334
G1 X69.996 Y74.107 E.31728
G1 X69.996 Y61.942 E.90237
G1 X72.004 Y61.942 E.99895
G1 X72.004 Y62.08 E1.00559
G1 X71.965 Y62.091 E1.00754
G1 X71.511 Y62.795 E1.04783
G1 X71.504 Y62.913 E1.05352
G1 X71.504 Y68.826 E1.33791
G1 X71.504 Y68.826 F7800
G1 X71.889 Y69.484
G1 F3600
G1 X71.889 Y73.978 E1.55406
G1 X72.247 Y74.335 E1.57838
G1 X70.468 Y74.335 E1.66394
G1 X70.121 Y74.451 E1.68154
G1 X70.018 Y74.682 E1.6937
;WIDTH:0.423285
G1 X69.916 Y74.913 E1.705
;WIDTH:0.396572
G1 X69.916 Y86.978 E2.20489
;WIDTH:0.402011
G1 X69.922 Y87.074 E2.20894
;WIDTH:0.45
G1 X70.227 Y87.504 E2.2343
G1 X70.331 Y87.54 E2.23959
G1 X70.639 Y87.556 E2.25442
G1 X70.639 Y88.335 E2.29189
G1 X69.611 Y88.335 E2.34133
G1 X69.597 Y87.439 E2.38443
;WIDTH:0.423286
G1 X69.584 Y86.978 E2.40507
;WIDTH:0.396572
G1 X69.584 Y74.913 E2.90496
;WIDTH:0.423285
G1 X69.597 Y74.555 E2.921
;WIDTH:0.45
G1 X69.611 Y74.196 E2.93828
G1 X69.611 Y61.556 E3.54622
G1 X72.389 Y61.556 E3.67983
G1 X72.389 Y62.357 E3.71836
G1 X72.166 Y62.42 E3.72951
G1 X71.894 Y62.843 E3.7537
G1 X71.889 Y62.913 E3.75708
G1 X71.889 Y69.424 E4.07024
G1 E2.07024 F2400
G92 E0
G1 X71.889 Y69.424 F7800
G1 X78.496 Y73.346
G1 E2 F2400
G1 F900
G1 X78.496 Y71.942 E2.06753
G1 X80.004 Y71.942 E2.14006
G1 X80.004 Y72.696 E2.17632
G1 X80.004 Y74.107 E2.24418
G1 X79.532 Y73.949 E2.26812
G1 X78.496 Y73.949 E2.31795
G1 X78.496 Y73.406 E2.34407
G1 X78.496 Y73.406 F7800
G1 X78.111 Y73.736
G1 F900
G1 X78.111 Y71.556 E2.44892
G1 X80.389 Y71.556 E2.55848
G1 X80.389 Y72.696 E2.61331
G1 X80.403 Y74.555 E2.70272
;WIDTH:0.423286
G1 X80.416 Y74.913 E2.71876
;WIDTH:0.396572
G1 X80.416 Y78.362 E2.86166
G1 X80.084 Y78.362 E2.87542
G1 X80.084 Y74.913 E3.01832
;WIDTH:0.423286
G1 X79.982 Y74.682 E3.02962
;WIDTH:0.45
G1 X79.879 Y74.451 E3.04178
G1 X79.532 Y74.335 E3.05938
G1 X77.811 Y74.335 E3.14215
G1 X78.111 Y73.978 E3.16458
G1 X78.111 Y73.796 E3.17333
G1 X78.111 Y73.796 F7800
G1 X77.725 Y73.978
;TYPE:External perimeter
G1 F1800
G1 X77.725 Y71.171 E3.30834
G1 X80.775 Y71.171 E3.45503
G1 X80.775 Y72.696 E3.52838
G1 X80.775 Y78.721 E3.81816
G1 X79.725 Y78.721 E3.86866
G1 X79.725 Y74.913 E4.05181
G1 X79.648 Y74.759 E4.06009
G1 X79.532 Y74.721 E4.06596
G1 X78.468 Y74.721 E4.11713
;WIDTH:0.491096
G1 X78 Y74.7 E4.14206
;WIDTH:0.532192
G1 X77.532 Y74.68 E4.16939
G1 X72.468 Y74.68 E4.46486
G1 X72 Y74.7 E4.49219
;WIDTH:0.491096
G1 X71.532 Y74.721 E4.51712
;WIDTH:0.45
G1 X70.468 Y74.721 E4.56829
G1 X70.352 Y74.759 E4.57416
G1 X70.275 Y74.913 E4.58244
G1 X70.275 Y86.978 E5.16272
G1 X70.388 Y87.153 E5.17274
G1 X70.468 Y87.171 E5.17668
G1 X71.025 Y87.171 E5.20347
G1 X71.025 Y88.721 E5.27802
G1 X69.225 Y88.721 E5.36459
G1 X69.225 Y61.171 E6.68965
G1 X72.775 Y61.171 E6.86039
G1 X72.775 Y62.721 E6.93494
G1 X72.367 Y62.749 E6.95461
G1 X72.275 Y62.913 E6.96365
G1 X72.275 Y73.978 E7.49584
;WIDTH:0.491096
G1 X72.371 Y74.095 E7.50389
;WIDTH:0.532192
G1 X72.468 Y74.212 E7.51276
G1 X77.532 Y74.212 E7.80823
;WIDTH:0.535737
G1 X77.573 Y74.21 E7.81064
G1 X77.649 Y74.094 E7.81879
;WIDTH:0.492868
G1 X77.692 Y74.028 E7.823
G1 X77.721 Y73.629 F7800
G1 E5.823 F2400
G92 E0
G1 X70.107 Y87.9 F7800
G1 E2 F2400
;TYPE:Perimeter
;WIDTH:0.549463
G1 F3600
G1 X70.076 Y87.952 E2.00366
G1 X70.016 Y87.952 E2.00729
G1 X69.985 Y87.9 E2.01095
G1 X70.016 Y87.847 E2.01466
G1 X70.076 Y87.847 E2.01829
G1 E.01829 F2400
G92 E0
G1 X70.076 Y87.847 F7800
G1 X70.285 Y73.517
G1 E2 F2400
;TYPE:Solid infill
;WIDTH:0.45
G1 F1200
G1 X70.285 Y62.231 E2.54282
G1 X71.554 Y62.231 E2.60385
G1 X71.254 Y62.696 E2.63047
G1 X71.223 Y62.8 E2.63569
G1 X71.215 Y73.66 E3.15802
G1 X70.483 Y73.66 E3.19323
G1 X70.285 Y73.71 E3.20305
G1 X70.75 Y73.195 E3.23642
;WIDTH:0.616572
G1 X70.754 Y62.8 E3.95235
;WIDTH:0.623623
G1 X70.758 Y62.703 E3.95912
G1 E1.95912 F2400
G92 E0
G1 X70.758 Y62.703 F7800
G1 X78.785 Y72.231
G1 E2 F2400
;WIDTH:0.45
G1 F1200
G1 X78.785 Y73.66 E2.06873
G1 X79.517 Y73.66 E2.10394
G1 X79.715 Y73.71 E2.11376
G1 X79.715 Y72.231 E2.18489
G1 X78.978 Y72.231 E2.22034
G1 X79.25 Y72.696 E2.24625
;WIDTH:0.607879
G1 X79.25 Y73.196 E2.28014
M106 S237.15
;LAYER_CHANGE
;Z:1.25
;HEIGHT:0.3
G1 Z1.25 F7800
G1 E.28014 F2400
G92 E0
G1 X79.25 Y73.196 Z1.25 F7800
G1 X71.504 Y68.887
G1 E2 F2400
G92 E0
;TYPE:Perimeter
;WIDTH:0.45
G1 F900
G1 X71.504 Y73.95 E.24351
G1 X70.468 Y73.95 E.29334
G1 X69.996 Y74.107 E.31726
G1 X69.996 Y61.942 E.90235
G1 X72.004 Y61.942 E.99893
G1 X72.004 Y62.08 E1.00557
G1 X71.965 Y62.091 E1.00752
G1 X71.511 Y62.796 E1.04785
G1 X71.504 Y62.914 E1.05354
G1 X71.504 Y68.827 E1.33793
G1 X71.504 Y68.827 F7800
G1 X71.889 Y69.485
G1 F3600
G1 X71.889 Y73.978 E1.55403
G1 X72.247 Y74.336 E1.57838
G1 X70.468 Y74.336 E1.66394
G1 X70.121 Y74.451 E1.68152
G1 X70.018 Y74.683 E1.69373
;WIDTH:0.423286
