; generated by PrusaSlicer 2.7.4+MacOS-arm64 on 2024-08-31 at 09:28:34 UTC

; 

; external perimeters extrusion width = 0.45mm
; perimeters extrusion width = 0.45mm
; infill extrusion width = 0.45mm
; solid infill extrusion width = 0.45mm
; top infill extrusion width = 0.40mm
; first layer extrusion width = 0.42mm

M104 S200 ; set temperature
;TYPE:Custom
G28 ; home all axes
G1 Z5 F5000 ; lift nozzle
M109 S200 ; set temperature and wait for it to be reached
G21 ; set units to millimeters
G90 ; use absolute coordinates
M82 ; use absolute distances for extrusion
G92 E0
; Filament gcode
M107
;LAYER_CHANGE
;Z:0.35
;HEIGHT:0.35
G1 E-2 F2400
G1 Z.35 F7800
G1 X64.693 Y70.836
G1 E0 F2400
;TYPE:Skirt/Brim
;WIDTH:0.42
G1 F1800
G1 X66.435 Y69.422 E.1126
G1 X69.5 Y68.632 E.27145
G1 X80.5 Y68.632 E.8235
G1 X82.709 Y69.029 E.93614
G1 X84.641 Y70.17 E1.04875
G1 X86.056 Y71.912 E1.16138
G1 X86.845 Y74.977 E1.32021
G1 X86.845 Y78.642 E1.50414
G1 X86.448 Y80.85 E1.61673
G1 X85.275 Y82.82 E1.7318
G1 X76.525 Y92.82 E2.39865
G1 X74.772 Y94.221 E2.51127
G1 X71.75 Y94.987 E2.66773
G1 X69.5 Y94.987 E2.78065
G1 X67.291 Y94.591 E2.89328
G1 X65.359 Y93.45 E3.00589
G1 X63.944 Y91.707 E3.11856
G1 X63.155 Y88.642 E3.27739
G1 X63.155 Y74.977 E3.96318
G1 X63.552 Y72.768 E4.07582
G1 X64.662 Y70.888 E4.18539
G1 E2.18539 F2400
G92 E0
G1 X64.662 Y70.888 F7800
G92 E0
G1 X70.816 Y87.505
G1 E2 F2400
;TYPE:Perimeter
;WIDTH:0.39306
G1 F1800
G1 X70.864 Y87.517 E2.00229
G1 X70.864 Y87.756 E2.01335
G1 X70.386 Y87.756 E2.03547
G1 X70.386 Y87.162 E2.06295
G1 X70.611 Y87.452 E2.07993
G1 X70.758 Y87.49 E2.08695
G1 X70.758 Y87.49 F7800
G1 X70.944 Y87.187
;WIDTH:0.42
G1 F1800
G1 X71.195 Y87.197 E2.09956
G1 X71.195 Y87.43 E2.11125
G1 X71.195 Y88.088 E2.14427
G1 X70.055 Y88.088 E2.20148
G1 X70.055 Y87.597 E2.22612
;WIDTH:0.442667
G1 X70.066 Y75.543 E2.87082
G1 X70.434 Y75.543 E2.8905
G1 X70.434 Y86.68 E3.48615
;WIDTH:0.448065
G1 X70.439 Y86.772 E3.49115
G1 X70.748 Y87.151 E3.51769
;WIDTH:0.42
G1 X70.843 Y87.183 E3.52272
G1 X70.884 Y87.185 E3.52478
G1 X70.884 Y87.185 F7800
G1 X70.962 Y86.852
;TYPE:External perimeter
G1 F1800
G1 X71.54 Y86.852 E3.55379
G1 X71.54 Y87.43 E3.5828
G1 X71.54 Y88.432 E3.63309
G1 X69.71 Y88.432 E3.72493
G1 X69.71 Y75.187 E4.38964
G1 X70.79 Y75.187 E4.44384
G1 X70.79 Y86.68 E5.02063
G1 X70.891 Y86.837 E5.03
G1 X70.904 Y86.84 E5.03067
G1 X71.304 Y86.851 F7800
G1 E3.03067 F2400
G92 E0
G1 X79.566 Y75.543 F7800
G1 E2 F2400
;TYPE:Perimeter
;WIDTH:0.442667
G1 F1800
G1 X79.934 Y75.543 E2.01968
G1 X79.934 Y75.727 E2.02952
G1 X79.934 Y78.075 E2.1551
G1 X79.566 Y78.075 E2.17478
G1 X79.566 Y75.603 E2.30699
G1 X79.566 Y75.603 F7800
G1 X79.21 Y75.187
;TYPE:External perimeter
;WIDTH:0.42
G1 F1800
G1 X80.29 Y75.187 E2.36119
G1 X80.29 Y75.727 E2.38829
G1 X80.29 Y78.432 E2.52404
G1 X79.21 Y78.432 E2.57824
G1 X79.21 Y75.247 E2.73808
G1 X79.606 Y75.188 F7800
;LAYER_CHANGE
;Z:0.65
;HEIGHT:0.3
G1 Z.65 F7800
G1 E.73808 F2400
G92 E0
G1 Z.65 F7800
G1 X70.496 Y73.806
G1 E2 F2400
G92 E0
;TYPE:Overhang perimeter
;WIDTH:0.4
;HEIGHT:0.4
G1 F900
G1 X70.496 Y61.641 E.63556
G1 X72.004 Y61.641 E.71435
G1 X72.004 Y61.779 E.72156
G1 X71.965 Y61.79 E.72368
G1 X71.545 Y62.332 E.7595
G1 X71.504 Y62.612 E.77428
G1 X71.504 Y73.649 E1.35091
G1 X71 Y73.649 E1.37724
G1 X70.554 Y73.789 E1.40166
G1 E-.59834 F2400
G92 E0
G1 X70.554 Y73.789 F7800
G1 X70.944 Y87.247
G1 E2 F2400
;TYPE:Perimeter
;WIDTH:0.45
;HEIGHT:0.3
G1 F3600
G1 X71.139 Y87.257 E2.00939
G1 X71.139 Y88.036 E2.04686
G1 X70.111 Y88.036 E2.0963
G1 X70.097 Y87.14 E2.1394
;WIDTH:0.423286
G1 X70.084 Y86.679 E2.16004
;WIDTH:0.396572
G1 X70.084 Y74.777 E2.65317
;TYPE:Overhang perimeter
;WIDTH:0.4
;HEIGHT:0.4
G1 X70.111 Y73.896 E2.69922
G1 X70.111 Y61.255 E3.35965
G1 X72.389 Y61.255 E3.47866
G1 X72.389 Y62.056 E3.52051
G1 X72.166 Y62.119 E3.53262
G1 X71.914 Y62.444 E3.55411
G1 X71.889 Y62.612 E3.56298
G1 X71.889 Y73.678 E4.14112
G1 X72.247 Y74.035 E4.16753
G1 X71 Y74.035 E4.23268
G1 X70.621 Y74.151 E4.25339
G1 X70.416 Y74.613 E4.2798
G1 X70.416 Y74.777 E4.28837
;TYPE:Perimeter
;WIDTH:0.396572
;HEIGHT:0.3
G1 X70.416 Y86.679 E4.7815
;WIDTH:0.402011
G1 X70.422 Y86.774 E4.78551
;WIDTH:0.45
G1 X70.727 Y87.205 E4.81091
G1 X70.831 Y87.241 E4.8162
G1 X70.884 Y87.244 E4.81875
G1 E2.81875 F2400
G92 E0
G1 X70.884 Y87.244 F7800
G1 X78.496 Y73.649
G1 E2 F2400
;TYPE:Overhang perimeter
;WIDTH:0.4
;HEIGHT:0.4
G1 F900
G1 X78.496 Y71.641 E2.10491
G1 X79.504 Y71.641 E2.15757
G1 X79.504 Y72.145 E2.1839
G1 X79.504 Y73.806 E2.27068
G1 X79.032 Y73.649 E2.29667
G1 X78.556 Y73.649 E2.32154
G1 E.32154 F2400
G92 E0
G1 X78.556 Y73.649 F7800
G1 X79.584 Y78.062
G1 E2 F2400
;TYPE:Perimeter
;WIDTH:0.396572
;HEIGHT:0.3
G1 F900
G1 X79.584 Y74.777 E2.13611
;TYPE:Overhang perimeter
;WIDTH:0.4
;HEIGHT:0.4
G1 X79.584 Y74.613 E2.14468
G1 X79.379 Y74.151 E2.17109
G1 X79.032 Y74.035 E2.19021
G1 X77.811 Y74.035 E2.254
G1 X78.111 Y73.678 E2.27836
G1 X78.111 Y71.256 E2.4049
G1 X79.889 Y71.256 E2.49779
G1 X79.889 Y72.145 E2.54424
G1 X79.889 Y73.896 E2.63572
G1 X79.916 Y74.777 E2.68177
;TYPE:Perimeter
;WIDTH:0.396572
;HEIGHT:0.3
G1 X79.916 Y78.062 E2.81788
G1 X79.644 Y78.062 E2.82915
G1 E.82915 F2400
G92 E0
G1 X70.968 Y86.871 F7800
G1 E2 F2400
;TYPE:External perimeter
;WIDTH:0.45
G1 F1800
G1 X71.525 Y86.871 E2.02679
G1 X71.525 Y88.422 E2.10139
G1 X69.725 Y88.422 E2.18796
G1 X69.725 Y74.777 E2.84424
;TYPE:Overhang perimeter
;WIDTH:0.4
;HEIGHT:0.4
G1 F3600
G1 X69.725 Y60.869 E3.57086
G1 X72.775 Y60.869 E3.73021
G1 X72.775 Y62.42 E3.81124
G1 X72.367 Y62.448 E3.83261
G1 X72.275 Y62.612 E3.84243
G1 X72.275 Y73.678 E4.42057
G1 X72.468 Y73.912 E4.43642
G1 X77.573 Y73.91 E4.70313
G1 X77.725 Y73.678 E4.71762
G1 X77.725 Y70.87 E4.86432
G1 X80.275 Y70.87 E4.99754
G1 X80.275 Y72.145 E5.06415
G1 X80.275 Y74.777 E5.20166
;TYPE:External perimeter
;WIDTH:0.45
;HEIGHT:0.3
G1 F1800
G1 X80.275 Y78.421 E5.37692
G1 X79.225 Y78.421 E5.42742
G1 X79.225 Y74.777 E5.60268
;TYPE:Overhang perimeter
;WIDTH:0.4
;HEIGHT:0.4
G1 F3600
G1 X79.225 Y74.613 E5.61125
G1 X79.148 Y74.459 E5.62025
G1 X79.032 Y74.421 E5.62663
G1 X78.468 Y74.421 E5.6561
G1 X77.532 Y74.379 E5.70505
G1 X72.468 Y74.379 E5.96962
G1 X71.532 Y74.421 E6.01857
G1 X71 Y74.421 E6.04636
G1 X70.852 Y74.459 E6.05434
G1 X70.775 Y74.613 E6.06334
G1 X70.775 Y74.777 E6.07191
;TYPE:External perimeter
;WIDTH:0.45
;HEIGHT:0.3
G1 F1800
G1 X70.775 Y86.679 E6.64435
G1 X70.888 Y86.854 E6.65437
G1 X70.909 Y86.859 E6.65541
G1 X71.309 Y86.87 F7800
G1 X70.607 Y87.601
;TYPE:Perimeter
;WIDTH:0.549587
G1 F3600
G1 X70.576 Y87.653 E6.65907
G1 X70.516 Y87.653 E6.6627
G1 X70.485 Y87.601 E6.66636
G1 X70.516 Y87.548 E6.67008
G1 X70.576 Y87.548 E6.67371
G1 E4.67371 F2400
G92 E0
G1 X70.576 Y87.548 F7800
G1 X70.863 Y73.569
G1 E2 F2400
;TYPE:Bridge infill
;WIDTH:0.49
;HEIGHT:0.4
G1 F3600
G1 X70.863 Y61.962 E2.90999
G1 X71.403 Y61.962 E2.95233
G1 X71.403 Y62.498 E2.99435
G1 E.99435 F2400
G92 E0
G1 X71.403 Y62.498 F7800
G1 X79.137 Y71.76
G1 E2 F2400
G1 F3600
G1 X79.137 Y73.569 E2.14183
;LAYER_CHANGE
;Z:0.95
;HEIGHT:0.3
G1 Z.95 F7800
G1 E.14183 F2400
G92 E0
G1 X79.137 Y73.569 Z.95 F7800
G1 X71.504 Y72.087
G1 E2 F2400
G92 E0
;TYPE:Perimeter
;WIDTH:0.45
G1 F900
G1 X71.504 Y73.653 E.07532
G1 X71 Y73.653 E.09956
G1 X70.496 Y73.81 E.12495
G1 X70.496 Y61.644 E.71009
G1 X72.004 Y61.644 E.78262
G1 X72.004 Y61.783 E.78931
G1 X71.965 Y61.793 E.79125
G1 X71.545 Y62.336 E.82427
G1 X71.504 Y62.616 E.83788
G1 X71.504 Y72.027 E1.29052
G1 E-.70948 F2400
G92 E0
G1 X71.504 Y72.027 F7800
G1 X72.247 Y74.039
G1 E2 F2400
G1 F3600
G1 X71 Y74.039 E2.05998
G1 X70.621 Y74.154 E2.07903
G1 X70.518 Y74.386 E2.09124
;WIDTH:0.423286
G1 X70.416 Y74.617 E2.10254
;WIDTH:0.396572
G1 X70.416 Y86.683 E2.60247
;WIDTH:0.402011
G1 X70.422 Y86.778 E2.60648
;WIDTH:0.45
G1 X70.727 Y87.209 E2.63188
G1 X70.831 Y87.245 E2.63717
G1 X71.139 Y87.261 E2.652
G1 X71.139 Y88.04 E2.68947
G1 X70.111 Y88.04 E2.73891
G1 X70.097 Y87.143 E2.78206
;WIDTH:0.423285
G1 X70.084 Y86.683 E2.80266
;WIDTH:0.396572
G1 X70.084 Y74.617 E3.30259
;WIDTH:0.423286
G1 X70.097 Y74.258 E3.31867
;WIDTH:0.45
G1 X70.111 Y73.899 E3.33595
G1 X70.111 Y61.259 E3.94389
G1 X72.389 Y61.259 E4.05345
G1 X72.389 Y62.06 E4.09198
G1 X72.166 Y62.123 E4.10313
G1 X71.914 Y62.448 E4.12291
G1 X71.889 Y62.616 E4.13108
G1 X71.889 Y73.681 E4.66327
G1 X72.204 Y73.996 E4.6847
G1 E2.6847 F2400
G92 E0
G1 X72.204 Y73.996 F7800
G1 X79.229 Y73.719
G1 E2 F2400
G1 F900
G1 X79.032 Y73.653 E2.00999
G1 X78.496 Y73.653 E2.03577
G1 X78.496 Y71.645 E2.13235
G1 X79.504 Y71.645 E2.18083
G1 X79.504 Y72.149 E2.20507
G1 X79.504 Y73.81 E2.28496
G1 X79.286 Y73.738 E2.296
G1 X79.286 Y73.738 F7800
G1 X79.13 Y74.071
G1 F900
G1 X79.032 Y74.039 E2.30096
G1 X77.811 Y74.039 E2.35969
G1 X78.111 Y73.681 E2.38215
G1 X78.111 Y71.26 E2.49859
G1 X79.889 Y71.26 E2.58411
G1 X79.889 Y72.149 E2.62687
G1 X79.903 Y74.258 E2.72831
;WIDTH:0.423286
G1 X79.916 Y74.617 E2.74439
;WIDTH:0.396572
G1 X79.916 Y78.066 E2.88729
G1 X79.584 Y78.066 E2.90105
G1 X79.584 Y74.617 E3.04395
;WIDTH:0.423286
G1 X79.482 Y74.386 E3.05525
;WIDTH:0.45
G1 X79.379 Y74.154 E3.06746
G1 X79.187 Y74.09 E3.07719
G1 X79.187 Y74.09 F7800
G1 X79.032 Y74.424
;TYPE:External perimeter
G1 F1800
G1 X78.468 Y74.424 E3.10432
;WIDTH:0.491116
G1 X78 Y74.404 E3.12925
;WIDTH:0.532232
G1 X77.532 Y74.383 E3.15659
G1 X72.468 Y74.383 E3.45209
G1 X72 Y74.404 E3.47943
;WIDTH:0.491116
G1 X71.532 Y74.424 E3.50436
;WIDTH:0.45
G1 X71 Y74.424 E3.52995
G1 X70.852 Y74.463 E3.53731
G1 X70.775 Y74.617 E3.54559
G1 X70.775 Y86.683 E4.12592
G1 X70.888 Y86.858 E4.13594
G1 X70.968 Y86.875 E4.13987
G1 X71.525 Y86.875 E4.16666
G1 X71.525 Y88.425 E4.24121
G1 X69.725 Y88.425 E4.32778
G1 X69.725 Y60.873 E5.65294
G1 X72.775 Y60.873 E5.79963
G1 X72.775 Y62.423 E5.87418
G1 X72.367 Y62.452 E5.89385
G1 X72.275 Y62.616 E5.90289
G1 X72.275 Y73.681 E6.43508
;WIDTH:0.491116
G1 X72.371 Y73.798 E6.44314
;WIDTH:0.532232
G1 X72.468 Y73.915 E6.45201
G1 X77.532 Y73.915 E6.74751
;WIDTH:0.535777
G1 X77.573 Y73.914 E6.74992
G1 X77.649 Y73.798 E6.75807
;WIDTH:0.492888
G1 X77.725 Y73.681 E6.76553
;WIDTH:0.45
G1 X77.725 Y70.874 E6.90054
G1 X80.275 Y70.874 E7.02319
G1 X80.275 Y72.149 E7.08451
G1 X80.275 Y78.425 E7.38636
G1 X79.225 Y78.425 E7.43686
G1 X79.225 Y74.617 E7.62001
G1 X79.148 Y74.463 E7.62829
G1 X79.089 Y74.443 E7.63129
G1 X78.689 Y74.427 F7800
G1 E5.63129 F2400
G92 E0
G1 X70.607 Y87.604 F7800
G1 E2 F2400
;TYPE:Perimeter
;WIDTH:0.549587
G1 F3600
G1 X70.576 Y87.657 E2.00372
G1 X70.516 Y87.657 E2.00735
G1 X70.485 Y87.604 E2.01107
G1 X70.516 Y87.552 E2.01473
G1 X70.576 Y87.552 E2.01836
G1 E.01836 F2400
G92 E0
G1 X70.576 Y87.552 F7800
G1 X78.796 Y71.945
G1 E2 F2400
;TYPE:Solid infill
;WIDTH:0.471749
G1 F1200
G1 X78.796 Y73.353 E2.07154
G1 X79.074 Y73.361 E2.08567
G1 X79.204 Y73.399 E2.09255
G1 X79.204 Y71.945 E2.16643
G1 X78.989 Y71.945 E2.17735
G1 E.17735 F2400
G92 E0
G1 X78.989 Y71.945 F7800
G1 X70.796 Y62.623
G1 E2 F2400
;WIDTH:0.47175
G1 F1200
G1 X70.796 Y73.399 E2.54752
G1 X71 Y73.353 E2.55815
G1 X71.204 Y73.353 E2.56852
G1 X71.204 Y62.623 E3.1137
;WIDTH:0.505305
G1 X71.243 Y62.251 E3.13427
G1 X71.451 Y61.961 E3.1539
G1 X70.813 Y61.961 E3.18899
G1 X70.801 Y62.431 E3.21485
M106 S239.7
;LAYER_CHANGE
;Z:1.25
;HEIGHT:0.3
G1 Z1.25 F7800
G1 E1.21485 F2400
G92 E0
G1 X70.801 Y62.431 Z1.25 F7800
G1 X71.504 Y72.091
G1 E2 F2400
G92 E0
;TYPE:Perimeter
;WIDTH:0.45
G1 F900
G1 X71.504 Y73.657 E.07532
G1 X71 Y73.657 E.09956
G1 X70.496 Y73.814 E.12495
G1 X70.496 Y61.648 E.71009
G1 X72.004 Y61.648 E.78262
G1 X72.004 Y61.786 E.78926
G1 X71.965 Y61.797 E.79121
G1 X71.545 Y62.34 E.82423
G1 X71.504 Y62.62 E.83784
G1 X71.504 Y72.031 E1.29048
G1 E-.70952 F2400
G92 E0
G1 X71.504 Y72.031 F7800
G1 X72.247 Y74.043
G1 E2 F2400
G1 F3600
G1 X71 Y74.043 E2.05998
G1 X70.621 Y74.158 E2.07903
G1 X70.518 Y74.39 E2.09124
;WIDTH:0.423285
G1 X70.416 Y74.621 E2.10254
;WIDTH:0.396572
G1 X70.416 Y86.686 E2.60243
;WIDTH:0.402011
G1 X70.422 Y86.782 E2.60648
;WIDTH:0.45
G1 X70.727 Y87.212 E2.63184
G1 X70.831 Y87.248 E2.63713
G1 X71.139 Y87.265 E2.65197
G1 X71.139 Y88.044 E2.68944
G1 X70.111 Y88.044 E2.73888
G1 X70.097 Y87.147 E2.78203
;WIDTH:0.423286
G1 X70.084 Y86.686 E2.80267
;WIDTH:0.396572
G1 X70.084 Y74.621 E3.30256
;WIDTH:0.423285
G1 X70.097 Y74.262 E3.31864
;WIDTH:0.45
G1 X70.111 Y73.903 E3.33592
G1 X70.111 Y61.263 E3.94386
G1 X72.389 Y61.263 E4.05342
G1 X72.389 Y62.064 E4.09195
G1 X72.166 Y62.126 E4.10308
G1 X71.914 Y62.452 E4.1229
G1 X71.889 Y62.62 E4.13107
G1 X71.889 Y73.685 E4.66326
G1 X72.204 Y74 E4.68469
G1 E2.68469 F2400
G92 E0
G1 X72.204 Y74 F7800
G1 X79.229 Y73.722
G1 E2 F2400
G1 F900
G1 X79.032 Y73.657 E2.00998
G1 X78.496 Y73.657 E2.03576
G1 X78.496 Y71.649 E2.13234
G1 X79.504 Y71.649 E2.18082
G1 X79.504 Y72.153 E2.20506
G1 X79.504 Y73.814 E2.28495
G1 X79.286 Y73.741 E2.29601
G1 X79.286 Y73.741 F7800
G1 X79.13 Y74.075
G1 F900
G1 X79.032 Y74.043 E2.30097
G1 X77.811 Y74.043 E2.3597
G1 X78.111 Y73.685 E2.38216
G1 X78.111 Y71.263 E2.49865
G1 X79.889 Y71.263 E2.58417
G1 X79.889 Y72.153 E2.62698
G1 X79.903 Y74.262 E2.72842
;WIDTH:0.423286
G1 X79.916 Y74.621 E2.7445
;WIDTH:0.396572
G1 X79.916 Y78.07 E2.8874
G1 X79.584 Y78.07 E2.90116
G1 X79.584 Y74.621 E3.04406
;WIDTH:0.423286
G1 X79.482 Y74.39 E3.05536
;WIDTH:0.45
G1 X79.379 Y74.158 E3.06757
G1 X79.187 Y74.094 E3.0773
G1 X79.187 Y74.094 F7800
G1 X79.032 Y74.428
;TYPE:External perimeter
G1 F1800
G1 X78.468 Y74.428 E3.10443
;WIDTH:0.491116
G1 X78 Y74.408 E3.12936
;WIDTH:0.532232
G1 X77.532 Y74.387 E3.1567
G1 X72.468 Y74.387 E3.4522
G1 X72 Y74.408 E3.47954
;WIDTH:0.491116
G1 X71.532 Y74.428 E3.50447
;WIDTH:0.45
G1 X71 Y74.428 E3.53006
G1 X70.852 Y74.467 E3.53742
G1 X70.775 Y74.621 E3.5457
G1 X70.775 Y86.686 E4.12598
G1 X70.888 Y86.862 E4.13604
G1 X70.968 Y86.879 E4.13997
G1 X71.525 Y86.879 E4.16676
G1 X71.525 Y88.429 E4.24131
G1 X69.725 Y88.429 E4.32788
G1 X69.725 Y60.877 E5.65304
G1 X72.775 Y60.877 E5.79973
G1 X72.775 Y62.427 E5.87428
G1 X72.367 Y62.455 E5.89395
G1 X72.275 Y62.62 E5.90304
G1 X72.275 Y73.685 E6.43523
;WIDTH:0.491116
G1 X72.371 Y73.802 E6.44329
;WIDTH:0.532232
G1 X72.468 Y73.919 E6.45216
G1 X77.532 Y73.919 E6.74766
;WIDTH:0.535777
G1 X77.573 Y73.917 E6.75007
G1 X77.649 Y73.801 E6.75822
;WIDTH:0.492888
G1 X77.725 Y73.685 E6.76563
;WIDTH:0.45
G1 X77.725 Y70.878 E6.90064
G1 X80.275 Y70.878 E7.02329
G1 X80.275 Y72.153 E7.08461
G1 X80.275 Y78.429 E7.38646
G1 X79.225 Y78.429 E7.43696
G1 X79.225 Y74.621 E7.62011
G1 X79.148 Y74.467 E7.62839
G1 X79.089 Y74.447 E7.63139
G1 X78.689 Y74.431 F7800
G1 E5.63139 F2400
G92 E0
G1 X70.607 Y87.608 F7800
G1 E2 F2400
;TYPE:Perimeter
;WIDTH:0.549587
G1 F3600
G1 X70.576 Y87.661 E2.00372
G1 X70.516 Y87.661 E2.00735
G1 X70.485 Y87.608 E2.01107
G1 X70.516 Y87.556 E2.01473
G1 X70.576 Y87.556 E2.01836
G1 E.01836 F2400
G92 E0
G1 X70.576 Y87.556 F7800
G1 X79.204 Y71.949
G1 E2 F2400
;TYPE:Solid infill
;WIDTH:0.471749
G1 F1200
G1 X78.796 Y71.949 E2.02073
G1 X78.796 Y73.357 E2.09227
G1 X79.074 Y73.365 E2.1064
G1 X79.204 Y73.403 E2.11328
G1 X79.204 Y72.142 E2.17735
G1 E.17735 F2400
G92 E0
G1 X79.204 Y72.142 F7800
G1 X71.451 Y61.965
G1 E2 F2400
;WIDTH:0.505305
G1 F1200
G1 X70.813 Y61.965 E2.03509
G1 X70.797 Y62.567 E2.06821
;WIDTH:0.473968
G1 X70.796 Y62.627 E2.07128
;WIDTH:0.471749
G1 X70.796 Y73.403 E2.6188
G1 X71 Y73.357 E2.62943
G1 X71.204 Y73.357 E2.6398
G1 X71.204 Y62.627 E3.18498
;WIDTH:0.505305
G1 X71.243 Y62.254 E3.2056
G1 X71.338 Y62.122 E3.21454
;LAYER_CHANGE
;Z:1.55
;HEIGHT:0.3
G1 Z1.55 F7800
G1 E1.21454 F2400
G92 E0
G1 X71.338 Y62.122 Z1.55 F7800
G1 X71.504 Y72.095
G1 E2 F2400
G92 E0
;TYPE:Perimeter
;WIDTH:0.45
G1 F900
G1 X71.504 Y73.661 E.07532
G1 X71 Y73.661 E.09956
G1 X70.496 Y73.818 E.12495
G1 X70.496 Y61.652 E.71009
G1 X72.004 Y61.652 E.78262
G1 X72.004 Y61.79 E.78926
G1 X71.965 Y61.801 E.79121
G1 X71.545 Y62.344 E.82423
G1 X71.504 Y62.624 E.83784
G1 X71.504 Y72.035 E1.29048
G1 E-.70952 F2400
G92 E0
G1 X71.504 Y72.035 F7800
G1 X72.247 Y74.046
G1 E2 F2400
G1 F3600
G1 X71 Y74.046 E2.05998
G1 X70.621 Y74.162 E2.07904
G1 X70.518 Y74.393 E2.0912
;WIDTH:0.423286
G1 X70.416 Y74.625 E2.10254
;WIDTH:0.396572
