; generated by Slic3r 1.3.0 on 2020-08-01 at 14:21:47

; external perimeters extrusion width = 0.44mm (2.78mm^3/s)
; perimeters extrusion width = 0.40mm (7.14mm^3/s)
; infill extrusion width = 0.50mm (10.97mm^3/s)
; solid infill extrusion width = 0.60mm (6.68mm^3/s)
; top infill extrusion width = 0.40mm (2.14mm^3/s)

M107
M190 S80 ; set bed temperature and wait for it to be reached
M104 S200 ; set temperature
G28 ; home all axes
G1 Z5 F5000 ; lift nozzle

; Filament gcode

M109 S200 ; set temperature and wait for it to be reached
G21 ; set units to millimeters
G90 ; use absolute coordinates
M82 ; use absolute distances for extrusion
G92 E0
G1 Z0.300 F30000.000
G1 E-2.00000 F2400.00000
G92 E0
G1 X32.496 Y49.767 F30000.000
G1 E2.00000 F2400.00000
G1 F2100
G1 X34.146 Y48.807 E2.12755
G1 X35.588 Y48.575 E2.22512
G1 X70.488 Y48.575 E4.55663
G1 X72.356 Y48.971 E4.68418
G1 X73.903 Y50.090 E4.81174
G1 X74.864 Y51.740 E4.93929
G1 X75.095 Y53.182 E5.03686
G1 X75.095 Y71.082 E6.23267
G1 X74.908 Y72.382 E6.32041
G1 X64.908 Y106.382 E8.68800
G1 X64.001 Y108.062 E8.81555
G1 X62.491 Y109.231 E8.94311
G1 X60.488 Y109.689 E9.08037
G1 X45.588 Y109.689 E10.07577
G1 X43.720 Y109.293 E10.20332
G1 X42.173 Y108.174 E10.33088
G1 X41.169 Y106.382 E10.46814
G1 X31.169 Y72.382 E12.83573
G1 X30.981 Y71.082 E12.92347
G1 X30.981 Y53.182 E14.11929
G1 X31.377 Y51.314 E14.24684
G1 X32.461 Y49.816 E14.37038
G1 X33.021 Y50.023 F30000.000
G1 F2100
G1 X34.628 Y49.226 E14.49020
G1 X35.588 Y49.111 E14.55484
G1 X70.488 Y49.111 E16.88635
G1 X72.238 Y49.506 E17.00617
G1 X73.648 Y50.615 E17.12599
G1 X74.444 Y52.222 E17.24581
G1 X74.559 Y53.182 E17.31045
G1 X74.559 Y71.082 E18.50627
G1 X74.394 Y72.231 E18.58380
G1 X64.394 Y106.231 E20.95139
G1 X63.521 Y107.798 E21.07121
G1 X62.060 Y108.838 E21.19104
G1 X60.488 Y109.153 E21.29813
G1 X45.588 Y109.153 E22.29353
G1 X43.839 Y108.758 E22.41335
G1 X42.429 Y107.650 E22.53318
G1 X41.682 Y106.231 E22.64027
G1 X31.682 Y72.231 E25.00786
G1 X31.517 Y71.082 E25.08540
G1 X31.517 Y53.182 E26.28121
G1 X31.912 Y51.433 E26.40104
G1 X32.984 Y50.070 E26.51685
G1 X33.542 Y50.299 F30000.000
G1 F2100
G1 X35.588 Y49.647 E26.66033
G1 X70.488 Y49.647 E28.99183
G1 X72.111 Y50.041 E29.10339
G1 X73.372 Y51.136 E29.21495
G1 X74.024 Y53.182 E29.35842
G1 X74.024 Y71.082 E30.55424
G1 X73.880 Y72.080 E30.62158
G1 X63.880 Y106.080 E32.98917
G1 X63.044 Y107.525 E33.10072
G1 X61.638 Y108.426 E33.21228
G1 X60.488 Y108.618 E33.29014
G1 X45.588 Y108.618 E34.28554
G1 X43.966 Y108.224 E34.39709
G1 X42.705 Y107.128 E34.50865
G1 X42.196 Y106.080 E34.58651
G1 X32.196 Y72.080 E36.95410
G1 X32.053 Y71.082 E37.02143
G1 X32.053 Y53.182 E38.21725
G1 X32.447 Y51.560 E38.32880
G1 X33.503 Y50.344 E38.43635
G1 E36.43635 F2400.00000
G92 E0
G1 X40.172 Y66.183 F30000.000
G1 E2.00000 F2400.00000
G1 F2100
G1 X65.904 Y66.183 E3.92568
G1 X66.089 Y65.998 E3.94521
G1 X66.089 Y52.043 E4.98953
G1 X67.699 Y50.433 E5.15998
G1 X71.627 Y50.433 E5.45390
G1 X73.238 Y52.043 E5.62435
G1 X73.238 Y72.221 E7.13435
G1 X71.627 Y73.832 E7.30480
G1 X63.422 Y73.832 E7.91882
G1 X63.238 Y74.016 E7.93835
G1 X63.238 Y106.221 E10.34842
G1 X61.627 Y107.832 E10.51887
G1 X44.449 Y107.832 E11.80436
G1 X42.839 Y106.221 E11.97481
G1 X42.839 Y74.016 E14.38488
G1 X42.654 Y73.832 E14.40441
G1 X34.449 Y73.832 E15.01842
G1 X32.839 Y72.221 E15.18887
G1 X32.839 Y52.043 E16.69887
G1 X34.449 Y50.433 E16.86932
G1 X38.377 Y50.433 E17.16325
G1 X39.988 Y52.043 E17.33370
G1 X39.988 Y65.998 E18.37802
G1 X40.130 Y66.140 E18.39306
G1 X39.572 Y66.783 F30000.000
G1 F2100
G1 X66.504 Y66.783 E20.40854
G1 X66.689 Y66.598 E20.42807
G1 X66.689 Y52.292 E21.49869
G1 X67.948 Y51.033 E21.63194
G1 X71.378 Y51.033 E21.88868
G1 X72.638 Y52.292 E22.02193
G1 X72.638 Y71.973 E23.49473
G1 X71.378 Y73.232 E23.62798
G1 X62.822 Y73.232 E24.26830
G1 X62.638 Y73.416 E24.28783
G1 X62.638 Y105.973 E26.72420
G1 X61.378 Y107.232 E26.85745
G1 X44.698 Y107.232 E28.10575
G1 X43.439 Y105.973 E28.23900
G1 X43.439 Y73.416 E30.67537
G1 X43.254 Y73.232 E30.69490
G1 X34.698 Y73.232 E31.33522
G1 X33.439 Y71.973 E31.46847
G1 X33.439 Y52.292 E32.94128
G1 X34.698 Y51.033 E33.07453
G1 X38.128 Y51.033 E33.33126
G1 X39.388 Y52.292 E33.46451
G1 X39.388 Y66.598 E34.53514
G1 X39.530 Y66.740 E34.55017
G1 X38.972 Y67.383 F30000.000
G1 F2100
G1 X67.104 Y67.383 E36.65546
G1 X67.289 Y67.198 E36.67498
G1 X67.289 Y52.540 E37.77191
G1 X68.196 Y51.633 E37.86797
G1 X71.130 Y51.633 E38.08750
G1 X72.038 Y52.540 E38.18355
G1 X72.038 Y71.724 E39.61916
G1 X71.130 Y72.632 E39.71521
G1 X62.222 Y72.632 E40.38184
G1 X62.038 Y72.816 E40.40137
G1 X62.038 Y105.724 E42.86404
G1 X61.130 Y106.632 E42.96009
G1 X44.946 Y106.632 E44.17119
G1 X44.039 Y105.724 E44.26725
G1 X44.039 Y72.816 E46.72992
G1 X43.854 Y72.632 E46.74945
G1 X34.946 Y72.632 E47.41607
G1 X34.039 Y71.724 E47.51213
G1 X34.039 Y52.540 E48.94773
G1 X34.946 Y51.633 E49.04379
G1 X37.880 Y51.633 E49.26332
G1 X38.788 Y52.540 E49.35937
G1 X38.788 Y67.198 E50.45630
G1 X38.930 Y67.340 E50.47134
G1 X38.372 Y67.983 F30000.000
G1 F2100
G1 X67.704 Y67.983 E52.66642
G1 X67.889 Y67.798 E52.68595
G1 X67.889 Y52.789 E53.80918
G1 X68.445 Y52.233 E53.86804
G1 X70.881 Y52.233 E54.05037
G1 X71.438 Y52.789 E54.10923
G1 X71.438 Y71.475 E55.50764
G1 X70.881 Y72.032 E55.56650
G1 X61.622 Y72.032 E56.25942
G1 X61.438 Y72.216 E56.27895
G1 X61.438 Y105.475 E58.76793
G1 X60.881 Y106.032 E58.82678
G1 X45.195 Y106.032 E60.00069
G1 X44.639 Y105.475 E60.05954
G1 X44.639 Y72.216 E62.54852
G1 X44.454 Y72.032 E62.56805
G1 X35.195 Y72.032 E63.26097
G1 X34.639 Y71.475 E63.31983
G1 X34.639 Y52.789 E64.71824
G1 X35.195 Y52.233 E64.77710
G1 X37.631 Y52.233 E64.95943
G1 X38.188 Y52.789 E65.01829
G1 X38.188 Y67.798 E66.14152
G1 X38.330 Y67.940 E66.15656
G1 X37.772 Y68.583 F30000.000
G1 F2100
G1 X68.304 Y68.583 E68.44144
G1 X68.489 Y68.398 E68.46097
G1 X68.489 Y53.038 E69.61050
G1 X68.693 Y52.833 E69.63216
G1 X70.633 Y52.833 E69.77730
G1 X70.838 Y53.038 E69.79896
G1 X70.838 Y71.227 E71.16017
G1 X70.633 Y71.432 E71.18183
G1 X61.022 Y71.432 E71.90106
G1 X60.838 Y71.616 E71.92059
G1 X60.838 Y105.227 E74.43587
G1 X60.633 Y105.432 E74.45753
G1 X45.443 Y105.432 E75.59423
G1 X45.239 Y105.227 E75.61589
G1 X45.239 Y71.616 E78.13117
G1 X45.054 Y71.432 E78.15070
G1 X35.443 Y71.432 E78.86992
G1 X35.239 Y71.227 E78.89158
G1 X35.239 Y53.038 E80.25280
G1 X35.443 Y52.833 E80.27446
G1 X37.383 Y52.833 E80.41959
G1 X37.588 Y53.038 E80.44125
G1 X37.588 Y68.398 E81.59079
G1 X37.730 Y68.540 E81.60582
G1 E79.60582 F2400.00000
G92 E0
G1 X60.188 Y70.782 F30000.000
G1 E2.00000 F2400.00000
G1 F2100
G1 X60.188 Y104.782 E4.27138
G1 X45.888 Y104.782 E5.22670
G1 X45.888 Y70.782 E7.49809
G1 X35.888 Y70.782 E8.16614
G1 X35.888 Y53.482 E9.32187
G1 X36.938 Y53.482 E9.39202
G1 X36.938 Y69.232 E10.44420
G1 X69.138 Y69.232 E12.59534
G1 X69.138 Y53.482 E13.64752
G1 X70.188 Y53.482 E13.71767
G1 X70.188 Y70.782 E14.87340
G1 X60.248 Y70.782 E15.53745
G1 X59.812 Y70.919 F30000.000
G1 X59.653 Y70.247 F30000.000
G1 F2100
G1 X59.653 Y104.247 E17.80883
G1 X46.424 Y104.247 E18.69259
G1 X46.424 Y70.247 E20.96397
G1 X36.424 Y70.247 E21.63202
G1 X36.424 Y69.768 E21.66401
G1 X69.653 Y69.768 E23.88387
G1 X69.653 Y70.247 E23.91585
G1 X59.713 Y70.247 E24.57990
G1 E22.57990 F2400.00000
G92 E0
G1 X69.663 Y69.500 F30000.000
G1 E2.00000 F2400.00000
G1 F2100
G1 X69.663 Y53.750 E2.88399
G1 E0.88399 F2400.00000
G92 E0
G1 X69.413 Y70.007 F30000.000
G1 X59.488 Y70.007 F30000.000
G1 X53.038 Y76.382 F30000.000
G1 X46.738 Y70.082 F30000.000
G1 X47.016 Y70.247 F30000.000
G1 E2.00000 F2400.00000
G1 F2100
G1 X46.903 Y70.360 E2.01078
G1 X46.903 Y71.120 E2.06165
G1 X47.776 Y70.247 E2.14436
G1 X48.535 Y70.247 E2.19522
G1 X46.903 Y71.879 E2.34986
G1 X46.903 Y72.639 E2.40073
G1 X49.295 Y70.247 E2.62730
G1 X50.054 Y70.247 E2.67816
G1 X46.903 Y73.398 E2.97667
G1 X46.903 Y74.158 E3.02753
G1 X50.814 Y70.247 E3.39796
G1 X51.573 Y70.247 E3.44882
G1 X46.903 Y74.917 E3.89119
G1 X46.903 Y75.676 E3.94205
G1 X52.332 Y70.247 E4.45635
G1 X53.092 Y70.247 E4.50721
G1 X46.903 Y76.436 E5.09343
G1 X46.903 Y77.195 E5.14429
G1 X53.851 Y70.247 E5.80245
G1 X54.611 Y70.247 E5.85331
G1 X46.903 Y77.955 E6.58340
G1 X46.903 Y78.714 E6.63426
G1 X55.370 Y70.247 E7.43627
G1 X56.129 Y70.247 E7.48714
G1 X46.903 Y79.473 E8.36108
G1 X46.903 Y80.233 E8.41194
G1 X56.889 Y70.247 E9.35782
G1 X57.648 Y70.247 E9.40868
G1 X46.903 Y80.992 E10.42649
G1 X46.903 Y81.752 E10.47735
G1 X58.408 Y70.247 E11.56708
G1 X59.167 Y70.247 E11.61795
G1 X46.903 Y82.511 E12.77961
G1 X46.903 Y83.271 E12.83047
G1 X59.174 Y70.999 E13.99278
G1 X59.174 Y71.759 E14.04364
G1 X46.903 Y84.030 E15.20594
G1 X46.903 Y84.789 E15.25681
G1 X59.174 Y72.518 E16.41911
G1 X59.174 Y73.278 E16.46997
G1 X46.903 Y85.549 E17.63228
G1 X46.903 Y86.308 E17.68314
G1 X59.174 Y74.037 E18.84544
G1 X59.174 Y74.796 E18.89631
G1 X46.903 Y87.068 E20.05861
G1 X46.903 Y87.827 E20.10947
G1 X59.174 Y75.556 E21.27178
G1 X59.174 Y76.315 E21.32264
G1 X46.903 Y88.586 E22.48494
G1 X46.903 Y89.346 E22.53581
G1 X59.174 Y77.075 E23.69811
G1 X59.174 Y77.834 E23.74897
G1 X46.903 Y90.105 E24.91128
G1 X46.903 Y90.865 E24.96214
G1 X59.174 Y78.593 E26.12444
G1 X59.174 Y79.353 E26.17530
G1 X46.903 Y91.624 E27.33761
G1 X46.903 Y92.383 E27.38847
G1 X59.174 Y80.112 E28.55077
G1 X59.174 Y80.872 E28.60164
G1 X46.903 Y93.143 E29.76394
G1 X46.903 Y93.902 E29.81480
G1 X59.174 Y81.631 E30.97711
G1 X59.174 Y82.391 E31.02797
G1 X46.903 Y94.662 E32.19027
G1 X46.903 Y95.421 E32.24114
G1 X59.174 Y83.150 E33.40344
G1 X59.174 Y83.909 E33.45430
G1 X46.903 Y96.181 E34.61661
G1 X46.903 Y96.940 E34.66747
G1 X59.174 Y84.669 E35.82977
G1 X59.174 Y85.428 E35.88064
G1 X46.903 Y97.699 E37.04294
G1 X46.903 Y98.459 E37.09380
G1 X59.174 Y86.188 E38.25611
G1 X59.174 Y86.947 E38.30697
G1 X46.903 Y99.218 E39.46927
G1 X46.903 Y99.978 E39.52013
G1 X59.174 Y87.706 E40.68244
G1 X59.174 Y88.466 E40.73330
G1 X46.903 Y100.737 E41.89561
G1 X46.903 Y101.496 E41.94647
G1 X59.174 Y89.225 E43.10877
G1 X59.174 Y89.985 E43.15963
G1 X46.903 Y102.256 E44.32194
G1 X46.903 Y103.015 E44.37280
G1 X59.174 Y90.744 E45.53510
G1 X59.174 Y91.503 E45.58597
G1 X46.909 Y103.768 E46.74763
G1 X47.669 Y103.768 E46.79849
G1 X59.174 Y92.263 E47.88822
G1 X59.174 Y93.022 E47.93908
G1 X48.428 Y103.768 E48.95688
G1 X49.188 Y103.768 E49.00774
G1 X59.174 Y93.782 E49.95361
G1 X59.174 Y94.541 E50.00447
G1 X49.947 Y103.768 E50.87841
G1 X50.706 Y103.768 E50.92927
G1 X59.174 Y95.301 E51.73128
G1 X59.174 Y96.060 E51.78214
G1 X51.466 Y103.768 E52.51222
G1 X52.225 Y103.768 E52.56308
G1 X59.174 Y96.819 E53.22123
G1 X59.174 Y97.579 E53.27209
G1 X52.985 Y103.768 E53.85830
G1 X53.744 Y103.768 E53.90917
G1 X59.174 Y98.338 E54.42345
G1 X59.174 Y99.098 E54.47432
G1 X54.504 Y103.768 E54.91667
G1 X55.263 Y103.768 E54.96754
G1 X59.174 Y99.857 E55.33796
G1 X59.174 Y100.616 E55.38882
G1 X56.022 Y103.768 E55.68732
G1 X56.782 Y103.768 E55.73818
G1 X59.174 Y101.376 E55.96475
G1 X59.174 Y102.135 E56.01561
G1 X57.541 Y103.768 E56.17025
G1 X58.301 Y103.768 E56.22111
G1 X59.174 Y102.895 E56.30381
G1 X59.174 Y103.654 E56.35468
G1 X59.060 Y103.768 E56.36545
G1 E54.36545 F2400.00000
G92 E0
G1 X59.488 Y104.082 F30000.000
G1 X53.038 Y97.632 F30000.000
G1 X53.038 Y76.382 F30000.000
G1 X46.588 Y70.007 F30000.000
G1 X36.663 Y70.007 F30000.000
G1 X36.413 Y69.500 F30000.000
G1 E2.00000 F2400.00000
G1 F2100
G1 X36.413 Y53.750 E2.88399
G1 Z0.500 F30000.000
G1 X36.663 Y70.007 F30000.000
G1 X46.588 Y70.007 F30000.000
G1 X53.038 Y76.382 F30000.000
G1 X59.338 Y70.082 F30000.000
G1 X59.891 Y70.485 F30000.000
G1 F6000
G1 X59.891 Y104.485 E3.89350
G1 X46.185 Y104.485 E4.30044
G1 X46.185 Y70.485 E5.30995
G1 X36.185 Y70.485 E5.60686
G1 X36.185 Y53.779 E6.10288
G1 X36.641 Y53.779 E6.11641
G1 X36.641 Y69.529 E6.58405
G1 X69.435 Y69.529 E7.55775
G1 X69.435 Y53.779 E8.02539
G1 X69.891 Y53.779 E8.03892
G1 X69.891 Y70.485 E8.53494
G1 X59.951 Y70.485 E8.83007
G1 X60.268 Y70.862 F30000.000
G1 F2100
G1 X60.268 Y104.862 E9.95266
G1 X45.808 Y104.862 E10.43009
G1 X45.808 Y70.862 E11.55268
G1 X35.808 Y70.862 E11.88285
G1 X35.808 Y53.402 E12.45934
G1 X37.018 Y53.402 E12.49929
G1 X37.018 Y69.152 E13.01931
G1 X69.058 Y69.152 E14.07718
G1 X69.058 Y53.402 E14.59721
G1 X70.268 Y53.402 E14.63716
G1 X70.268 Y70.862 E15.21364
G1 X60.328 Y70.862 E15.54183
G1 X59.892 Y70.999 F30000.000
G1 X69.205 Y70.035 F30000.000
G1 F3600
G1 X69.108 Y69.938 E15.54826
G1 X68.312 Y69.938 E15.58557
G1 X68.450 Y70.077 E15.59476
G1 X67.654 Y70.077 E15.63206
G1 X67.515 Y69.938 E15.64125
G1 X66.718 Y69.938 E15.67855
G1 X66.857 Y70.077 E15.68774
G1 X66.061 Y70.077 E15.72505
G1 X65.922 Y69.938 E15.73423
G1 X65.125 Y69.938 E15.77154
G1 X65.264 Y70.077 E15.78073
G1 X64.467 Y70.077 E15.81803
G1 X64.329 Y69.938 E15.82722
G1 X63.532 Y69.938 E15.86453
G1 X63.671 Y70.077 E15.87371
G1 X62.874 Y70.077 E15.91102
G1 X62.736 Y69.938 E15.92020
G1 X61.939 Y69.938 E15.95751
G1 X62.078 Y70.077 E15.96670
G1 X61.281 Y70.077 E16.00400
G1 X61.143 Y69.938 E16.01319
G1 X60.346 Y69.938 E16.05050
G1 X60.485 Y70.077 E16.05968
G1 X59.688 Y70.077 E16.09699
G1 X59.549 Y69.938 E16.10617
G1 X58.753 Y69.938 E16.14348
G1 X59.483 Y70.668 E16.19181
G1 X59.483 Y71.464 E16.22912
G1 X57.956 Y69.938 E16.33021
G1 X57.160 Y69.938 E16.36752
G1 X59.483 Y72.261 E16.52137
G1 X59.483 Y73.057 E16.55868
G1 X56.363 Y69.938 E16.76529
G1 X55.567 Y69.938 E16.80259
G1 X59.483 Y73.854 E17.06196
G1 X59.483 Y74.650 E17.09927
G1 X54.770 Y69.938 E17.41140
G1 X53.973 Y69.938 E17.44871
G1 X59.483 Y75.447 E17.81360
G1 X59.483 Y76.244 E17.85090
G1 X53.177 Y69.938 E18.26855
G1 X52.380 Y69.938 E18.30586
G1 X59.483 Y77.040 E18.77627
G1 X59.483 Y77.837 E18.81358
G1 X51.584 Y69.938 E19.33675
G1 X50.787 Y69.938 E19.37405
G1 X59.483 Y78.633 E19.94998
G1 X59.483 Y79.430 E19.98729
G1 X49.991 Y69.938 E20.61598
G1 X49.194 Y69.938 E20.65328
G1 X59.483 Y80.226 E21.33473
G1 X59.483 Y81.023 E21.37204
G1 X48.398 Y69.938 E22.10625
G1 X47.601 Y69.938 E22.14355
G1 X59.483 Y81.819 E22.93052
G1 X59.483 Y82.616 E22.96783
G1 X46.804 Y69.938 E23.80755
G1 X46.008 Y69.938 E23.84486
G1 X46.147 Y70.077 E23.85405
G1 X45.350 Y70.077 E23.89135
G1 X45.211 Y69.938 E23.90054
G1 X44.415 Y69.938 E23.93785
G1 X44.553 Y70.077 E23.94703
G1 X43.757 Y70.077 E23.98434
G1 X43.618 Y69.938 E23.99352
G1 X42.822 Y69.938 E24.03083
G1 X42.960 Y70.077 E24.04002
G1 X42.164 Y70.077 E24.07732
G1 X42.025 Y69.938 E24.08651
G1 X41.228 Y69.938 E24.12382
G1 X41.367 Y70.077 E24.13300
G1 X40.571 Y70.077 E24.17031
G1 X40.432 Y69.938 E24.17950
G1 X39.635 Y69.938 E24.21680
G1 X39.774 Y70.077 E24.22599
G1 X38.977 Y70.077 E24.26330
G1 X38.839 Y69.938 E24.27248
G1 X38.042 Y69.938 E24.30979
G1 X38.181 Y70.077 E24.31897
G1 X37.384 Y70.077 E24.35628
G1 X37.246 Y69.938 E24.36547
G1 X36.663 Y70.007 F30000.000
G1 X46.738 Y70.082 F30000.000
G1 X53.038 Y76.382 F30000.000
G1 X59.483 Y83.413 F30000.000
G1 F3600
G1 X46.594 Y70.524 E25.21914
G1 X46.594 Y71.320 E25.25645
G1 X59.483 Y84.209 E26.11012
G1 X59.483 Y85.006 E26.14743
G1 X46.594 Y72.117 E27.00110
G1 X46.594 Y72.914 E27.03841
G1 X59.483 Y85.802 E27.89208
G1 X59.483 Y86.599 E27.92939
G1 X46.594 Y73.710 E28.78306
G1 X46.594 Y74.507 E28.82037
G1 X59.483 Y87.395 E29.67404
G1 X59.483 Y88.192 E29.71135
G1 X46.594 Y75.303 E30.56502
G1 X46.594 Y76.100 E30.60233
G1 X59.483 Y88.989 E31.45601
G1 X59.483 Y89.785 E31.49331
G1 X46.594 Y76.896 E32.34699
G1 X46.594 Y77.693 E32.38429
G1 X59.483 Y90.582 E33.23797
G1 X59.483 Y91.378 E33.27527
G1 X46.594 Y78.490 E34.12895
G1 X46.594 Y79.286 E34.16625
G1 X59.483 Y92.175 E35.01993
G1 X59.483 Y92.971 E35.05724
G1 X46.594 Y80.083 E35.91091
G1 X46.594 Y80.879 E35.94822
G1 X59.483 Y93.768 E36.80189
G1 X59.483 Y94.564 E36.83920
G1 X46.594 Y81.676 E37.69287
G1 X46.594 Y82.472 E37.73018
G1 X59.483 Y95.361 E38.58385
G1 X59.483 Y96.158 E38.62116
G1 X46.594 Y83.269 E39.47483
G1 X46.594 Y84.065 E39.51214
G1 X59.483 Y96.954 E40.36581
G1 X59.483 Y97.751 E40.40312
G1 X46.594 Y84.862 E41.25679
G1 X46.594 Y85.659 E41.29410
G1 X59.483 Y98.547 E42.14777
G1 X59.483 Y99.344 E42.18508
G1 X46.594 Y86.455 E43.03875
G1 X46.594 Y87.252 E43.07606
