; generated by Slic3r 1.3.0 on 2020-08-01 at 15:01:42

; external perimeters extrusion width = 0.44mm (2.78mm^3/s)
; perimeters extrusion width = 0.40mm (7.14mm^3/s)
; infill extrusion width = 0.50mm (10.97mm^3/s)
; solid infill extrusion width = 0.60mm (6.68mm^3/s)
; top infill extrusion width = 0.40mm (2.14mm^3/s)

M107
M190 S80 ; set bed temperature and wait for it to be reached
M104 S200 ; set temperature
G28 ; home all axes
G1 Z5 F5000 ; lift nozzle

; Filament gcode

M109 S200 ; set temperature and wait for it to be reached
G21 ; set units to millimeters
G90 ; use absolute coordinates
M82 ; use absolute distances for extrusion
G92 E0
G1 Z0.300 F30000.000
G1 E-2.00000 F2400.00000
G92 E0
G1 X29.887 Y47.703 F30000.000
G1 E2.00000 F2400.00000
G1 F2100
G1 X31.537 Y46.742 E2.12755
G1 X32.979 Y46.511 E2.22512
G1 X62.879 Y46.511 E4.22260
G1 X64.747 Y46.907 E4.35016
G1 X66.294 Y48.026 E4.47771
G1 X67.254 Y49.676 E4.60526
G1 X67.486 Y51.118 E4.70283
G1 X67.486 Y69.018 E5.89865
G1 X67.378 Y70.010 E5.96533
G1 X59.878 Y104.010 E8.29132
G1 X59.089 Y105.749 E8.41888
G1 X57.663 Y107.019 E8.54643
G1 X55.379 Y107.625 E8.70429
G1 X40.479 Y107.625 E9.69969
G1 X38.611 Y107.229 E9.82725
G1 X37.064 Y106.110 E9.95480
G1 X35.980 Y104.010 E10.11266
G1 X28.480 Y70.010 E12.43865
G1 X28.372 Y69.018 E12.50534
G1 X28.372 Y51.118 E13.70116
G1 X28.768 Y49.250 E13.82871
G1 X29.852 Y47.752 E13.95225
G1 X30.411 Y47.958 F30000.000
G1 F2100
G1 X32.018 Y47.162 E14.07207
G1 X32.979 Y47.047 E14.13671
G1 X62.879 Y47.047 E16.13419
G1 X64.629 Y47.442 E16.25401
G1 X66.039 Y48.550 E16.37383
G1 X66.835 Y50.157 E16.49366
G1 X66.950 Y51.118 E16.55829
G1 X66.950 Y69.018 E17.75411
G1 X66.855 Y69.895 E17.81304
G1 X59.355 Y103.895 E20.13903
G1 X58.592 Y105.518 E20.25885
G1 X57.206 Y106.656 E20.37868
G1 X55.379 Y107.089 E20.50409
G1 X40.479 Y107.089 E21.49949
G1 X38.729 Y106.694 E21.61931
G1 X37.320 Y105.585 E21.73913
G1 X36.503 Y103.895 E21.86455
G1 X29.003 Y69.895 E24.19053
G1 X28.908 Y69.018 E24.24947
G1 X28.908 Y51.118 E25.44529
G1 X29.303 Y49.368 E25.56511
G1 X30.374 Y48.005 E25.68092
G1 X30.933 Y48.234 F30000.000
G1 F2100
G1 X32.979 Y47.582 E25.82440
G1 X62.879 Y47.582 E27.82188
G1 X64.502 Y47.977 E27.93344
G1 X65.762 Y49.072 E28.04499
G1 X66.415 Y51.118 E28.18847
G1 X66.415 Y69.018 E29.38428
G1 X66.332 Y69.779 E29.43547
G1 X58.832 Y103.779 E31.76146
G1 X58.097 Y105.279 E31.87301
G1 X56.756 Y106.274 E31.98457
G1 X55.379 Y106.553 E32.07844
G1 X40.479 Y106.553 E33.07384
G1 X38.856 Y106.159 E33.18539
G1 X37.596 Y105.064 E33.29695
G1 X37.026 Y103.779 E33.39082
G1 X29.526 Y69.779 E35.71681
G1 X29.443 Y69.018 E35.76799
G1 X29.443 Y51.118 E36.96381
G1 X29.838 Y49.495 E37.07536
G1 X30.893 Y48.280 E37.18291
G1 E35.18291 F2400.00000
G92 E0
G1 X38.213 Y64.118 F30000.000
G1 E2.00000 F2400.00000
G1 F2100
G1 X57.645 Y64.118 E3.45421
G1 X57.830 Y63.934 E3.47374
G1 X57.830 Y49.979 E4.51806
G1 X59.440 Y48.368 E4.68851
G1 X64.018 Y48.368 E5.03108
G1 X65.628 Y49.979 E5.20153
G1 X65.628 Y70.157 E6.71154
G1 X64.018 Y71.767 E6.88198
G1 X58.313 Y71.767 E7.30891
G1 X58.128 Y71.952 E7.32844
G1 X58.128 Y104.157 E9.73851
G1 X56.518 Y105.767 E9.90896
G1 X39.340 Y105.767 E11.19445
G1 X37.730 Y104.157 E11.36490
G1 X37.730 Y71.952 E13.77497
G1 X37.545 Y71.767 E13.79450
G1 X31.840 Y71.767 E14.22143
G1 X30.230 Y70.157 E14.39188
G1 X30.230 Y49.979 E15.90188
G1 X31.840 Y48.368 E16.07233
G1 X36.418 Y48.368 E16.41490
G1 X38.028 Y49.979 E16.58535
G1 X38.028 Y63.934 E17.62967
G1 X38.171 Y64.076 E17.64471
G1 X37.613 Y64.718 F30000.000
G1 F2100
G1 X58.245 Y64.718 E19.18872
G1 X58.430 Y64.534 E19.20825
G1 X58.430 Y50.228 E20.27888
G1 X59.689 Y48.968 E20.41213
G1 X63.769 Y48.968 E20.71750
G1 X65.028 Y50.228 E20.85075
G1 X65.028 Y69.908 E22.32356
G1 X63.769 Y71.167 E22.45681
G1 X57.713 Y71.167 E22.91004
G1 X57.528 Y71.352 E22.92957
G1 X57.528 Y103.908 E25.36594
G1 X56.269 Y105.167 E25.49919
G1 X39.589 Y105.167 E26.74749
G1 X38.330 Y103.908 E26.88074
G1 X38.330 Y71.352 E29.31711
G1 X38.145 Y71.167 E29.33664
G1 X32.089 Y71.167 E29.78987
G1 X30.830 Y69.908 E29.92312
G1 X30.830 Y50.228 E31.39593
G1 X32.089 Y48.968 E31.52918
G1 X36.169 Y48.968 E31.83455
G1 X37.428 Y50.228 E31.96781
G1 X37.428 Y64.534 E33.03843
G1 X37.571 Y64.676 E33.05347
G1 X37.013 Y65.318 F30000.000
G1 F2100
G1 X58.845 Y65.318 E34.68729
G1 X59.030 Y65.134 E34.70682
G1 X59.030 Y50.476 E35.80374
G1 X59.937 Y49.568 E35.89980
G1 X63.521 Y49.568 E36.16797
G1 X64.428 Y50.476 E36.26403
G1 X64.428 Y69.660 E37.69963
G1 X63.521 Y70.567 E37.79569
G1 X57.113 Y70.567 E38.27522
G1 X56.928 Y70.752 E38.29475
G1 X56.928 Y103.660 E40.75742
G1 X56.021 Y104.567 E40.85348
G1 X39.837 Y104.567 E42.06458
G1 X38.930 Y103.660 E42.16063
G1 X38.930 Y70.752 E44.62330
G1 X38.745 Y70.567 E44.64283
G1 X32.337 Y70.567 E45.12237
G1 X31.430 Y69.660 E45.21842
G1 X31.430 Y50.476 E46.65403
G1 X32.337 Y49.568 E46.75008
G1 X35.921 Y49.568 E47.01826
G1 X36.828 Y50.476 E47.11432
G1 X36.828 Y65.134 E48.21124
G1 X36.971 Y65.276 E48.22628
G1 X36.413 Y65.918 F30000.000
G1 F2100
G1 X59.445 Y65.918 E49.94990
G1 X59.630 Y65.734 E49.96943
G1 X59.630 Y50.725 E51.09266
G1 X60.186 Y50.168 E51.15152
G1 X63.272 Y50.168 E51.38250
G1 X63.828 Y50.725 E51.44135
G1 X63.828 Y69.411 E52.83976
G1 X63.272 Y69.967 E52.89862
G1 X56.513 Y69.967 E53.40446
G1 X56.328 Y70.152 E53.42399
G1 X56.328 Y103.411 E55.91296
G1 X55.772 Y103.967 E55.97182
G1 X40.086 Y103.967 E57.14572
G1 X39.530 Y103.411 E57.20458
G1 X39.530 Y70.152 E59.69355
G1 X39.345 Y69.967 E59.71308
G1 X32.586 Y69.967 E60.21892
G1 X32.030 Y69.411 E60.27777
G1 X32.030 Y50.725 E61.67618
G1 X32.586 Y50.168 E61.73504
G1 X35.672 Y50.168 E61.96602
G1 X36.228 Y50.725 E62.02488
G1 X36.228 Y65.734 E63.14811
G1 X36.371 Y65.876 E63.16314
G1 X35.813 Y66.518 F30000.000
G1 F2100
G1 X60.045 Y66.518 E64.97657
G1 X60.230 Y66.334 E64.99610
G1 X60.230 Y50.973 E66.14563
G1 X60.434 Y50.768 E66.16729
G1 X63.024 Y50.768 E66.36107
G1 X63.228 Y50.973 E66.38273
G1 X63.228 Y69.163 E67.74394
G1 X63.024 Y69.367 E67.76560
G1 X55.913 Y69.367 E68.29774
G1 X55.728 Y69.552 E68.31727
G1 X55.728 Y103.163 E70.83255
G1 X55.524 Y103.367 E70.85421
G1 X40.334 Y103.367 E71.99091
G1 X40.130 Y103.163 E72.01257
G1 X40.130 Y69.552 E74.52785
G1 X39.945 Y69.367 E74.54738
G1 X32.834 Y69.367 E75.07952
G1 X32.630 Y69.163 E75.10118
G1 X32.630 Y50.973 E76.46239
G1 X32.834 Y50.768 E76.48405
G1 X35.424 Y50.768 E76.67783
G1 X35.628 Y50.973 E76.69949
G1 X35.628 Y66.334 E77.84902
G1 X35.771 Y66.476 E77.86406
G1 E75.86406 F2400.00000
G92 E0
G1 X55.079 Y68.718 F30000.000
G1 E2.00000 F2400.00000
G1 F2100
G1 X55.079 Y102.718 E4.27138
G1 X40.779 Y102.718 E5.22670
G1 X40.779 Y68.718 E7.49809
G1 X33.279 Y68.718 E7.99913
G1 X33.279 Y51.418 E9.15486
G1 X34.979 Y51.418 E9.26843
G1 X34.979 Y67.168 E10.32061
G1 X60.879 Y67.168 E12.05087
G1 X60.879 Y51.418 E13.10306
G1 X62.579 Y51.418 E13.21663
G1 X62.579 Y68.718 E14.37236
G1 X55.139 Y68.718 E14.86939
G1 X54.709 Y68.869 F30000.000
G1 X54.543 Y68.182 F30000.000
G1 F2100
G1 X54.543 Y102.182 E17.14078
G1 X41.315 Y102.182 E18.02453
G1 X41.315 Y68.182 E20.29591
G1 X33.815 Y68.182 E20.79696
G1 X33.815 Y51.953 E21.88112
G1 X34.443 Y51.953 E21.92313
G1 X34.443 Y67.703 E22.97531
G1 X61.415 Y67.703 E24.77714
G1 X61.415 Y51.953 E25.82932
G1 X62.043 Y51.953 E25.87133
G1 X62.043 Y68.182 E26.95550
G1 X54.603 Y68.182 E27.45253
G1 E25.45253 F2400.00000
G92 E0
G1 X61.729 Y67.914 F30000.000
G1 E2.00000 F2400.00000
G1 F2100
G1 X61.729 Y52.221 E2.05630
G1 E0.05630 F2400.00000
G92 E0
G1 X61.729 Y67.868 F30000.000
G1 X54.379 Y67.943 F30000.000
G1 X47.929 Y74.318 F30000.000
G1 X41.629 Y68.018 F30000.000
G1 X41.907 Y68.182 F30000.000
G1 E2.00000 F2400.00000
G1 F2100
G1 X41.793 Y68.296 E2.01078
G1 X41.793 Y69.055 E2.06165
G1 X42.667 Y68.182 E2.14436
G1 X43.426 Y68.182 E2.19522
G1 X41.793 Y69.815 E2.34986
G1 X41.793 Y70.574 E2.40073
G1 X44.186 Y68.182 E2.62730
G1 X44.945 Y68.182 E2.67816
G1 X41.793 Y71.334 E2.97667
G1 X41.793 Y72.093 E3.02753
G1 X45.704 Y68.182 E3.39796
G1 X46.464 Y68.182 E3.44882
G1 X41.793 Y72.853 E3.89119
G1 X41.793 Y73.612 E3.94205
G1 X47.223 Y68.182 E4.45635
G1 X47.983 Y68.182 E4.50721
G1 X41.793 Y74.371 E5.09343
G1 X41.793 Y75.131 E5.14429
G1 X48.742 Y68.182 E5.80245
G1 X49.501 Y68.182 E5.85331
G1 X41.793 Y75.890 E6.58340
G1 X41.793 Y76.650 E6.63426
G1 X50.261 Y68.182 E7.43627
G1 X51.020 Y68.182 E7.48714
G1 X41.793 Y77.409 E8.36108
G1 X41.793 Y78.168 E8.41194
G1 X51.780 Y68.182 E9.35782
G1 X52.539 Y68.182 E9.40868
G1 X41.793 Y78.928 E10.42649
G1 X41.793 Y79.687 E10.47735
G1 X53.298 Y68.182 E11.56708
G1 X54.058 Y68.182 E11.61795
G1 X41.793 Y80.447 E12.77961
G1 X41.793 Y81.206 E12.83048
G1 X54.065 Y68.935 E13.99278
G1 X54.065 Y69.694 E14.04364
G1 X41.793 Y81.965 E15.20595
G1 X41.793 Y82.725 E15.25681
G1 X54.065 Y70.454 E16.41911
G1 X54.065 Y71.213 E16.46997
G1 X41.793 Y83.484 E17.63228
G1 X41.793 Y84.244 E17.68314
G1 X54.065 Y71.973 E18.84544
G1 X54.065 Y72.732 E18.89631
G1 X41.793 Y85.003 E20.05861
G1 X41.793 Y85.763 E20.10947
G1 X54.065 Y73.491 E21.27178
G1 X54.065 Y74.251 E21.32264
G1 X41.793 Y86.522 E22.48494
G1 X41.793 Y87.281 E22.53581
G1 X54.065 Y75.010 E23.69811
G1 X54.065 Y75.770 E23.74897
G1 X41.793 Y88.041 E24.91128
G1 X41.793 Y88.800 E24.96214
G1 X54.065 Y76.529 E26.12444
G1 X54.065 Y77.288 E26.17530
G1 X41.793 Y89.560 E27.33761
G1 X41.793 Y90.319 E27.38847
G1 X54.065 Y78.048 E28.55078
G1 X54.065 Y78.807 E28.60164
G1 X41.793 Y91.078 E29.76394
G1 X41.793 Y91.838 E29.81480
G1 X54.065 Y79.567 E30.97711
G1 X54.065 Y80.326 E31.02797
G1 X41.793 Y92.597 E32.19027
G1 X41.793 Y93.357 E32.24114
G1 X54.065 Y81.085 E33.40344
G1 X54.065 Y81.845 E33.45430
G1 X41.793 Y94.116 E34.61661
G1 X41.793 Y94.875 E34.66747
G1 X54.065 Y82.604 E35.82977
G1 X54.065 Y83.364 E35.88064
G1 X41.793 Y95.635 E37.04294
G1 X41.793 Y96.394 E37.09380
G1 X54.065 Y84.123 E38.25611
G1 X54.065 Y84.883 E38.30697
G1 X41.793 Y97.154 E39.46927
G1 X41.793 Y97.913 E39.52014
G1 X54.065 Y85.642 E40.68244
G1 X54.065 Y86.401 E40.73330
G1 X41.793 Y98.673 E41.89561
G1 X41.793 Y99.432 E41.94647
G1 X54.065 Y87.161 E43.10877
G1 X54.065 Y87.920 E43.15963
G1 X41.793 Y100.191 E44.32194
G1 X41.793 Y100.951 E44.37280
G1 X54.065 Y88.680 E45.53511
G1 X54.065 Y89.439 E45.58597
G1 X41.800 Y101.703 E46.74763
G1 X42.560 Y101.703 E46.79849
G1 X54.065 Y90.198 E47.88822
G1 X54.065 Y90.958 E47.93908
G1 X43.319 Y101.703 E48.95688
G1 X44.078 Y101.703 E49.00774
G1 X54.065 Y91.717 E49.95361
G1 X54.065 Y92.477 E50.00447
G1 X44.838 Y101.703 E50.87841
G1 X45.597 Y101.703 E50.92927
G1 X54.065 Y93.236 E51.73128
G1 X54.065 Y93.996 E51.78214
G1 X46.357 Y101.703 E52.51222
G1 X47.116 Y101.703 E52.56308
G1 X54.065 Y94.755 E53.22123
G1 X54.065 Y95.514 E53.27209
G1 X47.876 Y101.703 E53.85831
G1 X48.635 Y101.703 E53.90917
G1 X54.065 Y96.274 E54.42345
G1 X54.065 Y97.033 E54.47432
G1 X49.394 Y101.703 E54.91667
G1 X50.154 Y101.703 E54.96754
G1 X54.065 Y97.793 E55.33796
G1 X54.065 Y98.552 E55.38882
G1 X50.913 Y101.703 E55.68732
G1 X51.673 Y101.703 E55.73818
G1 X54.065 Y99.311 E55.96475
G1 X54.065 Y100.071 E56.01561
G1 X52.432 Y101.703 E56.17025
G1 X53.191 Y101.703 E56.22111
G1 X54.065 Y100.830 E56.30381
G1 X54.065 Y101.590 E56.35468
G1 X53.951 Y101.703 E56.36545
G1 E54.36545 F2400.00000
G92 E0
G1 X54.379 Y102.018 F30000.000
G1 X47.929 Y95.568 F30000.000
G1 X47.929 Y74.318 F30000.000
G1 X41.479 Y67.943 F30000.000
G1 X34.129 Y67.914 F30000.000
G1 E2.00000 F2400.00000
G1 F2100
G1 X34.129 Y52.221 E2.05630
G1 Z0.500 F30000.000
G1 X34.129 Y67.868 F30000.000
G1 X41.479 Y67.943 F30000.000
G1 X47.929 Y74.318 F30000.000
G1 X54.229 Y68.018 F30000.000
G1 X54.782 Y68.421 F30000.000
G1 F6000
G1 X54.782 Y102.421 E3.06580
G1 X41.076 Y102.421 E3.47274
G1 X41.076 Y68.421 E4.48225
G1 X33.576 Y68.421 E4.70493
G1 X33.576 Y51.715 E5.20095
G1 X34.682 Y51.715 E5.23378
G1 X34.682 Y67.465 E5.70142
G1 X61.176 Y67.465 E6.48807
G1 X61.176 Y51.715 E6.95571
G1 X62.282 Y51.715 E6.98854
G1 X62.282 Y68.421 E7.48456
G1 X54.842 Y68.421 E7.70546
G1 X55.159 Y68.798 F30000.000
G1 F2100
G1 X55.159 Y102.798 E8.82805
G1 X40.699 Y102.798 E9.30548
G1 X40.699 Y68.798 E10.42807
G1 X33.199 Y68.798 E10.67570
G1 X33.199 Y51.338 E11.25218
G1 X35.059 Y51.338 E11.31359
G1 X35.059 Y67.088 E11.83362
G1 X60.799 Y67.088 E12.68348
G1 X60.799 Y51.338 E13.20350
G1 X62.659 Y51.338 E13.26492
G1 X62.659 Y68.798 E13.84140
G1 X55.219 Y68.798 E14.08705
G1 X54.789 Y68.949 F30000.000
G1 X41.031 Y68.012 F30000.000
G1 F3600
G1 X40.892 Y67.873 E14.09623
G1 X40.096 Y67.873 E14.13352
G1 X40.234 Y68.012 E14.14271
G1 X39.438 Y68.012 E14.18000
G1 X39.299 Y67.873 E14.18918
G1 X38.503 Y67.873 E14.22647
G1 X38.641 Y68.012 E14.23566
G1 X37.845 Y68.012 E14.27295
G1 X37.706 Y67.873 E14.28213
G1 X36.910 Y67.873 E14.31943
G1 X37.049 Y68.012 E14.32861
G1 X36.252 Y68.012 E14.36590
G1 X36.114 Y67.873 E14.37509
G1 X35.317 Y67.873 E14.41238
G1 X35.456 Y68.012 E14.42156
G1 X34.659 Y68.012 E14.45885
G1 X34.082 Y67.434 F30000.000
G1 F3600
G1 X34.082 Y68.012 E14.48591
G1 X34.659 Y68.012 E14.51296
G1 X34.618 Y67.970 E14.51572
G1 X34.273 Y67.970 E14.53185
G1 X34.273 Y67.626 E14.54797
G1 X33.985 Y67.337 E14.56709
G1 X33.985 Y66.541 E14.60438
G1 X34.273 Y66.830 E14.62350
G1 X34.273 Y66.033 E14.66079
G1 X33.985 Y65.745 E14.67991
G1 X33.985 Y64.948 E14.71720
G1 X34.273 Y65.237 E14.73631
G1 X34.273 Y64.441 E14.77361
G1 X33.985 Y64.152 E14.79272
G1 X33.985 Y63.355 E14.83001
G1 X34.273 Y63.644 E14.84913
G1 X34.273 Y62.848 E14.88642
G1 X33.985 Y62.559 E14.90554
G1 X33.985 Y61.763 E14.94283
G1 X34.273 Y62.051 E14.96195
G1 X34.273 Y61.255 E14.99924
G1 X33.985 Y60.966 E15.01836
G1 X33.985 Y60.170 E15.05565
G1 X34.273 Y60.459 E15.07477
G1 X34.273 Y59.662 E15.11206
G1 X33.985 Y59.373 E15.13118
G1 X33.985 Y58.577 E15.16847
G1 X34.273 Y58.866 E15.18758
G1 X34.273 Y58.069 E15.22488
G1 X33.985 Y57.781 E15.24399
G1 X33.985 Y56.984 E15.28128
G1 X34.273 Y57.273 E15.30040
G1 X34.273 Y56.477 E15.33769
G1 X33.985 Y56.188 E15.35681
G1 X33.985 Y55.391 E15.39410
G1 X34.273 Y55.680 E15.41322
G1 X34.273 Y54.884 E15.45051
G1 X33.985 Y54.595 E15.46963
G1 X33.985 Y53.799 E15.50692
G1 X34.273 Y54.087 E15.52604
G1 X34.273 Y53.291 E15.56333
G1 X33.985 Y53.002 E15.58245
G1 X33.985 Y52.206 E15.61974
G1 X34.273 Y52.495 E15.63885
G1 X34.129 Y52.268 F30000.000
G1 X34.129 Y67.868 F30000.000
G1 X41.479 Y67.943 F30000.000
G1 X47.929 Y74.318 F30000.000
G1 X54.379 Y67.943 F30000.000
G1 X61.729 Y67.868 F30000.000
G1 X61.729 Y52.268 F30000.000
G1 X61.879 Y52.118 F30000.000
G1 X61.873 Y52.221 F30000.000
G1 F3600
G1 X61.776 Y52.123 E15.64528
G1 X61.585 Y52.123 E15.65426
G1 X61.585 Y52.728 E15.68258
G1 X61.873 Y53.017 E15.70169
G1 X61.873 Y53.813 E15.73898
G1 X61.585 Y53.525 E15.75810
G1 X61.585 Y54.321 E15.79539
G1 X61.873 Y54.610 E15.81451
G1 X61.873 Y55.406 E15.85180
G1 X61.585 Y55.117 E15.87092
G1 X61.585 Y55.914 E15.90821
G1 X61.873 Y56.203 E15.92733
G1 X61.873 Y56.999 E15.96462
G1 X61.585 Y56.710 E15.98374
G1 X61.585 Y57.507 E16.02103
G1 X61.873 Y57.795 E16.04015
G1 X61.873 Y58.592 E16.07744
G1 X61.585 Y58.303 E16.09655
G1 X61.585 Y59.099 E16.13385
G1 X61.873 Y59.388 E16.15296
G1 X61.873 Y60.185 E16.19025
G1 X61.585 Y59.896 E16.20937
G1 X61.585 Y60.692 E16.24666
G1 X61.873 Y60.981 E16.26578
G1 X61.873 Y61.777 E16.30307
G1 X61.585 Y61.489 E16.32219
G1 X61.585 Y62.285 E16.35948
G1 X61.873 Y62.574 E16.37860
G1 X61.873 Y63.370 E16.41589
G1 X61.585 Y63.081 E16.43501
G1 X61.585 Y63.878 E16.47230
G1 X61.873 Y64.167 E16.49142
G1 X61.873 Y64.963 E16.52871
G1 X61.585 Y64.674 E16.54782
G1 X61.585 Y65.471 E16.58512
G1 X61.873 Y65.759 E16.60423
G1 X61.873 Y66.556 E16.64152
G1 X61.585 Y66.267 E16.66064
G1 X61.585 Y67.063 E16.69793
G1 X61.873 Y67.352 E16.71705
G1 X61.873 Y68.012 E16.74796
G1 X61.737 Y68.012 E16.75434
G1 X61.585 Y67.860 E16.76443
G1 X61.585 Y67.873 E16.76506
G1 X60.802 Y67.873 E16.80172
G1 X60.941 Y68.012 E16.81090
G1 X60.144 Y68.012 E16.84819
G1 X60.005 Y67.873 E16.85738
G1 X59.209 Y67.873 E16.89467
G1 X59.348 Y68.012 E16.90385
G1 X58.551 Y68.012 E16.94115
G1 X58.413 Y67.873 E16.95033
G1 X57.616 Y67.873 E16.98762
G1 X57.755 Y68.012 E16.99681
