; generated by Slic3r 1.3.0 on 2020-11-01 at 12:34:50

; external perimeters extrusion width = 0.44mm (2.78mm^3/s)
; perimeters extrusion width = 0.40mm (7.14mm^3/s)
; infill extrusion width = 0.50mm (10.97mm^3/s)
; solid infill extrusion width = 0.60mm (6.68mm^3/s)
; top infill extrusion width = 0.40mm (2.14mm^3/s)

M107
M190 S80 ; set bed temperature and wait for it to be reached
M104 S220 ; set temperature
G28 ; home all axes
G1 Z5 F5000 ; lift nozzle

; Filament gcode

M109 S220 ; set temperature and wait for it to be reached
G21 ; set units to millimeters
G90 ; use absolute coordinates
M82 ; use absolute distances for extrusion
G92 E0
G1 Z0.300 F30000.000
G1 E-2.00000 F2400.00000
G92 E0
G1 X42.886 Y47.746 F30000.000
G1 E2.00000 F2400.00000
G1 F2100
G1 X43.772 Y47.351 E2.06477
G1 X76.964 Y36.566 E4.39628
G1 X78.862 Y36.365 E4.52383
G1 X79.809 Y36.566 E4.58850
G1 X81.518 Y37.536 E4.71977
G1 X82.168 Y38.257 E4.78463
G1 X102.682 Y66.492 E7.11615
G1 X103.460 Y68.236 E7.24370
G1 X103.562 Y69.257 E7.31225
G1 X103.166 Y71.125 E7.43980
G1 X102.682 Y71.964 E7.50457
G1 X82.168 Y100.199 E9.83609
G1 X80.750 Y101.478 E9.96364
G1 X79.810 Y101.891 E10.03223
G1 X77.911 Y102.091 E10.15978
G1 X76.964 Y101.890 E10.22450
G1 X43.772 Y91.106 E12.55601
G1 X42.118 Y90.152 E12.68356
G1 X41.435 Y89.386 E12.75211
G1 X40.657 Y87.642 E12.87966
G1 X40.555 Y86.678 E12.94443
G1 X40.555 Y51.778 E15.27594
G1 X40.951 Y49.910 E15.40350
G1 X41.468 Y49.024 E15.47204
G1 X42.842 Y47.786 E15.59559
G1 X43.937 Y47.860 F30000.000
G1 F2100
G1 X77.129 Y37.076 E17.92709
G1 X79.644 Y37.075 E18.09510
G1 X79.698 Y37.093 E18.09890
G1 X81.735 Y38.572 E18.26707
G1 X102.249 Y66.807 E20.59859
G1 X103.026 Y69.200 E20.76668
G1 X103.026 Y69.257 E20.77048
G1 X102.249 Y71.650 E20.93857
G1 X81.735 Y99.884 E23.27009
G1 X79.699 Y101.364 E23.43822
G1 X79.645 Y101.381 E23.44201
G1 X77.129 Y101.381 E23.61007
G1 X43.937 Y90.596 E25.94158
G1 X41.902 Y89.117 E26.10966
G1 X41.868 Y89.071 E26.11346
G1 X41.091 Y86.678 E26.28156
G1 X41.091 Y51.778 E28.61307
G1 X41.868 Y49.385 E28.78116
G1 X41.902 Y49.339 E28.78496
G1 X43.889 Y47.896 E28.94904
G1 X44.103 Y48.370 F30000.000
G1 F2100
G1 X77.295 Y37.585 E31.28055
G1 X79.479 Y37.585 E31.42645
G1 X79.533 Y37.602 E31.43025
G1 X81.302 Y38.887 E31.57630
G1 X101.815 Y67.122 E33.90782
G1 X102.491 Y69.200 E34.05380
G1 X102.491 Y69.257 E34.05759
G1 X101.815 Y71.335 E34.20357
G1 X81.302 Y99.570 E36.53509
G1 X79.533 Y100.854 E36.68110
G1 X79.479 Y100.872 E36.68489
G1 X77.295 Y100.871 E36.83084
G1 X44.103 Y90.087 E39.16235
G1 X42.335 Y88.802 E39.30832
G1 X42.302 Y88.756 E39.31212
G1 X41.626 Y86.678 E39.45810
G1 X41.626 Y51.778 E41.78961
G1 X42.302 Y49.700 E41.93559
G1 X42.335 Y49.654 E41.93939
G1 X44.054 Y48.405 E42.08136
G1 X44.103 Y49.029 F30000.000
G1 F2100
G1 X44.642 Y49.021 E42.12173
G1 X77.241 Y38.429 E44.68684
G1 X77.747 Y38.071 E44.73317
G1 X78.109 Y38.129 E44.76062
G1 X78.183 Y38.123 E44.76620
G1 X78.621 Y37.981 E44.80065
G1 X79.251 Y38.302 E44.85356
G1 X79.996 Y38.428 E44.91012
G1 X80.267 Y38.800 E44.94458
G1 X80.324 Y38.849 E44.95016
G1 X80.651 Y39.016 E44.97767
G1 X80.849 Y39.602 E45.02399
G1 X100.996 Y67.332 E47.58901
G1 X101.492 Y67.702 E47.63534
G1 X101.550 Y68.064 E47.66280
G1 X101.578 Y68.133 E47.66838
G1 X101.849 Y68.505 E47.70280
G1 X101.738 Y69.203 E47.75571
G1 X101.849 Y69.951 E47.81229
G1 X101.578 Y70.324 E47.84672
G1 X101.550 Y70.392 E47.85230
G1 X101.492 Y70.755 E47.87975
G1 X100.996 Y71.125 E47.92609
G1 X80.849 Y98.855 E50.49113
G1 X80.651 Y99.441 E50.53745
G1 X80.324 Y99.608 E50.56495
G1 X80.267 Y99.656 E50.57053
G1 X79.996 Y100.029 E50.60499
G1 X79.251 Y100.155 E50.66155
G1 X78.621 Y100.476 E50.71446
G1 X78.183 Y100.333 E50.74891
G1 X78.109 Y100.328 E50.75449
G1 X77.747 Y100.385 E50.78195
G1 X77.241 Y100.027 E50.82828
G1 X73.743 Y98.891 E51.10350
G1 X44.642 Y89.435 E53.39337
G1 X44.023 Y89.428 E53.43971
G1 X43.764 Y89.168 E53.46716
G1 X43.700 Y89.129 E53.47274
G1 X43.263 Y88.987 E53.50716
G1 X42.942 Y88.357 E53.56008
G1 X42.413 Y87.817 E53.61666
G1 X42.413 Y87.357 E53.65108
G1 X42.395 Y87.284 E53.65666
G1 X42.229 Y86.958 E53.68411
G1 X42.413 Y86.366 E53.73045
G1 X42.413 Y52.090 E56.29554
G1 X42.229 Y51.499 E56.34187
G1 X42.395 Y51.172 E56.36932
G1 X42.413 Y51.099 E56.37490
G1 X42.413 Y50.639 E56.40933
G1 X42.913 Y50.139 E56.46224
G1 X43.263 Y49.469 E56.51882
G1 X43.700 Y49.327 E56.55325
G1 X43.764 Y49.288 E56.55883
G1 X44.023 Y49.029 E56.58628
G1 X44.043 Y49.029 E56.58775
G1 X44.272 Y49.629 F30000.000
G1 F2100
G1 X44.737 Y49.621 E56.62261
G1 X77.517 Y38.970 E59.20193
G1 X77.898 Y38.703 E59.23678
G1 X78.157 Y38.744 E59.25641
G1 X78.232 Y38.738 E59.26199
G1 X78.570 Y38.628 E59.28862
G1 X79.063 Y38.880 E59.33004
G1 X79.657 Y38.982 E59.37512
G1 X79.866 Y39.269 E59.40175
G1 X79.923 Y39.318 E59.40733
G1 X80.157 Y39.437 E59.42701
G1 X80.308 Y39.878 E59.46185
G1 X100.567 Y67.761 E62.04111
G1 X100.939 Y68.041 E62.07596
G1 X100.980 Y68.300 E62.09559
G1 X101.008 Y68.369 E62.10117
G1 X101.217 Y68.657 E62.12778
G1 X101.131 Y69.203 E62.16920
G1 X101.217 Y69.800 E62.21429
G1 X101.008 Y70.087 E62.24090
G1 X100.980 Y70.156 E62.24648
G1 X100.939 Y70.415 E62.26612
G1 X100.567 Y70.695 E62.30097
G1 X80.308 Y98.579 E64.88024
G1 X80.157 Y99.019 E64.91508
G1 X79.923 Y99.139 E64.93475
G1 X79.866 Y99.187 E64.94033
G1 X79.657 Y99.475 E64.96696
G1 X79.110 Y99.562 E65.00837
G1 X78.570 Y99.828 E65.05346
G1 X78.232 Y99.718 E65.08009
G1 X78.157 Y99.712 E65.08567
G1 X77.898 Y99.754 E65.10531
G1 X77.517 Y99.486 E65.14015
G1 X73.929 Y98.320 E65.42249
G1 X44.737 Y88.835 E67.71947
G1 X44.272 Y88.828 E67.75432
G1 X44.086 Y88.642 E67.77395
G1 X44.023 Y88.603 E67.77953
G1 X43.684 Y88.493 E67.80614
G1 X43.404 Y87.960 E67.85123
G1 X43.013 Y87.568 E67.89266
G1 X43.013 Y87.213 E67.91927
G1 X42.995 Y87.140 E67.92485
G1 X42.876 Y86.907 E67.94448
G1 X43.013 Y86.461 E67.97933
G1 X43.013 Y51.995 E70.55864
G1 X42.876 Y51.550 E70.59349
G1 X42.995 Y51.316 E70.61312
G1 X43.013 Y51.244 E70.61870
G1 X43.013 Y50.888 E70.64531
G1 X43.404 Y50.497 E70.68673
G1 X43.684 Y49.963 E70.73183
G1 X44.023 Y49.853 E70.75843
G1 X44.086 Y49.814 E70.76401
G1 X44.229 Y49.671 E70.77916
G1 X44.520 Y50.229 F30000.000
G1 F2100
G1 X44.832 Y50.221 E70.80252
G1 X77.793 Y39.512 E73.39607
G1 X78.050 Y39.334 E73.41944
G1 X78.280 Y39.353 E73.43672
G1 X78.519 Y39.276 E73.45552
G1 X78.875 Y39.457 E73.48546
G1 X79.318 Y39.535 E73.51905
G1 X79.465 Y39.739 E73.53787
G1 X79.663 Y39.859 E73.55519
G1 X79.767 Y40.153 E73.57855
G1 X100.137 Y68.191 E76.17204
G1 X100.385 Y68.380 E76.19540
G1 X100.438 Y68.605 E76.21269
G1 X100.586 Y68.808 E76.23148
G1 X100.523 Y69.203 E76.26142
G1 X100.586 Y69.648 E76.29503
G1 X100.438 Y69.851 E76.31382
G1 X100.385 Y70.076 E76.33111
G1 X100.137 Y70.266 E76.35447
G1 X79.767 Y98.303 E78.94797
G1 X79.663 Y98.598 E78.97134
G1 X79.465 Y98.718 E78.98865
G1 X79.318 Y98.921 E79.00746
G1 X78.875 Y98.999 E79.04106
G1 X78.519 Y99.181 E79.07099
G1 X78.280 Y99.103 E79.08980
G1 X78.050 Y99.122 E79.10709
G1 X77.793 Y98.945 E79.13045
G1 X74.114 Y97.750 E79.41990
G1 X44.832 Y88.235 E81.72399
G1 X44.520 Y88.228 E81.74735
G1 X44.345 Y88.077 E81.76464
G1 X44.106 Y87.999 E81.78343
G1 X43.925 Y87.643 E81.81337
G1 X43.613 Y87.320 E81.84698
G1 X43.613 Y87.069 E81.86577
G1 X43.524 Y86.856 E81.88305
G1 X43.613 Y86.557 E81.90642
G1 X43.613 Y51.900 E84.49996
G1 X43.524 Y51.601 E84.52332
G1 X43.613 Y51.388 E84.54061
G1 X43.613 Y51.137 E84.55940
G1 X43.895 Y50.854 E84.58934
G1 X44.106 Y50.457 E84.62295
G1 X44.345 Y50.379 E84.64173
G1 X44.478 Y50.271 E84.65455
G1 X44.769 Y50.829 F30000.000
G1 F2100
G1 X44.927 Y50.821 E84.66643
G1 X78.069 Y40.053 E87.27420
G1 X78.202 Y39.966 E87.28609
G1 X78.329 Y39.968 E87.29560
G1 X78.468 Y39.923 E87.30657
G1 X78.688 Y40.035 E87.32502
G1 X78.978 Y40.089 E87.34714
G1 X79.065 Y40.208 E87.35813
G1 X79.169 Y40.281 E87.36765
G1 X79.225 Y40.429 E87.37954
G1 X99.707 Y68.620 E89.98727
G1 X99.831 Y68.720 E89.99915
G1 X99.868 Y68.841 E90.00866
G1 X99.954 Y68.960 E90.01963
G1 X99.916 Y69.203 E90.03808
G1 X99.954 Y69.497 E90.06021
G1 X99.868 Y69.615 E90.07118
G1 X99.831 Y69.737 E90.08069
G1 X99.707 Y69.836 E90.09257
G1 X79.225 Y98.028 E92.70031
G1 X79.169 Y98.176 E92.71220
G1 X79.065 Y98.249 E92.72172
G1 X78.978 Y98.368 E92.73270
G1 X78.735 Y98.406 E92.75115
G1 X78.468 Y98.533 E92.77327
G1 X78.329 Y98.488 E92.78425
G1 X78.201 Y98.491 E92.79376
G1 X78.069 Y98.404 E92.80565
G1 X74.300 Y97.179 E93.10220
G1 X44.927 Y87.635 E95.41341
G1 X44.769 Y87.628 E95.42529
G1 X44.667 Y87.551 E95.43480
G1 X44.528 Y87.506 E95.44577
G1 X44.387 Y87.246 E95.46789
G1 X44.213 Y87.071 E95.48635
G1 X44.213 Y86.925 E95.49731
G1 X44.171 Y86.805 E95.50683
G1 X44.213 Y86.652 E95.51871
G1 X44.213 Y51.805 E98.12647
G1 X44.171 Y51.652 E98.13836
G1 X44.213 Y51.532 E98.14787
G1 X44.213 Y51.385 E98.15883
G1 X44.387 Y51.211 E98.17729
G1 X44.528 Y50.951 E98.19941
G1 X44.725 Y50.870 E98.21537
G1 X44.809 Y51.689 F30000.000
G1 F2100
G1 X44.813 Y51.634 E98.21954
G1 X44.908 Y51.528 E98.23019
G1 X44.950 Y51.445 E98.23715
G1 X45.002 Y51.424 E98.24133
G1 X78.417 Y40.571 E100.87057
G1 X78.547 Y40.628 E100.88121
G1 X78.639 Y40.643 E100.88818
G1 X78.674 Y40.686 E100.89237
G1 X99.293 Y69.065 E103.51743
G1 X99.323 Y69.112 E103.52161
G1 X99.308 Y69.253 E103.53225
G1 X99.323 Y69.345 E103.53922
G1 X78.674 Y97.771 E106.16845
G1 X78.639 Y97.814 E106.17264
G1 X78.547 Y97.828 E106.17960
G1 X78.417 Y97.886 E106.19024
G1 X78.363 Y97.872 E106.19442
G1 X44.950 Y87.012 E108.82367
G1 X44.878 Y86.889 E108.83431
G1 X44.813 Y86.823 E108.84128
G1 X44.809 Y86.767 E108.84545
G1 X44.813 Y51.749 E111.46606
G1 X45.462 Y52.078 F30000.000
G1 F2100
G1 X45.623 Y52.078 E111.47683
G1 X45.573 Y51.925 E111.48760
G1 X78.194 Y41.326 E113.77901
G1 X78.244 Y41.479 E113.78979
G1 X78.375 Y41.384 E113.80059
G1 X98.536 Y69.133 E116.09201
G1 X98.406 Y69.228 E116.10279
G1 X98.536 Y69.323 E116.11356
G1 X78.375 Y97.072 E118.40499
G1 X78.244 Y96.977 E118.41578
G1 X78.195 Y97.131 E118.42656
G1 X45.573 Y86.532 E120.71797
G1 X45.623 Y86.378 E120.72875
G1 X45.462 Y86.378 E120.73952
G1 X45.462 Y52.138 E123.02694
G1 X45.602 Y52.159 F30000.000
G1 X46.361 Y52.614 F30000.000
G1 F2100
G1 X46.248 Y52.269 E123.05118
G1 X77.850 Y42.001 E125.27100
G1 X77.962 Y42.346 E125.29525
G1 X78.256 Y42.132 E125.31954
G1 X97.788 Y69.015 E127.53941
G1 X97.494 Y69.228 E127.56366
G1 X97.788 Y69.442 E127.58790
G1 X78.257 Y96.324 E129.80776
G1 X77.962 Y96.110 E129.83204
G1 X77.850 Y96.456 E129.85629
G1 X46.248 Y86.188 E132.07613
G1 X46.361 Y85.843 E132.10037
G1 X45.998 Y85.843 E132.12461
G1 X45.998 Y52.614 E134.34447
G1 X46.301 Y52.614 E134.36471
G1 E132.36471 F2400.00000
G92 E0
G1 X50.490 Y55.614 F30000.000
G1 E2.00000 F2400.00000
G1 F2100
G1 X76.386 Y47.200 E3.81903
G1 X92.390 Y69.228 E5.63806
G1 X76.386 Y91.257 E7.45709
G1 X50.490 Y82.843 E9.27612
G1 X50.490 Y55.674 E11.09114
G1 X50.327 Y55.248 F30000.000
G1 X49.954 Y55.225 F30000.000
G1 F2100
G1 X76.590 Y46.570 E12.96216
G1 X93.052 Y69.228 E14.83319
G1 X76.590 Y91.886 E16.70421
G1 X49.954 Y83.232 E18.57523
G1 X49.954 Y55.285 E20.44225
G1 X49.475 Y55.414 F30000.000
G1 F2100
G1 X46.476 Y58.413 E20.72827
G1 X46.476 Y59.177 E20.77985
G1 X49.475 Y56.179 E21.06588
G1 X49.475 Y56.943 E21.11745
G1 X46.476 Y59.942 E21.40348
G1 X46.476 Y60.707 E21.45506
G1 X49.475 Y57.708 E21.74108
G1 X49.475 Y58.473 E21.79266
G1 X46.476 Y61.472 E22.07869
G1 X46.476 Y62.236 E22.13026
G1 X49.475 Y59.238 E22.41629
G1 X49.475 Y60.002 E22.46787
G1 X46.476 Y63.001 E22.75389
G1 X46.476 Y63.766 E22.80547
G1 X49.475 Y60.767 E23.09150
G1 X49.475 Y61.532 E23.14307
G1 X46.476 Y64.531 E23.42910
G1 X46.476 Y65.295 E23.48067
G1 X49.475 Y62.296 E23.76670
G1 X49.475 Y63.061 E23.81828
G1 X46.476 Y66.060 E24.10430
G1 X46.476 Y66.825 E24.15588
G1 X49.475 Y63.826 E24.44191
G1 X49.475 Y64.591 E24.49348
G1 X46.476 Y67.589 E24.77951
G1 X46.476 Y68.354 E24.83109
G1 X49.475 Y65.355 E25.11711
G1 X49.475 Y66.120 E25.16869
G1 X46.476 Y69.119 E25.45472
G1 X46.476 Y69.884 E25.50629
G1 X49.475 Y66.885 E25.79232
G1 X49.475 Y67.649 E25.84389
G1 X46.476 Y70.648 E26.12992
G1 X46.476 Y71.413 E26.18150
G1 X49.475 Y68.414 E26.46752
G1 X49.475 Y69.179 E26.51910
G1 X46.476 Y72.178 E26.80513
G1 X46.476 Y72.942 E26.85670
G1 X49.475 Y69.944 E27.14273
G1 X49.475 Y70.708 E27.19431
G1 X46.476 Y73.707 E27.48033
G1 X46.476 Y74.472 E27.53191
G1 X49.475 Y71.473 E27.81794
G1 X49.475 Y72.238 E27.86951
G1 X46.476 Y75.237 E28.15554
G1 X46.476 Y76.001 E28.20711
G1 X49.475 Y73.002 E28.49314
G1 X49.475 Y73.767 E28.54472
G1 X46.476 Y76.766 E28.83074
G1 X46.476 Y77.531 E28.88232
G1 X49.475 Y74.532 E29.16835
G1 X49.475 Y75.297 E29.21992
G1 X46.476 Y78.295 E29.50595
G1 X46.476 Y79.060 E29.55753
G1 X49.475 Y76.061 E29.84355
G1 X49.475 Y76.826 E29.89513
G1 X46.476 Y79.825 E30.18116
G1 X46.476 Y80.590 E30.23273
G1 X49.475 Y77.591 E30.51876
G1 X49.475 Y78.356 E30.57034
G1 X46.476 Y81.354 E30.85636
G1 X46.476 Y82.119 E30.90794
G1 X49.475 Y79.120 E31.19397
G1 X49.475 Y79.885 E31.24554
G1 X46.476 Y82.884 E31.53157
G1 X46.476 Y83.648 E31.58314
G1 X49.475 Y80.650 E31.86917
G1 X49.475 Y81.414 E31.92075
G1 X46.476 Y84.413 E32.20677
G1 X46.476 Y85.178 E32.25835
G1 X49.475 Y82.179 E32.54438
G1 X49.475 Y82.944 E32.59595
G1 X47.034 Y85.385 E32.82879
G1 X46.866 Y85.901 E32.86536
G1 X47.181 Y86.003 E32.88766
G1 X49.584 Y83.600 E33.11689
G1 X50.161 Y83.787 E33.15782
G1 X47.758 Y86.190 E33.38705
G1 X48.335 Y86.378 E33.42798
G1 X50.739 Y83.975 E33.65721
G1 X51.316 Y84.162 E33.69814
G1 X48.912 Y86.565 E33.92737
G1 X49.490 Y86.753 E33.96830
G1 X51.893 Y84.350 E34.19753
G1 X52.470 Y84.537 E34.23846
G1 X50.067 Y86.941 E34.46769
G1 X50.644 Y87.128 E34.50862
G1 X53.047 Y84.725 E34.73785
G1 X53.625 Y84.912 E34.77878
G1 X51.221 Y87.316 E35.00801
G1 X51.798 Y87.503 E35.04895
G1 X54.202 Y85.100 E35.27818
G1 X54.779 Y85.287 E35.31911
G1 X52.376 Y87.691 E35.54834
G1 X52.953 Y87.878 E35.58927
G1 X55.356 Y85.475 E35.81850
G1 X55.933 Y85.662 E35.85943
G1 X53.530 Y88.066 E36.08866
G1 X54.107 Y88.253 E36.12959
G1 X56.510 Y85.850 E36.35882
G1 X57.088 Y86.037 E36.39975
G1 X54.684 Y88.441 E36.62898
G1 X55.261 Y88.628 E36.66991
G1 X57.665 Y86.225 E36.89914
G1 X58.242 Y86.413 E36.94007
G1 X55.839 Y88.816 E37.16930
G1 X56.416 Y89.003 E37.21023
G1 X58.819 Y86.600 E37.43946
G1 X59.396 Y86.788 E37.48039
G1 X56.993 Y89.191 E37.70962
G1 X57.570 Y89.379 E37.75055
G1 X59.974 Y86.975 E37.97978
G1 X60.551 Y87.163 E38.02071
G1 X58.147 Y89.566 E38.24994
G1 X58.725 Y89.754 E38.29087
G1 X61.128 Y87.350 E38.52010
G1 X61.705 Y87.538 E38.56103
G1 X59.302 Y89.941 E38.79026
G1 X59.879 Y90.129 E38.83119
G1 X62.282 Y87.725 E39.06042
G1 X62.859 Y87.913 E39.10135
G1 X60.456 Y90.316 E39.33058
G1 X61.033 Y90.504 E39.37151
G1 X63.437 Y88.100 E39.60074
G1 X64.014 Y88.288 E39.64167
G1 X61.610 Y90.691 E39.87090
G1 X62.188 Y90.879 E39.91183
G1 X64.591 Y88.475 E40.14106
G1 X65.168 Y88.663 E40.18199
G1 X62.765 Y91.066 E40.41122
G1 X63.342 Y91.254 E40.45215
G1 X65.745 Y88.851 E40.68138
G1 X66.323 Y89.038 E40.72231
G1 X63.919 Y91.441 E40.95154
G1 X64.496 Y91.629 E40.99247
G1 X66.900 Y89.226 E41.22170
G1 X67.477 Y89.413 E41.26263
G1 X65.074 Y91.817 E41.49186
G1 X65.651 Y92.004 E41.53279
G1 X68.054 Y89.601 E41.76202
G1 X68.631 Y89.788 E41.80295
G1 X66.228 Y92.192 E42.03218
G1 X66.805 Y92.379 E42.07311
G1 X69.208 Y89.976 E42.30234
G1 X69.786 Y90.163 E42.34327
G1 X67.382 Y92.567 E42.57250
G1 X67.959 Y92.754 E42.61343
G1 X70.363 Y90.351 E42.84266
G1 X70.940 Y90.538 E42.88359
G1 X68.537 Y92.942 E43.11282
G1 X69.114 Y93.129 E43.15375
G1 X71.517 Y90.726 E43.38298
G1 X72.094 Y90.913 E43.42391
G1 X69.691 Y93.317 E43.65314
G1 X70.268 Y93.504 E43.69407
G1 X72.672 Y91.101 E43.92330
G1 X73.249 Y91.289 E43.96423
G1 X70.845 Y93.692 E44.19346
G1 X71.423 Y93.879 E44.23439
G1 X73.826 Y91.476 E44.46362
G1 X74.403 Y91.664 E44.50455
G1 X72.000 Y94.067 E44.73378
G1 X72.577 Y94.254 E44.77471
G1 X74.980 Y91.851 E45.00394
G1 X75.557 Y92.039 E45.04487
G1 X73.154 Y94.442 E45.27410
G1 X73.731 Y94.630 E45.31503
G1 X76.135 Y92.226 E45.54426
G1 X76.712 Y92.414 E45.58519
G1 X74.308 Y94.817 E45.81442
G1 X74.886 Y95.005 E45.85535
