; generated by Slic3r 1.3.0 on 2020-11-01 at 09:26:13

; external perimeters extrusion width = 0.44mm (2.78mm^3/s)
; perimeters extrusion width = 0.40mm (7.14mm^3/s)
; infill extrusion width = 0.50mm (10.97mm^3/s)
; solid infill extrusion width = 0.60mm (6.68mm^3/s)
; top infill extrusion width = 0.40mm (2.14mm^3/s)

M107
M190 S80 ; set bed temperature and wait for it to be reached
M104 S200 ; set temperature
G28 ; home all axes
G1 Z5 F5000 ; lift nozzle

; Filament gcode

M109 S200 ; set temperature and wait for it to be reached
G21 ; set units to millimeters
G90 ; use absolute coordinates
M82 ; use absolute distances for extrusion
G92 E0
G1 Z0.300 F30000.000
G1 E-2.00000 F2400.00000
G92 E0
G1 X45.280 Y43.964 F30000.000
G1 E2.00000 F2400.00000
G1 F2100
G1 X47.745 Y41.791 E2.21956
G1 X49.939 Y40.090 E2.40502
G1 X52.441 Y38.379 E2.60753
G1 X55.271 Y36.706 E2.82712
G1 X57.975 Y35.337 E3.02962
G1 X60.761 Y34.140 E3.23214
G1 X63.615 Y33.121 E3.43465
G1 X66.281 Y32.347 E3.62008
G1 X69.489 Y31.630 E3.83966
G1 X72.231 Y31.195 E4.02512
G1 X75.247 Y30.902 E4.22761
G1 X78.533 Y30.799 E4.44721
G1 X81.562 Y30.902 E4.64969
G1 X84.326 Y31.163 E4.83515
G1 X87.572 Y31.677 E5.05472
G1 X90.529 Y32.347 E5.25724
G1 X93.194 Y33.121 E5.44268
G1 X96.049 Y34.140 E5.64519
G1 X96.536 Y34.342 E5.68039
G1 X99.066 Y35.446 E5.86478
G1 X101.763 Y36.829 E6.06729
G1 X104.368 Y38.379 E6.26980
G1 X106.664 Y39.939 E6.45525
G1 X109.261 Y41.954 E6.67481
G1 X111.343 Y43.789 E6.86026
G1 X113.493 Y45.927 E7.06277
G1 X115.666 Y48.393 E7.28234
G1 X117.368 Y50.586 E7.46780
G1 X119.078 Y53.089 E7.67030
G1 X120.751 Y55.918 E7.88990
G1 X122.120 Y58.623 E8.09240
G1 X123.317 Y61.408 E8.29492
G1 X124.336 Y64.263 E8.49743
G1 X125.111 Y66.929 E8.68290
G1 X125.827 Y70.136 E8.90244
G1 X126.262 Y72.878 E9.08790
G1 X126.555 Y75.895 E9.29039
G1 X126.658 Y79.180 E9.50998
G1 X126.571 Y81.954 E9.69541
G1 X126.294 Y84.973 E9.89792
G1 X125.780 Y88.219 E10.11750
G1 X125.111 Y91.176 E10.32000
G1 X124.336 Y93.842 E10.50545
G1 X123.223 Y96.934 E10.72505
G1 X122.120 Y99.482 E10.91048
G1 X120.751 Y102.186 E11.11298
G1 X119.215 Y104.800 E11.31550
G1 X118.137 Y106.400 E11.44441
G1 X117.368 Y107.518 E11.53508
G1 X115.503 Y109.908 E11.73759
G1 X113.668 Y111.991 E11.92303
G1 X111.530 Y114.140 E12.12555
G1 X109.064 Y116.313 E12.34511
G1 X106.871 Y118.015 E12.53057
G1 X104.368 Y119.725 E12.73308
G1 X101.539 Y121.399 E12.95267
G1 X98.835 Y122.767 E13.15517
G1 X96.287 Y123.870 E13.34062
G1 X93.194 Y124.983 E13.56020
G1 X90.529 Y125.758 E13.74563
G1 X87.572 Y126.427 E13.94815
G1 X84.579 Y126.909 E14.15067
G1 X81.613 Y127.197 E14.34978
G1 X78.277 Y127.306 E14.57275
G1 X75.503 Y127.218 E14.75818
G1 X72.484 Y126.941 E14.96069
G1 X69.238 Y126.427 E15.18026
G1 X66.529 Y125.821 E15.36571
G1 X63.615 Y124.983 E15.56822
G1 X60.523 Y123.870 E15.78781
G1 X57.975 Y122.767 E15.97325
G1 X55.271 Y121.399 E16.17574
G1 X52.441 Y119.725 E16.39534
G1 X49.939 Y118.015 E16.59785
G1 X47.745 Y116.313 E16.78331
G1 X45.466 Y114.315 E16.98580
G1 X43.317 Y112.177 E17.18831
G1 X41.144 Y109.712 E17.40787
G1 X39.292 Y107.312 E17.61039
G1 X37.732 Y105.015 E17.79585
G1 X36.058 Y102.186 E18.01543
G1 X34.690 Y99.482 E18.21793
G1 X33.587 Y96.934 E18.40341
G1 X32.474 Y93.842 E18.62296
G1 X31.636 Y90.928 E18.82547
G1 X31.030 Y88.219 E19.01092
G1 X30.548 Y85.226 E19.21344
G1 X30.255 Y82.210 E19.41592
G1 X30.151 Y78.924 E19.63552
G1 X30.239 Y76.150 E19.82095
G1 X30.516 Y73.131 E20.02346
G1 X31.030 Y69.885 E20.24303
G1 X31.636 Y67.176 E20.42848
G1 X32.474 Y64.263 E20.63099
G1 X33.587 Y61.171 E20.85054
G1 X34.690 Y58.623 E21.03602
G1 X36.058 Y55.918 E21.23852
G1 X37.732 Y53.089 E21.45810
G1 X39.292 Y50.793 E21.64356
G1 X41.144 Y48.393 E21.84608
G1 X43.142 Y46.114 E22.04857
G1 X45.238 Y44.007 E22.24707
G1 X45.659 Y44.343 F30000.000
G1 F2100
G1 X48.074 Y42.214 E22.46214
G1 X50.267 Y40.513 E22.64760
G1 X52.742 Y38.822 E22.84786
G1 X55.514 Y37.183 E23.06296
G1 X58.188 Y35.828 E23.26321
G1 X60.942 Y34.644 E23.46349
G1 X63.554 Y33.704 E23.64892
G1 X66.430 Y32.861 E23.84918
G1 X69.572 Y32.159 E24.06426
G1 X72.314 Y31.724 E24.24973
G1 X75.298 Y31.435 E24.44997
G1 X78.516 Y31.334 E24.66507
G1 X81.512 Y31.435 E24.86531
G1 X84.275 Y31.697 E25.05077
G1 X87.455 Y32.200 E25.26585
G1 X90.379 Y32.861 E25.46612
G1 X93.045 Y33.635 E25.65156
G1 X95.868 Y34.644 E25.85182
G1 X96.323 Y34.834 E25.88477
G1 X98.823 Y35.923 E26.06692
G1 X101.490 Y37.290 E26.26718
G1 X104.067 Y38.822 E26.46744
G1 X106.363 Y40.382 E26.65289
G1 X108.907 Y42.356 E26.86796
G1 X110.989 Y44.191 E27.05341
G1 X113.114 Y46.306 E27.25368
G1 X115.243 Y48.721 E27.46875
G1 X116.944 Y50.914 E27.65420
G1 X118.635 Y53.390 E27.85446
G1 X120.274 Y56.161 E28.06957
G1 X121.629 Y58.835 E28.26982
G1 X122.813 Y61.589 E28.47009
G1 X123.753 Y64.201 E28.65552
G1 X124.596 Y67.078 E28.85582
G1 X125.298 Y70.220 E29.07087
G1 X125.733 Y72.962 E29.25633
G1 X126.022 Y75.945 E29.45657
G1 X126.123 Y79.163 E29.67167
G1 X126.036 Y81.938 E29.85711
G1 X125.760 Y84.923 E30.05737
G1 X125.257 Y88.103 E30.27245
G1 X124.596 Y91.026 E30.47270
G1 X123.822 Y93.692 E30.65816
G1 X122.731 Y96.722 E30.87326
G1 X121.629 Y99.269 E31.05869
G1 X120.274 Y101.943 E31.25894
G1 X118.754 Y104.527 E31.45921
G1 X117.694 Y106.099 E31.58589
G1 X116.944 Y107.190 E31.67430
G1 X115.101 Y109.554 E31.87456
G1 X113.266 Y111.636 E32.06001
G1 X111.151 Y113.761 E32.26028
G1 X108.736 Y115.890 E32.47535
G1 X106.543 Y117.592 E32.66080
G1 X104.067 Y119.282 E32.86106
G1 X101.296 Y120.921 E33.07617
G1 X98.622 Y122.276 E33.27642
G1 X96.074 Y123.378 E33.46186
G1 X93.045 Y124.469 E33.67695
G1 X90.164 Y125.299 E33.87722
G1 X87.455 Y125.904 E34.06266
G1 X84.495 Y126.380 E34.26293
G1 X81.562 Y126.664 E34.45978
G1 X78.294 Y126.770 E34.67827
G1 X75.519 Y126.683 E34.86370
G1 X72.534 Y126.408 E35.06396
G1 X69.354 Y125.904 E35.27904
G1 X66.645 Y125.299 E35.46449
G1 X63.765 Y124.469 E35.66475
G1 X60.735 Y123.378 E35.87985
G1 X58.188 Y122.276 E36.06529
G1 X55.514 Y120.921 E36.26554
G1 X52.742 Y119.282 E36.48064
G1 X50.267 Y117.592 E36.68090
G1 X48.074 Y115.890 E36.86636
G1 X45.821 Y113.913 E37.06660
G1 X43.696 Y111.798 E37.26687
G1 X41.567 Y109.383 E37.48194
G1 X39.865 Y107.190 E37.66740
G1 X38.175 Y104.714 E37.86767
G1 X36.536 Y101.943 E38.08276
G1 X35.181 Y99.269 E38.28301
G1 X34.078 Y96.721 E38.46848
G1 X32.988 Y93.692 E38.68354
G1 X32.158 Y90.812 E38.88381
G1 X31.553 Y88.103 E39.06925
G1 X31.049 Y84.923 E39.28433
G1 X30.774 Y81.938 E39.48459
G1 X30.687 Y78.941 E39.68487
G1 X30.774 Y76.167 E39.87030
G1 X31.049 Y73.182 E40.07056
G1 X31.553 Y70.002 E40.28564
G1 X32.158 Y67.293 E40.47108
G1 X32.988 Y64.412 E40.67135
G1 X34.078 Y61.383 E40.88641
G1 X35.181 Y58.835 E41.07188
G1 X36.536 Y56.161 E41.27214
G1 X38.175 Y53.390 E41.48723
G1 X39.735 Y51.094 E41.67268
G1 X41.567 Y48.721 E41.87296
G1 X43.544 Y46.468 E42.07320
G1 X45.616 Y44.386 E42.26946
G1 X46.215 Y44.899 F30000.000
G1 F2100
G1 X48.521 Y42.862 E42.49978
G1 X50.783 Y41.108 E42.71397
G1 X53.220 Y39.448 E42.93462
G1 X55.832 Y37.903 E43.16173
G1 X58.461 Y36.567 E43.38237
G1 X61.087 Y35.430 E43.59656
G1 X63.943 Y34.402 E43.82367
G1 X66.775 Y33.582 E44.04432
G1 X69.568 Y32.958 E44.25851
G1 X72.565 Y32.483 E44.48561
G1 X75.501 Y32.209 E44.70625
G1 X78.448 Y32.119 E44.92692
G1 X81.395 Y32.214 E45.14753
G1 X84.244 Y32.483 E45.36173
G1 X87.242 Y32.958 E45.58884
G1 X90.119 Y33.604 E45.80949
G1 X92.867 Y34.402 E46.02368
G1 X95.642 Y35.399 E46.24432
G1 X96.011 Y35.555 E46.27432
G1 X98.427 Y36.604 E46.47144
G1 X101.053 Y37.945 E46.69208
G1 X103.517 Y39.402 E46.90627
G1 X105.957 Y41.057 E47.12692
G1 X108.355 Y42.917 E47.35402
G1 X110.502 Y44.810 E47.56821
G1 X112.588 Y46.892 E47.78885
G1 X114.595 Y49.169 E48.01595
G1 X116.349 Y51.430 E48.23015
G1 X118.009 Y53.867 E48.45079
G1 X119.554 Y56.480 E48.67791
G1 X120.853 Y59.030 E48.89208
G1 X122.027 Y61.735 E49.11273
G1 X123.055 Y64.590 E49.33985
G1 X123.853 Y67.339 E49.55405
G1 X124.499 Y70.215 E49.77469
G1 X124.963 Y73.127 E49.99534
G1 X125.243 Y76.062 E50.21597
G1 X125.338 Y79.095 E50.44308
G1 X125.248 Y81.956 E50.65727
G1 X124.974 Y84.892 E50.87791
G1 X124.499 Y87.889 E51.10501
G1 X123.875 Y90.682 E51.31921
G1 X123.055 Y93.514 E51.53984
G1 X122.027 Y96.370 E51.76696
G1 X120.890 Y98.996 E51.98115
G1 X119.554 Y101.625 E52.20179
G1 X118.055 Y104.164 E52.42244
G1 X117.044 Y105.657 E52.55741
G1 X116.349 Y106.674 E52.64955
G1 X114.540 Y109.002 E52.87019
G1 X112.647 Y111.149 E53.08438
G1 X110.564 Y113.236 E53.30503
G1 X108.288 Y115.242 E53.53213
G1 X106.027 Y116.997 E53.74632
G1 X103.590 Y118.656 E53.96696
G1 X100.977 Y120.201 E54.19408
G1 X98.349 Y121.537 E54.41472
G1 X95.722 Y122.674 E54.62892
G1 X92.867 Y123.702 E54.85602
G1 X90.119 Y124.500 E55.07021
G1 X87.242 Y125.146 E55.29086
G1 X84.244 Y125.621 E55.51796
G1 X81.309 Y125.896 E55.73862
G1 X78.362 Y125.986 E55.95925
G1 X75.501 Y125.896 E56.17344
G1 X72.565 Y125.621 E56.39408
G1 X69.568 Y125.146 E56.62119
G1 X66.775 Y124.522 E56.83538
G1 X63.943 Y123.702 E57.05602
G1 X61.087 Y122.674 E57.28314
G1 X58.461 Y121.537 E57.49733
G1 X55.832 Y120.201 E57.71796
G1 X53.220 Y118.656 E57.94508
G1 X50.783 Y116.997 E58.16572
G1 X48.522 Y115.242 E58.37992
G1 X46.308 Y113.295 E58.60055
G1 X44.221 Y111.212 E58.82120
G1 X42.215 Y108.936 E59.04829
G1 X40.410 Y106.604 E59.26895
G1 X38.801 Y104.237 E59.48315
G1 X37.256 Y101.625 E59.71026
G1 X35.920 Y98.996 E59.93090
G1 X34.783 Y96.369 E60.14511
G1 X33.755 Y93.514 E60.37220
G1 X32.935 Y90.682 E60.59284
G1 X32.311 Y87.889 E60.80703
G1 X31.836 Y84.892 E61.03414
G1 X31.561 Y81.956 E61.25478
G1 X31.471 Y79.009 E61.47543
G1 X31.561 Y76.148 E61.68962
G1 X31.836 Y73.213 E61.91026
G1 X32.311 Y70.215 E62.13736
G1 X32.935 Y67.422 E62.35155
G1 X33.755 Y64.590 E62.57220
G1 X34.783 Y61.735 E62.79928
G1 X35.920 Y59.108 E63.01350
G1 X37.256 Y56.480 E63.23414
G1 X38.801 Y53.868 E63.46124
G1 X40.410 Y51.500 E63.67544
G1 X42.215 Y49.169 E63.89610
G1 X44.162 Y46.955 E64.11673
G1 X46.172 Y44.942 E64.32966
G1 X46.639 Y45.323 F30000.000
G1 F2100
G1 X48.897 Y43.330 E64.55504
G1 X51.143 Y41.587 E64.76783
G1 X53.550 Y39.950 E64.98566
G1 X56.113 Y38.433 E65.20854
G1 X58.708 Y37.114 E65.42635
G1 X61.317 Y35.985 E65.63913
G1 X64.119 Y34.976 E65.86202
G1 X66.915 Y34.166 E66.07984
G1 X69.690 Y33.546 E66.29262
G1 X72.631 Y33.080 E66.51549
G1 X75.529 Y32.808 E66.73331
G1 X78.439 Y32.719 E66.95116
G1 X81.348 Y32.812 E67.16896
G1 X84.178 Y33.080 E67.38174
G1 X87.120 Y33.546 E67.60461
G1 X89.895 Y34.166 E67.81739
G1 X92.691 Y34.976 E68.03522
G1 X95.430 Y35.960 E68.25304
G1 X95.773 Y36.106 E68.28093
G1 X98.163 Y37.143 E68.47593
G1 X100.756 Y38.466 E68.69375
G1 X103.203 Y39.913 E68.90653
G1 X105.612 Y41.548 E69.12436
G1 X107.965 Y43.373 E69.34723
G1 X110.098 Y45.253 E69.56000
G1 X112.157 Y47.310 E69.77783
G1 X114.127 Y49.544 E70.00070
G1 X115.870 Y51.791 E70.21348
G1 X117.507 Y54.197 E70.43131
G1 X119.024 Y56.760 E70.65419
G1 X120.343 Y59.355 E70.87201
G1 X121.472 Y61.964 E71.08479
G1 X122.481 Y64.767 E71.30768
G1 X123.274 Y67.497 E71.52045
G1 X123.911 Y70.337 E71.73827
G1 X124.369 Y73.212 E71.95610
G1 X124.645 Y76.109 E72.17392
G1 X124.738 Y79.086 E72.39680
G1 X124.649 Y81.928 E72.60957
G1 X124.377 Y84.826 E72.82740
G1 X123.911 Y87.767 E73.05027
G1 X123.274 Y90.607 E73.26809
G1 X122.481 Y93.338 E73.48087
G1 X121.472 Y96.140 E73.70376
G1 X120.343 Y98.750 E73.91653
G1 X119.024 Y101.344 E74.13435
G1 X117.544 Y103.850 E74.35218
G1 X116.548 Y105.320 E74.48504
G1 X115.870 Y106.314 E74.57506
G1 X114.084 Y108.612 E74.79288
G1 X112.204 Y110.745 E75.00566
G1 X110.147 Y112.805 E75.22349
G1 X107.913 Y114.774 E75.44636
G1 X105.666 Y116.517 E75.65914
G1 X103.260 Y118.155 E75.87696
G1 X100.697 Y119.671 E76.09985
G1 X98.102 Y120.990 E76.31766
G1 X95.493 Y122.120 E76.53045
G1 X92.691 Y123.128 E76.75332
G1 X89.960 Y123.922 E76.96610
G1 X87.120 Y124.559 E77.18393
G1 X84.178 Y125.025 E77.40680
G1 X81.280 Y125.296 E77.62464
G1 X78.371 Y125.386 E77.84245
G1 X75.529 Y125.296 E78.05523
G1 X72.631 Y125.025 E78.27305
G1 X69.690 Y124.559 E78.49593
G1 X66.915 Y123.938 E78.70870
G1 X64.119 Y123.128 E78.92653
G1 X61.317 Y122.120 E79.14941
G1 X58.708 Y120.990 E79.36219
G1 X56.113 Y119.671 E79.58000
G1 X53.550 Y118.155 E79.80289
G1 X51.198 Y116.557 E80.01567
G1 X48.897 Y114.774 E80.23350
G1 X46.712 Y112.851 E80.45131
G1 X44.652 Y110.794 E80.66914
G1 X42.683 Y108.560 E80.89201
G1 X40.940 Y106.314 E81.10479
G1 X39.302 Y103.907 E81.32263
G1 X37.786 Y101.344 E81.54550
G1 X36.467 Y98.749 E81.76332
G1 X35.337 Y96.140 E81.97612
G1 X34.329 Y93.338 E82.19898
G1 X33.519 Y90.542 E82.41680
G1 X32.898 Y87.767 E82.62958
G1 X32.432 Y84.826 E82.85246
G1 X32.161 Y81.928 E83.07028
G1 X32.071 Y79.018 E83.28811
G1 X32.161 Y76.177 E83.50088
G1 X32.432 Y73.279 E83.71871
G1 X32.898 Y70.337 E83.94158
G1 X33.519 Y67.562 E84.15436
G1 X34.329 Y64.766 E84.37218
G1 X35.337 Y61.965 E84.59504
G1 X36.495 Y59.294 E84.81289
G1 X37.786 Y56.760 E85.02566
G1 X39.302 Y54.197 E85.24854
G1 X40.900 Y51.845 E85.46133
G1 X42.683 Y49.544 E85.67916
G1 X44.606 Y47.359 E85.89697
G1 X46.597 Y45.366 E86.10778
G1 X47.063 Y45.748 F30000.000
G1 F2100
G1 X49.272 Y43.798 E86.32824
G1 X51.504 Y42.067 E86.53961
G1 X53.879 Y40.451 E86.75461
G1 X56.394 Y38.964 E86.97327
G1 X58.910 Y37.682 E87.18462
G1 X61.547 Y36.539 E87.39963
G1 X64.296 Y35.549 E87.61828
G1 X67.055 Y34.749 E87.83328
G1 X69.811 Y34.133 E88.04465
G1 X72.697 Y33.676 E88.26329
G1 X75.557 Y33.407 E88.47830
G1 X78.429 Y33.319 E88.69331
G1 X81.301 Y33.410 E88.90830
G1 X84.113 Y33.676 E89.11967
G1 X86.998 Y34.133 E89.33832
G1 X89.755 Y34.749 E89.54968
G1 X92.514 Y35.549 E89.76469
G1 X95.218 Y36.521 E89.97969
G1 X95.534 Y36.657 E90.00546
G1 X97.899 Y37.682 E90.19835
G1 X100.458 Y38.987 E90.41335
G1 X102.890 Y40.425 E90.62471
G1 X105.267 Y42.039 E90.83972
G1 X107.575 Y43.829 E91.05836
G1 X109.694 Y45.697 E91.26973
G1 X111.726 Y47.728 E91.48474
G1 X113.659 Y49.919 E91.70337
G1 X115.390 Y52.151 E91.91474
G1 X117.006 Y54.526 E92.12975
G1 X118.493 Y57.041 E92.34840
G1 X119.796 Y59.602 E92.56340
G1 X120.918 Y62.194 E92.77477
G1 X121.908 Y64.943 E92.99342
G1 X122.696 Y67.655 E93.20479
G1 X123.324 Y70.459 E93.41979
G1 X123.775 Y73.296 E93.63479
G1 X124.047 Y76.156 E93.84979
G1 X124.138 Y79.077 E94.06844
G1 X124.050 Y81.900 E94.27981
G1 X123.781 Y84.760 E94.49481
G1 X123.324 Y87.646 E94.71345
G1 X122.708 Y90.402 E94.92482
G1 X121.908 Y93.161 E95.13982
G1 X120.918 Y95.910 E95.35847
G1 X119.796 Y98.503 E95.56984
G1 X118.493 Y101.063 E95.78484
G1 X117.032 Y103.537 E95.99985
G1 X116.051 Y104.983 E96.13059
G1 X115.390 Y105.953 E96.21849
G1 X113.628 Y108.222 E96.43350
G1 X111.760 Y110.341 E96.64486
G1 X109.729 Y112.374 E96.85987
G1 X107.538 Y114.306 E97.07851
G1 X105.306 Y116.037 E97.28988
G1 X102.931 Y117.653 E97.50488
G1 X100.416 Y119.141 E97.72354
G1 X97.855 Y120.443 E97.93853
G1 X95.263 Y121.565 E98.14991
G1 X92.514 Y122.555 E98.36855
G1 X89.802 Y123.343 E98.57991
G1 X86.998 Y123.971 E98.79492
G1 X84.113 Y124.428 E99.01357
G1 X81.252 Y124.697 E99.22858
G1 X78.381 Y124.786 E99.44357
G1 X75.557 Y124.697 E99.65494
G1 X72.697 Y124.428 E99.86994
G1 X69.811 Y123.971 E100.08859
G1 X67.055 Y123.355 E100.29995
G1 X64.296 Y122.555 E100.51496
G1 X61.547 Y121.565 E100.73361
G1 X58.954 Y120.443 E100.94498
G1 X56.394 Y119.141 E101.15997
G1 X53.879 Y117.653 E101.37862
G1 X51.504 Y116.037 E101.59363
G1 X49.272 Y114.306 E101.80500
G1 X47.116 Y112.407 E102.02000
G1 X45.083 Y110.377 E102.23501
G1 X43.151 Y108.185 E102.45364
G1 X41.420 Y105.953 E102.66501
G1 X39.804 Y103.578 E102.88003
G1 X38.317 Y101.063 E103.09867
G1 X37.034 Y98.547 E103.31003
G1 X35.892 Y95.910 E103.52505
G1 X34.917 Y93.208 E103.74005
G1 X34.114 Y90.449 E103.95505
G1 X33.477 Y87.598 E104.17369
G1 X33.035 Y84.808 E104.38507
G1 X32.763 Y81.948 E104.60006
G1 X32.671 Y79.028 E104.81871
G1 X32.760 Y76.205 E105.03008
G1 X33.029 Y73.344 E105.24508
G1 X33.486 Y70.459 E105.46372
G1 X34.102 Y67.702 E105.67509
G1 X34.902 Y64.943 E105.89009
G1 X35.892 Y62.194 E106.10873
G1 X37.014 Y59.602 E106.32011
G1 X38.317 Y57.041 E106.53511
G1 X39.804 Y54.526 E106.75376
G1 X41.391 Y52.190 E106.96513
