; generated by Slic3r 1.3.0 on 2020-11-01 at 16:54:34

; external perimeters extrusion width = 0.44mm (2.78mm^3/s)
; perimeters extrusion width = 0.40mm (7.14mm^3/s)
; infill extrusion width = 0.50mm (10.97mm^3/s)
; solid infill extrusion width = 0.60mm (6.68mm^3/s)
; top infill extrusion width = 0.40mm (2.14mm^3/s)

M107
M190 S80 ; set bed temperature and wait for it to be reached
M104 S210 ; set temperature
G28 ; home all axes
G1 Z5 F5000 ; lift nozzle

; Filament gcode

M109 S210 ; set temperature and wait for it to be reached
G21 ; set units to millimeters
G90 ; use absolute coordinates
M82 ; use absolute distances for extrusion
G92 E0
G1 Z0.300 F30000.000
G1 E-2.00000 F2400.00000
G92 E0
G1 X37.127 Y48.406 F30000.000
G1 E2.00000 F2400.00000
G1 F2100
G1 X38.013 Y48.011 E2.06478
G1 X71.205 Y37.227 E4.39629
G1 X73.103 Y37.026 E4.52384
G1 X74.052 Y37.227 E4.58861
G1 X75.760 Y38.198 E4.71988
G1 X76.409 Y38.918 E4.78464
G1 X96.923 Y67.152 E7.11616
G1 X97.701 Y68.896 E7.24371
G1 X97.803 Y69.860 E7.30848
G1 X97.407 Y71.785 E7.43975
G1 X96.923 Y72.625 E7.50452
G1 X76.402 Y100.869 E9.83684
G1 X74.984 Y102.148 E9.96439
G1 X73.383 Y102.714 E10.07781
G1 X71.205 Y102.551 E10.22377
G1 X38.013 Y91.766 E12.55529
G1 X36.358 Y90.813 E12.68284
G1 X35.676 Y90.046 E12.75139
G1 X34.898 Y88.303 E12.87895
G1 X34.796 Y87.339 E12.94371
G1 X34.796 Y52.439 E15.27522
G1 X35.192 Y50.571 E15.40277
G1 X35.709 Y49.685 E15.47131
G1 X37.083 Y48.446 E15.59486
G1 X38.178 Y48.521 F30000.000
G1 F2100
G1 X71.370 Y37.736 E17.92637
G1 X73.886 Y37.736 E18.09446
G1 X73.940 Y37.754 E18.09826
G1 X75.976 Y39.232 E18.26635
G1 X96.490 Y67.467 E20.59786
G1 X97.267 Y69.860 E20.76596
G1 X97.267 Y69.917 E20.76975
G1 X96.490 Y72.310 E20.93784
G1 X75.969 Y100.555 E23.27016
G1 X74.621 Y101.738 E23.38998
G1 X73.296 Y102.185 E23.48343
G1 X71.370 Y102.041 E23.61242
G1 X38.178 Y91.257 E25.94394
G1 X36.142 Y89.778 E26.11204
G1 X36.109 Y89.732 E26.11583
G1 X35.332 Y87.339 E26.28392
G1 X35.332 Y52.439 E28.61543
G1 X36.109 Y50.046 E28.78352
G1 X36.142 Y50.000 E28.78731
G1 X38.130 Y48.556 E28.95140
G1 X38.344 Y49.030 F30000.000
G1 F2100
G1 X71.536 Y38.245 E31.28292
G1 X73.721 Y38.245 E31.42890
G1 X73.775 Y38.263 E31.43269
G1 X75.543 Y39.547 E31.57867
G1 X96.056 Y67.782 E33.91018
G1 X96.732 Y69.860 E34.05616
G1 X96.732 Y69.917 E34.05996
G1 X96.056 Y71.995 E34.20593
G1 X75.535 Y100.240 E36.53825
G1 X74.263 Y101.321 E36.64981
G1 X73.208 Y101.657 E36.72378
G1 X71.536 Y101.532 E36.83580
G1 X38.344 Y90.747 E39.16731
G1 X36.576 Y89.463 E39.31330
G1 X36.542 Y89.417 E39.31709
G1 X35.867 Y87.339 E39.46307
G1 X35.867 Y52.439 E41.79458
G1 X36.542 Y50.361 E41.94055
G1 X36.576 Y50.315 E41.94435
G1 X38.295 Y49.065 E42.08632
G1 X38.344 Y49.689 F30000.000
G1 F2100
G1 X38.883 Y49.682 E42.12670
G1 X71.482 Y39.089 E44.69179
G1 X71.987 Y38.732 E44.73813
G1 X72.350 Y38.789 E44.76558
G1 X72.424 Y38.783 E44.77116
G1 X72.862 Y38.641 E44.80559
G1 X73.492 Y38.962 E44.85850
G1 X74.237 Y39.088 E44.91507
G1 X74.507 Y39.460 E44.94950
G1 X74.564 Y39.509 E44.95508
G1 X74.891 Y39.675 E44.98254
G1 X75.090 Y40.262 E45.02888
G1 X95.237 Y67.992 E47.59398
G1 X95.733 Y68.362 E47.64032
G1 X95.791 Y68.725 E47.66775
G1 X95.819 Y68.793 E47.67334
G1 X96.090 Y69.165 E47.70774
G1 X95.979 Y69.913 E47.76433
G1 X96.090 Y70.612 E47.81726
G1 X95.819 Y70.984 E47.85166
G1 X95.791 Y71.053 E47.85724
G1 X95.733 Y71.415 E47.88468
G1 X95.237 Y71.785 E47.93102
G1 X75.090 Y99.515 E50.49612
G1 X74.891 Y100.102 E50.54245
G1 X74.564 Y100.269 E50.56991
G1 X74.507 Y100.317 E50.57549
G1 X74.356 Y100.526 E50.59482
G1 X73.615 Y100.752 E50.65281
G1 X72.862 Y101.136 E50.71605
G1 X72.606 Y101.069 E50.73583
G1 X72.263 Y100.942 E50.76321
G1 X38.883 Y90.096 E53.38976
G1 X38.264 Y90.088 E53.43610
G1 X38.005 Y89.829 E53.46355
G1 X37.941 Y89.790 E53.46913
G1 X37.504 Y89.648 E53.50355
G1 X37.183 Y89.018 E53.55647
G1 X36.653 Y88.477 E53.61305
G1 X36.653 Y88.017 E53.64747
G1 X36.636 Y87.945 E53.65306
G1 X36.469 Y87.618 E53.68050
G1 X36.653 Y87.027 E53.72684
G1 X36.653 Y52.750 E56.29193
G1 X36.469 Y52.159 E56.33827
G1 X36.636 Y51.832 E56.36572
G1 X36.653 Y51.760 E56.37130
G1 X36.653 Y51.300 E56.40572
G1 X37.183 Y50.760 E56.46230
G1 X37.504 Y50.130 E56.51522
G1 X37.941 Y49.988 E56.54964
G1 X38.005 Y49.949 E56.55522
G1 X38.264 Y49.689 E56.58267
G1 X38.284 Y49.689 E56.58415
G1 X38.512 Y50.289 F30000.000
G1 F2100
G1 X38.978 Y50.282 E56.61900
G1 X71.758 Y39.631 E59.19832
G1 X72.139 Y39.363 E59.23317
G1 X72.398 Y39.404 E59.25280
G1 X72.473 Y39.399 E59.25838
G1 X72.811 Y39.289 E59.28499
G1 X73.304 Y39.540 E59.32641
G1 X73.898 Y39.642 E59.37150
G1 X74.107 Y39.930 E59.39811
G1 X74.163 Y39.978 E59.40369
G1 X74.397 Y40.097 E59.42333
G1 X74.548 Y40.538 E59.45818
G1 X94.807 Y68.422 E62.03750
G1 X95.180 Y68.702 E62.07236
G1 X95.221 Y68.961 E62.09198
G1 X95.249 Y69.030 E62.09756
G1 X95.458 Y69.317 E62.12415
G1 X95.371 Y69.913 E62.16925
G1 X95.458 Y70.460 E62.21068
G1 X95.249 Y70.748 E62.23727
G1 X95.221 Y70.817 E62.24286
G1 X95.180 Y71.076 E62.26248
G1 X94.807 Y71.356 E62.29733
G1 X74.548 Y99.240 E64.87665
G1 X74.397 Y99.680 E64.91150
G1 X74.163 Y99.799 E64.93114
G1 X74.107 Y99.848 E64.93672
G1 X73.989 Y100.010 E64.95172
G1 X73.390 Y100.194 E64.99861
G1 X72.811 Y100.489 E65.04725
G1 X72.637 Y100.440 E65.06073
G1 X38.978 Y89.496 E67.70943
G1 X38.512 Y89.488 E67.74429
G1 X38.327 Y89.303 E67.76392
G1 X38.263 Y89.264 E67.76950
G1 X37.925 Y89.154 E67.79610
G1 X37.674 Y88.660 E67.83753
G1 X37.253 Y88.229 E67.88263
G1 X37.253 Y87.873 E67.90923
G1 X37.236 Y87.801 E67.91481
G1 X37.117 Y87.567 E67.93444
G1 X37.253 Y87.122 E67.96929
G1 X37.253 Y52.655 E70.54861
G1 X37.117 Y52.210 E70.58346
G1 X37.236 Y51.976 E70.60309
G1 X37.253 Y51.904 E70.60867
G1 X37.253 Y51.548 E70.63527
G1 X37.645 Y51.157 E70.67670
G1 X37.925 Y50.624 E70.72180
G1 X38.263 Y50.514 E70.74840
G1 X38.327 Y50.475 E70.75398
G1 X38.470 Y50.332 E70.76912
G1 X38.761 Y50.889 F30000.000
G1 F2100
G1 X39.073 Y50.882 E70.79249
G1 X72.034 Y40.172 E73.38603
G1 X72.291 Y39.995 E73.40940
G1 X72.521 Y40.014 E73.42669
G1 X72.760 Y39.936 E73.44547
G1 X73.116 Y40.118 E73.47541
G1 X73.558 Y40.196 E73.50902
G1 X73.706 Y40.399 E73.52781
G1 X73.903 Y40.519 E73.54510
G1 X74.007 Y40.813 E73.56847
G1 X94.378 Y68.851 E76.16201
G1 X94.626 Y69.041 E76.18538
G1 X94.679 Y69.266 E76.20266
G1 X94.827 Y69.469 E76.22143
G1 X94.764 Y69.864 E76.25138
G1 X94.827 Y70.309 E76.28499
G1 X94.679 Y70.512 E76.30377
G1 X94.626 Y70.736 E76.32105
G1 X94.378 Y70.926 E76.34442
G1 X74.007 Y98.964 E78.93796
G1 X73.903 Y99.258 E78.96132
G1 X73.763 Y99.330 E78.97314
G1 X73.622 Y99.494 E78.98930
G1 X73.165 Y99.635 E79.02508
G1 X72.760 Y99.841 E79.05913
G1 X72.668 Y99.812 E79.06631
G1 X39.073 Y88.896 E81.70981
G1 X38.761 Y88.888 E81.73318
G1 X38.586 Y88.737 E81.75047
G1 X38.347 Y88.660 E81.76925
G1 X38.165 Y88.303 E81.79919
G1 X37.853 Y87.980 E81.83280
G1 X37.853 Y87.729 E81.85159
G1 X37.764 Y87.516 E81.86887
G1 X37.853 Y87.217 E81.89224
G1 X37.853 Y52.560 E84.48578
G1 X37.764 Y52.261 E84.50915
G1 X37.853 Y52.048 E84.52643
G1 X37.853 Y51.797 E84.54522
G1 X38.136 Y51.514 E84.57516
G1 X38.347 Y51.117 E84.60877
G1 X38.586 Y51.040 E84.62755
G1 X38.719 Y50.932 E84.64037
G1 X39.010 Y51.489 F30000.000
G1 F2100
G1 X39.168 Y51.482 E84.65226
G1 X72.309 Y40.713 E87.26002
G1 X72.442 Y40.626 E87.27191
G1 X72.569 Y40.629 E87.28142
G1 X72.709 Y40.584 E87.29239
G1 X72.928 Y40.695 E87.31084
G1 X73.219 Y40.749 E87.33296
G1 X73.305 Y40.868 E87.34393
G1 X73.410 Y40.941 E87.35344
G1 X73.466 Y41.089 E87.36533
G1 X93.948 Y69.281 E89.97309
G1 X94.072 Y69.380 E89.98498
G1 X94.109 Y69.502 E89.99449
G1 X94.195 Y69.620 E90.00545
G1 X94.157 Y69.864 E90.02390
G1 X94.195 Y70.157 E90.04603
G1 X94.109 Y70.276 E90.05699
G1 X94.072 Y70.397 E90.06649
G1 X93.948 Y70.497 E90.07838
G1 X73.466 Y98.688 E92.68615
G1 X73.410 Y98.837 E92.69803
G1 X73.305 Y98.909 E92.70755
G1 X73.255 Y98.978 E92.71389
G1 X72.966 Y99.065 E92.73648
G1 X72.709 Y99.194 E92.75803
G1 X39.168 Y88.296 E95.39722
G1 X39.010 Y88.288 E95.40911
G1 X38.908 Y88.211 E95.41862
G1 X38.769 Y88.166 E95.42959
G1 X38.657 Y87.946 E95.44804
G1 X38.453 Y87.732 E95.47016
G1 X38.453 Y87.585 E95.48113
G1 X38.412 Y87.465 E95.49064
G1 X38.453 Y87.312 E95.50253
G1 X38.453 Y52.465 E98.11029
G1 X38.412 Y52.312 E98.12217
G1 X38.453 Y52.192 E98.13168
G1 X38.453 Y52.045 E98.14265
G1 X38.628 Y51.871 E98.16110
G1 X38.769 Y51.611 E98.18323
G1 X38.966 Y51.530 E98.19918
G1 X39.050 Y52.350 F30000.000
G1 F2100
G1 X39.053 Y52.294 E98.20336
G1 X39.119 Y52.228 E98.21032
G1 X39.191 Y52.105 E98.22097
G1 X39.243 Y52.085 E98.22514
G1 X72.658 Y41.231 E100.85439
G1 X72.741 Y41.273 E100.86135
G1 X72.880 Y41.303 E100.87199
G1 X72.915 Y41.346 E100.87617
G1 X93.534 Y69.725 E103.50125
G1 X93.564 Y69.772 E103.50542
G1 X93.549 Y69.864 E103.51239
G1 X93.564 Y70.005 E103.52303
G1 X72.915 Y98.431 E106.15227
G1 X72.889 Y98.462 E106.15532
G1 X72.658 Y98.546 E106.17372
G1 X39.191 Y87.672 E108.80713
G1 X39.148 Y87.589 E108.81410
G1 X39.053 Y87.483 E108.82474
G1 X39.050 Y87.428 E108.82891
G1 X39.053 Y52.409 E111.44952
G1 E109.44952 F2400.00000
G92 E0
G1 X39.703 Y87.039 F30000.000
G1 E2.00000 F2400.00000
G1 F2100
G1 X39.703 Y52.739 E4.29143
G1 X39.864 Y52.739 E4.30220
G1 X39.814 Y52.585 E4.31297
G1 X72.435 Y41.986 E6.60440
G1 X72.485 Y42.139 E6.61517
G1 X72.616 Y42.045 E6.62595
G1 X92.777 Y69.794 E8.91738
G1 X92.646 Y69.889 E8.92814
G1 X92.777 Y69.983 E8.93891
G1 X72.566 Y97.801 E11.23598
G1 X72.447 Y97.757 E11.24449
G1 X72.435 Y97.791 E11.24693
G1 X39.814 Y87.192 E13.53835
G1 X39.864 Y87.039 E13.54913
G1 X39.763 Y87.039 E13.55589
G1 X40.000 Y86.771 F30000.000
G1 X40.601 Y86.503 F30000.000
G1 F2100
G1 X40.238 Y86.503 E13.58013
G1 X40.238 Y53.274 E15.79999
G1 X40.601 Y53.274 E15.82423
G1 X40.489 Y52.929 E15.84847
G1 X72.092 Y42.661 E18.06833
G1 X72.204 Y43.006 E18.09257
G1 X72.497 Y42.793 E18.11682
G1 X92.029 Y69.675 E20.33669
G1 X91.735 Y69.889 E20.36092
G1 X92.029 Y70.102 E20.38515
G1 X72.372 Y97.157 E22.61929
G1 X72.110 Y97.060 E22.63795
G1 X72.092 Y97.116 E22.64190
G1 X40.489 Y86.848 E24.86176
G1 X40.583 Y86.560 E24.88199
G1 E22.88199 F2400.00000
G92 E0
G1 X43.576 Y84.342 F30000.000
G1 E2.00000 F2400.00000
G1 F2100
G1 X43.576 Y55.435 E3.93113
G1 X71.068 Y46.503 E5.86225
G1 X88.059 Y69.889 E7.79337
G1 X71.068 Y93.275 E9.72448
G1 X43.633 Y84.361 E11.65160
G1 X43.178 Y84.384 F30000.000
G1 X43.040 Y84.731 F30000.000
G1 F2100
G1 X43.040 Y55.046 E13.63472
G1 X71.272 Y45.873 E15.61783
G1 X88.721 Y69.889 E17.60094
G1 X71.272 Y93.904 E19.58406
G1 X43.097 Y84.750 E21.56316
G1 E19.56316 F2400.00000
G92 E0
G1 X42.561 Y54.907 F30000.000
G1 E2.00000 F2400.00000
G1 F2100
G1 X40.717 Y56.751 E2.17428
G1 X40.717 Y57.509 E2.22491
G1 X42.561 Y55.664 E2.39918
G1 X42.561 Y56.422 E2.44982
G1 X40.717 Y58.266 E2.62409
G1 X40.717 Y59.024 E2.67472
G1 X42.561 Y57.180 E2.84900
G1 X42.561 Y57.937 E2.89963
G1 X40.717 Y59.782 E3.07391
G1 X40.717 Y60.539 E3.12454
G1 X42.561 Y58.695 E3.29881
G1 X42.561 Y59.453 E3.34944
G1 X40.717 Y61.297 E3.52372
G1 X40.717 Y62.055 E3.57435
G1 X42.561 Y60.211 E3.74863
G1 X42.561 Y60.968 E3.79926
G1 X40.717 Y62.812 E3.97354
G1 X40.717 Y63.570 E4.02417
G1 X42.561 Y61.726 E4.19844
G1 X42.561 Y62.484 E4.24907
G1 X40.717 Y64.328 E4.42335
G1 X40.717 Y65.085 E4.47398
G1 X42.561 Y63.241 E4.64826
G1 X42.561 Y63.999 E4.69889
G1 X40.717 Y65.843 E4.87316
G1 X40.717 Y66.601 E4.92380
G1 X42.561 Y64.757 E5.09807
G1 X42.561 Y65.514 E5.14870
G1 X40.717 Y67.359 E5.32298
G1 X40.717 Y68.116 E5.37361
G1 X42.561 Y66.272 E5.54789
G1 X42.561 Y67.030 E5.59852
G1 X40.717 Y68.874 E5.77279
G1 X40.717 Y69.632 E5.82343
G1 X42.561 Y67.787 E5.99770
G1 X42.561 Y68.545 E6.04833
G1 X40.717 Y70.389 E6.22261
G1 X40.717 Y71.147 E6.27324
G1 X42.561 Y69.303 E6.44752
G1 X42.561 Y70.061 E6.49815
G1 X40.717 Y71.905 E6.67242
G1 X40.717 Y72.662 E6.72306
G1 X42.561 Y70.818 E6.89733
G1 X42.561 Y71.576 E6.94796
G1 X40.717 Y73.420 E7.12224
G1 X40.717 Y74.178 E7.17287
G1 X42.561 Y72.334 E7.34715
G1 X42.561 Y73.091 E7.39778
G1 X40.717 Y74.935 E7.57205
G1 X40.717 Y75.693 E7.62268
G1 X42.561 Y73.849 E7.79696
G1 X42.561 Y74.607 E7.84759
G1 X40.717 Y76.451 E8.02187
G1 X40.717 Y77.208 E8.07250
G1 X42.561 Y75.364 E8.24677
G1 X42.561 Y76.122 E8.29741
G1 X40.717 Y77.966 E8.47168
G1 X40.717 Y78.724 E8.52231
G1 X42.561 Y76.880 E8.69659
G1 X42.561 Y77.637 E8.74722
G1 X40.717 Y79.482 E8.92150
G1 X40.717 Y80.239 E8.97213
G1 X42.561 Y78.395 E9.14640
G1 X42.561 Y79.153 E9.19704
G1 X40.717 Y80.997 E9.37131
G1 X40.717 Y81.755 E9.42194
G1 X42.561 Y79.911 E9.59622
G1 X42.561 Y80.668 E9.64685
G1 X40.717 Y82.512 E9.82113
G1 X40.717 Y83.270 E9.87176
G1 X42.561 Y81.426 E10.04603
G1 X42.561 Y82.184 E10.09666
G1 X40.717 Y84.028 E10.27094
G1 X40.717 Y84.785 E10.32157
G1 X42.561 Y82.941 E10.49585
G1 X42.561 Y83.699 E10.54648
G1 X40.717 Y85.543 E10.72075
G1 X40.717 Y86.024 E10.75291
G1 X40.994 Y86.024 E10.77139
G1 X42.561 Y84.457 E10.91953
G1 X42.561 Y85.064 E10.96008
G1 X42.675 Y85.100 E10.96808
G1 X41.188 Y86.587 E11.10860
G1 X41.760 Y86.773 E11.14878
G1 X43.247 Y85.286 E11.28930
G1 X43.819 Y85.472 E11.32948
G1 X42.332 Y86.959 E11.47000
G1 X42.904 Y87.145 E11.51018
G1 X44.391 Y85.658 E11.65070
G1 X44.963 Y85.844 E11.69088
G1 X43.476 Y87.331 E11.83140
G1 X44.048 Y87.516 E11.87158
G1 X45.535 Y86.030 E12.01210
G1 X46.106 Y86.215 E12.05228
G1 X44.620 Y87.702 E12.19280
G1 X45.191 Y87.888 E12.23298
G1 X46.678 Y86.401 E12.37350
G1 X47.250 Y86.587 E12.41369
G1 X45.763 Y88.074 E12.55420
G1 X46.335 Y88.260 E12.59439
G1 X47.822 Y86.773 E12.73491
G1 X48.394 Y86.959 E12.77509
G1 X46.907 Y88.446 E12.91561
G1 X47.479 Y88.631 E12.95579
G1 X48.966 Y87.144 E13.09631
G1 X49.538 Y87.330 E13.13649
G1 X48.051 Y88.817 E13.27701
G1 X48.623 Y89.003 E13.31719
G1 X50.110 Y87.516 E13.45771
G1 X50.681 Y87.702 E13.49789
G1 X49.195 Y89.189 E13.63841
G1 X49.766 Y89.375 E13.67859
G1 X51.253 Y87.888 E13.81911
G1 X51.825 Y88.073 E13.85929
G1 X50.338 Y89.560 E13.99981
G1 X50.910 Y89.746 E14.04000
G1 X52.397 Y88.259 E14.18052
G1 X52.969 Y88.445 E14.22070
G1 X51.482 Y89.932 E14.36122
G1 X52.054 Y90.118 E14.40140
G1 X53.541 Y88.631 E14.54192
G1 X54.113 Y88.817 E14.58210
G1 X52.626 Y90.304 E14.72262
G1 X53.198 Y90.490 E14.76280
G1 X54.685 Y89.003 E14.90332
G1 X55.256 Y89.188 E14.94351
G1 X53.770 Y90.675 E15.08403
G1 X54.341 Y90.861 E15.12421
G1 X55.828 Y89.374 E15.26473
G1 X56.400 Y89.560 E15.30491
G1 X54.913 Y91.047 E15.44543
G1 X55.485 Y91.233 E15.48561
G1 X56.972 Y89.746 E15.62614
G1 X57.544 Y89.932 E15.66632
G1 X56.057 Y91.419 E15.80684
G1 X56.629 Y91.604 E15.84702
G1 X58.116 Y90.117 E15.98754
G1 X58.688 Y90.303 E16.02772
G1 X57.201 Y91.790 E16.16824
G1 X57.773 Y91.976 E16.20843
G1 X59.260 Y90.489 E16.34895
G1 X59.832 Y90.675 E16.38913
G1 X58.345 Y92.162 E16.52965
G1 X58.916 Y92.348 E16.56983
G1 X60.403 Y90.861 E16.71035
G1 X60.975 Y91.047 E16.75053
G1 X59.488 Y92.533 E16.89106
G1 X60.060 Y92.719 E16.93124
G1 X61.547 Y91.232 E17.07176
G1 X62.119 Y91.418 E17.11194
G1 X60.632 Y92.905 E17.25246
G1 X61.204 Y93.091 E17.29265
G1 X62.691 Y91.604 E17.43317
G1 X63.263 Y91.790 E17.47335
G1 X61.776 Y93.277 E17.61387
G1 X62.348 Y93.463 E17.65405
G1 X63.835 Y91.976 E17.79458
G1 X64.407 Y92.161 E17.83476
G1 X62.920 Y93.648 E17.97528
G1 X63.491 Y93.834 E18.01546
G1 X64.978 Y92.347 E18.15598
G1 X65.550 Y92.533 E18.19617
G1 X64.063 Y94.020 E18.33669
G1 X64.635 Y94.206 E18.37687
G1 X66.122 Y92.719 E18.51739
G1 X66.694 Y92.905 E18.55757
G1 X65.207 Y94.392 E18.69810
G1 X65.779 Y94.577 E18.73828
G1 X67.266 Y93.090 E18.87880
G1 X67.838 Y93.276 E18.91898
G1 X66.351 Y94.763 E19.05951
G1 X66.923 Y94.949 E19.09969
G1 X68.410 Y93.462 E19.24021
G1 X68.982 Y93.648 E19.28039
G1 X67.495 Y95.135 E19.42092
G1 X68.066 Y95.321 E19.46110
G1 X69.553 Y93.834 E19.60162
G1 X70.125 Y94.020 E19.64180
G1 X68.638 Y95.506 E19.78233
G1 X69.210 Y95.692 E19.82251
G1 X70.697 Y94.205 E19.96303
G1 X71.269 Y94.391 E20.00321
G1 X69.782 Y95.878 E20.14374
G1 X70.354 Y96.064 E20.18392
G1 X78.274 Y88.144 E20.93236
G1 X76.261 Y90.915 E21.16123
G1 X70.926 Y96.250 E21.66539
G1 X71.498 Y96.436 E21.70557
G1 X74.248 Y93.686 E21.96544
