; generated by Slic3r 1.3.0 on 2021-01-10 at 21:12:09

; external perimeters extrusion width = 0.44mm (2.78mm^3/s)
; perimeters extrusion width = 0.40mm (7.14mm^3/s)
; infill extrusion width = 0.50mm (10.97mm^3/s)
; solid infill extrusion width = 0.60mm (6.68mm^3/s)
; top infill extrusion width = 0.40mm (2.14mm^3/s)

M107
M190 S80 ; set bed temperature and wait for it to be reached
M104 S210 ; set temperature
G28 ; home all axes
G1 Z5 F5000 ; lift nozzle

; Filament gcode

M109 S210 ; set temperature and wait for it to be reached
G21 ; set units to millimeters
G90 ; use absolute coordinates
M82 ; use absolute distances for extrusion
G92 E0
G1 Z0.300 F30000.000
G1 E-2.00000 F2400.00000
G92 E0
G1 X30.379 Y36.000 F30000.000
G1 E2.00000 F2400.00000
G1 F2100
G1 X32.596 Y34.442 E2.18100
G1 X65.723 Y23.678 E4.50800
G1 X68.432 Y23.635 E4.68897
G1 X69.608 Y23.986 E4.77097
G1 X70.491 Y24.304 E4.83365
G1 X72.657 Y25.931 E5.01462
G1 X93.131 Y54.111 E7.34162
G1 X94.009 Y56.674 E7.52259
G1 X94.038 Y57.611 E7.58526
G1 X94.009 Y58.839 E7.66726
G1 X93.131 Y61.401 E7.84823
G1 X72.657 Y89.582 E10.17523
G1 X70.491 Y91.208 E10.35620
G1 X69.608 Y91.526 E10.41888
G1 X68.432 Y91.877 E10.50087
G1 X65.723 Y91.834 E10.68185
G1 X32.596 Y81.071 E13.00885
G1 X30.379 Y79.513 E13.18985
G1 X29.804 Y78.771 E13.25251
G1 X29.107 Y77.762 E13.33446
G1 X28.310 Y75.172 E13.51546
G1 X28.310 Y40.340 E15.84246
G1 X29.107 Y37.750 E16.02346
G1 X29.634 Y36.975 E16.08611
G1 X30.342 Y36.047 E16.16407
G1 X30.802 Y36.328 F30000.000
G1 F2100
G1 X32.761 Y34.951 E16.32402
G1 X65.889 Y24.187 E18.65102
G1 X68.283 Y24.150 E18.81095
G1 X69.183 Y24.411 E18.87362
G1 X70.309 Y24.808 E18.95338
G1 X72.224 Y26.246 E19.11331
G1 X92.698 Y54.426 E21.44031
G1 X93.473 Y56.691 E21.60024
G1 X93.503 Y57.628 E21.66290
G1 X93.473 Y58.822 E21.74266
G1 X92.698 Y61.087 E21.90259
G1 X72.224 Y89.267 E24.22959
G1 X70.309 Y90.704 E24.38952
G1 X69.427 Y91.022 E24.45219
G1 X68.283 Y91.363 E24.53194
G1 X65.889 Y91.325 E24.69187
G1 X32.761 Y80.561 E27.01887
G1 X30.802 Y79.184 E27.17883
G1 X30.228 Y78.443 E27.24149
G1 X29.550 Y77.461 E27.32120
G1 X28.846 Y75.172 E27.48115
G1 X28.846 Y40.340 E29.80815
G1 X29.550 Y38.051 E29.96811
G1 X30.077 Y37.276 E30.03076
G1 X30.766 Y36.375 E30.10647
G1 X31.226 Y36.656 F30000.000
G1 F2100
G1 X32.927 Y35.461 E30.24538
G1 X66.054 Y24.697 E32.57238
G1 X68.133 Y24.664 E32.71127
G1 X69.245 Y24.994 E32.78877
G1 X70.128 Y25.312 E32.85144
G1 X71.790 Y26.560 E32.99033
G1 X92.264 Y54.741 E35.31733
G1 X92.938 Y56.708 E35.45622
G1 X92.967 Y57.645 E35.51888
G1 X92.938 Y58.805 E35.59639
G1 X92.264 Y60.772 E35.73528
G1 X71.790 Y88.952 E38.06228
G1 X70.128 Y90.200 E38.20117
G1 X69.245 Y90.518 E38.26384
G1 X68.133 Y90.848 E38.34134
G1 X66.054 Y90.816 E38.48023
G1 X32.927 Y80.052 E40.80723
G1 X31.226 Y78.856 E40.94614
G1 X30.651 Y78.115 E41.00880
G1 X29.993 Y77.160 E41.08627
G1 X29.382 Y75.172 E41.22518
G1 X29.382 Y40.340 E43.55217
G1 X29.993 Y38.353 E43.69109
G1 X30.520 Y37.577 E43.75374
G1 X31.189 Y36.704 E43.82720
G1 X31.847 Y37.138 F30000.000
G1 F2100
G1 X32.100 Y36.812 E43.85812
G1 X32.777 Y36.336 E43.92000
G1 X66.690 Y25.317 E46.58857
G1 X67.517 Y25.304 E46.65043
G1 X68.938 Y25.719 E46.76125
G1 X70.251 Y26.192 E46.86564
G1 X70.912 Y26.689 E46.92755
G1 X91.871 Y55.537 E49.59604
G1 X92.139 Y56.319 E49.65790
G1 X92.183 Y57.799 E49.76872
G1 X92.139 Y59.193 E49.87308
G1 X91.871 Y59.975 E49.93494
G1 X70.912 Y88.823 E52.60343
G1 X70.251 Y89.320 E52.66534
G1 X68.938 Y89.793 E52.76972
G1 X67.517 Y90.209 E52.88054
G1 X66.690 Y90.196 E52.94240
G1 X32.777 Y79.176 E55.61097
G1 X32.100 Y78.701 E55.67285
G1 X31.246 Y77.599 E55.77719
G1 X30.411 Y76.376 E55.88799
G1 X30.168 Y75.586 E55.94986
G1 X30.168 Y39.927 E58.61843
G1 X30.411 Y39.136 E58.68030
G1 X31.195 Y37.983 E58.78465
G1 X31.810 Y37.186 E58.86003
G1 X32.321 Y37.506 F30000.000
G1 F2100
G1 X32.519 Y37.251 E58.88420
G1 X33.048 Y36.879 E58.93258
G1 X66.790 Y25.915 E61.58764
G1 X67.436 Y25.905 E61.63601
G1 X68.744 Y26.287 E61.73796
G1 X69.963 Y26.726 E61.83488
G1 X70.480 Y27.114 E61.88328
G1 X91.333 Y55.817 E64.53828
G1 X91.542 Y56.428 E64.58664
G1 X91.583 Y57.790 E64.68860
G1 X91.542 Y59.084 E64.78550
G1 X91.333 Y59.696 E64.83386
G1 X70.480 Y88.398 E67.48887
G1 X69.962 Y88.786 E67.53727
G1 X68.744 Y89.225 E67.63419
G1 X67.436 Y89.607 E67.73614
G1 X66.790 Y89.597 E67.78450
G1 X33.048 Y78.633 E70.43957
G1 X32.519 Y78.262 E70.48794
G1 X31.725 Y77.239 E70.58483
G1 X30.958 Y76.113 E70.68677
G1 X30.768 Y75.496 E70.73514
G1 X30.768 Y40.017 E73.39020
G1 X30.958 Y39.399 E73.43857
G1 X31.686 Y38.328 E73.53546
G1 X32.284 Y37.553 E73.60874
G1 X32.795 Y37.873 F30000.000
G1 F2100
G1 X32.938 Y37.690 E73.62615
G1 X33.319 Y37.422 E73.66102
G1 X66.890 Y26.514 E76.30259
G1 X67.355 Y26.506 E76.33745
G1 X68.550 Y26.855 E76.43054
G1 X69.674 Y27.260 E76.52000
G1 X70.047 Y27.540 E76.55488
G1 X90.794 Y56.096 E79.19640
G1 X90.945 Y56.537 E79.23126
G1 X90.983 Y57.781 E79.32435
G1 X90.945 Y58.975 E79.41379
G1 X90.794 Y59.416 E79.44865
G1 X70.047 Y87.972 E82.09018
G1 X69.674 Y88.252 E82.12506
G1 X68.550 Y88.657 E82.21452
G1 X67.356 Y89.006 E82.30761
G1 X66.890 Y88.999 E82.34247
G1 X33.319 Y78.091 E84.98403
G1 X32.938 Y77.823 E85.01890
G1 X32.205 Y76.878 E85.10834
G1 X31.505 Y75.851 E85.20141
G1 X31.368 Y75.405 E85.23628
G1 X31.368 Y40.107 E87.87784
G1 X31.505 Y39.662 E87.91271
G1 X32.177 Y38.673 E88.00215
G1 X32.758 Y37.921 E88.07331
G1 X33.269 Y38.241 F30000.000
G1 F2100
G1 X33.357 Y38.129 E88.08398
G1 X33.590 Y37.964 E88.10534
G1 X66.989 Y27.112 E90.73341
G1 X67.275 Y27.108 E90.75477
G1 X68.355 Y27.423 E90.83898
G1 X69.386 Y27.794 E90.92098
G1 X69.614 Y27.965 E90.94236
G1 X90.256 Y56.376 E93.57039
G1 X90.348 Y56.646 E93.59175
G1 X90.383 Y57.771 E93.67597
G1 X90.348 Y58.866 E93.75796
G1 X90.256 Y59.136 E93.77932
G1 X69.614 Y87.547 E96.40736
G1 X69.386 Y87.719 E96.42873
G1 X68.355 Y88.090 E96.51073
G1 X67.275 Y88.405 E96.59495
G1 X66.989 Y88.400 E96.61631
G1 X33.590 Y77.548 E99.24437
G1 X33.357 Y77.384 E99.26574
G1 X32.685 Y76.518 E99.34772
G1 X32.052 Y75.588 E99.43193
G1 X31.968 Y75.315 E99.45329
G1 X31.968 Y40.197 E102.08135
G1 X32.052 Y39.924 E102.10272
G1 X32.668 Y39.018 E102.18470
G1 X33.232 Y38.289 E102.25376
G1 X33.743 Y38.609 F30000.000
G1 F2100
G1 X33.861 Y38.507 E102.26542
G1 X67.089 Y27.711 E104.87998
G1 X67.194 Y27.709 E104.88784
G1 X68.161 Y27.990 E104.96319
G1 X69.098 Y28.328 E105.03772
G1 X69.182 Y28.391 E105.04559
G1 X89.718 Y56.656 E107.66014
G1 X89.752 Y56.755 E107.66800
G1 X89.783 Y57.762 E107.74335
G1 X89.752 Y58.757 E107.81788
G1 X89.718 Y58.856 E107.82574
G1 X69.182 Y87.121 E110.44029
G1 X69.098 Y87.185 E110.44816
G1 X68.150 Y87.525 E110.52351
G1 X67.194 Y87.803 E110.59804
G1 X67.089 Y87.802 E110.60590
G1 X33.861 Y77.005 E113.22046
G1 X33.775 Y76.945 E113.22833
G1 X33.165 Y76.158 E113.30285
G1 X32.599 Y75.325 E113.37820
G1 X32.568 Y75.225 E113.38606
G1 X32.568 Y40.287 E116.00062
G1 X32.599 Y40.187 E116.00848
G1 X33.159 Y39.363 E116.08301
G1 X33.707 Y38.656 E116.14996
G1 E114.14996 F2400.00000
G92 E0
G1 X76.254 Y76.283 F30000.000
G1 E2.00000 F2400.00000
G1 F2100
G1 X68.742 Y86.623 E2.85383
G1 X67.955 Y86.906 E2.90969
G1 X67.152 Y87.139 E2.96555
G1 X34.200 Y76.432 E5.28021
G1 X33.687 Y75.772 E5.33607
G1 X33.217 Y75.080 E5.39193
G1 X33.217 Y40.432 E7.70660
G1 X33.687 Y39.741 E7.76246
G1 X34.200 Y39.080 E7.81832
G1 X67.152 Y28.373 E10.13299
G1 X67.955 Y28.606 E10.18884
G1 X68.742 Y28.890 E10.24470
G1 X89.107 Y56.920 E12.55937
G1 X89.133 Y57.756 E12.61523
G1 X89.107 Y58.592 E12.67109
G1 X76.289 Y76.234 E14.12792
G1 X75.856 Y76.244 F30000.000
G1 X75.821 Y75.968 F30000.000
G1 F2100
G1 X68.405 Y86.175 E14.97074
G1 X67.789 Y86.396 E15.01447
G1 X67.161 Y86.579 E15.05820
G1 X34.522 Y75.974 E17.35085
G1 X34.121 Y75.457 E17.39458
G1 X33.753 Y74.915 E17.43830
G1 X33.753 Y40.597 E19.73095
G1 X34.121 Y40.056 E19.77468
G1 X34.522 Y39.538 E19.81841
G1 X67.161 Y28.933 E22.11106
G1 X67.789 Y29.116 E22.15478
G1 X68.405 Y29.338 E22.19851
G1 X88.577 Y57.102 E24.49116
G1 X88.597 Y57.756 E24.53489
G1 X88.577 Y58.410 E24.57862
G1 X75.856 Y75.919 E26.02444
G1 E24.02444 F2400.00000
G92 E0
G1 X66.523 Y82.500 F30000.000
G1 E2.00000 F2400.00000
G1 F2100
G1 X37.436 Y73.048 E4.04321
G1 X37.436 Y42.464 E6.08643
G1 X66.523 Y33.013 E8.12964
G1 X84.500 Y57.756 E10.17285
G1 X66.558 Y82.451 E12.21206
G1 X66.440 Y82.891 F30000.000
G1 X66.728 Y83.129 F30000.000
G1 F2100
G1 X36.900 Y73.438 E14.30727
G1 X36.900 Y42.075 E16.40247
G1 X66.728 Y32.383 E18.49768
G1 X85.162 Y57.756 E20.59289
G1 X66.763 Y83.081 E22.68409
G1 E20.68409 F2400.00000
G92 E0
G1 X68.012 Y85.783 F30000.000
G1 E2.00000 F2400.00000
G1 F2100
G1 X68.126 Y85.669 E2.01082
G1 X70.143 Y82.893 E2.24057
G1 X66.998 Y86.038 E2.53837
G1 X66.425 Y85.852 E2.57871
G1 X72.160 Y80.117 E3.12175
G1 X74.177 Y77.341 E3.35150
G1 X65.852 Y85.666 E4.13978
G1 X65.279 Y85.479 E4.18012
G1 X76.194 Y74.564 E5.21364
G1 X78.211 Y71.788 E5.44340
G1 X68.714 Y81.285 E6.34258
G1 X70.731 Y78.508 E6.57234
G1 X80.228 Y69.012 E7.47153
G1 X82.245 Y66.236 E7.70128
G1 X72.748 Y75.732 E8.60046
G1 X74.766 Y72.956 E8.83022
G1 X84.262 Y63.460 E9.72940
G1 X86.279 Y60.684 E9.95916
G1 X76.783 Y70.180 E10.85834
G1 X78.800 Y67.404 E11.08810
G1 X88.106 Y58.097 E11.96930
G1 X88.107 Y57.337 E12.02020
G1 X80.817 Y64.628 E12.71052
G1 X82.834 Y61.851 E12.94028
G1 X87.832 Y56.853 E13.41357
G1 X87.513 Y56.413 E13.44996
G1 X84.851 Y59.075 E13.70202
G1 X85.768 Y57.813 E13.80648
G1 X85.593 Y57.573 E13.82632
G1 X87.193 Y55.974 E13.97779
G1 X86.874 Y55.534 E14.01418
G1 X85.274 Y57.133 E14.16565
G1 X84.954 Y56.694 E14.20204
G1 X86.554 Y55.094 E14.35351
G1 X86.235 Y54.654 E14.38990
G1 X84.635 Y56.254 E14.54137
G1 X84.316 Y55.814 E14.57776
G1 X85.915 Y54.215 E14.72924
G1 X85.596 Y53.775 E14.76563
G1 X83.996 Y55.375 E14.91710
G1 X83.677 Y54.935 E14.95349
G1 X85.276 Y53.335 E15.10496
G1 X84.957 Y52.896 E15.14135
G1 X83.357 Y54.495 E15.29282
G1 X83.038 Y54.056 E15.32921
G1 X84.637 Y52.456 E15.48068
G1 X84.318 Y52.016 E15.51707
G1 X82.718 Y53.616 E15.66854
G1 X82.399 Y53.176 E15.70493
G1 X83.998 Y51.576 E15.85640
G1 X83.679 Y51.137 E15.89279
G1 X82.079 Y52.736 E16.04427
G1 X81.760 Y52.297 E16.08065
G1 X83.360 Y50.697 E16.23213
G1 X83.040 Y50.257 E16.26852
G1 X81.440 Y51.857 E16.41999
G1 X81.121 Y51.417 E16.45638
G1 X82.721 Y49.818 E16.60785
G1 X82.401 Y49.378 E16.64424
G1 X80.801 Y50.978 E16.79571
G1 X80.482 Y50.538 E16.83210
G1 X82.082 Y48.938 E16.98357
G1 X81.762 Y48.499 E17.01996
G1 X80.163 Y50.098 E17.17143
G1 X79.843 Y49.659 E17.20782
G1 X81.443 Y48.059 E17.35930
G1 X81.123 Y47.619 E17.39569
G1 X79.524 Y49.219 E17.54716
G1 X79.204 Y48.779 E17.58355
G1 X80.804 Y47.179 E17.73502
G1 X80.484 Y46.740 E17.77141
G1 X78.885 Y48.339 E17.92288
G1 X78.565 Y47.900 E17.95927
G1 X80.165 Y46.300 E18.11074
G1 X79.845 Y45.860 E18.14713
G1 X78.246 Y47.460 E18.29860
G1 X77.926 Y47.020 E18.33499
G1 X79.526 Y45.421 E18.48647
G1 X79.207 Y44.981 E18.52286
G1 X77.607 Y46.581 E18.67433
G1 X77.287 Y46.141 E18.71072
G1 X78.887 Y44.541 E18.86219
G1 X78.568 Y44.101 E18.89858
G1 X76.968 Y45.701 E19.05005
G1 X76.648 Y45.261 E19.08644
G1 X78.248 Y43.662 E19.23791
G1 X77.929 Y43.222 E19.27430
G1 X76.329 Y44.822 E19.42578
G1 X76.009 Y44.382 E19.46217
G1 X77.609 Y42.782 E19.61364
G1 X77.290 Y42.343 E19.65003
G1 X75.690 Y43.942 E19.80150
G1 X75.371 Y43.503 E19.83789
G1 X76.970 Y41.903 E19.98936
G1 X76.651 Y41.463 E20.02575
G1 X75.051 Y43.063 E20.17722
G1 X74.732 Y42.623 E20.21361
G1 X76.331 Y41.024 E20.36509
G1 X76.012 Y40.584 E20.40148
G1 X74.412 Y42.184 E20.55295
G1 X74.093 Y41.744 E20.58934
G1 X75.692 Y40.144 E20.74081
G1 X75.373 Y39.704 E20.77720
G1 X73.773 Y41.304 E20.92867
G1 X73.454 Y40.864 E20.96506
G1 X75.053 Y39.265 E21.11653
G1 X74.734 Y38.825 E21.15292
G1 X73.134 Y40.425 E21.30440
G1 X72.815 Y39.985 E21.34079
G1 X74.415 Y38.385 E21.49226
G1 X74.095 Y37.946 E21.52865
G1 X72.495 Y39.545 E21.68012
G1 X72.176 Y39.106 E21.71651
G1 X73.776 Y37.506 E21.86798
G1 X73.456 Y37.066 E21.90437
G1 X71.856 Y38.666 E22.05585
G1 X71.537 Y38.226 E22.09224
G1 X73.137 Y36.626 E22.24371
G1 X72.817 Y36.187 E22.28010
G1 X71.218 Y37.786 E22.43157
G1 X70.898 Y37.347 E22.46796
G1 X72.498 Y35.747 E22.61943
G1 X72.178 Y35.307 E22.65582
G1 X70.579 Y36.907 E22.80730
G1 X70.259 Y36.467 E22.84369
G1 X71.859 Y34.868 E22.99516
G1 X71.539 Y34.428 E23.03155
G1 X69.940 Y36.028 E23.18302
G1 X69.620 Y35.588 E23.21941
G1 X71.220 Y33.988 E23.37088
G1 X70.900 Y33.549 E23.40727
G1 X69.301 Y35.148 E23.55875
G1 X68.981 Y34.709 E23.59514
G1 X70.581 Y33.109 E23.74661
G1 X70.262 Y32.669 E23.78300
G1 X68.662 Y34.269 E23.93447
G1 X68.342 Y33.829 E23.97086
G1 X69.942 Y32.229 E24.12233
G1 X69.623 Y31.790 E24.15872
G1 X68.023 Y33.389 E24.31020
G1 X67.703 Y32.950 E24.34659
G1 X69.303 Y31.350 E24.49806
G1 X68.984 Y30.910 E24.53445
G1 X67.384 Y32.510 E24.68592
G1 X67.064 Y32.070 E24.72231
G1 X68.664 Y30.471 E24.87379
G1 X68.345 Y30.031 E24.91018
G1 X66.416 Y31.959 E25.09279
G1 X65.292 Y32.325 E25.17196
G1 X67.950 Y29.666 E25.42372
G1 X67.680 Y29.569 E25.44293
G1 X67.377 Y29.481 E25.46411
G1 X64.167 Y32.690 E25.76803
G1 X63.042 Y33.056 E25.84720
G1 X66.389 Y29.709 E26.16410
G1 X65.265 Y30.074 E26.24327
G1 X61.918 Y33.421 E26.56017
G1 X60.793 Y33.787 E26.63934
G1 X64.140 Y30.440 E26.95624
G1 X63.015 Y30.805 E27.03541
G1 X59.669 Y34.152 E27.35231
G1 X58.544 Y34.517 E27.43148
G1 X61.891 Y31.171 E27.74838
G1 X60.766 Y31.536 E27.82755
G1 X57.420 Y34.883 E28.14445
G1 X56.295 Y35.248 E28.22362
G1 X59.642 Y31.901 E28.54052
G1 X58.517 Y32.267 E28.61969
G1 X55.170 Y35.614 E28.93659
G1 X54.046 Y35.979 E29.01576
G1 X57.393 Y32.632 E29.33266
G1 X56.268 Y32.998 E29.41183
G1 X52.921 Y36.344 E29.72873
G1 X51.797 Y36.710 E29.80789
G1 X55.144 Y33.363 E30.12479
G1 X54.019 Y33.728 E30.20396
G1 X50.672 Y37.075 E30.52086
G1 X49.548 Y37.440 E30.60003
G1 X52.894 Y34.094 E30.91693
G1 X51.770 Y34.459 E30.99610
G1 X48.423 Y37.806 E31.31300
G1 X47.299 Y38.171 E31.39216
G1 X50.645 Y34.824 E31.70906
G1 X49.521 Y35.190 E31.78823
G1 X46.174 Y38.537 E32.10513
G1 X45.049 Y38.902 E32.18430
G1 X48.396 Y35.555 E32.50119
G1 X47.272 Y35.921 E32.58036
G1 X43.925 Y39.267 E32.89726
G1 X42.800 Y39.633 E32.97643
G1 X46.147 Y36.286 E33.29333
G1 X45.023 Y36.651 E33.37249
G1 X41.676 Y39.998 E33.68939
G1 X40.551 Y40.364 E33.76856
G1 X43.898 Y37.017 E34.08546
G1 X42.773 Y37.382 E34.16462
G1 X39.427 Y40.729 E34.48152
G1 X38.302 Y41.094 E34.56069
G1 X41.649 Y37.748 E34.87758
G1 X40.524 Y38.113 E34.95675
G1 X37.178 Y41.460 E35.27365
G1 X36.308 Y41.742 E35.33490
G1 X36.308 Y42.330 E35.37422
G1 X34.232 Y44.406 E35.57077
G1 X34.232 Y43.646 E35.62160
G1 X39.400 Y38.478 E36.11095
G1 X38.275 Y38.844 E36.19011
G1 X34.232 Y42.887 E36.57298
G1 X34.232 Y42.128 E36.62381
G1 X37.151 Y39.209 E36.90019
G1 X36.026 Y39.575 E36.97936
G1 X34.232 Y41.369 E37.14925
G1 X34.232 Y40.819 E37.18609
G1 X34.498 Y40.427 E37.21776
G1 X34.787 Y40.055 E37.24933
G1 X34.901 Y39.940 E37.26021
G1 E35.26021 F2400.00000
G92 E0
G1 X34.232 Y44.406 F30000.000
G1 E2.00000 F2400.00000
G1 F2100
G1 X34.232 Y45.165 E2.05083
G1 X36.421 Y42.975 E2.25814
G1 X36.421 Y43.734 E2.30897
G1 X34.232 Y45.924 E2.51628
G1 X34.232 Y46.683 E2.56711
G1 X36.421 Y44.494 E2.77442
G1 X36.421 Y45.253 E2.82525
G1 X34.232 Y47.442 E3.03256
G1 X34.232 Y48.201 E3.08339
G1 X36.421 Y46.012 E3.29070
G1 X36.421 Y46.771 E3.34153
G1 X34.232 Y48.961 E3.54884
G1 X34.232 Y49.720 E3.59967
G1 X36.421 Y47.530 E3.80698
G1 X36.421 Y48.289 E3.85781
G1 X34.232 Y50.479 E4.06512
G1 X34.232 Y51.238 E4.11595
G1 X36.421 Y49.049 E4.32326
G1 X36.421 Y49.808 E4.37409
G1 X34.232 Y51.997 E4.58140
G1 X34.232 Y52.756 E4.63223
G1 X36.421 Y50.567 E4.83954
G1 X36.421 Y51.326 E4.89037
G1 X34.232 Y53.516 E5.09768
G1 X34.232 Y54.275 E5.14851
G1 X36.421 Y52.085 E5.35582
G1 X36.421 Y52.844 E5.40665
G1 X34.232 Y55.034 E5.61396
G1 X34.232 Y55.793 E5.66479
G1 X36.421 Y53.604 E5.87210
G1 X36.421 Y54.363 E5.92293
G1 X34.232 Y56.552 E6.13024
G1 X34.232 Y57.311 E6.18107
G1 X36.421 Y55.122 E6.38838
G1 X36.421 Y55.881 E6.43921
G1 X34.232 Y58.071 E6.64652
G1 X34.232 Y58.830 E6.69735
