; generated by Slic3r 1.3.0 on 2021-02-17 at 22:19:06

; external perimeters extrusion width = 0.44mm (2.78mm^3/s)
; perimeters extrusion width = 0.40mm (7.14mm^3/s)
; infill extrusion width = 0.50mm (10.97mm^3/s)
; solid infill extrusion width = 0.60mm (6.68mm^3/s)
; top infill extrusion width = 0.40mm (2.14mm^3/s)

M107
M190 S80 ; set bed temperature and wait for it to be reached
M104 S210 ; set temperature
G28 ; home all axes
G1 Z5 F5000 ; lift nozzle

; Filament gcode

M109 S210 ; set temperature and wait for it to be reached
G21 ; set units to millimeters
G90 ; use absolute coordinates
M82 ; use absolute distances for extrusion
G92 E0
G1 Z0.300 F30000.000
G1 E-2.00000 F2400.00000
G92 E0
G1 X36.718 Y43.619 F30000.000
G1 E2.00000 F2400.00000
G1 F2100
G1 X37.540 Y43.213 E2.06119
G1 X38.342 Y42.866 E2.11960
G1 X39.497 Y42.438 E2.20186
G1 X40.676 Y42.084 E2.28409
G1 X41.874 Y41.805 E2.36630
G1 X42.777 Y41.650 E2.42752
G1 X45.420 Y41.858 E2.60464
G1 X57.225 Y45.694 E3.43380
G1 X59.485 Y47.079 E3.61092
G1 X60.125 Y47.735 E3.67211
G1 X60.703 Y48.391 E3.73054
G1 X61.675 Y49.644 E3.83652
G1 X62.358 Y50.669 E3.91879
G1 X62.804 Y51.422 E3.97723
G1 X63.230 Y52.233 E4.03847
G1 X63.849 Y54.811 E4.21556
G1 X63.849 Y67.223 E5.04472
G1 X63.230 Y69.800 E5.22181
G1 X62.804 Y70.612 E5.28305
G1 X62.168 Y71.666 E5.36527
G1 X61.467 Y72.677 E5.44750
G1 X60.703 Y73.643 E5.52974
G1 X60.125 Y74.299 E5.58817
G1 X59.485 Y74.955 E5.64937
G1 X57.225 Y76.340 E5.82648
G1 X55.033 Y77.052 E5.98039
G1 X45.420 Y80.175 E6.65564
G1 X42.777 Y80.383 E6.83276
G1 X41.874 Y80.229 E6.89398
G1 X41.021 Y80.038 E6.95239
G1 X39.836 Y79.706 E7.03462
G1 X38.674 Y79.299 E7.11684
G1 X37.540 Y78.821 E7.19909
G1 X36.718 Y78.415 E7.26028
G1 X34.702 Y76.693 E7.43741
G1 X27.407 Y66.652 E8.26657
G1 X26.392 Y64.203 E8.44367
G1 X26.260 Y63.296 E8.50490
G1 X26.155 Y62.069 E8.58712
G1 X26.128 Y61.195 E8.64558
G1 X26.155 Y59.964 E8.72778
G1 X26.260 Y58.738 E8.81001
G1 X26.392 Y57.831 E8.87124
G1 X27.407 Y55.382 E9.04834
G1 X34.702 Y45.341 E9.87749
G1 X36.673 Y43.658 E10.05061
G1 X36.962 Y44.096 F30000.000
G1 F2100
G1 X37.752 Y43.705 E10.10956
G1 X38.555 Y43.357 E10.16797
G1 X39.678 Y42.942 E10.24798
G1 X40.825 Y42.599 E10.32796
G1 X41.991 Y42.328 E10.40793
G1 X42.861 Y42.179 E10.46690
G1 X45.255 Y42.368 E10.62731
G1 X57.059 Y46.203 E11.45647
G1 X59.106 Y47.458 E11.61688
G1 X59.723 Y48.089 E11.67583
G1 X60.301 Y48.745 E11.73426
G1 X61.233 Y49.945 E11.83575
G1 X61.897 Y50.942 E11.91577
G1 X62.343 Y51.695 E11.97421
G1 X62.753 Y52.477 E12.03320
G1 X63.313 Y54.811 E12.19358
G1 X63.313 Y67.223 E13.02274
G1 X62.753 Y69.557 E13.18313
G1 X62.343 Y70.339 E13.24212
G1 X61.725 Y71.364 E13.32209
G1 X61.043 Y72.349 E13.40207
G1 X60.301 Y73.289 E13.48207
G1 X59.723 Y73.945 E13.54049
G1 X59.106 Y74.576 E13.59945
G1 X57.059 Y75.831 E13.75986
G1 X54.868 Y76.543 E13.91377
G1 X45.255 Y79.666 E14.58902
G1 X42.861 Y79.854 E14.74942
G1 X41.991 Y79.706 E14.80840
G1 X41.138 Y79.516 E14.86681
G1 X39.985 Y79.191 E14.94679
G1 X38.855 Y78.795 E15.02677
G1 X37.752 Y78.329 E15.10677
G1 X36.962 Y77.938 E15.16571
G1 X35.136 Y76.378 E15.32613
G1 X27.840 Y66.337 E16.15529
G1 X26.921 Y64.119 E16.31569
G1 X26.793 Y63.245 E16.37467
G1 X26.691 Y62.052 E16.45464
G1 X26.663 Y61.178 E16.51310
G1 X26.691 Y59.981 E16.59306
G1 X26.793 Y58.789 E16.67303
G1 X26.921 Y57.915 E16.73202
G1 X27.840 Y55.697 E16.89241
G1 X35.136 Y45.656 E17.72157
G1 X36.916 Y44.135 E17.87798
G1 X37.205 Y44.574 F30000.000
G1 F2100
G1 X37.965 Y44.196 E17.93468
G1 X38.768 Y43.849 E17.99309
G1 X39.860 Y43.446 E18.07085
G1 X40.974 Y43.113 E18.14859
G1 X42.108 Y42.850 E18.22631
G1 X42.945 Y42.708 E18.28304
G1 X45.089 Y42.877 E18.42674
G1 X56.893 Y46.713 E19.25590
G1 X58.728 Y47.836 E19.39960
G1 X59.321 Y48.443 E19.45631
G1 X59.900 Y49.099 E19.51473
G1 X60.790 Y50.246 E19.61173
G1 X61.436 Y51.214 E19.68950
G1 X61.882 Y51.967 E19.74794
G1 X62.275 Y52.720 E19.80468
G1 X62.777 Y54.811 E19.94836
G1 X62.777 Y67.223 E20.77752
G1 X62.275 Y69.314 E20.92120
G1 X61.882 Y70.067 E20.97794
G1 X61.282 Y71.063 E21.05567
G1 X60.620 Y72.021 E21.13340
G1 X59.900 Y72.935 E21.21115
G1 X59.321 Y73.591 E21.26957
G1 X58.728 Y74.197 E21.32628
G1 X56.893 Y75.321 E21.46998
G1 X45.089 Y79.157 E22.29914
G1 X42.945 Y79.325 E22.44284
G1 X42.108 Y79.184 E22.49957
G1 X41.255 Y78.993 E22.55798
G1 X39.860 Y78.588 E22.65503
G1 X38.768 Y78.185 E22.73278
G1 X37.965 Y77.837 E22.79119
G1 X37.205 Y77.460 E22.84790
G1 X35.569 Y76.063 E22.99161
G1 X28.274 Y66.022 E23.82077
G1 X27.450 Y64.035 E23.96445
G1 X27.327 Y63.195 E24.02119
G1 X27.226 Y62.036 E24.09892
G1 X27.199 Y61.161 E24.15737
G1 X27.226 Y59.998 E24.23508
G1 X27.327 Y58.839 E24.31281
G1 X27.450 Y57.999 E24.36955
G1 X28.274 Y56.012 E24.51324
G1 X35.569 Y45.971 E25.34239
G1 X37.159 Y44.612 E25.48209
G1 X37.448 Y45.051 F30000.000
G1 F2100
G1 X38.178 Y44.688 E25.53655
G1 X38.980 Y44.341 E25.59497
G1 X40.041 Y43.950 E25.67047
G1 X41.124 Y43.627 E25.74596
G1 X42.225 Y43.373 E25.82144
G1 X43.029 Y43.237 E25.87592
G1 X44.924 Y43.387 E26.00291
G1 X56.728 Y47.222 E26.83207
G1 X58.349 Y48.215 E26.95906
G1 X58.920 Y48.797 E27.01353
G1 X59.498 Y49.453 E27.07195
G1 X60.347 Y50.548 E27.16447
G1 X60.975 Y51.487 E27.23998
G1 X61.421 Y52.240 E27.29842
G1 X61.798 Y52.963 E27.35291
G1 X62.242 Y54.811 E27.47989
G1 X62.242 Y67.223 E28.30904
G1 X61.798 Y69.071 E28.43602
G1 X61.421 Y69.794 E28.49051
G1 X60.839 Y70.762 E28.56599
G1 X60.197 Y71.692 E28.64148
G1 X59.498 Y72.580 E28.71698
G1 X58.920 Y73.236 E28.77540
G1 X58.349 Y73.819 E28.82987
G1 X56.728 Y74.812 E28.95686
G1 X44.924 Y78.647 E29.78602
G1 X43.029 Y78.796 E29.91301
G1 X42.225 Y78.661 E29.96749
G1 X41.371 Y78.470 E30.02590
G1 X40.041 Y78.084 E30.11846
G1 X38.980 Y77.693 E30.19396
G1 X38.178 Y77.346 E30.25237
G1 X37.448 Y76.983 E30.30683
G1 X36.002 Y75.748 E30.43384
G1 X28.707 Y65.707 E31.26299
G1 X27.980 Y63.951 E31.38998
G1 X27.860 Y63.144 E31.44446
G1 X27.762 Y62.019 E31.51995
G1 X27.734 Y61.144 E31.57839
G1 X27.762 Y60.015 E31.65386
G1 X27.860 Y58.889 E31.72934
G1 X27.980 Y58.083 E31.78383
G1 X28.707 Y56.327 E31.91081
G1 X36.002 Y46.285 E32.73997
G1 X37.402 Y45.090 E32.86296
G1 X37.691 Y45.528 F30000.000
G1 F2100
G1 X38.391 Y45.179 E32.91518
G1 X39.400 Y44.750 E32.98843
G1 X40.433 Y44.386 E33.06167
G1 X41.488 Y44.086 E33.13491
G1 X42.341 Y43.896 E33.19332
G1 X43.113 Y43.766 E33.24556
G1 X44.758 Y43.896 E33.35584
G1 X56.562 Y47.731 E34.18500
G1 X57.970 Y48.594 E34.29529
G1 X58.518 Y49.152 E34.34751
G1 X59.096 Y49.808 E34.40593
G1 X59.904 Y50.849 E34.49395
G1 X60.514 Y51.760 E34.56722
G1 X60.960 Y52.512 E34.62565
G1 X61.321 Y53.206 E34.67790
G1 X61.706 Y54.811 E34.78817
G1 X61.706 Y67.223 E35.61732
G1 X61.321 Y68.828 E35.72760
G1 X60.960 Y69.521 E35.77984
G1 X60.514 Y70.274 E35.83827
G1 X59.904 Y71.185 E35.91154
G1 X59.238 Y72.055 E35.98472
G1 X58.518 Y72.882 E36.05799
G1 X57.970 Y73.440 E36.11021
G1 X56.562 Y74.302 E36.22049
G1 X44.758 Y78.138 E37.04965
G1 X43.113 Y78.267 E37.15994
G1 X42.341 Y78.138 E37.21217
G1 X41.488 Y77.947 E37.27058
G1 X40.222 Y77.580 E37.35864
G1 X39.193 Y77.202 E37.43190
G1 X38.391 Y76.854 E37.49031
G1 X37.691 Y76.506 E37.54253
G1 X36.436 Y75.434 E37.65282
G1 X29.140 Y65.392 E38.48198
G1 X28.509 Y63.867 E38.59225
G1 X28.421 Y63.314 E38.62966
G1 X28.297 Y62.002 E38.71773
G1 X28.269 Y61.128 E38.77617
G1 X28.297 Y60.032 E38.84939
G1 X28.393 Y58.940 E38.92263
G1 X28.509 Y58.166 E38.97487
G1 X29.140 Y56.641 E39.08515
G1 X36.436 Y46.600 E39.91430
G1 X37.645 Y45.567 E40.02059
G1 X38.047 Y46.229 F30000.000
G1 F2100
G1 X38.663 Y45.918 E40.07221
G1 X39.625 Y45.505 E40.15057
G1 X40.529 Y45.179 E40.22247
G1 X41.534 Y44.885 E40.30082
G1 X42.555 Y44.654 E40.37916
G1 X43.554 Y44.492 E40.45487
G1 X44.205 Y44.543 E40.50375
G1 X56.629 Y48.580 E41.48136
G1 X57.184 Y48.920 E41.53007
G1 X57.840 Y49.576 E41.59955
G1 X58.535 Y50.360 E41.67791
G1 X59.229 Y51.255 E41.76269
G1 X59.816 Y52.123 E41.84106
G1 X60.347 Y53.026 E41.91945
G1 X60.768 Y53.853 E41.98891
G1 X60.920 Y54.486 E42.03762
G1 X60.920 Y67.548 E43.01515
G1 X60.768 Y68.181 E43.06386
G1 X60.305 Y69.084 E43.13980
G1 X59.770 Y69.984 E43.21816
G1 X59.229 Y70.779 E43.29008
G1 X58.590 Y71.607 E43.36840
G1 X57.900 Y72.395 E43.44676
G1 X57.184 Y73.114 E43.52270
G1 X56.629 Y73.454 E43.57141
G1 X44.205 Y77.491 E44.54902
G1 X43.554 Y77.542 E44.59791
G1 X42.640 Y77.396 E44.66714
G1 X41.618 Y77.171 E44.74549
G1 X40.611 Y76.881 E44.82384
G1 X39.625 Y76.529 E44.90220
G1 X38.585 Y76.079 E44.98702
G1 X37.759 Y75.658 E45.05638
G1 X37.263 Y75.235 E45.10518
G1 X29.585 Y64.667 E46.08273
G1 X29.336 Y64.066 E46.13145
G1 X29.191 Y63.149 E46.20091
G1 X29.090 Y62.106 E46.27930
G1 X29.054 Y60.974 E46.36409
G1 X29.090 Y59.927 E46.44245
G1 X29.191 Y58.885 E46.52084
G1 X29.336 Y57.968 E46.59029
G1 X29.585 Y57.367 E46.63901
G1 X37.263 Y46.799 E47.61657
G1 X37.759 Y46.375 E47.66535
G1 X37.994 Y46.256 E47.68507
G1 X38.319 Y46.764 F30000.000
G1 F2100
G1 X38.910 Y46.465 E47.73461
G1 X39.837 Y46.066 E47.81015
G1 X40.724 Y45.747 E47.88064
G1 X41.692 Y45.463 E47.95617
G1 X42.677 Y45.241 E48.03169
G1 X43.578 Y45.096 E48.10002
G1 X44.087 Y45.135 E48.13824
G1 X56.376 Y49.128 E49.10520
G1 X56.810 Y49.394 E49.14328
G1 X57.410 Y49.994 E49.20674
G1 X58.079 Y50.750 E49.28228
G1 X58.738 Y51.600 E49.36284
G1 X59.304 Y52.436 E49.43839
G1 X59.816 Y53.307 E49.51395
G1 X60.201 Y54.062 E49.57739
G1 X60.320 Y54.557 E49.61547
G1 X60.320 Y67.477 E50.58237
G1 X60.201 Y67.972 E50.62045
G1 X59.816 Y68.727 E50.68389
G1 X59.304 Y69.597 E50.75946
G1 X58.738 Y70.434 E50.83500
G1 X58.079 Y71.284 E50.91557
G1 X57.456 Y71.991 E50.98605
G1 X56.810 Y72.640 E51.05456
G1 X56.376 Y72.905 E51.09264
G1 X44.087 Y76.898 E52.05960
G1 X43.578 Y76.938 E52.09783
G1 X42.743 Y76.805 E52.16109
G1 X41.758 Y76.587 E52.23662
G1 X40.788 Y76.308 E52.31215
G1 X39.837 Y75.968 E52.38769
G1 X38.849 Y75.540 E52.46828
G1 X38.095 Y75.156 E52.53165
G1 X37.707 Y74.825 E52.56979
G1 X30.112 Y64.372 E53.53672
G1 X29.917 Y63.902 E53.57480
G1 X29.785 Y63.064 E53.63824
G1 X29.688 Y62.059 E53.71381
G1 X29.654 Y60.983 E53.79438
G1 X29.688 Y59.974 E53.86991
G1 X29.785 Y58.969 E53.94547
G1 X29.917 Y58.132 E54.00891
G1 X30.112 Y57.662 E54.04700
G1 X37.707 Y47.209 E55.01392
G1 X38.094 Y46.878 E55.05206
G1 X38.266 Y46.791 E55.06645
G1 X38.591 Y47.298 F30000.000
G1 F2100
G1 X39.157 Y47.012 E55.11392
G1 X40.004 Y46.645 E55.18299
G1 X40.964 Y46.300 E55.25935
G1 X41.898 Y46.030 E55.33206
G1 X42.846 Y45.820 E55.40477
G1 X43.603 Y45.700 E55.46208
G1 X43.970 Y45.728 E55.48963
G1 X56.123 Y49.677 E56.44594
G1 X56.436 Y49.869 E56.47339
G1 X57.012 Y50.447 E56.53447
G1 X57.653 Y51.177 E56.60719
G1 X58.247 Y51.945 E56.67988
G1 X58.792 Y52.750 E56.75261
G1 X59.286 Y53.587 E56.82534
G1 X59.634 Y54.271 E56.88277
G1 X59.720 Y54.628 E56.91022
G1 X59.720 Y67.406 E57.86649
G1 X59.634 Y67.763 E57.89394
G1 X59.286 Y68.447 E57.95137
G1 X58.792 Y69.284 E58.02410
G1 X58.247 Y70.088 E58.09683
G1 X57.622 Y70.894 E58.17317
G1 X57.012 Y71.587 E58.24224
G1 X56.436 Y72.165 E58.30332
G1 X56.123 Y72.357 E58.33077
G1 X43.970 Y76.306 E59.28709
G1 X43.603 Y76.334 E59.31464
G1 X42.846 Y76.214 E59.37194
G1 X41.898 Y76.004 E59.44465
G1 X40.964 Y75.734 E59.51736
G1 X40.050 Y75.406 E59.59008
G1 X39.157 Y75.022 E59.66280
G1 X38.430 Y74.653 E59.72382
G1 X38.150 Y74.415 E59.75131
G1 X30.639 Y64.077 E60.70760
G1 X30.499 Y63.738 E60.73505
G1 X30.379 Y62.980 E60.79248
G1 X30.286 Y62.012 E60.86522
G1 X30.254 Y61.041 E60.93793
G1 X30.283 Y60.070 E61.01064
G1 X30.373 Y59.102 E61.08335
G1 X30.499 Y58.296 E61.14443
G1 X30.639 Y57.957 E61.17189
G1 X38.150 Y47.619 E62.12817
G1 X38.430 Y47.381 E62.15567
G1 X38.538 Y47.326 E62.16474
G1 X38.863 Y47.833 F30000.000
G1 F2100
G1 X39.404 Y47.559 E62.21012
G1 X40.234 Y47.200 E62.27778
G1 X41.141 Y46.873 E62.34991
G1 X42.009 Y46.621 E62.41757
G1 X42.920 Y46.416 E62.48745
G1 X43.627 Y46.303 E62.54103
G1 X43.852 Y46.321 E62.55791
G1 X55.870 Y50.226 E63.50358
G1 X56.062 Y50.343 E63.52040
G1 X56.568 Y50.851 E63.57405
G1 X57.185 Y51.552 E63.64395
G1 X57.757 Y52.290 E63.71383
G1 X58.265 Y53.038 E63.78150
G1 X58.741 Y53.842 E63.85140
G1 X59.067 Y54.480 E63.90505
G1 X59.120 Y54.699 E63.92187
G1 X59.120 Y67.335 E64.86751
G1 X59.067 Y67.554 E64.88433
G1 X58.741 Y68.192 E64.93799
G1 X58.281 Y68.970 E65.00565
G1 X57.757 Y69.743 E65.07555
G1 X57.166 Y70.505 E65.14767
G1 X56.568 Y71.183 E65.21533
G1 X56.062 Y71.691 E65.26899
G1 X55.870 Y71.808 E65.28581
G1 X43.852 Y75.713 E66.23147
G1 X43.627 Y75.731 E66.24835
G1 X42.920 Y75.617 E66.30193
G1 X42.038 Y75.420 E66.36959
G1 X41.141 Y75.161 E66.43948
G1 X40.262 Y74.845 E66.50937
G1 X39.404 Y74.475 E66.57927
G1 X38.765 Y74.151 E66.63288
G1 X38.594 Y74.004 E66.64973
G1 X31.167 Y63.781 E67.59538
G1 X31.080 Y63.574 E67.61220
G1 X30.969 Y62.865 E67.66586
G1 X30.882 Y61.935 E67.73575
G1 X30.854 Y61.002 E67.80564
G1 X30.882 Y60.098 E67.87331
G1 X30.969 Y59.168 E67.94320
G1 X31.080 Y58.460 E67.99686
G1 X31.167 Y58.252 E68.01368
G1 X38.594 Y48.029 E68.95933
G1 X38.810 Y47.860 E68.97984
G1 X39.135 Y48.368 F30000.000
G1 F2100
G1 X39.651 Y48.106 E69.02314
G1 X40.464 Y47.754 E69.08939
G1 X41.317 Y47.447 E69.15728
G1 X42.167 Y47.200 E69.22353
G1 X43.042 Y47.004 E69.29060
G1 X43.652 Y46.907 E69.33680
G1 X43.734 Y46.913 E69.34302
G1 X55.617 Y50.774 E70.27803
G1 X55.688 Y50.818 E70.28422
G1 X56.124 Y51.255 E70.33045
G1 X56.717 Y51.927 E70.39753
G1 X57.266 Y52.636 E70.46459
G1 X57.763 Y53.368 E70.53085
G1 X58.220 Y54.139 E70.59792
G1 X58.501 Y54.689 E70.64415
G1 X58.520 Y54.770 E70.65034
G1 X58.520 Y67.264 E71.58535
G1 X58.501 Y67.344 E71.59154
G1 X58.220 Y67.895 E71.63777
G1 X57.769 Y68.657 E71.70402
G1 X57.266 Y69.398 E71.77109
G1 X56.710 Y70.115 E71.83898
G1 X56.124 Y70.779 E71.90523
G1 X55.688 Y71.216 E71.95146
G1 X55.617 Y71.259 E71.95765
G1 X43.734 Y75.120 E72.89267
G1 X43.652 Y75.127 E72.89888
G1 X43.042 Y75.030 E72.94508
G1 X42.167 Y74.834 E73.01215
G1 X41.307 Y74.584 E73.07922
G1 X40.474 Y74.284 E73.14548
G1 X39.651 Y73.928 E73.21255
G1 X39.101 Y73.648 E73.25876
G1 X39.038 Y73.594 E73.26496
G1 X31.694 Y63.486 E74.19998
G1 X31.662 Y63.410 E74.20617
G1 X31.566 Y62.800 E74.25240
G1 X31.482 Y61.907 E74.31947
G1 X31.454 Y61.011 E74.38654
G1 X31.482 Y60.127 E74.45279
G1 X31.566 Y59.234 E74.51986
G1 X31.662 Y58.624 E74.56609
G1 X31.694 Y58.548 E74.57228
G1 X39.038 Y48.440 E75.50730
G1 X39.085 Y48.399 E75.51192
G1 E73.51192 F2400.00000
G92 E0
G1 X55.309 Y70.677 F30000.000
G1 E2.00000 F2400.00000
G1 F2100
G1 X43.642 Y74.468 E2.81953
G1 X43.169 Y74.393 E2.85150
G1 X42.334 Y74.206 E2.90865
G1 X41.513 Y73.968 E2.96580
G1 X40.708 Y73.678 E3.02295
G1 X39.923 Y73.338 E3.08010
G1 X39.496 Y73.121 E3.11206
G1 X32.286 Y63.196 E3.93160
G1 X32.211 Y62.724 E3.96356
G1 X32.130 Y61.872 E4.02071
G1 X32.103 Y61.017 E4.07786
G1 X32.130 Y60.162 E4.13501
G1 X32.211 Y59.310 E4.19216
G1 X32.286 Y58.838 E4.22412
G1 X39.496 Y48.913 E5.04366
G1 X39.923 Y48.696 E5.07562
G1 X40.708 Y48.356 E5.13277
G1 X41.513 Y48.066 E5.18992
G1 X42.334 Y47.828 E5.24707
G1 X43.169 Y47.641 E5.30422
G1 X43.642 Y47.566 E5.33619
G1 X55.309 Y51.357 E6.15572
G1 X55.647 Y51.695 E6.18769
G1 X56.213 Y52.337 E6.24484
G1 X56.737 Y53.013 E6.30198
G1 X57.218 Y53.720 E6.35913
G1 X57.653 Y54.457 E6.41628
G1 X57.871 Y54.883 E6.44825
G1 X57.871 Y67.151 E7.26778
G1 X57.653 Y67.577 E7.29975
G1 X57.218 Y68.313 E7.35690
G1 X56.737 Y69.021 E7.41405
G1 X56.213 Y69.697 E7.47119
G1 X55.647 Y70.338 E7.52834
G1 X55.351 Y70.634 E7.55630
G1 X55.309 Y70.677 F30000.000
G1 X55.021 Y70.207 F30000.000
G1 F2100
G1 X43.598 Y73.919 E8.35865
G1 X43.269 Y73.866 E8.38090
G1 X42.467 Y73.687 E8.43581
G1 X41.678 Y73.458 E8.49070
G1 X40.905 Y73.180 E8.54560
G1 X40.151 Y72.853 E8.60050
G1 X39.854 Y72.702 E8.62276
G1 X32.795 Y62.985 E9.42511
G1 X32.742 Y62.656 E9.44736
G1 X32.665 Y61.838 E9.50226
G1 X32.639 Y61.017 E9.55716
G1 X32.665 Y60.195 E9.61206
G1 X32.742 Y59.377 E9.66696
G1 X32.795 Y59.048 E9.68921
G1 X39.854 Y49.332 E10.49156
G1 X40.151 Y49.181 E10.51381
G1 X40.905 Y48.854 E10.56872
G1 X41.678 Y48.576 E10.62361
G1 X42.467 Y48.347 E10.67851
G1 X43.269 Y48.167 E10.73341
