; generated by Slic3r 1.3.0 on 2021-02-17 at 22:39:48

; external perimeters extrusion width = 0.44mm (2.78mm^3/s)
; perimeters extrusion width = 0.40mm (7.14mm^3/s)
; infill extrusion width = 0.50mm (10.97mm^3/s)
; solid infill extrusion width = 0.60mm (6.68mm^3/s)
; top infill extrusion width = 0.40mm (2.14mm^3/s)

M107
M190 S80 ; set bed temperature and wait for it to be reached
M104 S210 ; set temperature
G28 ; home all axes
G1 Z5 F5000 ; lift nozzle

; Filament gcode

M109 S210 ; set temperature and wait for it to be reached
G21 ; set units to millimeters
G90 ; use absolute coordinates
M82 ; use absolute distances for extrusion
G92 E0
G1 Z0.300 F30000.000
G1 E-2.00000 F2400.00000
G92 E0
G1 X23.186 Y28.216 F30000.000
G1 E2.00000 F2400.00000
G1 F2100
G1 X24.492 Y27.100 E2.11474
G1 X25.200 Y26.748 E2.16755
G1 X26.002 Y26.401 E2.22596
G1 X27.040 Y26.019 E2.29982
G1 X28.323 Y25.647 E2.38907
G1 X29.176 Y25.456 E2.44748
G1 X29.956 Y25.325 E2.50031
G1 X31.668 Y25.460 E2.61505
G1 X43.473 Y29.295 E3.44421
G1 X44.937 Y30.192 E3.55893
G1 X45.491 Y30.757 E3.61175
G1 X46.216 Y31.591 E3.68561
G1 X46.888 Y32.468 E3.75940
G1 X47.379 Y33.192 E3.81786
G1 X47.948 Y34.139 E3.89169
G1 X48.314 Y34.841 E3.94453
G1 X48.715 Y36.510 E4.05925
G1 X48.715 Y48.922 E4.88841
G1 X48.314 Y50.592 E5.00312
G1 X47.948 Y51.293 E5.05596
G1 X47.503 Y52.046 E5.11439
G1 X46.888 Y52.964 E5.18826
G1 X46.216 Y53.841 E5.26204
G1 X45.491 Y54.676 E5.33590
G1 X44.937 Y55.240 E5.38872
G1 X43.473 Y56.137 E5.50345
G1 X31.668 Y59.972 E6.33261
G1 X29.956 Y60.107 E6.44734
G1 X29.176 Y59.976 E6.50017
G1 X28.323 Y59.786 E6.55858
G1 X27.040 Y59.413 E6.64784
G1 X26.002 Y59.032 E6.72169
G1 X25.200 Y58.684 E6.78010
G1 X24.492 Y58.332 E6.83292
G1 X23.186 Y57.216 E6.94766
G1 X15.891 Y47.175 E7.77681
G1 X15.234 Y45.589 E7.89153
G1 X15.117 Y44.807 E7.94437
G1 X15.035 Y43.936 E8.00280
G1 X14.993 Y42.831 E8.07665
G1 X15.035 Y41.496 E8.16587
G1 X15.117 Y40.626 E8.22430
G1 X15.234 Y39.843 E8.27714
G1 X15.891 Y38.257 E8.39186
G1 X23.151 Y28.264 E9.21701
G1 X23.620 Y28.530 F30000.000
G1 F2100
G1 X24.735 Y27.577 E9.31504
G1 X25.413 Y27.239 E9.36561
G1 X26.215 Y26.892 E9.42402
G1 X27.222 Y26.523 E9.49562
G1 X28.440 Y26.169 E9.58039
G1 X29.293 Y25.979 E9.63879
G1 X30.040 Y25.854 E9.68938
G1 X31.503 Y25.969 E9.78740
G1 X43.307 Y29.804 E10.61657
G1 X44.558 Y30.571 E10.71458
G1 X45.089 Y31.111 E10.76516
G1 X45.793 Y31.919 E10.83677
G1 X46.445 Y32.769 E10.90831
G1 X46.936 Y33.493 E10.96677
G1 X47.582 Y34.585 E11.05154
G1 X47.837 Y35.084 E11.08895
G1 X48.179 Y36.510 E11.18696
G1 X48.179 Y48.922 E12.01611
G1 X47.837 Y50.348 E12.11412
G1 X47.487 Y51.020 E12.16472
G1 X47.042 Y51.773 E12.22315
G1 X46.445 Y52.663 E12.29476
G1 X45.793 Y53.513 E12.36630
G1 X45.089 Y54.321 E12.43791
G1 X44.558 Y54.861 E12.48849
G1 X43.307 Y55.628 E12.58651
G1 X31.503 Y59.463 E13.41567
G1 X30.040 Y59.578 E13.51369
G1 X29.293 Y59.454 E13.56428
G1 X28.440 Y59.263 E13.62269
G1 X27.221 Y58.909 E13.70745
G1 X26.215 Y58.540 E13.77906
G1 X25.413 Y58.193 E13.83747
G1 X24.735 Y57.855 E13.88804
G1 X23.620 Y56.902 E13.98607
G1 X16.324 Y46.861 E14.81522
G1 X15.763 Y45.505 E14.91324
G1 X15.650 Y44.756 E14.96383
G1 X15.568 Y43.885 E15.02226
G1 X15.528 Y42.814 E15.09385
G1 X15.568 Y41.547 E15.17859
G1 X15.650 Y40.676 E15.23701
G1 X15.763 Y39.927 E15.28761
G1 X16.324 Y38.572 E15.38562
G1 X23.584 Y28.579 E16.21077
G1 X24.053 Y28.845 F30000.000
G1 F2100
G1 X24.979 Y28.055 E16.29209
G1 X25.625 Y27.731 E16.34041
G1 X26.428 Y27.384 E16.39883
G1 X27.403 Y27.027 E16.46818
G1 X28.557 Y26.692 E16.54845
G1 X29.410 Y26.501 E16.60686
G1 X30.124 Y26.383 E16.65520
G1 X31.337 Y26.478 E16.73652
G1 X43.141 Y30.314 E17.56568
G1 X44.179 Y30.950 E17.64699
G1 X44.687 Y31.465 E17.69532
G1 X45.370 Y32.247 E17.76468
G1 X46.002 Y33.070 E17.83398
G1 X46.493 Y33.794 E17.89243
G1 X47.105 Y34.828 E17.97271
G1 X47.359 Y35.327 E18.01012
G1 X47.643 Y36.510 E18.09142
G1 X47.643 Y48.922 E18.92058
G1 X47.359 Y50.105 E19.00188
G1 X47.026 Y50.748 E19.05023
G1 X46.581 Y51.500 E19.10865
G1 X46.002 Y52.362 E19.17802
G1 X45.370 Y53.185 E19.24732
G1 X44.687 Y53.967 E19.31668
G1 X44.179 Y54.482 E19.36501
G1 X43.141 Y55.118 E19.44632
G1 X31.337 Y58.954 E20.27548
G1 X30.124 Y59.049 E20.35680
G1 X29.410 Y58.931 E20.40514
G1 X28.557 Y58.740 E20.46355
G1 X27.403 Y58.405 E20.54382
G1 X26.428 Y58.048 E20.61318
G1 X25.625 Y57.701 E20.67159
G1 X24.979 Y57.377 E20.71991
G1 X24.053 Y56.587 E20.80123
G1 X16.758 Y46.546 E21.63039
G1 X16.292 Y45.421 E21.71170
G1 X16.184 Y44.706 E21.76005
G1 X16.101 Y43.835 E21.81847
G1 X16.064 Y42.798 E21.88782
G1 X16.101 Y41.597 E21.96806
G1 X16.184 Y40.726 E22.02649
G1 X16.292 Y40.011 E22.07483
G1 X16.758 Y38.886 E22.15614
G1 X24.018 Y28.894 E22.98129
G1 X24.486 Y29.160 F30000.000
G1 F2100
G1 X25.222 Y28.532 E23.04590
G1 X25.838 Y28.223 E23.09198
G1 X26.641 Y27.875 E23.15039
G1 X27.584 Y27.531 E23.21750
G1 X28.674 Y27.215 E23.29328
G1 X29.527 Y27.024 E23.35169
G1 X30.208 Y26.912 E23.39778
G1 X31.172 Y26.988 E23.46239
G1 X42.976 Y30.823 E24.29155
G1 X43.800 Y31.329 E24.35616
G1 X44.285 Y31.819 E24.40224
G1 X44.864 Y32.475 E24.46066
G1 X45.482 Y33.266 E24.52776
G1 X46.120 Y34.204 E24.60353
G1 X46.565 Y34.957 E24.66195
G1 X46.882 Y35.570 E24.70805
G1 X47.108 Y36.510 E24.77265
G1 X47.108 Y48.922 E25.60180
G1 X46.882 Y49.862 E25.66640
G1 X46.565 Y50.475 E25.71250
G1 X46.050 Y51.337 E25.77960
G1 X45.559 Y52.061 E25.83804
G1 X44.947 Y52.857 E25.90510
G1 X44.285 Y53.613 E25.97221
G1 X43.800 Y54.104 E26.01830
G1 X42.976 Y54.609 E26.08290
G1 X31.172 Y58.444 E26.91206
G1 X30.208 Y58.520 E26.97667
G1 X29.527 Y58.408 E27.02276
G1 X28.674 Y58.217 E27.08117
G1 X27.584 Y57.901 E27.15695
G1 X26.641 Y57.557 E27.22406
G1 X25.838 Y57.210 E27.28247
G1 X25.222 Y56.900 E27.32855
G1 X24.486 Y56.272 E27.39316
G1 X17.191 Y46.231 E28.22232
G1 X16.821 Y45.337 E28.28692
G1 X16.717 Y44.655 E28.33302
G1 X16.635 Y43.785 E28.39144
G1 X16.599 Y42.781 E28.45854
G1 X16.635 Y41.647 E28.53430
G1 X16.717 Y40.777 E28.59272
G1 X16.821 Y40.095 E28.63882
G1 X17.191 Y39.201 E28.70342
G1 X24.451 Y29.209 E29.52857
G1 X24.920 Y29.475 F30000.000
G1 F2100
G1 X25.465 Y29.009 E29.57647
G1 X25.964 Y28.755 E29.61388
G1 X26.853 Y28.367 E29.67872
G1 X27.766 Y28.035 E29.74358
G1 X28.697 Y27.761 E29.80843
G1 X29.738 Y27.529 E29.87971
G1 X30.292 Y27.441 E29.91712
G1 X31.006 Y27.497 E29.96503
G1 X42.810 Y31.333 E30.79418
G1 X43.422 Y31.707 E30.84208
G1 X43.818 Y32.103 E30.87949
G1 X44.462 Y32.829 E30.94434
G1 X45.059 Y33.595 E31.00919
G1 X45.607 Y34.396 E31.07404
G1 X46.151 Y35.314 E31.14533
G1 X46.405 Y35.813 E31.18274
G1 X46.572 Y36.510 E31.23063
G1 X46.572 Y48.922 E32.05979
G1 X46.405 Y49.619 E32.10768
G1 X46.104 Y50.202 E32.15154
G1 X45.607 Y51.036 E32.21638
G1 X45.116 Y51.760 E32.27481
G1 X44.523 Y52.528 E32.33964
G1 X43.884 Y53.259 E32.40450
G1 X43.422 Y53.725 E32.44834
G1 X42.810 Y54.099 E32.49624
G1 X31.006 Y57.935 E33.32540
G1 X30.292 Y57.991 E33.37330
G1 X29.738 Y57.903 E33.41071
G1 X28.697 Y57.671 E33.48199
G1 X27.766 Y57.397 E33.54684
G1 X26.853 Y57.065 E33.61170
G1 X25.964 Y56.677 E33.67654
G1 X25.465 Y56.423 E33.71395
G1 X24.920 Y55.957 E33.76185
G1 X17.624 Y45.916 E34.59101
G1 X17.350 Y45.254 E34.63891
G1 X17.262 Y44.701 E34.67632
G1 X17.168 Y43.734 E34.74117
G1 X17.134 Y42.764 E34.80603
G1 X17.162 Y41.794 E34.87087
G1 X17.262 Y40.732 E34.94216
G1 X17.350 Y40.178 E34.97957
G1 X17.624 Y39.516 E35.02746
G1 X24.884 Y29.523 E35.85261
G1 X25.726 Y30.061 F30000.000
G1 F2100
G1 X25.860 Y29.926 E35.87639
G1 X26.439 Y29.632 E35.95732
G1 X27.273 Y29.271 E36.07060
G1 X28.111 Y28.970 E36.18176
G1 X28.983 Y28.716 E36.29504
G1 X29.869 Y28.517 E36.40831
G1 X30.510 Y28.415 E36.48920
G1 X30.638 Y28.425 E36.50519
G1 X42.563 Y32.300 E38.06917
G1 X42.672 Y32.367 E38.08510
G1 X43.131 Y32.826 E38.16606
G1 X43.720 Y33.495 E38.27723
G1 X44.277 Y34.212 E38.39050
G1 X44.788 Y34.963 E38.50378
G1 X45.251 Y35.744 E38.61705
G1 X45.546 Y36.322 E38.69802
G1 X45.576 Y36.446 E38.71395
G1 X45.576 Y48.986 E40.27791
G1 X45.546 Y49.110 E40.29384
G1 X45.251 Y49.688 E40.37480
G1 X44.797 Y50.455 E40.48597
G1 X44.287 Y51.207 E40.59925
G1 X43.720 Y51.938 E40.71463
G1 X43.131 Y52.606 E40.82579
G1 X42.672 Y53.066 E40.90676
G1 X42.563 Y53.132 E40.92269
G1 X30.638 Y57.007 E42.48667
G1 X30.510 Y57.017 E42.50266
G1 X29.869 Y56.915 E42.58355
G1 X28.983 Y56.716 E42.69682
G1 X28.111 Y56.463 E42.81009
G1 X27.273 Y56.161 E42.92126
G1 X26.439 Y55.800 E43.03453
G1 X25.860 Y55.506 E43.11547
G1 X25.763 Y55.423 E43.13142
G1 X18.393 Y45.279 E44.69539
G1 X18.344 Y45.161 E44.71132
G1 X18.243 Y44.520 E44.79229
G1 X18.158 Y43.615 E44.90556
G1 X18.130 Y42.724 E45.01673
G1 X18.158 Y41.817 E45.13000
G1 X18.243 Y40.913 E45.24327
G1 X18.344 Y40.271 E45.32424
G1 X18.393 Y40.153 E45.34017
G1 X25.690 Y30.109 E46.88868
G1 E44.88868 F2400.00000
G92 E0
G1 X42.175 Y52.376 F30000.000
G1 E2.00000 F2400.00000
G1 F2100
G1 X30.508 Y56.167 E2.81953
G1 X30.035 Y56.092 E2.85150
G1 X29.200 Y55.905 E2.90865
G1 X28.379 Y55.667 E2.96580
G1 X27.574 Y55.377 E3.02295
G1 X26.789 Y55.037 E3.08010
G1 X26.362 Y54.820 E3.11206
G1 X19.152 Y44.895 E3.93160
G1 X19.077 Y44.423 E3.96356
G1 X18.996 Y43.571 E4.02071
G1 X18.969 Y42.716 E4.07786
G1 X18.996 Y41.861 E4.13501
G1 X19.077 Y41.009 E4.19216
G1 X19.152 Y40.537 E4.22412
G1 X26.362 Y30.612 E5.04366
G1 X26.789 Y30.395 E5.07562
G1 X27.574 Y30.055 E5.13277
G1 X28.379 Y29.765 E5.18992
G1 X29.200 Y29.527 E5.24707
G1 X30.035 Y29.340 E5.30422
G1 X30.508 Y29.265 E5.33619
G1 X42.175 Y33.056 E6.15572
G1 X42.513 Y33.394 E6.18769
G1 X43.079 Y34.036 E6.24484
G1 X43.603 Y34.712 E6.30198
G1 X44.084 Y35.420 E6.35913
G1 X44.519 Y36.156 E6.41628
G1 X44.737 Y36.582 E6.44825
G1 X44.737 Y48.850 E7.26778
G1 X44.519 Y49.276 E7.29975
G1 X44.084 Y50.012 E7.35690
G1 X43.603 Y50.720 E7.41405
G1 X43.079 Y51.396 E7.47119
G1 X42.513 Y52.038 E7.52834
G1 X42.217 Y52.334 E7.55630
G1 X42.175 Y52.376 F30000.000
G1 X41.887 Y51.906 F30000.000
G1 F2100
G1 X30.464 Y55.618 E8.35865
G1 X30.135 Y55.566 E8.38090
G1 X29.333 Y55.386 E8.43581
G1 X28.544 Y55.157 E8.49070
G1 X27.771 Y54.879 E8.54560
G1 X27.017 Y54.552 E8.60050
G1 X26.720 Y54.401 E8.62276
G1 X19.661 Y44.685 E9.42511
G1 X19.608 Y44.356 E9.44736
G1 X19.531 Y43.537 E9.50226
G1 X19.505 Y42.716 E9.55716
G1 X19.531 Y41.895 E9.61206
G1 X19.608 Y41.077 E9.66696
G1 X19.661 Y40.748 E9.68921
G1 X26.720 Y31.031 E10.49156
G1 X27.017 Y30.880 E10.51381
G1 X27.771 Y30.553 E10.56872
G1 X28.544 Y30.275 E10.62361
G1 X29.333 Y30.046 E10.67851
G1 X30.135 Y29.867 E10.73341
G1 X30.464 Y29.814 E10.75567
G1 X41.887 Y33.526 E11.55802
G1 X42.122 Y33.761 E11.58027
G1 X42.666 Y34.378 E11.63517
G1 X43.169 Y35.027 E11.69007
G1 X43.631 Y35.707 E11.74497
G1 X44.050 Y36.414 E11.79987
G1 X44.201 Y36.711 E11.82212
G1 X44.201 Y48.721 E12.62447
G1 X44.050 Y49.018 E12.64672
G1 X43.631 Y49.725 E12.70162
G1 X43.169 Y50.405 E12.75652
G1 X42.666 Y51.054 E12.81142
G1 X42.122 Y51.671 E12.86632
G1 X41.929 Y51.864 E12.88457
G1 X41.542 Y51.494 F30000.000
G1 F2100
G1 X41.789 Y51.246 E12.90824
G1 X42.310 Y50.656 E12.96144
G1 X42.793 Y50.033 E13.01474
G1 X43.236 Y49.381 E13.06805
G1 X43.711 Y48.558 E13.13236
G1 X40.406 Y51.863 E13.44846
G1 X39.270 Y52.232 E13.52924
G1 X43.722 Y47.780 E13.95505
G1 X43.722 Y47.013 E14.00691
G1 X38.134 Y52.601 E14.54137
G1 X36.998 Y52.970 E14.62214
G1 X43.722 Y46.246 E15.26524
G1 X43.722 Y45.479 E15.31710
G1 X35.862 Y53.339 E16.06885
G1 X34.726 Y53.708 E16.14962
G1 X43.722 Y44.712 E17.01001
G1 X43.722 Y43.945 E17.06187
G1 X33.590 Y54.077 E18.03090
G1 X32.455 Y54.446 E18.11168
G1 X43.722 Y43.179 E19.18936
G1 X43.722 Y42.412 E19.24122
G1 X31.319 Y54.815 E20.42754
G1 X30.364 Y55.125 E20.49540
G1 X30.259 Y55.109 E20.50265
G1 X43.722 Y41.645 E21.79036
G1 X43.722 Y40.878 E21.84223
G1 X29.628 Y54.973 E23.19029
G1 X29.022 Y54.811 E23.23267
G1 X43.722 Y40.111 E24.63865
G1 X43.722 Y39.344 E24.69051
G1 X28.439 Y54.627 E26.15223
G1 X27.877 Y54.422 E26.19268
G1 X43.722 Y38.578 E27.70815
G1 X43.722 Y37.811 E27.76001
G1 X27.342 Y54.191 E29.32666
G1 X27.021 Y54.039 E29.35069
G1 X26.897 Y53.869 E29.36492
G1 X43.722 Y37.044 E30.97412
G1 X43.722 Y36.783 E30.99179
G1 X43.543 Y36.456 E31.01696
G1 X26.575 Y53.425 E32.63988
G1 X26.252 Y52.981 E32.67701
G1 X43.258 Y35.975 E34.30354
G1 X42.950 Y35.516 E34.34091
G1 X25.929 Y52.536 E35.96881
G1 X25.606 Y52.092 E36.00593
G1 X42.627 Y35.072 E37.63385
G1 X42.291 Y34.641 E37.67080
G1 X25.284 Y51.648 E39.29742
G1 X24.961 Y51.204 E39.33455
G1 X41.931 Y34.234 E40.95767
G1 X41.656 Y33.939 E40.98497
G1 X41.508 Y33.891 E40.99550
G1 X24.638 Y50.760 E42.60895
G1 X24.316 Y50.316 E42.64608
G1 X40.929 Y33.702 E44.23504
G1 X40.350 Y33.514 E44.27619
G1 X23.993 Y49.871 E45.84066
G1 X23.670 Y49.427 E45.87778
G1 X39.771 Y33.326 E47.41775
G1 X39.193 Y33.138 E47.45891
G1 X23.348 Y48.983 E48.97439
G1 X23.025 Y48.539 E49.01151
G1 X38.614 Y32.950 E50.50250
G1 X38.035 Y32.762 E50.54365
G1 X22.702 Y48.095 E52.01014
G1 X22.380 Y47.651 E52.04727
G1 X37.456 Y32.574 E53.48927
G1 X36.877 Y32.386 E53.53042
G1 X22.057 Y47.207 E54.94793
G1 X21.734 Y46.762 E54.98505
G1 X36.299 Y32.198 E56.37806
G1 X35.720 Y32.010 E56.41922
G1 X21.412 Y46.318 E57.78774
G1 X21.089 Y45.874 E57.82486
G1 X35.141 Y31.822 E59.16889
G1 X34.562 Y31.634 E59.21004
G1 X20.766 Y45.430 E60.52957
G1 X20.443 Y44.986 E60.56670
G1 X33.984 Y31.446 E61.86174
G1 X33.405 Y31.258 E61.90289
G1 X20.121 Y44.542 E63.17344
G1 X20.113 Y44.531 E63.17437
G1 X20.037 Y43.858 E63.22011
G1 X32.826 Y31.070 E64.44328
G1 X32.247 Y30.882 E64.48444
G1 X19.996 Y43.133 E65.65623
G1 X19.997 Y42.365 E65.70819
G1 X31.668 Y30.694 E66.82448
G1 X31.090 Y30.505 E66.86564
G1 X20.051 Y41.544 E67.92145
G1 X20.113 Y41.015 E67.95748
G1 X20.908 Y39.920 E68.04903
G1 X30.511 Y30.317 E68.96747
G1 X30.478 Y30.307 E68.96981
G1 X30.293 Y30.336 E68.98250
G1 X29.562 Y30.499 E69.03312
G1 X22.946 Y37.116 E69.66595
G1 X24.983 Y34.312 E69.90037
G1 X28.454 Y30.840 E70.23238
G1 X28.025 Y30.995 E70.26323
G1 X27.302 Y31.308 E70.31653
G1 X27.135 Y31.393 E70.32920
G1 X27.021 Y31.507 E70.34007
G1 Z0.500 F30000.000
G1 X41.961 Y52.133 F30000.000
G1 F6000
G1 X30.451 Y55.873 E70.69939
G1 X30.088 Y55.815 E70.71031
G1 X29.270 Y55.633 E70.73518
G1 X28.466 Y55.399 E70.76005
G1 X27.677 Y55.115 E70.78493
G1 X26.908 Y54.782 E70.80980
G1 X26.581 Y54.616 E70.82071
G1 X19.414 Y44.750 E71.18277
G1 X19.356 Y44.387 E71.19368
G1 X19.277 Y43.553 E71.21856
G1 X19.251 Y42.716 E71.24343
G1 X19.277 Y41.879 E71.26831
G1 X19.356 Y41.045 E71.29318
G1 X19.414 Y40.682 E71.30409
G1 X26.581 Y30.816 E71.66615
G1 X26.908 Y30.650 E71.67706
G1 X27.677 Y30.317 E71.70194
G1 X28.466 Y30.033 E71.72681
G1 X29.270 Y29.799 E71.75169
G1 X30.088 Y29.617 E71.77656
G1 X30.451 Y29.559 E71.78747
G1 X42.048 Y33.327 E72.14953
G1 X42.308 Y33.587 E72.16044
G1 X42.862 Y34.216 E72.18532
G1 X43.375 Y34.878 E72.21019
G1 X43.846 Y35.570 E72.23506
G1 X44.273 Y36.292 E72.25994
G1 X44.439 Y36.619 E72.27085
G1 X44.439 Y48.813 E72.63291
G1 X44.273 Y49.141 E72.64382
G1 X43.846 Y49.862 E72.66869
G1 X43.375 Y50.555 E72.69357
G1 X42.862 Y51.216 E72.71844
G1 X42.308 Y51.845 E72.74332
G1 X42.048 Y52.105 E72.75423
G1 X42.018 Y52.115 E72.75517
G1 X42.077 Y52.492 F30000.000
G1 F2100
G1 X30.481 Y56.260 E73.15774
G1 X30.017 Y56.186 E73.17326
G1 X29.176 Y55.998 E73.20170
G1 X28.349 Y55.758 E73.23014
G1 X27.538 Y55.466 E73.25859
G1 X26.748 Y55.124 E73.28703
G1 X26.329 Y54.911 E73.30255
G1 X19.055 Y44.899 E73.71114
G1 X18.982 Y44.435 E73.72665
G1 X18.901 Y43.577 E73.75510
G1 X18.874 Y42.716 E73.78354
G1 X18.901 Y41.855 E73.81198
G1 X18.982 Y40.997 E73.84043
G1 X19.055 Y40.533 E73.85594
G1 X26.329 Y30.522 E74.26453
G1 X26.748 Y30.308 E74.28005
G1 X27.538 Y29.966 E74.30849
G1 X28.349 Y29.674 E74.33693
G1 X29.176 Y29.434 E74.36538
G1 X30.017 Y29.246 E74.39382
G1 X30.481 Y29.173 E74.40934
G1 X42.251 Y32.997 E74.81793
G1 X42.583 Y33.329 E74.83344
G1 X43.153 Y33.975 E74.86189
G1 X43.680 Y34.656 E74.89033
G1 X44.165 Y35.368 E74.91877
G1 X44.603 Y36.110 E74.94721
G1 X44.817 Y36.528 E74.96273
G1 X44.817 Y48.904 E75.37132
G1 X44.603 Y49.322 E75.38684
G1 X44.165 Y50.064 E75.41528
