; generated by Slic3r 1.3.0 on 2021-02-17 at 19:19:25

; external perimeters extrusion width = 0.44mm (2.78mm^3/s)
; perimeters extrusion width = 0.40mm (7.14mm^3/s)
; infill extrusion width = 0.50mm (10.97mm^3/s)
; solid infill extrusion width = 0.60mm (6.68mm^3/s)
; top infill extrusion width = 0.40mm (2.14mm^3/s)

M107
M190 S80 ; set bed temperature and wait for it to be reached
M104 S210 ; set temperature
G28 ; home all axes
G1 Z5 F5000 ; lift nozzle

; Filament gcode

M109 S210 ; set temperature and wait for it to be reached
G21 ; set units to millimeters
G90 ; use absolute coordinates
M82 ; use absolute distances for extrusion
G92 E0
G1 Z0.300 F30000.000
G1 E-2.00000 F2400.00000
G92 E0
G1 X37.446 Y31.354 F30000.000
G1 E2.00000 F2400.00000
G1 F2100
G1 X38.891 Y30.119 E2.12700
G1 X39.621 Y29.757 E2.18146
G1 X40.424 Y29.409 E2.23987
G1 X41.485 Y29.019 E2.31538
G1 X42.815 Y28.632 E2.40793
G1 X43.919 Y28.394 E2.48341
G1 X44.472 Y28.306 E2.52082
G1 X45.101 Y28.256 E2.56294
G1 X105.059 Y28.129 E6.56844
G1 X106.325 Y28.328 E6.65411
G1 X118.129 Y32.164 E7.48327
G1 X119.750 Y33.157 E7.61026
G1 X120.146 Y33.553 E7.64766
G1 X120.899 Y34.395 E7.72314
G1 X121.598 Y35.283 E7.79864
G1 X122.240 Y36.213 E7.87413
G1 X122.822 Y37.182 E7.94961
G1 X123.199 Y37.905 E8.00410
G1 X123.643 Y39.753 E8.13108
G1 X123.643 Y52.170 E8.96058
G1 X123.568 Y112.303 E12.97782
G1 X123.124 Y114.146 E13.10446
G1 X122.746 Y114.869 E13.15895
G1 X122.164 Y115.838 E13.23444
G1 X121.523 Y116.768 E13.30992
G1 X120.824 Y117.656 E13.38542
G1 X120.245 Y118.312 E13.44384
G1 X119.675 Y118.894 E13.49831
G1 X118.054 Y119.887 E13.62530
G1 X106.250 Y123.722 E14.45446
G1 X105.000 Y123.922 E14.53898
G1 X45.050 Y124.050 E18.54399
G1 X44.404 Y123.999 E18.58725
G1 X43.851 Y123.912 E18.62466
G1 X42.747 Y123.673 E18.70014
G1 X41.417 Y123.287 E18.79270
G1 X40.356 Y122.896 E18.86820
G1 X39.553 Y122.549 E18.92662
G1 X38.823 Y122.186 E18.98107
G1 X37.378 Y120.951 E19.10808
G1 X30.082 Y110.910 E19.93723
G1 X29.355 Y109.154 E20.06422
G1 X29.235 Y108.347 E20.11871
G1 X29.153 Y107.477 E20.17714
G1 X29.108 Y106.215 E20.26145
G1 X29.176 Y46.081 E24.27876
G1 X29.205 Y45.084 E24.34542
G1 X29.303 Y43.958 E24.42090
G1 X29.423 Y43.151 E24.47539
G1 X30.151 Y41.395 E24.60237
G1 X37.411 Y31.403 E25.42752
G1 X37.879 Y31.669 F30000.000
G1 F2100
G1 X39.135 Y30.597 E25.53781
G1 X39.834 Y30.248 E25.59003
G1 X40.637 Y29.901 E25.64844
G1 X41.666 Y29.523 E25.72170
G1 X42.932 Y29.155 E25.80976
G1 X44.003 Y28.923 E25.88299
G1 X44.556 Y28.835 E25.92040
G1 X45.102 Y28.792 E25.95697
G1 X105.060 Y28.665 E29.96248
G1 X106.160 Y28.838 E30.03687
G1 X117.964 Y32.673 E30.86604
G1 X119.371 Y33.536 E30.97632
G1 X119.919 Y34.093 E31.02854
G1 X120.639 Y34.921 E31.10180
G1 X121.305 Y35.791 E31.17499
G1 X121.797 Y36.514 E31.23345
G1 X122.361 Y37.454 E31.30668
G1 X122.722 Y38.148 E31.35893
G1 X123.107 Y39.753 E31.46920
G1 X123.107 Y52.169 E32.29865
G1 X123.032 Y112.302 E36.31589
G1 X122.647 Y113.903 E36.42587
G1 X122.285 Y114.597 E36.47812
G1 X121.840 Y115.349 E36.53655
G1 X121.229 Y116.260 E36.60982
G1 X120.564 Y117.130 E36.68300
G1 X119.844 Y117.957 E36.75627
G1 X119.296 Y118.515 E36.80849
G1 X117.888 Y119.378 E36.91877
G1 X106.084 Y123.213 E37.74793
G1 X104.999 Y123.386 E37.82133
G1 X45.049 Y123.514 E41.82634
G1 X44.488 Y123.470 E41.86391
G1 X43.935 Y123.383 E41.90132
G1 X42.864 Y123.150 E41.97455
G1 X41.598 Y122.783 E42.06262
G1 X40.569 Y122.405 E42.13587
G1 X39.766 Y122.057 E42.19428
G1 X39.067 Y121.709 E42.24650
G1 X37.811 Y120.637 E42.35679
G1 X30.516 Y110.596 E43.18595
G1 X29.884 Y109.070 E43.29623
G1 X29.769 Y108.297 E43.34847
G1 X29.686 Y107.426 E43.40690
G1 X29.643 Y106.216 E43.48781
G1 X29.711 Y46.082 E47.50511
G1 X29.741 Y45.100 E47.57068
G1 X29.837 Y44.008 E47.64392
G1 X29.952 Y43.235 E47.69616
G1 X30.584 Y41.710 E47.80644
G1 X37.844 Y31.717 E48.63158
G1 E46.63158 F2400.00000
G92 E0
G1 X62.364 Y40.248 F30000.000
G1 E2.00000 F2400.00000
G1 F2100
G1 X62.799 Y40.389 E2.03425
G1 X68.891 Y32.004 E2.80993
G1 X69.387 Y31.580 E2.85872
G1 X70.291 Y31.123 E2.93454
G1 X71.173 Y30.742 E3.00643
G1 X72.157 Y30.384 E3.08480
G1 X73.246 Y30.068 E3.16961
G1 X74.183 Y29.859 E3.24149
G1 X75.182 Y29.697 E3.31720
G1 X75.833 Y29.748 E3.36608
G1 X88.257 Y33.785 E4.34369
G1 X88.812 Y34.125 E4.39240
G1 X89.528 Y34.844 E4.46833
G1 X90.218 Y35.632 E4.54670
G1 X90.807 Y36.390 E4.61858
G1 X91.144 Y36.882 E4.66319
G1 X91.444 Y37.328 E4.70339
G1 X91.933 Y38.155 E4.77530
G1 X92.396 Y39.058 E4.85124
G1 X92.520 Y39.575 E4.89101
G1 X92.916 Y39.653 E4.92119
G1 X98.665 Y31.740 E5.65313
G1 X99.160 Y31.317 E5.70192
G1 X100.065 Y30.860 E5.77774
G1 X100.946 Y30.478 E5.84963
G1 X101.931 Y30.121 E5.92800
G1 X103.019 Y29.805 E6.01281
G1 X103.956 Y29.595 E6.08469
G1 X104.955 Y29.434 E6.16040
G1 X105.606 Y29.485 E6.20928
G1 X118.030 Y33.522 E7.18689
G1 X118.585 Y33.862 E7.23560
G1 X119.242 Y34.518 E7.30508
G1 X119.936 Y35.302 E7.38344
G1 X120.631 Y36.197 E7.46822
G1 X121.217 Y37.065 E7.54660
G1 X121.748 Y37.968 E7.62498
G1 X122.169 Y38.795 E7.69444
G1 X122.321 Y39.428 E7.74315
G1 X122.321 Y52.490 E8.72068
G1 X122.169 Y53.123 E8.76939
G1 X121.706 Y54.026 E8.84533
G1 X121.217 Y54.853 E8.91724
G1 X120.631 Y55.721 E8.99561
G1 X119.936 Y56.616 E9.08039
G1 X119.301 Y57.336 E9.15229
G1 X118.585 Y58.056 E9.22823
G1 X118.030 Y58.396 E9.27694
G1 X110.532 Y60.832 E9.86699
G1 X110.532 Y61.290 E9.90124
G1 X117.938 Y63.697 E10.48401
G1 X118.493 Y64.037 E10.53271
G1 X119.208 Y64.756 E10.60865
G1 X119.899 Y65.543 E10.68702
G1 X120.538 Y66.372 E10.76534
G1 X121.078 Y67.167 E10.83726
G1 X121.614 Y68.067 E10.91562
G1 X122.077 Y68.970 E10.99156
G1 X122.229 Y69.603 E11.04027
G1 X122.229 Y82.665 E12.01780
G1 X122.077 Y83.298 E12.06651
G1 X121.655 Y84.125 E12.13596
G1 X121.124 Y85.028 E12.21435
G1 X120.487 Y85.965 E12.29917
G1 X119.844 Y86.791 E12.37751
G1 X119.208 Y87.511 E12.44941
G1 X118.493 Y88.231 E12.52535
G1 X117.938 Y88.571 E12.57405
G1 X110.827 Y90.881 E13.13355
G1 X110.827 Y91.339 E13.16781
G1 X117.955 Y93.655 E13.72865
G1 X118.510 Y93.995 E13.77735
G1 X119.225 Y94.714 E13.85329
G1 X119.861 Y95.435 E13.92519
G1 X120.555 Y96.330 E14.00998
G1 X121.142 Y97.198 E14.08835
G1 X121.631 Y98.025 E14.16026
G1 X122.094 Y98.928 E14.23620
G1 X122.246 Y99.561 E14.28491
G1 X122.246 Y112.623 E15.26244
G1 X122.094 Y113.256 E15.31115
G1 X121.631 Y114.159 E15.38708
G1 X121.095 Y115.059 E15.46544
G1 X120.555 Y115.854 E15.53736
G1 X119.916 Y116.683 E15.61568
G1 X119.225 Y117.470 E15.69405
G1 X118.510 Y118.189 E15.76999
G1 X117.955 Y118.529 E15.81869
G1 X105.531 Y122.566 E16.79631
G1 X104.879 Y122.617 E16.84520
G1 X103.881 Y122.455 E16.92090
G1 X102.943 Y122.246 E16.99277
G1 X101.855 Y121.930 E17.07759
G1 X100.951 Y121.604 E17.14949
G1 X99.989 Y121.191 E17.22785
G1 X99.085 Y120.734 E17.30367
G1 X98.589 Y120.310 E17.35246
G1 X92.609 Y112.079 E18.11384
G1 X92.174 Y112.221 E18.14809
G1 X92.174 Y112.681 E18.18250
G1 X92.022 Y113.313 E18.23121
G1 X91.558 Y114.216 E18.30715
G1 X91.069 Y115.043 E18.37906
G1 X90.483 Y115.911 E18.45743
G1 X89.788 Y116.806 E18.54222
G1 X89.094 Y117.590 E18.62057
G1 X88.438 Y118.246 E18.69005
G1 X87.883 Y118.587 E18.73876
G1 X75.458 Y122.623 E19.71638
G1 X74.807 Y122.674 E19.76527
G1 X73.809 Y122.513 E19.84096
G1 X72.871 Y122.303 E19.91284
G1 X71.783 Y121.987 E19.99765
G1 X70.798 Y121.630 E20.07602
G1 X69.917 Y121.248 E20.14791
G1 X69.013 Y120.791 E20.22374
G1 X68.517 Y120.368 E20.27252
G1 X62.731 Y112.404 E21.00918
G1 X62.296 Y112.545 E21.04344
G1 X62.296 Y112.751 E21.05884
G1 X62.144 Y113.384 E21.10755
G1 X61.680 Y114.287 E21.18349
G1 X61.191 Y115.114 E21.25540
G1 X60.554 Y116.051 E21.34021
G1 X59.910 Y116.877 E21.41856
G1 X59.216 Y117.660 E21.49691
G1 X58.560 Y118.317 E21.56639
G1 X58.005 Y118.657 E21.61510
G1 X45.580 Y122.694 E22.59272
G1 X44.929 Y122.745 E22.64161
G1 X43.931 Y122.583 E22.71731
G1 X42.910 Y122.352 E22.79564
G1 X41.905 Y122.058 E22.87399
G1 X41.001 Y121.732 E22.94590
G1 X40.039 Y121.319 E23.02425
G1 X39.135 Y120.861 E23.10008
G1 X38.639 Y120.438 E23.14887
G1 X30.961 Y109.870 E24.12643
G1 X30.712 Y109.269 E24.17515
G1 X30.566 Y108.352 E24.24460
G1 X30.465 Y107.309 E24.32299
G1 X30.430 Y106.263 E24.40135
G1 X30.465 Y105.130 E24.48614
G1 X30.566 Y104.088 E24.56453
G1 X30.712 Y103.171 E24.63398
G1 X30.961 Y102.570 E24.68270
G1 X38.639 Y92.002 E25.66027
G1 X39.135 Y91.578 E25.70905
G1 X39.618 Y91.333 E25.74960
G1 X39.617 Y90.947 E25.77851
G1 X39.383 Y90.827 E25.79819
G1 X38.887 Y90.404 E25.84697
G1 X31.209 Y79.836 E26.82453
G1 X30.960 Y79.235 E26.87326
G1 X30.804 Y78.232 E26.94918
G1 X30.708 Y77.189 E27.02755
G1 X30.678 Y76.229 E27.09945
G1 X30.708 Y75.182 E27.17780
G1 X30.804 Y74.140 E27.25616
G1 X30.960 Y73.137 E27.33209
G1 X31.209 Y72.536 E27.38081
G1 X38.887 Y61.968 E28.35837
G1 X39.383 Y61.544 E28.40716
G1 X39.717 Y61.375 E28.43516
G1 X39.717 Y60.989 E28.46407
G1 X39.203 Y60.727 E28.50724
G1 X38.707 Y60.304 E28.55602
G1 X31.029 Y49.736 E29.53358
G1 X30.780 Y49.134 E29.58230
G1 X30.634 Y48.218 E29.65175
G1 X30.533 Y47.175 E29.73015
G1 X30.498 Y46.129 E29.80850
G1 X30.533 Y44.996 E29.89329
G1 X30.634 Y43.953 E29.97169
G1 X30.780 Y43.037 E30.04114
G1 X31.029 Y42.435 E30.08986
G1 X38.707 Y31.867 E31.06742
G1 X39.203 Y31.444 E31.11621
G1 X40.107 Y30.987 E31.19203
G1 X41.069 Y30.573 E31.27039
G1 X41.973 Y30.248 E31.34229
G1 X42.978 Y29.953 E31.42065
G1 X43.999 Y29.722 E31.49898
G1 X44.997 Y29.561 E31.57469
G1 X45.648 Y29.611 E31.62357
G1 X58.073 Y33.648 E32.60119
G1 X58.628 Y33.988 E32.64989
G1 X59.343 Y34.708 E32.72583
G1 X60.034 Y35.495 E32.80419
G1 X60.673 Y36.324 E32.88251
G1 X61.213 Y37.119 E32.95444
G1 X61.749 Y38.019 E33.03280
G1 X62.212 Y38.921 E33.10873
G1 X62.364 Y39.554 E33.15744
G1 X62.364 Y40.188 E33.20484
G1 X61.764 Y42.094 F30000.000
G1 F2100
G1 X62.199 Y42.236 E33.23910
G1 X69.335 Y32.414 E34.14764
G1 X69.723 Y32.083 E34.18578
G1 X70.477 Y31.699 E34.24915
G1 X71.403 Y31.296 E34.32468
G1 X72.352 Y30.952 E34.40023
G1 X73.386 Y30.652 E34.48081
G1 X74.305 Y30.446 E34.55128
G1 X75.206 Y30.301 E34.61961
G1 X75.715 Y30.340 E34.65782
G1 X88.004 Y34.333 E35.62479
G1 X88.438 Y34.599 E35.66287
G1 X89.084 Y35.248 E35.73137
G1 X89.707 Y35.955 E35.80186
G1 X90.327 Y36.751 E35.87739
G1 X90.896 Y37.584 E35.95293
G1 X91.412 Y38.452 E36.02847
G1 X91.829 Y39.267 E36.09698
G1 X91.948 Y39.762 E36.13506
G1 X91.948 Y41.265 E36.24758
G1 X92.383 Y41.407 E36.28183
G1 X99.108 Y32.151 E37.13802
G1 X99.496 Y31.820 E37.17616
G1 X100.312 Y31.407 E37.24458
G1 X101.239 Y31.008 E37.32012
G1 X102.125 Y30.689 E37.39061
G1 X103.094 Y30.405 E37.46614
G1 X104.144 Y30.170 E37.54672
G1 X104.979 Y30.038 E37.60999
G1 X105.489 Y30.077 E37.64821
G1 X117.777 Y34.070 E38.61517
G1 X118.211 Y34.336 E38.65325
G1 X118.811 Y34.936 E38.71671
G1 X119.480 Y35.691 E38.79225
G1 X120.100 Y36.488 E38.86777
G1 X120.669 Y37.321 E38.94331
G1 X121.218 Y38.248 E39.02392
G1 X121.602 Y39.004 E39.08736
G1 X121.721 Y39.499 E39.12544
G1 X121.721 Y52.419 E40.09234
G1 X121.602 Y52.914 E40.13042
G1 X121.185 Y53.728 E40.19893
G1 X120.705 Y54.539 E40.26942
G1 X120.100 Y55.430 E40.35001
G1 X119.480 Y56.226 E40.42553
G1 X118.811 Y56.982 E40.50107
G1 X118.211 Y57.581 E40.56453
G1 X117.777 Y57.847 E40.60261
G1 X108.590 Y60.832 E41.32554
G1 X108.590 Y61.290 E41.35979
G1 X117.685 Y64.245 E42.07543
G1 X118.119 Y64.511 E42.11351
G1 X118.764 Y65.160 E42.18202
G1 X119.387 Y65.867 E42.25250
G1 X120.047 Y66.717 E42.33307
G1 X120.613 Y67.553 E42.40861
G1 X121.125 Y68.423 E42.48418
G1 X121.510 Y69.179 E42.54762
G1 X121.629 Y69.674 E42.58570
G1 X121.629 Y82.594 E43.55260
G1 X121.510 Y83.089 E43.59068
G1 X121.092 Y83.903 E43.65919
G1 X120.613 Y84.714 E43.72968
G1 X120.008 Y85.605 E43.81027
G1 X119.387 Y86.401 E43.88579
G1 X118.764 Y87.108 E43.95628
G1 X118.119 Y87.756 E44.02479
G1 X117.685 Y88.022 E44.06287
G1 X108.886 Y90.881 E44.75524
G1 X108.886 Y91.339 E44.78950
G1 X117.702 Y94.204 E45.48321
G1 X118.136 Y94.469 E45.52129
G1 X118.781 Y95.118 E45.58980
G1 X119.404 Y95.825 E45.66029
G1 X120.064 Y96.675 E45.74085
G1 X120.630 Y97.512 E45.81640
G1 X121.109 Y98.322 E45.88689
G1 X121.527 Y99.137 E45.95540
G1 X121.646 Y99.632 E45.99348
G1 X121.646 Y112.552 E46.96038
G1 X121.527 Y113.047 E46.99846
G1 X121.142 Y113.802 E47.06191
G1 X120.630 Y114.673 E47.13747
G1 X120.064 Y115.509 E47.21302
G1 X119.404 Y116.359 E47.29358
G1 X118.781 Y117.066 E47.36406
G1 X118.136 Y117.715 E47.43257
G1 X117.702 Y117.981 E47.47065
G1 X105.413 Y121.974 E48.43762
G1 X104.904 Y122.013 E48.47584
G1 X104.002 Y121.868 E48.54416
G1 X103.018 Y121.646 E48.61968
G1 X102.049 Y121.362 E48.69521
G1 X101.163 Y121.043 E48.76570
G1 X100.236 Y120.644 E48.84124
G1 X99.420 Y120.231 E48.90967
G1 X99.033 Y119.900 E48.94780
G1 X92.009 Y110.233 E49.84205
G1 X91.574 Y110.374 E49.87631
G1 X91.574 Y112.610 E50.04359
G1 X91.455 Y113.104 E50.08167
G1 X91.070 Y113.860 E50.14511
G1 X90.522 Y114.787 E50.22572
G1 X89.952 Y115.620 E50.30126
G1 X89.332 Y116.417 E50.37678
G1 X88.709 Y117.123 E50.44727
G1 X88.063 Y117.772 E50.51578
G1 X87.630 Y118.038 E50.55386
G1 X75.341 Y122.031 E51.52083
G1 X74.832 Y122.070 E51.55905
G1 X73.930 Y121.925 E51.62737
G1 X73.011 Y121.720 E51.69784
G1 X71.977 Y121.419 E51.77842
G1 X71.028 Y121.075 E51.85397
G1 X70.103 Y120.672 E51.92949
G1 X69.348 Y120.288 E51.99287
G1 X68.960 Y119.957 E52.03101
G1 X62.131 Y110.557 E52.90054
G1 X61.696 Y110.699 E52.93479
G1 X61.696 Y112.680 E53.08307
G1 X61.577 Y113.175 E53.12115
G1 X61.159 Y113.990 E53.18966
G1 X60.644 Y114.857 E53.26520
G1 X60.114 Y115.637 E53.33571
G1 X59.454 Y116.487 E53.41627
G1 X58.831 Y117.194 E53.48676
G1 X58.185 Y117.843 E53.55527
G1 X57.752 Y118.108 E53.59334
G1 X45.463 Y122.101 E54.56031
G1 X44.954 Y122.141 E54.59853
G1 X44.119 Y122.008 E54.66179
G1 X43.068 Y121.773 E54.74237
G1 X42.099 Y121.490 E54.81791
G1 X41.150 Y121.146 E54.89345
G1 X40.225 Y120.743 E54.96898
G1 X39.470 Y120.359 E55.03236
G1 X39.082 Y120.028 E55.07049
G1 X31.488 Y109.575 E56.03742
G1 X31.293 Y109.105 E56.07551
G1 X31.152 Y108.200 E56.14401
G1 X31.059 Y107.195 E56.21955
G1 X31.030 Y106.254 E56.29004
G1 X31.063 Y105.178 E56.37061
G1 X31.152 Y104.240 E56.44111
G1 X31.293 Y103.335 E56.50961
G1 X31.488 Y102.865 E56.54770
G1 X39.082 Y92.412 E57.51463
G1 X39.470 Y92.081 E57.55277
G1 X40.225 Y91.697 E57.61614
G1 X41.007 Y91.356 E57.67998
G1 X41.007 Y90.942 E57.71095
G1 X40.473 Y90.709 E57.75453
G1 X39.718 Y90.325 E57.81791
G1 X39.331 Y89.994 E57.85605
G1 X31.736 Y79.541 E58.82297
G1 X31.541 Y79.071 E58.86106
G1 X31.400 Y78.166 E58.92957
G1 X31.312 Y77.228 E59.00006
G1 X31.299 Y76.896 E59.02494
G1 X31.278 Y76.152 E59.08063
G1 X31.307 Y75.211 E59.15112
G1 X31.400 Y74.206 E59.22666
G1 X31.541 Y73.301 E59.29517
G1 X31.736 Y72.831 E59.33326
G1 X39.331 Y62.378 E60.30018
G1 X39.718 Y62.047 E60.33832
G1 X40.473 Y61.663 E60.40170
G1 X41.117 Y61.382 E60.45430
G1 X41.117 Y60.968 E60.48527
G1 X40.293 Y60.609 E60.55258
G1 X39.538 Y60.224 E60.61596
G1 X39.150 Y59.894 E60.65410
G1 X31.556 Y49.440 E61.62102
G1 X31.361 Y48.970 E61.65911
G1 X31.228 Y48.133 E61.72255
G1 X31.131 Y47.128 E61.79811
G1 X31.098 Y46.119 E61.87365
G1 X31.131 Y45.043 E61.95421
G1 X31.220 Y44.105 E62.02471
G1 X31.361 Y43.201 E62.09321
G1 X31.556 Y42.731 E62.13131
G1 X39.150 Y32.277 E63.09823
G1 X39.538 Y31.947 E63.13637
G1 X40.293 Y31.562 E63.19975
G1 X41.218 Y31.160 E63.27527
G1 X42.167 Y30.816 E63.35082
G1 X43.201 Y30.515 E63.43140
G1 X44.120 Y30.310 E63.50187
G1 X45.022 Y30.164 E63.57020
G1 X45.531 Y30.204 E63.60841
G1 X57.820 Y34.197 E64.57538
G1 X58.253 Y34.463 E64.61346
G1 X58.899 Y35.112 E64.68197
G1 X59.522 Y35.818 E64.75245
G1 X60.182 Y36.669 E64.83302
G1 X60.748 Y37.505 E64.90856
G1 X61.227 Y38.316 E64.97906
G1 X61.645 Y39.131 E65.04757
G1 X61.764 Y39.625 E65.08565
G1 X61.764 Y42.034 E65.26593
G1 E63.26593 F2400.00000
G92 E0
G1 X61.634 Y43.235 F30000.000
G1 X61.634 Y49.209 F30000.000
G1 X62.199 Y50.208 F30000.000
G1 E2.00000 F2400.00000
G1 F2100
G1 X69.335 Y60.030 E2.90854
G1 X69.723 Y60.361 E2.94668
G1 X70.477 Y60.745 E3.01006
G1 X70.936 Y60.946 E3.04754
G1 X70.936 Y61.360 E3.07851
G1 X70.284 Y61.644 E3.13172
