; generated by Slic3r 1.3.0 on 2020-12-30 at 16:30:22

; external perimeters extrusion width = 0.44mm (2.78mm^3/s)
; perimeters extrusion width = 0.40mm (7.14mm^3/s)
; infill extrusion width = 0.50mm (10.97mm^3/s)
; solid infill extrusion width = 0.60mm (6.68mm^3/s)
; top infill extrusion width = 0.40mm (2.14mm^3/s)

M107
M190 S80 ; set bed temperature and wait for it to be reached
M104 S210 ; set temperature
G28 ; home all axes
G1 Z5 F5000 ; lift nozzle

; Filament gcode

M109 S210 ; set temperature and wait for it to be reached
G21 ; set units to millimeters
G90 ; use absolute coordinates
M82 ; use absolute distances for extrusion
G92 E0
G1 Z0.300 F30000.000
G1 E-2.00000 F2400.00000
G92 E0
G1 X60.856 Y45.225 F30000.000
G1 E2.00000 F2400.00000
G1 F2100
G1 X62.274 Y43.946 E2.12755
G1 X63.818 Y43.390 E2.23717
G1 X66.054 Y43.543 E2.38690
G1 X99.246 Y54.328 E4.71841
G1 X100.900 Y55.281 E4.84596
G1 X101.549 Y56.002 E4.91075
G1 X102.360 Y57.791 E5.04202
G1 X102.462 Y58.755 E5.10677
G1 X102.462 Y93.655 E7.43828
G1 X102.067 Y95.523 E7.56583
G1 X101.583 Y96.363 E7.63060
G1 X100.131 Y97.688 E7.76187
G1 X99.246 Y98.083 E7.82664
G1 X66.054 Y108.867 E10.15815
G1 X64.155 Y109.068 E10.28571
G1 X63.206 Y108.867 E10.35048
G1 X61.498 Y107.896 E10.48175
G1 X60.849 Y107.176 E10.54651
G1 X40.335 Y78.942 E12.87802
G1 X39.558 Y77.198 E13.00557
G1 X39.456 Y76.234 E13.07034
G1 X39.851 Y74.309 E13.20161
G1 X40.335 Y73.469 E13.26638
G1 X60.821 Y45.273 E15.59468
G1 X61.289 Y45.539 F30000.000
G1 F2100
G1 X62.637 Y44.356 E15.71451
G1 X63.907 Y43.918 E15.80422
G1 X65.888 Y44.053 E15.93690
G1 X99.080 Y54.837 E18.26841
G1 X101.116 Y56.316 E18.43652
G1 X101.149 Y56.362 E18.44031
G1 X101.927 Y58.755 E18.60839
G1 X101.927 Y93.655 E20.93990
G1 X101.149 Y96.048 E21.10799
G1 X101.116 Y96.094 E21.11179
G1 X99.080 Y97.573 E21.27989
G1 X65.888 Y108.358 E23.61140
G1 X63.372 Y108.358 E23.77950
G1 X63.318 Y108.340 E23.78329
G1 X61.282 Y106.861 E23.95138
G1 X40.769 Y78.627 E26.28289
G1 X39.991 Y76.234 E26.45098
G1 X39.991 Y76.177 E26.45478
G1 X40.769 Y73.784 E26.62287
G1 X61.254 Y45.588 E28.95117
G1 X61.723 Y45.854 F30000.000
G1 F2100
G1 X62.996 Y44.773 E29.06273
G1 X63.996 Y44.446 E29.13304
G1 X65.723 Y44.562 E29.24867
G1 X98.915 Y55.347 E31.58018
G1 X100.683 Y56.631 E31.72617
G1 X100.716 Y56.677 E31.72996
G1 X101.391 Y58.755 E31.87593
G1 X101.391 Y93.655 E34.20744
G1 X100.716 Y95.733 E34.35342
G1 X100.682 Y95.779 E34.35721
G1 X98.915 Y97.064 E34.50320
G1 X65.723 Y107.849 E36.83471
G1 X63.538 Y107.849 E36.98069
G1 X63.483 Y107.831 E36.98449
G1 X61.716 Y106.547 E37.13046
G1 X41.202 Y78.312 E39.46197
G1 X40.527 Y76.234 E39.60795
G1 X40.527 Y76.177 E39.61174
G1 X41.202 Y74.099 E39.75773
G1 X61.688 Y45.903 E42.08603
G1 X62.346 Y46.057 F30000.000
G1 F2100
G1 X62.367 Y45.992 E42.09113
G1 X62.694 Y45.825 E42.11859
G1 X62.751 Y45.777 E42.12417
G1 X62.904 Y45.566 E42.14370
G1 X63.645 Y45.341 E42.20163
G1 X64.397 Y44.958 E42.26476
G1 X64.605 Y45.026 E42.28116
G1 X64.665 Y45.026 E42.28565
G1 X65.039 Y45.166 E42.31552
G1 X98.375 Y55.998 E44.93865
G1 X98.994 Y56.006 E44.98499
G1 X99.254 Y56.265 E45.01244
G1 X99.317 Y56.304 E45.01802
G1 X99.755 Y56.446 E45.05245
G1 X100.076 Y57.076 E45.10536
G1 X100.605 Y57.617 E45.16194
G1 X100.605 Y58.077 E45.19637
G1 X100.622 Y58.149 E45.20195
G1 X100.789 Y58.476 E45.22941
G1 X100.613 Y59.018 E45.27208
G1 X100.605 Y59.506 E45.30859
G1 X100.605 Y93.343 E47.84082
G1 X100.789 Y93.935 E47.88715
G1 X100.622 Y94.262 E47.91461
G1 X100.605 Y94.334 E47.92019
G1 X100.605 Y94.794 E47.95461
G1 X100.076 Y95.334 E48.01120
G1 X99.755 Y95.964 E48.06411
G1 X99.317 Y96.106 E48.09854
G1 X99.254 Y96.145 E48.10412
G1 X98.994 Y96.405 E48.13157
G1 X98.375 Y96.412 E48.17791
G1 X65.776 Y107.004 E50.74299
G1 X65.271 Y107.362 E50.78932
G1 X64.909 Y107.305 E50.81678
G1 X64.834 Y107.311 E50.82236
G1 X64.397 Y107.453 E50.85680
G1 X63.767 Y107.132 E50.90971
G1 X63.021 Y107.006 E50.96628
G1 X62.751 Y106.634 E51.00072
G1 X62.694 Y106.585 E51.00629
G1 X62.367 Y106.419 E51.03376
G1 X62.169 Y105.832 E51.08009
G1 X42.021 Y78.102 E53.64518
G1 X41.525 Y77.732 E53.69152
G1 X41.468 Y77.369 E53.71896
G1 X41.439 Y77.301 E53.72454
G1 X41.169 Y76.929 E53.75896
G1 X41.279 Y76.230 E53.81188
G1 X41.169 Y75.482 E53.86847
G1 X41.439 Y75.110 E53.90288
G1 X41.468 Y75.041 E53.90846
G1 X41.525 Y74.679 E53.93590
G1 X42.021 Y74.309 E53.98225
G1 X62.169 Y46.578 E56.54734
G1 X62.328 Y46.114 E56.58408
G1 X62.861 Y46.414 F30000.000
G1 F2100
G1 X63.095 Y46.295 E56.60372
G1 X63.152 Y46.246 E56.60930
G1 X63.271 Y46.082 E56.62446
G1 X63.869 Y45.900 E56.67128
G1 X64.448 Y45.605 E56.71986
G1 X64.631 Y45.655 E56.73409
G1 X98.280 Y56.598 E59.38205
G1 X98.746 Y56.606 E59.41690
G1 X98.931 Y56.791 E59.43653
G1 X98.995 Y56.830 E59.44211
G1 X99.333 Y56.940 E59.46872
G1 X99.584 Y57.434 E59.51015
G1 X100.005 Y57.865 E59.55524
G1 X100.005 Y58.221 E59.58185
G1 X100.022 Y58.293 E59.58743
G1 X100.141 Y58.527 E59.60707
G1 X100.005 Y58.972 E59.64192
G1 X100.005 Y59.506 E59.68187
G1 X100.005 Y93.438 E62.22122
G1 X100.141 Y93.884 E62.25607
G1 X100.022 Y94.118 E62.27570
G1 X100.005 Y94.190 E62.28128
G1 X100.005 Y94.546 E62.30789
G1 X99.584 Y94.977 E62.35298
G1 X99.333 Y95.470 E62.39441
G1 X98.995 Y95.580 E62.42102
G1 X98.931 Y95.619 E62.42660
G1 X98.746 Y95.805 E62.44623
G1 X98.280 Y95.812 E62.48108
G1 X65.501 Y106.463 E65.06039
G1 X65.119 Y106.731 E65.09524
G1 X64.860 Y106.690 E65.11488
G1 X64.786 Y106.695 E65.12046
G1 X64.448 Y106.805 E65.14707
G1 X63.954 Y106.554 E65.18850
G1 X63.361 Y106.452 E65.23358
G1 X63.152 Y106.164 E65.26020
G1 X63.095 Y106.116 E65.26578
G1 X62.861 Y105.997 E65.28542
G1 X62.710 Y105.556 E65.32027
G1 X42.451 Y77.672 E67.89958
G1 X42.079 Y77.392 E67.93444
G1 X42.038 Y77.133 E67.95406
G1 X42.009 Y77.064 E67.95964
G1 X41.800 Y76.777 E67.98624
G1 X41.887 Y76.181 E68.03134
G1 X41.800 Y75.634 E68.07277
G1 X42.009 Y75.346 E68.09937
G1 X42.038 Y75.277 E68.10495
G1 X42.079 Y75.018 E68.12457
G1 X42.451 Y74.738 E68.15943
G1 X62.710 Y46.854 E70.73874
G1 X62.843 Y46.471 E70.76910
G1 X63.355 Y46.836 F30000.000
G1 F2100
G1 X63.496 Y46.764 E70.78092
G1 X63.637 Y46.599 E70.79718
G1 X64.093 Y46.459 E70.83290
G1 X64.499 Y46.253 E70.86693
G1 X98.185 Y57.198 E73.51761
G1 X98.497 Y57.206 E73.54097
G1 X98.672 Y57.357 E73.55826
G1 X98.911 Y57.434 E73.57705
G1 X99.093 Y57.791 E73.60699
G1 X99.405 Y58.114 E73.64060
G1 X99.405 Y58.365 E73.65939
G1 X99.494 Y58.578 E73.67668
G1 X99.405 Y58.877 E73.70005
G1 X99.405 Y59.506 E73.74711
G1 X99.405 Y93.534 E76.29357
G1 X99.494 Y93.833 E76.31694
G1 X99.405 Y94.046 E76.33423
G1 X99.405 Y94.297 E76.35302
G1 X99.122 Y94.580 E76.38296
G1 X98.911 Y94.977 E76.41656
G1 X98.672 Y95.054 E76.43535
G1 X98.497 Y95.205 E76.45264
G1 X98.185 Y95.212 E76.47601
G1 X65.225 Y105.922 E79.06954
G1 X64.968 Y106.099 E79.09291
G1 X64.737 Y106.080 E79.11020
G1 X64.499 Y106.158 E79.12899
G1 X64.142 Y105.976 E79.15893
G1 X63.700 Y105.898 E79.19253
G1 X63.552 Y105.695 E79.21133
G1 X63.355 Y105.575 E79.22862
G1 X63.251 Y105.281 E79.25199
G1 X42.880 Y77.243 E81.84552
G1 X42.632 Y77.053 E81.86889
G1 X42.579 Y76.828 E81.88618
G1 X42.432 Y76.625 E81.90496
G1 X42.494 Y76.230 E81.93490
G1 X42.432 Y75.785 E81.96851
G1 X42.579 Y75.582 E81.98729
G1 X42.632 Y75.358 E82.00458
G1 X42.880 Y75.168 E82.02795
G1 X63.251 Y47.130 E84.62148
G1 X63.336 Y46.893 E84.64036
G1 X63.849 Y47.257 F30000.000
G1 F2100
G1 X63.953 Y47.185 E84.64987
G1 X64.003 Y47.115 E84.65628
G1 X64.291 Y47.029 E84.67878
G1 X64.550 Y46.900 E84.70037
G1 X98.090 Y57.798 E87.33956
G1 X98.249 Y57.806 E87.35145
G1 X98.350 Y57.883 E87.36096
G1 X98.489 Y57.928 E87.37193
G1 X98.601 Y58.148 E87.39038
G1 X98.805 Y58.362 E87.41250
G1 X98.805 Y58.509 E87.42347
G1 X98.847 Y58.629 E87.43298
G1 X98.805 Y58.782 E87.44487
G1 X98.805 Y59.506 E87.49905
G1 X98.805 Y93.629 E90.05262
G1 X98.847 Y93.782 E90.06451
G1 X98.805 Y93.902 E90.07402
G1 X98.805 Y94.049 E90.08499
G1 X98.601 Y94.263 E90.10711
G1 X98.489 Y94.483 E90.12557
G1 X98.350 Y94.528 E90.13653
G1 X98.249 Y94.605 E90.14605
G1 X98.090 Y94.612 E90.15793
G1 X64.949 Y105.381 E92.76569
G1 X64.816 Y105.468 E92.77758
G1 X64.689 Y105.465 E92.78709
G1 X64.550 Y105.510 E92.79806
G1 X64.330 Y105.398 E92.81651
G1 X64.039 Y105.345 E92.83863
G1 X63.953 Y105.226 E92.84960
G1 X63.849 Y105.153 E92.85912
G1 X63.792 Y105.005 E92.87100
G1 X43.310 Y76.813 E95.47877
G1 X43.186 Y76.714 E95.49065
G1 X43.149 Y76.592 E95.50016
G1 X43.063 Y76.474 E95.51112
G1 X43.102 Y76.230 E95.52958
G1 X43.063 Y75.937 E95.55170
G1 X43.149 Y75.818 E95.56267
G1 X43.186 Y75.697 E95.57218
G1 X43.310 Y75.597 E95.58406
G1 X63.792 Y47.406 E98.19183
G1 X63.830 Y47.314 E98.19923
G1 X64.343 Y47.663 F30000.000
G1 F2100
G1 X64.370 Y47.632 E98.20230
G1 X64.601 Y47.548 E98.22068
G1 X98.068 Y58.422 E100.85409
G1 X98.110 Y58.505 E100.86105
G1 X98.205 Y58.611 E100.87170
G1 X98.208 Y58.666 E100.87588
G1 X98.208 Y93.744 E103.50095
G1 X98.205 Y93.800 E103.50512
G1 X98.139 Y93.866 E103.51209
G1 X98.068 Y93.989 E103.52273
G1 X64.655 Y104.849 E106.15198
G1 X64.601 Y104.863 E106.15615
G1 X64.518 Y104.821 E106.16312
G1 X64.379 Y104.791 E106.17376
G1 X64.343 Y104.748 E106.17794
G1 X43.695 Y76.322 E108.80718
G1 X43.709 Y76.230 E108.81415
G1 X43.695 Y76.089 E108.82479
G1 X43.725 Y76.042 E108.82897
G1 X64.311 Y47.713 E111.44957
G1 E109.44957 F2400.00000
G92 E0
G1 X97.555 Y59.055 F30000.000
G1 E2.00000 F2400.00000
G1 F2100
G1 X97.555 Y93.355 E4.29143
G1 X97.394 Y93.355 E4.30220
G1 X97.444 Y93.509 E4.31297
G1 X64.823 Y104.108 E6.60440
G1 X64.773 Y103.955 E6.61517
G1 X64.642 Y104.049 E6.62595
G1 X44.481 Y76.300 E8.91738
G1 X44.612 Y76.205 E8.92815
G1 X44.481 Y76.111 E8.93892
G1 X64.692 Y48.294 E11.23592
G1 X64.811 Y48.339 E11.24445
G1 X64.823 Y48.303 E11.24699
G1 X97.444 Y58.902 E13.53841
G1 X97.394 Y59.055 E13.54918
G1 X97.495 Y59.055 E13.55595
G1 X97.258 Y59.323 F30000.000
G1 X96.657 Y59.591 F30000.000
G1 F2100
G1 X97.020 Y59.591 E13.58020
G1 X97.020 Y92.820 E15.80006
G1 X96.657 Y92.820 E15.82431
G1 X96.769 Y93.165 E15.84855
G1 X65.167 Y103.433 E18.06840
G1 X65.055 Y103.088 E18.09265
G1 X64.761 Y103.301 E18.11690
G1 X45.230 Y76.419 E20.33676
G1 X45.523 Y76.205 E20.36100
G1 X45.230 Y75.992 E20.38523
G1 X64.885 Y48.939 E22.61920
G1 X65.147 Y49.037 E22.63792
G1 X65.167 Y48.978 E22.64211
G1 X96.769 Y59.246 E24.86196
G1 X96.675 Y59.534 E24.88220
G1 E22.88220 F2400.00000
G92 E0
G1 X93.683 Y61.752 F30000.000
G1 E2.00000 F2400.00000
G1 F2100
G1 X93.683 Y90.659 E3.93113
G1 X66.191 Y99.591 E5.86225
G1 X49.200 Y76.205 E7.79337
G1 X66.191 Y52.819 E9.72448
G1 X93.625 Y61.733 E11.65160
G1 X94.081 Y61.719 F30000.000
G1 X94.218 Y61.363 F30000.000
G1 F2100
G1 X94.218 Y91.048 E13.63472
G1 X65.986 Y100.221 E15.61783
G1 X48.538 Y76.205 E17.60095
G1 X65.986 Y52.190 E19.58406
G1 X94.161 Y61.344 E21.56317
G1 E19.56317 F2400.00000
G92 E0
G1 X94.697 Y91.187 F30000.000
G1 E2.00000 F2400.00000
G1 F2100
G1 X96.541 Y89.343 E2.17427
G1 X96.541 Y88.585 E2.22490
G1 X94.697 Y90.430 E2.39918
G1 X94.697 Y89.672 E2.44981
G1 X96.541 Y87.828 E2.62408
G1 X96.541 Y87.070 E2.67471
G1 X94.697 Y88.914 E2.84898
G1 X94.697 Y88.157 E2.89962
G1 X96.541 Y86.312 E3.07389
G1 X96.541 Y85.555 E3.12452
G1 X94.697 Y87.399 E3.29879
G1 X94.697 Y86.641 E3.34942
G1 X96.541 Y84.797 E3.52370
G1 X96.541 Y84.039 E3.57433
G1 X94.697 Y85.884 E3.74860
G1 X94.697 Y85.126 E3.79923
G1 X96.541 Y83.282 E3.97350
G1 X96.541 Y82.524 E4.02413
G1 X94.697 Y84.368 E4.19841
G1 X94.697 Y83.610 E4.24904
G1 X96.541 Y81.766 E4.42331
G1 X96.541 Y81.009 E4.47394
G1 X94.697 Y82.853 E4.64822
G1 X94.697 Y82.095 E4.69885
G1 X96.541 Y80.251 E4.87312
G1 X96.541 Y79.493 E4.92375
G1 X94.697 Y81.337 E5.09802
G1 X94.697 Y80.580 E5.14865
G1 X96.541 Y78.736 E5.32293
G1 X96.541 Y77.978 E5.37356
G1 X94.697 Y79.822 E5.54783
G1 X94.697 Y79.064 E5.59846
G1 X96.541 Y77.220 E5.77273
G1 X96.541 Y76.463 E5.82337
G1 X94.697 Y78.307 E5.99764
G1 X94.697 Y77.549 E6.04827
G1 X96.541 Y75.705 E6.22254
G1 X96.541 Y74.947 E6.27317
G1 X94.697 Y76.791 E6.44745
G1 X94.697 Y76.034 E6.49808
G1 X96.541 Y74.190 E6.67235
G1 X96.541 Y73.432 E6.72298
G1 X94.697 Y75.276 E6.89725
G1 X94.697 Y74.518 E6.94788
G1 X96.541 Y72.674 E7.12216
G1 X96.541 Y71.917 E7.17279
G1 X94.697 Y73.761 E7.34706
G1 X94.697 Y73.003 E7.39769
G1 X96.541 Y71.159 E7.57197
G1 X96.541 Y70.401 E7.62260
G1 X94.697 Y72.245 E7.79687
G1 X94.697 Y71.488 E7.84750
G1 X96.541 Y69.643 E8.02177
G1 X96.541 Y68.886 E8.07240
G1 X94.697 Y70.730 E8.24668
G1 X94.697 Y69.972 E8.29731
G1 X96.541 Y68.128 E8.47158
G1 X96.541 Y67.370 E8.52221
G1 X94.697 Y69.215 E8.69648
G1 X94.697 Y68.457 E8.74711
G1 X96.541 Y66.613 E8.92139
G1 X96.541 Y65.855 E8.97202
G1 X94.697 Y67.699 E9.14629
G1 X94.697 Y66.942 E9.19692
G1 X96.541 Y65.097 E9.37119
G1 X96.541 Y64.340 E9.42183
G1 X94.697 Y66.184 E9.59610
G1 X94.697 Y65.426 E9.64673
G1 X96.541 Y63.582 E9.82100
G1 X96.541 Y62.824 E9.87163
G1 X94.697 Y64.668 E10.04591
G1 X94.697 Y63.911 E10.09654
G1 X96.541 Y62.067 E10.27081
G1 X96.541 Y61.309 E10.32144
G1 X94.697 Y63.153 E10.49571
G1 X94.697 Y62.395 E10.54634
G1 X96.541 Y60.551 E10.72062
G1 X96.541 Y60.070 E10.75280
G1 X96.265 Y60.070 E10.77125
G1 X94.697 Y61.638 E10.91943
G1 X94.697 Y61.030 E10.96001
G1 X94.583 Y60.994 E10.96799
G1 X96.070 Y59.507 E11.10850
G1 X95.498 Y59.321 E11.14868
G1 X94.012 Y60.808 E11.28920
G1 X93.440 Y60.622 E11.32938
G1 X94.927 Y59.135 E11.46990
G1 X94.355 Y58.949 E11.51008
G1 X92.868 Y60.436 E11.65059
G1 X92.296 Y60.250 E11.69078
G1 X93.783 Y58.763 E11.83129
G1 X93.211 Y58.578 E11.87147
G1 X91.724 Y60.065 E12.01199
G1 X91.152 Y59.879 E12.05217
G1 X92.639 Y58.392 E12.19269
G1 X92.067 Y58.206 E12.23287
G1 X90.580 Y59.693 E12.37339
G1 X90.008 Y59.507 E12.41357
G1 X91.495 Y58.020 E12.55408
G1 X90.924 Y57.834 E12.59426
G1 X89.437 Y59.321 E12.73478
G1 X88.865 Y59.135 E12.77496
G1 X90.352 Y57.649 E12.91548
G1 X89.780 Y57.463 E12.95566
G1 X88.293 Y58.950 E13.09618
G1 X87.721 Y58.764 E13.13636
G1 X89.208 Y57.277 E13.27688
G1 X88.636 Y57.091 E13.31706
G1 X87.149 Y58.578 E13.45757
G1 X86.577 Y58.392 E13.49775
G1 X88.064 Y56.905 E13.63827
G1 X87.492 Y56.719 E13.67845
G1 X86.005 Y58.206 E13.81897
G1 X85.434 Y58.021 E13.85915
G1 X86.920 Y56.534 E13.99967
G1 X86.349 Y56.348 E14.03985
G1 X84.862 Y57.835 E14.18037
G1 X84.290 Y57.649 E14.22055
G1 X85.777 Y56.162 E14.36107
G1 X85.205 Y55.976 E14.40125
G1 X83.718 Y57.463 E14.54177
G1 X83.146 Y57.277 E14.58195
G1 X84.633 Y55.790 E14.72247
G1 X84.061 Y55.605 E14.76265
G1 X82.574 Y57.092 E14.90317
G1 X82.002 Y56.906 E14.94335
G1 X83.489 Y55.419 E15.08387
G1 X82.917 Y55.233 E15.12405
G1 X81.430 Y56.720 E15.26457
G1 X80.859 Y56.534 E15.30475
G1 X82.346 Y55.047 E15.44527
G1 X81.774 Y54.861 E15.48545
G1 X80.287 Y56.348 E15.62597
G1 X79.715 Y56.163 E15.66615
G1 X81.202 Y54.676 E15.80667
G1 X80.630 Y54.490 E15.84685
G1 X79.143 Y55.977 E15.98737
G1 X78.571 Y55.791 E16.02755
G1 X80.058 Y54.304 E16.16807
G1 X79.486 Y54.118 E16.20825
G1 X77.999 Y55.605 E16.34877
G1 X77.427 Y55.419 E16.38895
G1 X78.914 Y53.932 E16.52947
G1 X78.342 Y53.747 E16.56965
G1 X76.855 Y55.233 E16.71017
G1 X76.284 Y55.048 E16.75035
G1 X77.771 Y53.561 E16.89087
G1 X77.199 Y53.375 E16.93105
G1 X75.712 Y54.862 E17.07157
G1 X75.140 Y54.676 E17.11175
G1 X76.627 Y53.189 E17.25227
G1 X76.055 Y53.003 E17.29245
G1 X74.568 Y54.490 E17.43297
G1 X73.996 Y54.304 E17.47315
G1 X75.483 Y52.817 E17.61367
G1 X74.911 Y52.632 E17.65386
G1 X73.424 Y54.119 E17.79438
G1 X72.852 Y53.933 E17.83456
G1 X74.339 Y52.446 E17.97508
G1 X73.767 Y52.260 E18.01526
G1 X72.281 Y53.747 E18.15578
G1 X71.709 Y53.561 E18.19596
G1 X73.196 Y52.074 E18.33648
G1 X72.624 Y51.888 E18.37666
G1 X71.137 Y53.375 E18.51718
G1 X70.565 Y53.190 E18.55737
G1 X72.052 Y51.703 E18.69789
G1 X71.480 Y51.517 E18.73807
G1 X69.993 Y53.004 E18.87859
G1 X69.421 Y52.818 E18.91877
G1 X70.908 Y51.331 E19.05929
G1 X70.336 Y51.145 E19.09947
G1 X68.849 Y52.632 E19.23999
G1 X68.277 Y52.446 E19.28017
G1 X69.764 Y50.959 E19.42070
G1 X69.193 Y50.774 E19.46088
G1 X67.706 Y52.260 E19.60140
G1 X67.134 Y52.075 E19.64158
G1 X68.621 Y50.588 E19.78210
G1 X68.049 Y50.402 E19.82228
G1 X66.562 Y51.889 E19.96281
