; generated by Slic3r 1.3.0 on 2021-02-17 at 18:30:26

; external perimeters extrusion width = 0.44mm (2.78mm^3/s)
; perimeters extrusion width = 0.40mm (7.14mm^3/s)
; infill extrusion width = 0.50mm (10.97mm^3/s)
; solid infill extrusion width = 0.60mm (6.68mm^3/s)
; top infill extrusion width = 0.40mm (2.14mm^3/s)

M107
M190 S80 ; set bed temperature and wait for it to be reached
M104 S210 ; set temperature
G28 ; home all axes
G1 Z5 F5000 ; lift nozzle

; Filament gcode

M109 S210 ; set temperature and wait for it to be reached
G21 ; set units to millimeters
G90 ; use absolute coordinates
M82 ; use absolute distances for extrusion
G92 E0
G1 Z0.300 F30000.000
G1 E-2.00000 F2400.00000
G92 E0
G1 X33.477 Y28.980 F30000.000
G1 E2.00000 F2400.00000
G1 F2100
G1 X35.494 Y27.258 E2.17713
G1 X36.315 Y26.853 E2.23832
G1 X37.117 Y26.505 E2.29673
G1 X38.272 Y26.078 E2.37899
G1 X39.796 Y25.635 E2.48502
G1 X40.649 Y25.444 E2.54343
G1 X41.552 Y25.290 E2.60464
G1 X44.196 Y25.498 E2.78176
G1 X56.000 Y29.333 E3.61093
G1 X58.260 Y30.718 E3.78804
G1 X58.900 Y31.374 E3.84923
G1 X59.478 Y32.030 E3.90766
G1 X60.242 Y32.996 E3.98991
G1 X60.943 Y34.008 E4.07214
G1 X61.579 Y35.061 E4.15436
G1 X62.005 Y35.873 E4.21559
G1 X62.624 Y38.450 E4.39269
G1 X62.624 Y50.862 E5.22184
G1 X62.005 Y53.440 E5.39894
G1 X61.579 Y54.251 E5.46017
G1 X60.943 Y55.305 E5.54240
G1 X60.242 Y56.317 E5.62462
G1 X59.478 Y57.282 E5.70687
G1 X58.900 Y57.938 E5.76530
G1 X58.260 Y58.594 E5.82649
G1 X56.000 Y59.979 E6.00360
G1 X55.688 Y60.081 E6.02552
G1 X44.196 Y63.815 E6.83277
G1 X41.553 Y64.023 E7.00988
G1 X40.649 Y63.868 E7.07111
G1 X39.796 Y63.678 E7.12951
G1 X38.611 Y63.345 E7.21174
G1 X37.449 Y62.939 E7.29397
G1 X36.315 Y62.460 E7.37622
G1 X35.494 Y62.054 E7.43741
G1 X33.477 Y60.332 E7.61454
G1 X26.182 Y50.291 E8.44370
G1 X25.168 Y47.842 E8.62080
G1 X25.035 Y46.935 E8.68203
G1 X24.953 Y46.064 E8.74047
G1 X24.903 Y44.834 E8.82271
G1 X24.953 Y43.248 E8.92868
G1 X25.035 Y42.378 E8.98713
G1 X25.168 Y41.471 E9.04836
G1 X26.182 Y39.021 E9.22546
G1 X33.442 Y29.029 E10.05061
G1 X33.911 Y29.295 F30000.000
G1 F2100
G1 X35.737 Y27.736 E10.21103
G1 X36.527 Y27.344 E10.26997
G1 X37.330 Y26.997 E10.32838
G1 X38.453 Y26.582 E10.40839
G1 X39.913 Y26.158 E10.50993
G1 X40.766 Y25.967 E10.56834
G1 X41.636 Y25.819 E10.62731
G1 X44.030 Y26.007 E10.78772
G1 X55.834 Y29.843 E11.61689
G1 X57.881 Y31.097 E11.77729
G1 X58.498 Y31.728 E11.83624
G1 X59.077 Y32.384 E11.89466
G1 X59.818 Y33.324 E11.97466
G1 X60.500 Y34.309 E12.05464
G1 X61.118 Y35.334 E12.13462
G1 X61.528 Y36.116 E12.19361
G1 X62.088 Y38.450 E12.35400
G1 X62.088 Y50.862 E13.18315
G1 X61.528 Y53.196 E13.34354
G1 X61.118 Y53.979 E13.40253
G1 X60.500 Y55.004 E13.48250
G1 X59.818 Y55.988 E13.56249
G1 X59.077 Y56.928 E13.64248
G1 X58.498 Y57.584 E13.70091
G1 X57.881 Y58.215 E13.75986
G1 X55.834 Y59.470 E13.92026
G1 X55.522 Y59.571 E13.94219
G1 X44.030 Y63.305 E14.74943
G1 X41.636 Y63.494 E14.90984
G1 X40.766 Y63.346 E14.96881
G1 X39.913 Y63.155 E15.02722
G1 X38.760 Y62.831 E15.10720
G1 X37.630 Y62.435 E15.18718
G1 X36.527 Y61.968 E15.26718
G1 X35.737 Y61.577 E15.32613
G1 X33.911 Y60.017 E15.48655
G1 X26.615 Y49.976 E16.31570
G1 X25.697 Y47.758 E16.47610
G1 X25.568 Y46.885 E16.53508
G1 X25.486 Y46.014 E16.59352
G1 X25.438 Y44.817 E16.67351
G1 X25.486 Y43.299 E16.77500
G1 X25.568 Y42.428 E16.83344
G1 X25.697 Y41.554 E16.89242
G1 X26.615 Y39.336 E17.05282
G1 X33.875 Y29.344 E17.87797
G1 X34.344 Y29.610 F30000.000
G1 F2100
G1 X35.980 Y28.213 E18.02168
G1 X36.740 Y27.836 E18.07838
G1 X37.543 Y27.488 E18.13679
G1 X38.635 Y27.086 E18.21455
G1 X40.030 Y26.680 E18.31160
G1 X40.883 Y26.490 E18.37000
G1 X41.720 Y26.348 E18.42673
G1 X43.865 Y26.516 E18.57043
G1 X55.669 Y30.352 E19.39960
G1 X57.503 Y31.476 E19.54329
G1 X58.096 Y32.082 E19.60000
G1 X58.859 Y32.962 E19.67777
G1 X59.565 Y33.886 E19.75543
G1 X60.057 Y34.610 E19.81391
G1 X60.657 Y35.607 E19.89164
G1 X61.050 Y36.359 E19.94838
G1 X61.553 Y38.450 E20.09206
G1 X61.553 Y50.862 E20.92122
G1 X61.050 Y52.953 E21.06490
G1 X60.657 Y53.706 E21.12164
G1 X60.057 Y54.703 E21.19937
G1 X59.395 Y55.660 E21.27710
G1 X58.675 Y56.574 E21.35485
G1 X58.096 Y57.230 E21.41327
G1 X57.503 Y57.837 E21.46998
G1 X55.669 Y58.961 E21.61368
G1 X43.865 Y62.796 E22.44284
G1 X41.720 Y62.965 E22.58654
G1 X40.883 Y62.823 E22.64327
G1 X40.030 Y62.632 E22.70168
G1 X38.635 Y62.227 E22.79872
G1 X37.543 Y61.824 E22.87648
G1 X36.740 Y61.477 E22.93489
G1 X35.980 Y61.100 E22.99160
G1 X34.344 Y59.703 E23.13531
G1 X27.049 Y49.661 E23.96446
G1 X26.226 Y47.674 E24.10815
G1 X26.102 Y46.834 E24.16489
G1 X26.019 Y45.963 E24.22333
G1 X25.974 Y44.800 E24.30107
G1 X26.019 Y43.349 E24.39807
G1 X26.102 Y42.478 E24.45650
G1 X26.226 Y41.638 E24.51324
G1 X27.049 Y39.651 E24.65693
G1 X34.309 Y29.658 E25.48208
G1 X34.777 Y29.925 F30000.000
G1 F2100
G1 X36.223 Y28.690 E25.60908
G1 X36.953 Y28.327 E25.66354
G1 X37.755 Y27.980 E25.72195
G1 X38.816 Y27.590 E25.79746
G1 X40.146 Y27.203 E25.89001
G1 X41.000 Y27.012 E25.94842
G1 X41.804 Y26.877 E26.00290
G1 X43.699 Y27.026 E26.12990
G1 X55.503 Y30.861 E26.95906
G1 X57.124 Y31.855 E27.08605
G1 X57.695 Y32.437 E27.14051
G1 X58.436 Y33.290 E27.21602
G1 X59.122 Y34.187 E27.29145
G1 X59.614 Y34.911 E27.34992
G1 X60.196 Y35.879 E27.42540
G1 X60.573 Y36.602 E27.47989
G1 X61.017 Y38.450 E27.60687
G1 X61.017 Y50.862 E28.43603
G1 X60.573 Y52.710 E28.56300
G1 X60.196 Y53.433 E28.61750
G1 X59.614 Y54.402 E28.69298
G1 X58.972 Y55.332 E28.76847
G1 X58.273 Y56.220 E28.84397
G1 X57.695 Y56.876 E28.90239
G1 X57.124 Y57.458 E28.95685
G1 X55.503 Y58.451 E29.08384
G1 X43.699 Y62.287 E29.91300
G1 X41.804 Y62.436 E30.04000
G1 X41.000 Y62.300 E30.09448
G1 X40.146 Y62.109 E30.15289
G1 X38.816 Y61.723 E30.24544
G1 X37.755 Y61.333 E30.32095
G1 X36.953 Y60.985 E30.37936
G1 X36.223 Y60.622 E30.43382
G1 X34.777 Y59.388 E30.56082
G1 X27.482 Y49.347 E31.38998
G1 X26.755 Y47.591 E31.51696
G1 X26.635 Y46.784 E31.57145
G1 X26.553 Y45.913 E31.62988
G1 X26.509 Y44.784 E31.70538
G1 X26.553 Y43.400 E31.79789
G1 X26.635 Y42.529 E31.85632
G1 X26.755 Y41.722 E31.91081
G1 X27.482 Y39.966 E32.03780
G1 X34.742 Y29.973 E32.86294
G1 X35.211 Y30.240 F30000.000
G1 F2100
G1 X36.466 Y29.167 E32.97324
G1 X37.166 Y28.819 E33.02545
G1 X37.968 Y28.472 E33.08386
G1 X38.997 Y28.093 E33.15712
G1 X40.263 Y27.726 E33.24518
G1 X41.117 Y27.535 E33.30359
G1 X41.888 Y27.406 E33.35583
G1 X43.534 Y27.535 E33.46611
G1 X55.338 Y31.371 E34.29528
G1 X56.745 Y32.233 E34.40556
G1 X57.293 Y32.791 E34.45778
G1 X58.013 Y33.618 E34.53104
G1 X58.679 Y34.488 E34.60423
G1 X59.171 Y35.212 E34.66269
G1 X59.842 Y36.347 E34.75076
G1 X60.096 Y36.845 E34.78817
G1 X60.481 Y38.450 E34.89844
G1 X60.481 Y50.862 E35.72759
G1 X60.096 Y52.467 E35.83787
G1 X59.735 Y53.161 E35.89011
G1 X59.290 Y53.913 E35.94854
G1 X58.679 Y54.824 E36.02181
G1 X58.013 Y55.694 E36.09499
G1 X57.293 Y56.522 E36.16826
G1 X56.745 Y57.079 E36.22048
G1 X55.338 Y57.942 E36.33076
G1 X43.534 Y61.777 E37.15992
G1 X41.888 Y61.907 E37.27021
G1 X41.117 Y61.777 E37.32244
G1 X40.263 Y61.587 E37.38085
G1 X38.997 Y61.219 E37.46891
G1 X37.968 Y60.841 E37.54217
G1 X37.166 Y60.494 E37.60058
G1 X36.466 Y60.145 E37.65280
G1 X35.211 Y59.073 E37.76309
G1 X27.915 Y49.032 E38.59225
G1 X27.284 Y47.507 E38.70252
G1 X27.168 Y46.733 E38.75477
G1 X27.086 Y45.863 E38.81319
G1 X27.045 Y44.767 E38.88644
G1 X27.086 Y43.450 E38.97447
G1 X27.168 Y42.579 E39.03290
G1 X27.284 Y41.806 E39.08514
G1 X27.915 Y40.281 E39.19542
G1 X35.175 Y30.288 E40.02056
G1 X35.847 Y30.702 F30000.000
G1 F2100
G1 X36.038 Y30.438 E40.04496
G1 X36.534 Y30.015 E40.09375
G1 X37.438 Y29.557 E40.16957
G1 X38.320 Y29.176 E40.24146
G1 X39.304 Y28.819 E40.31983
G1 X40.309 Y28.524 E40.39818
G1 X41.415 Y28.277 E40.48299
G1 X42.329 Y28.131 E40.55223
G1 X42.980 Y28.182 E40.60111
G1 X55.404 Y32.219 E41.57872
G1 X55.959 Y32.559 E41.62743
G1 X56.616 Y33.216 E41.69691
G1 X57.310 Y33.999 E41.77526
G1 X57.954 Y34.825 E41.85361
G1 X58.545 Y35.689 E41.93197
G1 X59.122 Y36.665 E42.01681
G1 X59.543 Y37.492 E42.08627
G1 X59.695 Y38.125 E42.13498
G1 X59.695 Y51.187 E43.11251
G1 X59.543 Y51.820 E43.16122
G1 X59.080 Y52.723 E43.23715
G1 X58.545 Y53.623 E43.31551
G1 X58.004 Y54.418 E43.38744
G1 X57.365 Y55.247 E43.46576
G1 X56.675 Y56.034 E43.54412
G1 X55.959 Y56.753 E43.62006
G1 X55.404 Y57.093 E43.66877
G1 X42.980 Y61.130 E44.64639
G1 X42.329 Y61.181 E44.69527
G1 X41.415 Y61.036 E44.76449
G1 X40.309 Y60.789 E44.84931
G1 X39.304 Y60.494 E44.92766
G1 X38.320 Y60.137 E45.00603
G1 X37.360 Y59.718 E45.08437
G1 X36.534 Y59.298 E45.15375
G1 X36.038 Y58.874 E45.20253
G1 X28.360 Y48.306 E46.18009
G1 X28.111 Y47.705 E46.22881
G1 X27.966 Y46.788 E46.29826
G1 X27.865 Y45.746 E46.37666
G1 X27.829 Y44.699 E46.45501
G1 X27.865 Y43.567 E46.53981
G1 X27.966 Y42.524 E46.61820
G1 X28.111 Y41.607 E46.68765
G1 X28.360 Y41.006 E46.73637
G1 X35.811 Y30.750 E47.68505
G1 X36.332 Y31.054 F30000.000
G1 F2100
G1 X36.482 Y30.848 E47.70412
G1 X36.870 Y30.517 E47.74226
G1 X37.685 Y30.104 E47.81068
G1 X38.550 Y29.730 E47.88116
G1 X39.499 Y29.386 E47.95671
G1 X40.467 Y29.103 E48.03224
G1 X41.518 Y28.868 E48.11282
G1 X42.353 Y28.735 E48.17609
G1 X42.862 Y28.775 E48.21430
G1 X55.151 Y32.768 E49.18127
G1 X55.585 Y33.034 E49.21934
G1 X56.185 Y33.633 E49.28281
G1 X56.854 Y34.389 E49.35834
G1 X57.474 Y35.185 E49.43387
G1 X58.043 Y36.019 E49.50941
G1 X58.591 Y36.946 E49.59001
G1 X58.976 Y37.701 E49.65346
G1 X59.095 Y38.196 E49.69154
G1 X59.095 Y51.116 E50.65844
G1 X58.976 Y51.611 E50.69652
G1 X58.591 Y52.367 E50.75996
G1 X58.079 Y53.237 E50.83552
G1 X57.514 Y54.073 E50.91107
G1 X56.854 Y54.923 E50.99163
G1 X56.231 Y55.630 E51.06212
G1 X55.585 Y56.279 E51.13063
G1 X55.151 Y56.545 E51.16870
G1 X42.862 Y60.538 E52.13567
G1 X42.353 Y60.577 E52.17389
G1 X41.518 Y60.445 E52.23715
G1 X40.467 Y60.210 E52.31773
G1 X39.499 Y59.926 E52.39327
G1 X38.550 Y59.582 E52.46881
G1 X37.624 Y59.179 E52.54434
G1 X36.870 Y58.795 E52.60772
G1 X36.482 Y58.464 E52.64586
G1 X28.887 Y48.011 E53.61278
G1 X28.693 Y47.541 E53.65087
G1 X28.560 Y46.704 E53.71431
G1 X28.463 Y45.699 E53.78987
G1 X28.429 Y44.690 E53.86540
G1 X28.459 Y43.681 E53.94093
G1 X28.560 Y42.609 E54.02154
G1 X28.693 Y41.771 E54.08498
G1 X28.887 Y41.301 E54.12307
G1 X36.297 Y31.103 E55.06643
G1 X36.818 Y31.407 F30000.000
G1 F2100
G1 X36.926 Y31.258 E55.08018
G1 X37.205 Y31.020 E55.10767
G1 X37.888 Y30.672 E55.16505
G1 X38.779 Y30.285 E55.23776
G1 X39.693 Y29.954 E55.31048
G1 X40.626 Y29.682 E55.38319
G1 X41.574 Y29.468 E55.45589
G1 X42.378 Y29.339 E55.51685
G1 X42.745 Y29.367 E55.54440
G1 X54.898 Y33.316 E56.50071
G1 X55.211 Y33.508 E56.52816
G1 X55.754 Y34.051 E56.58561
G1 X56.397 Y34.779 E56.65832
G1 X56.994 Y35.545 E56.73103
G1 X57.542 Y36.348 E56.80375
G1 X58.038 Y37.184 E56.87646
G1 X58.409 Y37.910 E56.93754
G1 X58.495 Y38.267 E56.96499
G1 X58.495 Y51.045 E57.92126
G1 X58.409 Y51.402 E57.94871
G1 X58.061 Y52.086 E58.00614
G1 X57.568 Y52.923 E58.07888
G1 X57.023 Y53.728 E58.15160
G1 X56.397 Y54.534 E58.22794
G1 X55.787 Y55.226 E58.29701
G1 X55.211 Y55.804 E58.35810
G1 X54.898 Y55.996 E58.38554
G1 X42.745 Y59.945 E59.34186
G1 X42.378 Y59.974 E59.36941
G1 X41.574 Y59.844 E59.43036
G1 X40.626 Y59.631 E59.50306
G1 X39.693 Y59.358 E59.57578
G1 X38.779 Y59.028 E59.64850
G1 X37.888 Y58.640 E59.72121
G1 X37.205 Y58.293 E59.77859
G1 X36.926 Y58.054 E59.80608
G1 X29.414 Y47.716 E60.76237
G1 X29.274 Y47.377 E60.78982
G1 X29.154 Y46.619 E60.84725
G1 X29.061 Y45.652 E60.91999
G1 X29.029 Y44.680 E60.99270
G1 X29.058 Y43.709 E61.06541
G1 X29.148 Y42.742 E61.13813
G1 X29.274 Y41.935 E61.19921
G1 X29.414 Y41.596 E61.22666
G1 X36.782 Y31.456 E62.16471
G1 X37.303 Y31.760 F30000.000
G1 F2100
G1 X37.369 Y31.669 E62.17314
G1 X37.540 Y31.523 E62.18998
G1 X38.152 Y31.211 E62.24137
G1 X39.009 Y30.839 E62.31126
G1 X39.887 Y30.522 E62.38116
G1 X40.784 Y30.260 E62.45105
G1 X41.695 Y30.056 E62.52093
G1 X42.402 Y29.943 E62.57451
G1 X42.627 Y29.960 E62.59139
G1 X54.645 Y33.865 E63.53706
G1 X54.837 Y33.983 E63.55388
G1 X55.343 Y34.490 E63.60753
G1 X55.941 Y35.168 E63.67520
G1 X56.514 Y35.906 E63.74508
G1 X57.040 Y36.678 E63.81498
G1 X57.516 Y37.481 E63.88488
G1 X57.843 Y38.120 E63.93853
G1 X57.895 Y38.338 E63.95535
G1 X57.895 Y50.974 E64.90099
G1 X57.843 Y51.193 E64.91781
G1 X57.516 Y51.831 E64.97147
G1 X57.056 Y52.610 E65.03913
G1 X56.532 Y53.383 E65.10903
G1 X55.941 Y54.144 E65.18114
G1 X55.343 Y54.822 E65.24881
G1 X54.837 Y55.330 E65.30246
G1 X54.645 Y55.447 E65.31928
G1 X42.627 Y59.352 E66.26495
G1 X42.402 Y59.370 E66.28183
G1 X41.695 Y59.257 E66.33541
G1 X40.784 Y59.052 E66.40529
G1 X39.887 Y58.791 E66.47519
G1 X39.037 Y58.484 E66.54285
G1 X38.179 Y58.114 E66.61274
G1 X37.540 Y57.790 E66.66636
G1 X37.369 Y57.644 E66.68321
G1 X29.942 Y47.421 E67.62886
G1 X29.856 Y47.213 E67.64568
G1 X29.744 Y46.505 E67.69934
G1 X29.657 Y45.575 E67.76923
G1 X29.629 Y44.671 E67.83690
G1 X29.657 Y43.738 E67.90678
G1 X29.744 Y42.808 E67.97668
G1 X29.856 Y42.099 E68.03033
G1 X29.942 Y41.892 E68.04716
G1 X37.268 Y31.808 E68.97990
G1 X37.788 Y32.112 F30000.000
G1 F2100
G1 X37.876 Y32.025 E68.98914
G1 X38.426 Y31.745 E69.03535
G1 X39.239 Y31.393 E69.10160
G1 X40.082 Y31.090 E69.16868
G1 X40.942 Y30.839 E69.23575
G1 X41.817 Y30.643 E69.30282
G1 X42.427 Y30.546 E69.34902
G1 X42.509 Y30.553 E69.35523
G1 X54.392 Y34.414 E70.29025
G1 X54.463 Y34.457 E70.29644
G1 X54.899 Y34.894 E70.34267
G1 X55.485 Y35.558 E70.40892
G1 X56.034 Y36.266 E70.47599
G1 X56.538 Y37.007 E70.54306
G1 X56.995 Y37.778 E70.61013
G1 X57.276 Y38.329 E70.65636
G1 X57.295 Y38.409 E70.66255
G1 X57.295 Y50.903 E71.59756
G1 X57.276 Y50.984 E71.60375
G1 X56.995 Y51.534 E71.64998
G1 X56.544 Y52.296 E71.71623
G1 X56.041 Y53.038 E71.78331
G1 X55.485 Y53.754 E71.85119
G1 X54.899 Y54.418 E71.91745
G1 X54.463 Y54.855 E71.96368
G1 X54.392 Y54.899 E71.96986
G1 X42.509 Y58.760 E72.90488
G1 X42.427 Y58.766 E72.91110
G1 X41.817 Y58.669 E72.95730
G1 X40.942 Y58.473 E73.02437
G1 X40.082 Y58.223 E73.09144
G1 X39.249 Y57.923 E73.15769
G1 X38.426 Y57.567 E73.22476
G1 X37.876 Y57.287 E73.27098
G1 X37.813 Y57.234 E73.27718
G1 X30.469 Y47.126 E74.21219
G1 X30.437 Y47.049 E74.21838
G1 X30.341 Y46.439 E74.26461
G1 X30.258 Y45.557 E74.33086
G1 X30.229 Y44.662 E74.39793
G1 X30.257 Y43.766 E74.46500
G1 X30.341 Y42.874 E74.53208
G1 X30.437 Y42.263 E74.57831
G1 X30.469 Y42.187 E74.58450
G1 X37.753 Y32.161 E75.51192
G1 E73.51192 F2400.00000
G92 E0
G1 X55.333 Y52.891 F30000.000
G1 E2.00000 F2400.00000
G1 F2100
G1 X54.988 Y53.336 E2.03763
G1 X54.422 Y53.978 E2.09478
G1 X54.084 Y54.316 E2.12675
G1 X42.417 Y58.107 E2.94628
G1 X41.944 Y58.032 E2.97825
G1 X41.109 Y57.846 E3.03539
G1 X40.288 Y57.607 E3.09254
G1 X39.483 Y57.317 E3.14969
G1 X38.698 Y56.977 E3.20684
G1 X38.271 Y56.760 E3.23881
G1 X31.061 Y46.836 E4.05834
G1 X30.986 Y46.363 E4.09031
G1 X30.905 Y45.511 E4.14746
G1 X30.879 Y44.656 E4.20461
G1 X30.905 Y43.801 E4.26175
G1 X30.986 Y42.950 E4.31890
G1 X31.061 Y42.477 E4.35087
G1 X38.271 Y32.552 E5.17040
G1 X38.698 Y32.335 E5.20237
G1 X39.483 Y31.995 E5.25952
G1 X40.288 Y31.706 E5.31667
G1 X41.109 Y31.467 E5.37382
G1 X41.944 Y31.280 E5.43096
G1 X42.417 Y31.205 E5.46293
G1 X54.084 Y34.996 E6.28247
G1 X54.422 Y35.335 E6.31443
G1 X54.988 Y35.976 E6.37158
G1 X55.512 Y36.652 E6.42873
G1 X55.993 Y37.360 E6.48588
G1 X56.428 Y38.096 E6.54303
G1 X56.646 Y38.522 E6.57499
G1 X56.646 Y50.790 E7.39453
G1 X56.428 Y51.216 E7.42649
G1 X55.993 Y51.953 E7.48364
G1 X55.370 Y52.844 E7.55628
G1 X54.936 Y52.843 F30000.000
G1 X54.910 Y52.563 F30000.000
G1 F2100
G1 X54.575 Y52.995 E7.59278
G1 X54.031 Y53.611 E7.64768
G1 X53.796 Y53.846 E7.66993
G1 X42.374 Y57.558 E8.47228
G1 X42.045 Y57.506 E8.49454
G1 X41.243 Y57.326 E8.54944
G1 X40.453 Y57.097 E8.60434
G1 X39.680 Y56.819 E8.65923
G1 X38.926 Y56.492 E8.71414
G1 X38.629 Y56.341 E8.73639
G1 X31.570 Y46.625 E9.53874
G1 X31.518 Y46.296 E9.56099
G1 X31.440 Y45.478 E9.61589
G1 X31.414 Y44.656 E9.67079
G1 X31.440 Y43.835 E9.72569
G1 X31.518 Y43.017 E9.78059
G1 X31.570 Y42.688 E9.80284
G1 X38.629 Y32.971 E10.60519
G1 X38.926 Y32.820 E10.62745
