; generated by Slic3r 1.3.0 on 2020-11-01 at 08:28:48

; external perimeters extrusion width = 0.44mm (2.78mm^3/s)
; perimeters extrusion width = 0.40mm (7.14mm^3/s)
; infill extrusion width = 0.50mm (10.97mm^3/s)
; solid infill extrusion width = 0.60mm (6.68mm^3/s)
; top infill extrusion width = 0.40mm (2.14mm^3/s)

M107
M190 S80 ; set bed temperature and wait for it to be reached
M104 S200 ; set temperature
G28 ; home all axes
G1 Z5 F5000 ; lift nozzle

; Filament gcode

M109 S200 ; set temperature and wait for it to be reached
G21 ; set units to millimeters
G90 ; use absolute coordinates
M82 ; use absolute distances for extrusion
G92 E0
G1 Z0.300 F30000.000
G1 E-2.00000 F2400.00000
G92 E0
G1 X45.634 Y49.814 F30000.000
G1 E2.00000 F2400.00000
G1 F2100
G1 X47.928 Y47.802 E2.20385
G1 X50.138 Y46.088 E2.39066
G1 X52.873 Y44.229 E2.61161
G1 X55.504 Y42.683 E2.81547
G1 X57.995 Y41.413 E3.00229
G1 X60.793 Y40.194 E3.20614
G1 X61.869 Y39.798 E3.28274
G1 X63.904 Y39.074 E3.42709
G1 X66.837 Y38.230 E3.63096
G1 X69.566 Y37.620 E3.81777
G1 X72.579 Y37.135 E4.02163
G1 X75.872 Y36.824 E4.24258
G1 X78.666 Y36.736 E4.42937
G1 X81.717 Y36.824 E4.63325
G1 X85.009 Y37.135 E4.85420
G1 X88.022 Y37.620 E5.05806
G1 X90.751 Y38.230 E5.24487
G1 X93.684 Y39.074 E5.44874
G1 X95.719 Y39.798 E5.59307
G1 X96.796 Y40.194 E5.66968
G1 X99.593 Y41.413 E5.87354
G1 X102.085 Y42.683 E6.06035
G1 X104.715 Y44.229 E6.26422
G1 X107.451 Y46.088 E6.48517
G1 X109.660 Y47.802 E6.67198
G1 X111.955 Y49.814 E6.87583
G1 X114.293 Y52.153 E7.09679
G1 X116.305 Y54.447 E7.30064
G1 X118.019 Y56.657 E7.48745
G1 X119.878 Y59.392 E7.70840
G1 X121.425 Y62.023 E7.91227
G1 X122.694 Y64.515 E8.09908
G1 X123.913 Y67.312 E8.30294
G1 X124.309 Y68.388 E8.37953
G1 X125.034 Y70.424 E8.52388
G1 X125.877 Y73.356 E8.72775
G1 X126.487 Y76.085 E8.91456
G1 X126.973 Y79.098 E9.11842
G1 X127.284 Y82.391 E9.33937
G1 X127.372 Y85.441 E9.54325
G1 X127.284 Y88.236 E9.73004
G1 X126.973 Y91.529 E9.95099
G1 X126.487 Y94.541 E10.15485
G1 X125.877 Y97.270 E10.34166
G1 X125.034 Y100.203 E10.54553
G1 X124.309 Y102.239 E10.68986
G1 X123.913 Y103.315 E10.76647
G1 X122.694 Y106.112 E10.97033
G1 X121.425 Y108.604 E11.15714
G1 X119.878 Y111.235 E11.36101
G1 X118.019 Y113.970 E11.58196
G1 X116.305 Y116.180 E11.76877
G1 X114.293 Y118.474 E11.97262
G1 X111.955 Y120.813 E12.19358
G1 X109.660 Y122.824 E12.39743
G1 X107.451 Y124.538 E12.58424
G1 X104.715 Y126.397 E12.80519
G1 X102.085 Y127.944 E13.00906
G1 X99.593 Y129.213 E13.19588
G1 X96.796 Y130.433 E13.39973
G1 X95.720 Y130.829 E13.47633
G1 X93.684 Y131.553 E13.62067
G1 X90.751 Y132.397 E13.82454
G1 X88.022 Y133.007 E14.01135
G1 X85.009 Y133.492 E14.21521
G1 X81.717 Y133.803 E14.43616
G1 X78.922 Y133.891 E14.62296
G1 X75.872 Y133.803 E14.82683
G1 X72.579 Y133.492 E15.04778
G1 X69.566 Y133.007 E15.25165
G1 X66.837 Y132.397 E15.43846
G1 X63.904 Y131.553 E15.64232
G1 X61.869 Y130.829 E15.78666
G1 X60.793 Y130.433 E15.86327
G1 X57.995 Y129.213 E16.06712
G1 X55.504 Y127.944 E16.25394
G1 X52.873 Y126.397 E16.45780
G1 X50.138 Y124.538 E16.67875
G1 X47.928 Y122.824 E16.86556
G1 X45.634 Y120.813 E17.06941
G1 X43.295 Y118.474 E17.29038
G1 X41.283 Y116.179 E17.49422
G1 X39.569 Y113.970 E17.68104
G1 X37.710 Y111.235 E17.90199
G1 X36.164 Y108.604 E18.10585
G1 X34.894 Y106.112 E18.29267
G1 X33.675 Y103.315 E18.49652
G1 X33.279 Y102.239 E18.57313
G1 X32.555 Y100.203 E18.71746
G1 X31.711 Y97.270 E18.92133
G1 X31.101 Y94.541 E19.10814
G1 X30.616 Y91.529 E19.31201
G1 X30.304 Y88.236 E19.53295
G1 X30.217 Y85.441 E19.71975
G1 X30.304 Y82.391 E19.92362
G1 X30.616 Y79.098 E20.14457
G1 X31.101 Y76.085 E20.34844
G1 X31.711 Y73.356 E20.53525
G1 X32.634 Y70.181 E20.75617
G1 X33.581 Y67.550 E20.94299
G1 X34.785 Y64.746 E21.14685
G1 X36.287 Y61.799 E21.36780
G1 X37.710 Y59.392 E21.55459
G1 X39.419 Y56.864 E21.75846
G1 X41.446 Y54.250 E21.97940
G1 X43.470 Y51.966 E22.18328
G1 X45.590 Y49.855 E22.38316
G1 X45.988 Y50.216 F30000.000
G1 F2100
G1 X48.256 Y48.226 E22.58476
G1 X50.466 Y46.512 E22.77157
G1 X53.146 Y44.690 E22.98803
G1 X55.747 Y43.160 E23.18964
G1 X58.239 Y41.891 E23.37646
G1 X61.005 Y40.686 E23.57807
G1 X62.050 Y40.302 E23.65242
G1 X64.054 Y39.588 E23.79452
G1 X66.954 Y38.753 E23.99614
G1 X69.683 Y38.143 E24.18295
G1 X72.663 Y37.664 E24.38457
G1 X75.888 Y37.359 E24.60102
G1 X78.683 Y37.271 E24.78781
G1 X81.700 Y37.359 E24.98944
G1 X84.926 Y37.664 E25.20590
G1 X87.905 Y38.143 E25.40752
G1 X90.634 Y38.753 E25.59432
G1 X93.534 Y39.588 E25.79595
G1 X95.538 Y40.302 E25.93803
G1 X96.583 Y40.686 E26.01240
G1 X99.350 Y41.891 E26.21400
G1 X101.841 Y43.160 E26.40082
G1 X104.443 Y44.690 E26.60244
G1 X107.122 Y46.512 E26.81889
G1 X109.332 Y48.226 E27.00570
G1 X111.600 Y50.216 E27.20731
G1 X113.892 Y52.507 E27.42378
G1 X115.882 Y54.776 E27.62538
G1 X117.596 Y56.985 E27.81219
G1 X119.417 Y59.665 E28.02865
G1 X120.947 Y62.266 E28.23026
G1 X122.217 Y64.758 E28.41708
G1 X123.422 Y67.525 E28.61869
G1 X123.805 Y68.569 E28.69304
G1 X124.519 Y70.573 E28.83514
G1 X125.355 Y73.473 E29.03676
G1 X125.965 Y76.202 E29.22357
G1 X126.444 Y79.182 E29.42518
G1 X126.749 Y82.408 E29.64164
G1 X126.836 Y85.424 E29.84327
G1 X126.749 Y88.219 E30.03006
G1 X126.444 Y91.445 E30.24652
G1 X125.965 Y94.425 E30.44814
G1 X125.355 Y97.154 E30.63494
G1 X124.519 Y100.054 E30.83657
G1 X123.805 Y102.057 E30.97865
G1 X123.422 Y103.102 E31.05301
G1 X122.217 Y105.869 E31.25462
G1 X120.947 Y108.361 E31.44144
G1 X119.417 Y110.962 E31.64306
G1 X117.596 Y113.642 E31.85951
G1 X115.882 Y115.851 E32.04632
G1 X113.892 Y118.120 E32.24793
G1 X111.600 Y120.411 E32.46439
G1 X109.332 Y122.401 E32.66600
G1 X107.122 Y124.115 E32.85281
G1 X104.443 Y125.936 E33.06926
G1 X101.841 Y127.467 E33.27088
G1 X99.350 Y128.736 E33.45770
G1 X96.583 Y129.941 E33.65931
G1 X95.538 Y130.325 E33.73367
G1 X93.535 Y131.038 E33.87575
G1 X90.634 Y131.874 E34.07738
G1 X87.905 Y132.484 E34.26418
G1 X84.926 Y132.963 E34.46580
G1 X81.700 Y133.268 E34.68226
G1 X78.905 Y133.356 E34.86905
G1 X75.888 Y133.268 E35.07068
G1 X72.663 Y132.963 E35.28714
G1 X69.683 Y132.484 E35.48875
G1 X66.954 Y131.874 E35.67556
G1 X64.054 Y131.038 E35.87718
G1 X62.050 Y130.325 E36.01927
G1 X61.005 Y129.941 E36.09363
G1 X58.239 Y128.736 E36.29524
G1 X55.747 Y127.467 E36.48206
G1 X53.146 Y125.936 E36.68367
G1 X50.466 Y124.115 E36.90013
G1 X48.256 Y122.401 E37.08694
G1 X45.988 Y120.411 E37.28854
G1 X43.697 Y118.120 E37.50501
G1 X41.706 Y115.851 E37.70662
G1 X39.992 Y113.642 E37.89343
G1 X38.171 Y110.962 E38.10988
G1 X36.641 Y108.361 E38.31150
G1 X35.371 Y105.869 E38.49832
G1 X34.167 Y103.102 E38.69992
G1 X33.783 Y102.057 E38.77428
G1 X33.069 Y100.054 E38.91637
G1 X32.234 Y97.154 E39.11800
G1 X31.624 Y94.425 E39.30480
G1 X31.145 Y91.445 E39.50642
G1 X30.840 Y88.219 E39.72288
G1 X30.752 Y85.424 E39.90967
G1 X30.840 Y82.408 E40.11130
G1 X31.145 Y79.182 E40.32775
G1 X31.624 Y76.202 E40.52937
G1 X32.234 Y73.473 E40.71618
G1 X33.138 Y70.362 E40.93262
G1 X34.085 Y67.731 E41.11943
G1 X35.277 Y64.958 E41.32105
G1 X36.748 Y62.072 E41.53750
G1 X38.171 Y59.665 E41.72429
G1 X39.862 Y57.165 E41.92592
G1 X41.848 Y54.605 E42.14236
G1 X43.849 Y52.345 E42.34400
G1 X45.944 Y50.257 E42.54162
G1 X46.508 Y50.806 F30000.000
G1 F2100
G1 X48.704 Y48.873 E42.76055
G1 X51.052 Y47.056 E42.98274
G1 X53.509 Y45.389 E43.20490
G1 X55.990 Y43.922 E43.42061
G1 X58.712 Y42.535 E43.64924
G1 X61.438 Y41.358 E43.87141
G1 X64.150 Y40.382 E44.08713
G1 X67.083 Y39.530 E44.31575
G1 X69.897 Y38.901 E44.53147
G1 X72.828 Y38.434 E44.75363
G1 X75.870 Y38.146 E44.98227
G1 X78.751 Y38.056 E45.19798
G1 X81.718 Y38.146 E45.42015
G1 X84.760 Y38.434 E45.64879
G1 X87.692 Y38.901 E45.87095
G1 X90.505 Y39.530 E46.08667
G1 X93.357 Y40.355 E46.30884
G1 X95.272 Y41.042 E46.46109
G1 X96.231 Y41.390 E46.53747
G1 X98.954 Y42.572 E46.75963
G1 X101.523 Y43.880 E46.97535
G1 X104.080 Y45.389 E47.19752
G1 X106.606 Y47.106 E47.42615
G1 X108.884 Y48.873 E47.64187
G1 X111.113 Y50.834 E47.86402
G1 X113.273 Y52.995 E48.09268
G1 X115.234 Y55.223 E48.31483
G1 X117.001 Y57.501 E48.53055
G1 X118.718 Y60.028 E48.75918
G1 X120.227 Y62.585 E48.98135
G1 X121.536 Y65.153 E49.19707
G1 X122.717 Y67.876 E49.41923
G1 X123.066 Y68.836 E49.49561
G1 X123.752 Y70.751 E49.64786
G1 X124.578 Y73.603 E49.87003
G1 X125.207 Y76.416 E50.08575
G1 X125.674 Y79.347 E50.30791
G1 X125.961 Y82.389 E50.53655
G1 X126.052 Y85.357 E50.75872
G1 X125.961 Y88.238 E50.97443
G1 X125.674 Y91.279 E51.20307
G1 X125.207 Y94.211 E51.42523
G1 X124.578 Y97.024 E51.64095
G1 X123.752 Y99.876 E51.86312
G1 X123.066 Y101.791 E52.01537
G1 X122.717 Y102.750 E52.09175
G1 X121.536 Y105.474 E52.31391
G1 X120.227 Y108.042 E52.52963
G1 X118.718 Y110.599 E52.75180
G1 X117.001 Y113.126 E52.98043
G1 X115.234 Y115.403 E53.19615
G1 X113.273 Y117.632 E53.41830
G1 X111.113 Y119.792 E53.64696
G1 X108.884 Y121.753 E53.86911
G1 X106.606 Y123.520 E54.08483
G1 X104.080 Y125.238 E54.31346
G1 X101.523 Y126.746 E54.53563
G1 X98.954 Y128.055 E54.75135
G1 X96.231 Y129.237 E54.97351
G1 X95.272 Y129.585 E55.04988
G1 X93.357 Y130.271 E55.20214
G1 X90.505 Y131.097 E55.42431
G1 X87.692 Y131.726 E55.64003
G1 X84.760 Y132.193 E55.86219
G1 X81.718 Y132.481 E56.09083
G1 X78.837 Y132.571 E56.30653
G1 X75.870 Y132.481 E56.52871
G1 X72.828 Y132.193 E56.75735
G1 X69.897 Y131.726 E56.97951
G1 X67.083 Y131.097 E57.19523
G1 X64.232 Y130.271 E57.41740
G1 X62.317 Y129.585 E57.56965
G1 X61.357 Y129.237 E57.64603
G1 X58.634 Y128.055 E57.86819
G1 X56.065 Y126.746 E58.08391
G1 X53.509 Y125.238 E58.30608
G1 X50.982 Y123.520 E58.53471
G1 X48.704 Y121.753 E58.75043
G1 X46.476 Y119.792 E58.97258
G1 X44.315 Y117.632 E59.20124
G1 X42.354 Y115.403 E59.42339
G1 X40.587 Y113.126 E59.63911
G1 X38.870 Y110.599 E59.86774
G1 X37.361 Y108.042 E60.08991
G1 X36.052 Y105.474 E60.30563
G1 X34.871 Y102.750 E60.52779
G1 X34.523 Y101.791 E60.60416
G1 X33.836 Y99.876 E60.75642
G1 X33.010 Y97.024 E60.97859
G1 X32.382 Y94.211 E61.19431
G1 X31.915 Y91.279 E61.41647
G1 X31.627 Y88.238 E61.64511
G1 X31.536 Y85.357 E61.86082
G1 X31.627 Y82.389 E62.08299
G1 X31.915 Y79.348 E62.31162
G1 X32.382 Y76.416 E62.53379
G1 X33.010 Y73.603 E62.74951
G1 X33.863 Y70.669 E62.97813
G1 X34.839 Y67.957 E63.19385
G1 X36.016 Y65.231 E63.41602
G1 X37.403 Y62.509 E63.64465
G1 X38.870 Y60.028 E63.86036
G1 X40.536 Y57.571 E64.08252
G1 X42.409 Y55.157 E64.31117
G1 X44.374 Y52.932 E64.53333
G1 X46.463 Y50.846 E64.75425
G1 X46.905 Y51.256 F30000.000
G1 F2100
G1 X49.079 Y49.342 E64.97107
G1 X51.397 Y47.547 E65.19043
G1 X53.822 Y45.901 E65.40978
G1 X56.287 Y44.443 E65.62407
G1 X58.959 Y43.082 E65.84848
G1 X61.650 Y41.920 E66.06782
G1 X64.344 Y40.950 E66.28213
G1 X67.224 Y40.113 E66.50652
G1 X70.018 Y39.488 E66.72083
G1 X72.913 Y39.028 E66.94017
G1 X75.898 Y38.746 E67.16458
G1 X78.760 Y38.656 E67.37887
G1 X81.690 Y38.746 E67.59822
G1 X84.675 Y39.028 E67.82263
G1 X87.570 Y39.488 E68.04198
G1 X90.430 Y40.130 E68.26132
G1 X93.244 Y40.950 E68.48068
G1 X95.939 Y41.920 E68.69498
G1 X98.691 Y43.111 E68.91937
G1 X101.242 Y44.411 E69.13368
G1 X103.766 Y45.901 E69.35303
G1 X106.246 Y47.586 E69.57743
G1 X108.509 Y49.342 E69.79174
G1 X110.709 Y51.278 E70.01107
G1 X112.829 Y53.399 E70.23549
G1 X114.766 Y55.599 E70.45483
G1 X116.521 Y57.861 E70.66914
G1 X118.207 Y60.341 E70.89354
G1 X119.697 Y62.865 E71.11288
G1 X120.997 Y65.417 E71.32719
G1 X122.163 Y68.106 E71.54653
G1 X122.501 Y69.039 E71.62080
G1 X123.179 Y70.927 E71.77093
G1 X123.994 Y73.743 E71.99028
G1 X124.619 Y76.537 E72.20459
G1 X125.080 Y79.432 E72.42393
G1 X125.362 Y82.417 E72.64834
G1 X125.452 Y85.347 E72.86769
G1 X125.362 Y88.209 E73.08198
G1 X125.080 Y91.195 E73.30639
G1 X124.619 Y94.089 E73.52574
G1 X123.994 Y96.884 E73.74004
G1 X123.179 Y99.699 E73.95939
G1 X122.501 Y101.588 E74.10953
G1 X122.163 Y102.521 E74.18379
G1 X120.997 Y105.210 E74.40313
G1 X119.697 Y107.761 E74.61744
G1 X118.207 Y110.285 E74.83679
G1 X116.521 Y112.765 E75.06119
G1 X114.766 Y115.028 E75.27550
G1 X112.829 Y117.228 E75.49483
G1 X110.709 Y119.349 E75.71925
G1 X108.509 Y121.285 E75.93859
G1 X106.246 Y123.040 E76.15290
G1 X103.766 Y124.726 E76.37730
G1 X101.242 Y126.216 E76.59664
G1 X98.691 Y127.516 E76.81095
G1 X96.001 Y128.682 E77.03029
G1 X95.069 Y129.020 E77.10455
G1 X93.180 Y129.698 E77.25469
G1 X90.365 Y130.514 E77.47404
G1 X87.570 Y131.138 E77.68835
G1 X84.675 Y131.599 E77.90769
G1 X81.690 Y131.881 E78.13210
G1 X78.828 Y131.971 E78.34639
G1 X75.898 Y131.881 E78.56574
G1 X72.913 Y131.599 E78.79015
G1 X70.018 Y131.138 E79.00950
G1 X67.224 Y130.514 E79.22380
G1 X64.408 Y129.698 E79.44315
G1 X62.520 Y129.020 E79.59329
G1 X61.587 Y128.682 E79.66755
G1 X58.898 Y127.516 E79.88689
G1 X56.346 Y126.216 E80.10120
G1 X53.822 Y124.726 E80.32055
G1 X51.342 Y123.040 E80.54495
G1 X49.079 Y121.285 E80.75926
G1 X46.879 Y119.349 E80.97859
G1 X44.759 Y117.228 E81.20301
G1 X42.822 Y115.028 E81.42235
G1 X41.067 Y112.765 E81.63666
G1 X39.382 Y110.285 E81.86106
G1 X37.891 Y107.761 E82.08040
G1 X36.591 Y105.210 E82.29471
G1 X35.425 Y102.521 E82.51405
G1 X35.087 Y101.588 E82.58832
G1 X34.410 Y99.699 E82.73845
G1 X33.594 Y96.884 E82.95780
G1 X32.969 Y94.089 E83.17211
G1 X32.509 Y91.195 E83.39145
G1 X32.226 Y88.209 E83.61586
G1 X32.136 Y85.347 E83.83015
G1 X32.226 Y82.417 E84.04950
G1 X32.509 Y79.432 E84.27391
G1 X32.969 Y76.537 E84.49326
G1 X33.594 Y73.743 E84.70756
G1 X34.431 Y70.863 E84.93195
G1 X35.401 Y68.169 E85.14626
G1 X36.563 Y65.478 E85.36561
G1 X37.924 Y62.806 E85.59001
G1 X39.382 Y60.341 E85.80431
G1 X41.027 Y57.916 E86.02365
G1 X42.865 Y55.547 E86.24806
G1 X44.805 Y53.349 E86.46741
G1 X46.860 Y51.296 E86.68480
G1 X47.301 Y51.706 F30000.000
G1 F2100
G1 X49.455 Y49.810 E86.89951
G1 X51.742 Y48.038 E87.11604
G1 X54.136 Y46.412 E87.33257
G1 X56.584 Y44.964 E87.54546
G1 X59.206 Y43.629 E87.76563
G1 X61.817 Y42.499 E87.97852
G1 X64.538 Y41.517 E88.19505
G1 X67.364 Y40.697 E88.41522
G1 X70.140 Y40.076 E88.62811
G1 X72.997 Y39.622 E88.84463
G1 X75.926 Y39.345 E89.06481
G1 X78.770 Y39.256 E89.27769
G1 X81.662 Y39.345 E89.49422
G1 X84.591 Y39.622 E89.71440
G1 X87.448 Y40.076 E89.93092
G1 X90.225 Y40.697 E90.14382
G1 X93.004 Y41.502 E90.36034
G1 X94.865 Y42.171 E90.50837
G1 X95.772 Y42.499 E90.58052
G1 X98.427 Y43.649 E90.79704
G1 X100.961 Y44.941 E91.00993
G1 X103.453 Y46.412 E91.22646
G1 X105.886 Y48.066 E91.44663
G1 X108.134 Y49.810 E91.65952
G1 X110.305 Y51.722 E91.87605
G1 X112.386 Y53.802 E92.09623
G1 X114.298 Y55.974 E92.31275
G1 X116.041 Y58.222 E92.52564
G1 X117.695 Y60.655 E92.74581
G1 X119.167 Y63.146 E92.96234
G1 X120.458 Y65.681 E93.17523
G1 X121.609 Y68.336 E93.39176
G1 X121.937 Y69.242 E93.46390
G1 X122.605 Y71.104 E93.61193
G1 X123.411 Y73.883 E93.82846
G1 X124.032 Y76.659 E94.04135
G1 X124.486 Y79.517 E94.25787
G1 X124.762 Y82.446 E94.47805
G1 X124.852 Y85.338 E94.69458
G1 X124.762 Y88.181 E94.90746
G1 X124.486 Y91.110 E95.12764
G1 X124.032 Y93.968 E95.34416
G1 X123.411 Y96.744 E95.55706
G1 X122.605 Y99.523 E95.77358
G1 X121.937 Y101.384 E95.92161
G1 X121.609 Y102.291 E95.99376
G1 X120.458 Y104.946 E96.21028
G1 X119.167 Y107.481 E96.42317
G1 X117.695 Y109.972 E96.63970
G1 X116.041 Y112.405 E96.85987
G1 X114.298 Y114.653 E97.07277
G1 X112.386 Y116.824 E97.28929
G1 X110.305 Y118.905 E97.50947
G1 X108.134 Y120.817 E97.72599
G1 X105.886 Y122.561 E97.93888
G1 X103.453 Y124.214 E98.15905
G1 X100.961 Y125.686 E98.37558
G1 X98.427 Y126.977 E98.58847
G1 X95.772 Y128.128 E98.80500
G1 X94.865 Y128.456 E98.87714
G1 X93.004 Y129.124 E99.02517
G1 X90.225 Y129.930 E99.24170
G1 X87.448 Y130.551 E99.45459
G1 X84.591 Y131.005 E99.67111
G1 X81.662 Y131.282 E99.89129
G1 X78.819 Y131.371 E100.10417
G1 X75.927 Y131.282 E100.32070
G1 X72.997 Y131.005 E100.54088
G1 X70.140 Y130.551 E100.75740
G1 X67.364 Y129.930 E100.97030
G1 X64.585 Y129.124 E101.18682
G1 X62.723 Y128.456 E101.33485
G1 X61.817 Y128.128 E101.40700
G1 X59.162 Y126.977 E101.62352
G1 X56.627 Y125.686 E101.83641
G1 X54.136 Y124.214 E102.05294
G1 X51.702 Y122.561 E102.27311
G1 X49.455 Y120.817 E102.48601
G1 X47.283 Y118.905 E102.70253
G1 X45.203 Y116.824 E102.92271
G1 X43.291 Y114.653 E103.13923
G1 X41.547 Y112.405 E103.35212
