; generated by Slic3r 1.3.0 on 2020-11-01 at 15:37:14

; external perimeters extrusion width = 0.44mm (2.78mm^3/s)
; perimeters extrusion width = 0.40mm (7.14mm^3/s)
; infill extrusion width = 0.50mm (10.97mm^3/s)
; solid infill extrusion width = 0.60mm (6.68mm^3/s)
; top infill extrusion width = 0.40mm (2.14mm^3/s)

M107
M190 S80 ; set bed temperature and wait for it to be reached
M104 S210 ; set temperature
G28 ; home all axes
G1 Z5 F5000 ; lift nozzle

; Filament gcode

M109 S210 ; set temperature and wait for it to be reached
G21 ; set units to millimeters
G90 ; use absolute coordinates
M82 ; use absolute distances for extrusion
G92 E0
G1 Z0.300 F30000.000
G1 E-2.00000 F2400.00000
G92 E0
G1 X46.562 Y57.667 F30000.000
G1 E2.00000 F2400.00000
G1 F2100
G1 X47.448 Y57.272 E2.06478
G1 X80.640 Y46.488 E4.39629
G1 X82.538 Y46.287 E4.52384
G1 X83.487 Y46.488 E4.58860
G1 X85.195 Y47.459 E4.71987
G1 X85.844 Y48.179 E4.78464
G1 X106.358 Y76.413 E7.11616
G1 X107.136 Y78.157 E7.24371
G1 X107.238 Y79.121 E7.30848
G1 X106.842 Y81.046 E7.43975
G1 X106.358 Y81.886 E7.50452
G1 X85.844 Y110.121 E9.83603
G1 X84.426 Y111.399 E9.96358
G1 X83.486 Y111.812 E10.03215
G1 X81.588 Y112.013 E10.15970
G1 X80.640 Y111.812 E10.22444
G1 X47.448 Y101.027 E12.55596
G1 X45.793 Y100.074 E12.68351
G1 X45.111 Y99.307 E12.75207
G1 X44.333 Y97.564 E12.87962
G1 X44.231 Y96.600 E12.94438
G1 X44.231 Y61.700 E15.27589
G1 X44.627 Y59.832 E15.40344
G1 X45.144 Y58.946 E15.47198
G1 X46.518 Y57.708 E15.59553
G1 X47.613 Y57.782 F30000.000
G1 F2100
G1 X80.805 Y46.997 E17.92704
G1 X83.321 Y46.997 E18.09512
G1 X83.375 Y47.015 E18.09892
G1 X85.411 Y48.494 E18.26702
G1 X105.925 Y76.728 E20.59853
G1 X106.702 Y79.121 E20.76663
G1 X106.702 Y79.178 E20.77042
G1 X105.925 Y81.571 E20.93852
G1 X85.411 Y109.806 E23.27003
G1 X83.375 Y111.285 E23.43814
G1 X83.321 Y111.302 E23.44194
G1 X80.805 Y111.302 E23.61001
G1 X47.613 Y100.518 E25.94152
G1 X45.577 Y99.039 E26.10962
G1 X45.544 Y98.993 E26.11342
G1 X44.767 Y96.600 E26.28150
G1 X44.767 Y61.700 E28.61301
G1 X45.544 Y59.307 E28.78110
G1 X45.577 Y59.261 E28.78490
G1 X47.565 Y57.817 E28.94899
G1 X47.779 Y58.291 F30000.000
G1 F2100
G1 X80.971 Y47.506 E31.28050
G1 X83.156 Y47.506 E31.42647
G1 X83.210 Y47.524 E31.43027
G1 X84.977 Y48.808 E31.57625
G1 X105.491 Y77.043 E33.90776
G1 X106.166 Y79.121 E34.05374
G1 X106.166 Y79.178 E34.05754
G1 X105.491 Y81.256 E34.20352
G1 X84.977 Y109.491 E36.53503
G1 X83.209 Y110.776 E36.68102
G1 X83.155 Y110.793 E36.68482
G1 X80.971 Y110.793 E36.83078
G1 X47.779 Y100.008 E39.16229
G1 X46.011 Y98.724 E39.30828
G1 X45.977 Y98.678 E39.31207
G1 X45.302 Y96.600 E39.45805
G1 X45.302 Y61.700 E41.78956
G1 X45.977 Y59.622 E41.93553
G1 X46.011 Y59.576 E41.93933
G1 X47.730 Y58.326 E42.08130
G1 X47.779 Y58.950 F30000.000
G1 F2100
G1 X48.318 Y58.943 E42.12168
G1 X80.917 Y48.351 E44.68677
G1 X81.422 Y47.993 E44.73311
G1 X81.785 Y48.050 E44.76056
G1 X81.859 Y48.044 E44.76614
G1 X82.297 Y47.902 E44.80057
G1 X82.927 Y48.223 E44.85348
G1 X83.672 Y48.349 E44.91005
G1 X83.942 Y48.721 E44.94448
G1 X83.999 Y48.770 E44.95006
G1 X84.326 Y48.936 E44.97752
G1 X84.525 Y49.523 E45.02385
G1 X104.672 Y77.253 E47.58895
G1 X105.168 Y77.623 E47.63529
G1 X105.226 Y77.986 E47.66273
G1 X105.254 Y78.055 E47.66831
G1 X105.524 Y78.426 E47.70272
G1 X105.414 Y79.125 E47.75564
G1 X105.524 Y79.873 E47.81223
G1 X105.254 Y80.245 E47.84664
G1 X105.226 Y80.314 E47.85222
G1 X105.168 Y80.676 E47.87966
G1 X104.672 Y81.046 E47.92600
G1 X84.525 Y108.777 E50.49110
G1 X84.326 Y109.363 E50.53743
G1 X83.999 Y109.530 E50.56489
G1 X83.942 Y109.578 E50.57047
G1 X83.672 Y109.950 E50.60490
G1 X82.927 Y110.076 E50.66148
G1 X82.297 Y110.397 E50.71439
G1 X81.859 Y110.255 E50.74882
G1 X81.785 Y110.249 E50.75440
G1 X81.422 Y110.307 E50.78185
G1 X80.917 Y109.949 E50.82818
G1 X52.272 Y100.641 E53.08217
G1 X48.318 Y99.357 E53.39328
G1 X47.699 Y99.349 E53.43962
G1 X47.440 Y99.090 E53.46707
G1 X47.376 Y99.051 E53.47265
G1 X46.939 Y98.909 E53.50707
G1 X46.617 Y98.279 E53.55999
G1 X46.088 Y97.738 E53.61657
G1 X46.088 Y97.279 E53.65099
G1 X46.071 Y97.206 E53.65657
G1 X45.904 Y96.879 E53.68402
G1 X46.088 Y96.288 E53.73036
G1 X46.088 Y62.012 E56.29545
G1 X45.904 Y61.420 E56.34179
G1 X46.071 Y61.093 E56.36924
G1 X46.088 Y61.021 E56.37482
G1 X46.088 Y60.561 E56.40924
G1 X46.588 Y60.061 E56.46215
G1 X46.939 Y59.391 E56.51874
G1 X47.376 Y59.249 E56.55316
G1 X47.440 Y59.210 E56.55874
G1 X47.699 Y58.950 E56.58619
G1 X47.719 Y58.950 E56.58766
G1 X47.947 Y59.550 F30000.000
G1 F2100
G1 X48.413 Y59.543 E56.62252
G1 X81.193 Y48.892 E59.20184
G1 X81.574 Y48.624 E59.23669
G1 X81.833 Y48.665 E59.25632
G1 X81.908 Y48.660 E59.26190
G1 X82.246 Y48.550 E59.28851
G1 X82.739 Y48.801 E59.32993
G1 X83.333 Y48.903 E59.37502
G1 X83.542 Y49.191 E59.40163
G1 X83.598 Y49.239 E59.40721
G1 X83.832 Y49.358 E59.42685
G1 X83.983 Y49.799 E59.46169
G1 X104.242 Y77.683 E62.04102
G1 X104.615 Y77.963 E62.07587
G1 X104.656 Y78.222 E62.09549
G1 X104.684 Y78.291 E62.10108
G1 X104.893 Y78.578 E62.12767
G1 X104.806 Y79.125 E62.16910
G1 X104.893 Y79.721 E62.21420
G1 X104.684 Y80.009 E62.24079
G1 X104.656 Y80.078 E62.24637
G1 X104.615 Y80.337 E62.26600
G1 X104.242 Y80.617 E62.30085
G1 X83.983 Y108.501 E64.88017
G1 X83.832 Y108.941 E64.91502
G1 X83.598 Y109.060 E64.93466
G1 X83.542 Y109.109 E64.94024
G1 X83.333 Y109.396 E64.96685
G1 X82.786 Y109.483 E65.00827
G1 X82.246 Y109.750 E65.05336
G1 X81.908 Y109.640 E65.07997
G1 X81.833 Y109.634 E65.08555
G1 X81.574 Y109.675 E65.10518
G1 X81.193 Y109.408 E65.14003
G1 X52.457 Y100.071 E67.40113
G1 X48.413 Y98.757 E67.71935
G1 X47.947 Y98.749 E67.75421
G1 X47.762 Y98.564 E67.77384
G1 X47.698 Y98.525 E67.77942
G1 X47.360 Y98.415 E67.80602
G1 X47.080 Y97.881 E67.85112
G1 X46.688 Y97.490 E67.89255
G1 X46.688 Y97.134 E67.91915
G1 X46.671 Y97.062 E67.92473
G1 X46.552 Y96.828 E67.94436
G1 X46.688 Y96.383 E67.97921
G1 X46.688 Y61.916 E70.55852
G1 X46.552 Y61.471 E70.59338
G1 X46.671 Y61.237 E70.61301
G1 X46.688 Y61.165 E70.61859
G1 X46.688 Y60.809 E70.64519
G1 X47.109 Y60.378 E70.69029
G1 X47.360 Y59.885 E70.73172
G1 X47.698 Y59.775 E70.75832
G1 X47.762 Y59.736 E70.76390
G1 X47.905 Y59.593 E70.77904
G1 X48.196 Y60.150 F30000.000
G1 F2100
G1 X48.508 Y60.143 E70.80241
G1 X81.469 Y49.433 E73.39595
G1 X81.726 Y49.256 E73.41932
G1 X81.956 Y49.275 E73.43661
G1 X82.195 Y49.197 E73.45539
G1 X82.551 Y49.379 E73.48533
G1 X82.993 Y49.457 E73.51894
G1 X83.141 Y49.660 E73.53773
G1 X83.338 Y49.780 E73.55502
G1 X83.442 Y50.074 E73.57838
G1 X103.813 Y78.112 E76.17193
G1 X104.061 Y78.302 E76.19529
G1 X104.114 Y78.527 E76.21258
G1 X104.262 Y78.730 E76.23135
G1 X104.199 Y79.125 E76.26130
G1 X104.262 Y79.570 E76.29491
G1 X104.114 Y79.773 E76.31369
G1 X104.061 Y79.997 E76.33097
G1 X103.813 Y80.187 E76.35434
G1 X83.442 Y108.225 E78.94788
G1 X83.338 Y108.519 E78.97124
G1 X83.141 Y108.640 E78.98854
G1 X82.993 Y108.843 E79.00733
G1 X82.598 Y108.905 E79.03726
G1 X82.195 Y109.102 E79.07087
G1 X81.956 Y109.025 E79.08966
G1 X81.726 Y109.044 E79.10695
G1 X81.469 Y108.866 E79.13031
G1 X52.643 Y99.500 E81.39853
G1 X48.508 Y98.157 E81.72386
G1 X48.196 Y98.149 E81.74722
G1 X48.021 Y97.999 E81.76451
G1 X47.782 Y97.921 E81.78330
G1 X47.571 Y97.524 E81.81691
G1 X47.288 Y97.241 E81.84685
G1 X47.288 Y96.990 E81.86563
G1 X47.199 Y96.777 E81.88292
G1 X47.288 Y96.478 E81.90629
G1 X47.288 Y61.821 E84.49982
G1 X47.199 Y61.522 E84.52319
G1 X47.288 Y61.309 E84.54048
G1 X47.288 Y61.058 E84.55926
G1 X47.571 Y60.775 E84.58920
G1 X47.782 Y60.379 E84.62281
G1 X48.021 Y60.301 E84.64160
G1 X48.154 Y60.193 E84.65442
G1 X48.445 Y60.750 F30000.000
G1 F2100
G1 X48.603 Y60.743 E84.66630
G1 X81.744 Y49.974 E87.27407
G1 X81.877 Y49.887 E87.28595
G1 X82.004 Y49.890 E87.29546
G1 X82.144 Y49.845 E87.30643
G1 X82.411 Y49.972 E87.32855
G1 X82.654 Y50.010 E87.34700
G1 X82.740 Y50.129 E87.35797
G1 X82.844 Y50.202 E87.36749
G1 X82.901 Y50.350 E87.37937
G1 X103.017 Y78.037 E89.94048
G1 X103.383 Y78.542 E89.98714
G1 X103.507 Y78.641 E89.99902
G1 X103.544 Y78.763 E90.00853
G1 X103.630 Y78.881 E90.01949
G1 X103.591 Y79.125 E90.03795
G1 X103.630 Y79.418 E90.06007
G1 X103.544 Y79.537 E90.07103
G1 X103.507 Y79.658 E90.08054
G1 X103.383 Y79.758 E90.09243
G1 X82.901 Y107.949 E92.70019
G1 X82.845 Y108.098 E92.71208
G1 X82.740 Y108.170 E92.72159
G1 X82.654 Y108.289 E92.73256
G1 X82.411 Y108.328 E92.75101
G1 X82.144 Y108.455 E92.77313
G1 X82.004 Y108.410 E92.78410
G1 X81.877 Y108.412 E92.79361
G1 X81.744 Y108.325 E92.80550
G1 X52.828 Y98.930 E95.08082
G1 X48.603 Y97.557 E95.41327
G1 X48.445 Y97.549 E95.42515
G1 X48.343 Y97.472 E95.43466
G1 X48.204 Y97.427 E95.44563
G1 X48.063 Y97.167 E95.46775
G1 X47.888 Y96.993 E95.48621
G1 X47.888 Y96.846 E95.49717
G1 X47.847 Y96.726 E95.50668
G1 X47.888 Y96.573 E95.51857
G1 X47.888 Y61.726 E98.12633
G1 X47.847 Y61.573 E98.13822
G1 X47.888 Y61.453 E98.14773
G1 X47.888 Y61.307 E98.15869
G1 X48.063 Y61.132 E98.17715
G1 X48.204 Y60.872 E98.19927
G1 X48.401 Y60.792 E98.21523
G1 X48.485 Y61.611 F30000.000
G1 F2100
G1 X48.488 Y61.555 E98.21940
G1 X48.554 Y61.489 E98.22637
G1 X48.626 Y61.366 E98.23701
G1 X48.678 Y61.346 E98.24119
G1 X82.093 Y50.492 E100.87043
G1 X82.223 Y50.550 E100.88107
G1 X82.315 Y50.564 E100.88804
G1 X82.350 Y50.607 E100.89222
G1 X102.969 Y78.986 E103.51729
G1 X102.999 Y79.033 E103.52147
G1 X102.984 Y79.125 E103.52843
G1 X102.999 Y79.266 E103.53908
G1 X82.350 Y107.692 E106.16832
G1 X82.315 Y107.735 E106.17250
G1 X82.223 Y107.750 E106.17946
G1 X82.093 Y107.807 E106.19010
G1 X82.039 Y107.793 E106.19428
G1 X48.626 Y96.933 E108.82352
G1 X48.583 Y96.850 E108.83049
G1 X48.488 Y96.744 E108.84113
G1 X48.485 Y96.689 E108.84531
G1 X48.488 Y61.670 E111.46591
G1 E109.46591 F2400.00000
G92 E0
G1 X82.051 Y106.994 F30000.000
G1 E2.00000 F2400.00000
G1 F2100
G1 X81.920 Y106.899 E2.01078
G1 X81.870 Y107.052 E2.02155
G1 X49.249 Y96.453 E4.31297
G1 X49.299 Y96.300 E4.32375
G1 X49.138 Y96.300 E4.33452
G1 X49.138 Y62.000 E6.62595
G1 X49.299 Y62.000 E6.63672
G1 X49.249 Y61.846 E6.64749
G1 X81.870 Y51.247 E8.93892
G1 X81.920 Y51.400 E8.94969
G1 X82.051 Y51.306 E8.96047
G1 X102.212 Y79.055 E11.25190
G1 X102.081 Y79.150 E11.26266
G1 X102.212 Y79.244 E11.27343
G1 X82.086 Y106.945 E13.56085
G1 X81.985 Y106.847 F30000.000
G1 X81.639 Y106.032 F30000.000
G1 F2100
G1 X81.526 Y106.377 E13.58510
G1 X49.924 Y96.109 E15.80495
G1 X50.036 Y95.764 E15.82919
G1 X49.673 Y95.764 E15.85343
G1 X49.673 Y62.535 E18.07330
G1 X50.036 Y62.535 E18.09754
G1 X49.924 Y62.190 E18.12178
G1 X81.527 Y51.922 E20.34164
G1 X81.639 Y52.267 E20.36588
G1 X81.932 Y52.054 E20.39012
G1 X101.464 Y78.937 E22.60999
G1 X101.170 Y79.150 E22.63422
G1 X101.464 Y79.363 E22.65845
G1 X81.932 Y106.246 E24.87832
G1 X81.687 Y106.068 E24.89856
G1 E22.89856 F2400.00000
G92 E0
G1 X80.503 Y102.536 F30000.000
G1 E2.00000 F2400.00000
G1 F2100
G1 X53.011 Y93.603 E3.93112
G1 X53.011 Y64.696 E5.86225
G1 X80.503 Y55.764 E7.79337
G1 X97.493 Y79.150 E9.72448
G1 X80.538 Y102.487 E11.65160
G1 X80.419 Y102.927 F30000.000
G1 X80.707 Y103.165 F30000.000
G1 F2100
G1 X52.475 Y93.992 E13.63471
G1 X52.475 Y64.307 E15.61783
G1 X80.707 Y55.134 E17.60095
G1 X98.156 Y79.150 E19.58406
G1 X80.742 Y103.117 E21.56316
G1 X82.062 Y102.190 F30000.000
G1 F2100
G1 X89.998 Y94.254 E22.32008
G1 X92.030 Y91.458 E22.55321
G1 X84.094 Y99.394 E23.31012
G1 X86.126 Y96.597 E23.54325
G1 X94.062 Y88.661 E24.30016
G1 X96.093 Y85.865 E24.53329
G1 X88.158 Y93.801 E25.29020
G1 X90.189 Y91.004 E25.52333
G1 X98.125 Y83.068 E26.28024
G1 X100.157 Y80.272 E26.51337
G1 X92.221 Y88.208 E27.27028
G1 X94.253 Y85.411 E27.50341
G1 X100.464 Y79.200 E28.09580
G1 X100.316 Y79.093 E28.10811
G1 X100.772 Y78.761 E28.14616
G1 X100.505 Y78.394 E28.17679
G1 X96.285 Y82.615 E28.57937
G1 X98.316 Y79.818 E28.81250
G1 X100.184 Y77.951 E28.99059
G1 X99.862 Y77.508 E29.02752
G1 X98.509 Y78.860 E29.15652
G1 X98.188 Y78.418 E29.19344
G1 X99.540 Y77.065 E29.32245
G1 X99.218 Y76.622 E29.35937
G1 X97.866 Y77.975 E29.48838
G1 X97.544 Y77.532 E29.52530
G1 X98.896 Y76.179 E29.65430
G1 X98.575 Y75.736 E29.69123
G1 X97.222 Y77.089 E29.82023
G1 X96.900 Y76.646 E29.85716
G1 X98.253 Y75.293 E29.98616
G1 X97.931 Y74.850 E30.02308
G1 X96.579 Y76.203 E30.15209
G1 X96.257 Y75.760 E30.18901
G1 X97.609 Y74.408 E30.31801
G1 X97.287 Y73.965 E30.35494
G1 X95.935 Y75.317 E30.48394
G1 X95.613 Y74.874 E30.52087
G1 X96.966 Y73.522 E30.64987
G1 X96.644 Y73.079 E30.68679
G1 X95.291 Y74.431 E30.81580
G1 X94.970 Y73.988 E30.85272
G1 X96.322 Y72.636 E30.98172
G1 X96.000 Y72.193 E31.01865
G1 X94.648 Y73.545 E31.14765
G1 X94.326 Y73.103 E31.18458
G1 X95.678 Y71.750 E31.31358
G1 X95.357 Y71.307 E31.35050
G1 X94.004 Y72.660 E31.47951
G1 X93.682 Y72.217 E31.51643
G1 X95.035 Y70.864 E31.64544
G1 X94.713 Y70.421 E31.68236
G1 X93.361 Y71.774 E31.81136
G1 X93.039 Y71.331 E31.84829
G1 X94.391 Y69.978 E31.97729
G1 X94.069 Y69.535 E32.01421
G1 X92.717 Y70.888 E32.14322
G1 X92.395 Y70.445 E32.18014
G1 X93.748 Y69.092 E32.30915
G1 X93.426 Y68.650 E32.34607
G1 X92.073 Y70.002 E32.47507
G1 X91.752 Y69.559 E32.51200
G1 X93.104 Y68.207 E32.64100
G1 X92.782 Y67.764 E32.67793
G1 X91.430 Y69.116 E32.80693
G1 X91.108 Y68.673 E32.84385
G1 X92.460 Y67.321 E32.97286
G1 X92.139 Y66.878 E33.00978
G1 X90.786 Y68.230 E33.13878
G1 X90.464 Y67.787 E33.17571
G1 X91.817 Y66.435 E33.30471
G1 X91.495 Y65.992 E33.34164
G1 X90.143 Y67.345 E33.47064
G1 X89.821 Y66.902 E33.50756
G1 X91.173 Y65.549 E33.63657
G1 X90.851 Y65.106 E33.67349
G1 X89.499 Y66.459 E33.80250
G1 X89.177 Y66.016 E33.83942
G1 X90.530 Y64.663 E33.96842
G1 X90.208 Y64.220 E34.00535
G1 X88.855 Y65.573 E34.13435
G1 X88.534 Y65.130 E34.17127
G1 X89.886 Y63.777 E34.30028
G1 X89.564 Y63.335 E34.33720
G1 X88.212 Y64.687 E34.46621
G1 X87.890 Y64.244 E34.50313
G1 X89.242 Y62.892 E34.63213
G1 X88.921 Y62.449 E34.66906
G1 X87.568 Y63.801 E34.79806
G1 X87.246 Y63.358 E34.83499
G1 X88.599 Y62.006 E34.96399
G1 X88.277 Y61.563 E35.00091
G1 X86.925 Y62.915 E35.12992
G1 X86.603 Y62.472 E35.16684
G1 X87.955 Y61.120 E35.29585
G1 X87.633 Y60.677 E35.33277
G1 X86.281 Y62.030 E35.46177
G1 X85.959 Y61.587 E35.49870
G1 X87.312 Y60.234 E35.62770
G1 X86.990 Y59.791 E35.66462
G1 X85.637 Y61.144 E35.79363
G1 X85.316 Y60.701 E35.83055
G1 X86.668 Y59.348 E35.95956
G1 X86.346 Y58.905 E35.99648
G1 X84.994 Y60.258 E36.12548
G1 X84.672 Y59.815 E36.16241
G1 X86.024 Y58.462 E36.29141
G1 X85.703 Y58.019 E36.32834
G1 X84.350 Y59.372 E36.45734
G1 X84.028 Y58.929 E36.49426
G1 X85.381 Y57.577 E36.62327
G1 X85.059 Y57.134 E36.66019
G1 X83.707 Y58.486 E36.78920
G1 X83.385 Y58.043 E36.82612
G1 X84.737 Y56.691 E36.95512
G1 X84.415 Y56.248 E36.99205
G1 X83.063 Y57.600 E37.12105
G1 X82.741 Y57.157 E37.15798
G1 X84.094 Y55.805 E37.28698
G1 X83.772 Y55.362 E37.32390
G1 X82.419 Y56.714 E37.45291
G1 X82.098 Y56.272 E37.48983
G1 X83.450 Y54.919 E37.61883
G1 X83.128 Y54.476 E37.65576
G1 X81.776 Y55.829 E37.78476
G1 X81.454 Y55.386 E37.82169
G1 X82.806 Y54.033 E37.95069
G1 X82.485 Y53.590 E37.98761
G1 X81.132 Y54.943 E38.11662
G1 X80.855 Y54.561 E38.14842
G1 X80.698 Y54.612 E38.15956
G1 X82.163 Y53.147 E38.29929
G1 X81.871 Y52.745 E38.33283
G1 X81.614 Y52.932 E38.35422
G1 X79.565 Y54.980 E38.54964
G1 X78.432 Y55.348 E38.62997
G1 X81.239 Y52.540 E38.89778
G1 X80.108 Y52.908 E38.97799
G1 X77.299 Y55.717 E39.24591
G1 X76.167 Y56.085 E39.32624
G1 X78.976 Y53.276 E39.59416
G1 X77.843 Y53.644 E39.67449
G1 X75.034 Y56.453 E39.94241
G1 X73.901 Y56.821 E40.02274
G1 X76.710 Y54.012 E40.29066
G1 X75.577 Y54.380 E40.37099
G1 X72.768 Y57.189 E40.63891
G1 X71.636 Y57.557 E40.71924
G1 X74.445 Y54.748 E40.98716
G1 X73.312 Y55.116 E41.06749
G1 X70.503 Y57.925 E41.33540
G1 X69.370 Y58.293 E41.41573
G1 X72.179 Y55.484 E41.68365
G1 X71.046 Y55.852 E41.76398
G1 X68.237 Y58.661 E42.03190
G1 X67.104 Y59.029 E42.11223
G1 X69.913 Y56.220 E42.38015
G1 X68.781 Y56.588 E42.46048
G1 X65.972 Y59.397 E42.72839
G1 X64.839 Y59.765 E42.80872
G1 X67.648 Y56.956 E43.07664
G1 X66.515 Y57.324 E43.15697
G1 X63.706 Y60.133 E43.42488
G1 X62.573 Y60.501 E43.50521
G1 X65.382 Y57.692 E43.77313
G1 X64.249 Y58.060 E43.85346
