; generated by Slic3r 1.3.0 on 2021-02-17 at 18:50:21

; external perimeters extrusion width = 0.44mm (2.78mm^3/s)
; perimeters extrusion width = 0.40mm (7.14mm^3/s)
; infill extrusion width = 0.50mm (10.97mm^3/s)
; solid infill extrusion width = 0.60mm (6.68mm^3/s)
; top infill extrusion width = 0.40mm (2.14mm^3/s)

M107
M190 S80 ; set bed temperature and wait for it to be reached
M104 S210 ; set temperature
G28 ; home all axes
G1 Z5 F5000 ; lift nozzle

; Filament gcode

M109 S210 ; set temperature and wait for it to be reached
G21 ; set units to millimeters
G90 ; use absolute coordinates
M82 ; use absolute distances for extrusion
G92 E0
G1 Z0.300 F30000.000
G1 E-2.00000 F2400.00000
G92 E0
G1 X34.805 Y30.358 F30000.000
G1 E2.00000 F2400.00000
G1 F2100
G1 X36.821 Y28.636 E2.17713
G1 X37.642 Y28.230 E2.23832
G1 X38.445 Y27.883 E2.29673
G1 X39.599 Y27.455 E2.37899
G1 X41.123 Y27.013 E2.48502
G1 X41.977 Y26.822 E2.54343
G1 X42.880 Y26.667 E2.60464
G1 X45.523 Y26.875 E2.78176
G1 X57.327 Y30.711 E3.61093
G1 X59.588 Y32.096 E3.78804
G1 X60.227 Y32.752 E3.84923
G1 X60.806 Y33.408 E3.90766
G1 X61.569 Y34.374 E3.98991
G1 X62.270 Y35.385 E4.07214
G1 X62.906 Y36.439 E4.15436
G1 X63.332 Y37.251 E4.21559
G1 X63.951 Y39.828 E4.39269
G1 X63.951 Y52.240 E5.22184
G1 X63.332 Y54.817 E5.39894
G1 X62.906 Y55.629 E5.46017
G1 X62.270 Y56.683 E5.54240
G1 X61.569 Y57.694 E5.62462
G1 X60.806 Y58.660 E5.70687
G1 X60.227 Y59.316 E5.76530
G1 X59.588 Y59.972 E5.82649
G1 X57.327 Y61.357 E6.00360
G1 X57.002 Y61.463 E6.02643
G1 X45.523 Y65.193 E6.83277
G1 X42.880 Y65.400 E7.00988
G1 X41.977 Y65.246 E7.07111
G1 X41.123 Y65.055 E7.12951
G1 X39.938 Y64.723 E7.21174
G1 X38.776 Y64.316 E7.29397
G1 X37.642 Y63.838 E7.37622
G1 X36.821 Y63.432 E7.43741
G1 X34.805 Y61.710 E7.61454
G1 X27.509 Y51.669 E8.44370
G1 X26.495 Y49.220 E8.62080
G1 X26.363 Y48.313 E8.68203
G1 X26.280 Y47.442 E8.74047
G1 X26.231 Y46.212 E8.82271
G1 X26.280 Y44.626 E8.92868
G1 X26.363 Y43.755 E8.98713
G1 X26.495 Y42.848 E9.04836
G1 X27.509 Y40.399 E9.22546
G1 X34.770 Y30.407 E10.05061
G1 X35.238 Y30.673 F30000.000
G1 F2100
G1 X37.064 Y29.113 E10.21103
G1 X37.855 Y28.722 E10.26997
G1 X38.657 Y28.375 E10.32838
G1 X39.781 Y27.959 E10.40839
G1 X41.240 Y27.535 E10.50993
G1 X42.093 Y27.345 E10.56834
G1 X42.964 Y27.197 E10.62731
G1 X45.357 Y27.385 E10.78772
G1 X57.162 Y31.220 E11.61689
G1 X59.209 Y32.475 E11.77729
G1 X59.826 Y33.106 E11.83624
G1 X60.404 Y33.762 E11.89466
G1 X61.146 Y34.702 E11.97466
G1 X61.827 Y35.686 E12.05464
G1 X62.445 Y36.712 E12.13462
G1 X62.855 Y37.494 E12.19361
G1 X63.416 Y39.828 E12.35400
G1 X63.416 Y52.240 E13.18315
G1 X62.855 Y54.574 E13.34354
G1 X62.445 Y55.356 E13.40253
G1 X61.827 Y56.382 E13.48250
G1 X61.146 Y57.366 E13.56249
G1 X60.404 Y58.306 E13.64248
G1 X59.826 Y58.962 E13.70091
G1 X59.209 Y59.593 E13.75986
G1 X57.162 Y60.848 E13.92026
G1 X56.837 Y60.953 E13.94309
G1 X45.357 Y64.683 E14.74943
G1 X42.964 Y64.871 E14.90984
G1 X42.093 Y64.723 E14.96881
G1 X41.240 Y64.533 E15.02722
G1 X40.088 Y64.208 E15.10720
G1 X38.958 Y63.812 E15.18718
G1 X37.855 Y63.346 E15.26718
G1 X37.064 Y62.955 E15.32613
G1 X35.238 Y61.395 E15.48655
G1 X27.943 Y51.354 E16.31570
G1 X27.024 Y49.136 E16.47610
G1 X26.896 Y48.262 E16.53508
G1 X26.814 Y47.391 E16.59352
G1 X26.766 Y46.195 E16.67351
G1 X26.814 Y44.677 E16.77500
G1 X26.896 Y43.806 E16.83344
G1 X27.024 Y42.932 E16.89242
G1 X27.943 Y40.714 E17.05282
G1 X35.203 Y30.721 E17.87797
G1 X35.671 Y30.988 F30000.000
G1 F2100
G1 X37.307 Y29.591 E18.02168
G1 X38.068 Y29.213 E18.07838
G1 X38.870 Y28.866 E18.13679
G1 X39.962 Y28.463 E18.21455
G1 X41.357 Y28.058 E18.31160
G1 X42.210 Y27.867 E18.37000
G1 X43.048 Y27.726 E18.42673
G1 X45.192 Y27.894 E18.57043
G1 X56.996 Y31.730 E19.39960
G1 X58.830 Y32.854 E19.54329
G1 X59.424 Y33.460 E19.60000
G1 X60.187 Y34.339 E19.67777
G1 X60.892 Y35.264 E19.75543
G1 X61.384 Y35.987 E19.81391
G1 X61.984 Y36.984 E19.89164
G1 X62.378 Y37.737 E19.94838
G1 X62.880 Y39.828 E20.09206
G1 X62.880 Y52.240 E20.92122
G1 X62.378 Y54.331 E21.06490
G1 X61.984 Y55.084 E21.12164
G1 X61.384 Y56.081 E21.19937
G1 X60.723 Y57.038 E21.27710
G1 X60.002 Y57.952 E21.35485
G1 X59.424 Y58.608 E21.41327
G1 X58.830 Y59.214 E21.46998
G1 X56.996 Y60.338 E21.61368
G1 X45.192 Y64.174 E22.44284
G1 X43.048 Y64.342 E22.58654
G1 X42.210 Y64.201 E22.64327
G1 X41.357 Y64.010 E22.70168
G1 X39.962 Y63.605 E22.79872
G1 X38.870 Y63.202 E22.87648
G1 X38.068 Y62.855 E22.93489
G1 X37.307 Y62.477 E22.99160
G1 X35.671 Y61.080 E23.13531
G1 X28.376 Y51.039 E23.96446
G1 X27.553 Y49.052 E24.10815
G1 X27.429 Y48.212 E24.16489
G1 X27.347 Y47.341 E24.22333
G1 X27.301 Y46.178 E24.30107
G1 X27.347 Y44.727 E24.39807
G1 X27.429 Y43.856 E24.45650
G1 X27.553 Y43.016 E24.51324
G1 X28.376 Y41.029 E24.65693
G1 X35.636 Y31.036 E25.48208
G1 X36.105 Y31.302 F30000.000
G1 F2100
G1 X37.550 Y30.068 E25.60908
G1 X38.280 Y29.705 E25.66354
G1 X39.083 Y29.358 E25.72195
G1 X40.144 Y28.967 E25.79746
G1 X41.474 Y28.581 E25.89001
G1 X42.327 Y28.390 E25.94842
G1 X43.131 Y28.255 E26.00290
G1 X45.026 Y28.404 E26.12990
G1 X56.831 Y32.239 E26.95906
G1 X58.451 Y33.232 E27.08605
G1 X59.022 Y33.814 E27.14051
G1 X59.764 Y34.668 E27.21602
G1 X60.449 Y35.565 E27.29145
G1 X60.941 Y36.288 E27.34992
G1 X61.523 Y37.257 E27.42540
G1 X61.901 Y37.980 E27.47989
G1 X62.344 Y39.828 E27.60687
G1 X62.344 Y52.240 E28.43603
G1 X61.901 Y54.088 E28.56300
G1 X61.523 Y54.811 E28.61750
G1 X60.941 Y55.779 E28.69298
G1 X60.299 Y56.709 E28.76847
G1 X59.600 Y57.598 E28.84397
G1 X59.022 Y58.254 E28.90239
G1 X58.451 Y58.836 E28.95685
G1 X56.831 Y59.829 E29.08384
G1 X45.026 Y63.664 E29.91300
G1 X43.131 Y63.813 E30.04000
G1 X42.327 Y63.678 E30.09448
G1 X41.474 Y63.487 E30.15289
G1 X40.143 Y63.101 E30.24544
G1 X39.083 Y62.710 E30.32095
G1 X38.280 Y62.363 E30.37936
G1 X37.550 Y62.000 E30.43382
G1 X36.105 Y60.766 E30.56082
G1 X28.809 Y50.724 E31.38998
G1 X28.082 Y48.968 E31.51696
G1 X27.962 Y48.161 E31.57145
G1 X27.880 Y47.291 E31.62988
G1 X27.837 Y46.161 E31.70538
G1 X27.880 Y44.777 E31.79789
G1 X27.962 Y43.907 E31.85632
G1 X28.082 Y43.100 E31.91081
G1 X28.809 Y41.344 E32.03780
G1 X36.070 Y31.351 E32.86294
G1 X36.538 Y31.617 F30000.000
G1 F2100
G1 X37.794 Y30.545 E32.97324
G1 X38.493 Y30.197 E33.02545
G1 X39.296 Y29.849 E33.08386
G1 X40.325 Y29.471 E33.15712
G1 X41.591 Y29.104 E33.24518
G1 X42.444 Y28.913 E33.30359
G1 X43.215 Y28.784 E33.35583
G1 X44.861 Y28.913 E33.46611
G1 X56.665 Y32.748 E34.29528
G1 X58.073 Y33.611 E34.40556
G1 X58.620 Y34.169 E34.45778
G1 X59.340 Y34.996 E34.53104
G1 X60.006 Y35.866 E34.60423
G1 X60.498 Y36.590 E34.66269
G1 X61.169 Y37.724 E34.75076
G1 X61.423 Y38.223 E34.78817
G1 X61.809 Y39.828 E34.89844
G1 X61.809 Y52.240 E35.72759
G1 X61.423 Y53.845 E35.83786
G1 X61.062 Y54.538 E35.89011
G1 X60.617 Y55.291 E35.94854
G1 X60.006 Y56.202 E36.02181
G1 X59.340 Y57.072 E36.09499
G1 X58.620 Y57.899 E36.16826
G1 X58.073 Y58.457 E36.22048
G1 X56.665 Y59.320 E36.33076
G1 X44.861 Y63.155 E37.15992
G1 X43.215 Y63.284 E37.27021
G1 X42.444 Y63.155 E37.32244
G1 X41.591 Y62.964 E37.38085
G1 X40.325 Y62.597 E37.46891
G1 X39.296 Y62.219 E37.54217
G1 X38.493 Y61.871 E37.60058
G1 X37.794 Y61.523 E37.65280
G1 X36.538 Y60.451 E37.76309
G1 X29.243 Y50.410 E38.59225
G1 X28.611 Y48.884 E38.70252
G1 X28.496 Y48.111 E38.75477
G1 X28.413 Y47.240 E38.81319
G1 X28.372 Y46.145 E38.88644
G1 X28.413 Y44.828 E38.97447
G1 X28.496 Y43.957 E39.03290
G1 X28.611 Y43.183 E39.08514
G1 X29.243 Y41.658 E39.19542
G1 X36.503 Y31.666 E40.02056
G1 X37.174 Y32.079 F30000.000
G1 F2100
G1 X37.366 Y31.816 E40.04496
G1 X37.862 Y31.393 E40.09375
G1 X38.766 Y30.935 E40.16957
G1 X39.647 Y30.554 E40.24146
G1 X40.632 Y30.196 E40.31983
G1 X41.637 Y29.902 E40.39818
G1 X42.743 Y29.654 E40.48299
G1 X43.656 Y29.509 E40.55223
G1 X44.307 Y29.560 E40.60111
G1 X56.732 Y33.597 E41.57872
G1 X57.286 Y33.937 E41.62743
G1 X57.943 Y34.593 E41.69691
G1 X58.637 Y35.377 E41.77526
G1 X59.281 Y36.203 E41.85361
G1 X59.872 Y37.067 E41.93197
G1 X60.449 Y38.043 E42.01681
G1 X60.871 Y38.870 E42.08627
G1 X61.022 Y39.503 E42.13498
G1 X61.022 Y52.565 E43.11251
G1 X60.871 Y53.198 E43.16122
G1 X60.407 Y54.101 E43.23715
G1 X59.872 Y55.001 E43.31551
G1 X59.332 Y55.796 E43.38744
G1 X58.693 Y56.624 E43.46576
G1 X58.002 Y57.412 E43.54412
G1 X57.286 Y58.131 E43.62006
G1 X56.732 Y58.471 E43.66877
G1 X44.307 Y62.508 E44.64639
G1 X43.656 Y62.559 E44.69528
G1 X42.743 Y62.413 E44.76449
G1 X41.637 Y62.166 E44.84931
G1 X40.632 Y61.872 E44.92766
G1 X39.647 Y61.514 E45.00603
G1 X38.688 Y61.096 E45.08437
G1 X37.862 Y60.675 E45.15375
G1 X37.366 Y60.252 E45.20253
G1 X29.688 Y49.684 E46.18009
G1 X29.438 Y49.083 E46.22881
G1 X29.293 Y48.166 E46.29826
G1 X29.192 Y47.123 E46.37666
G1 X29.156 Y46.077 E46.45501
G1 X29.192 Y44.945 E46.53981
G1 X29.293 Y43.902 E46.61820
G1 X29.438 Y42.985 E46.68765
G1 X29.688 Y42.384 E46.73637
G1 X37.139 Y32.128 E47.68505
G1 X37.660 Y32.432 F30000.000
G1 F2100
G1 X37.809 Y32.226 E47.70412
G1 X38.197 Y31.895 E47.74226
G1 X39.013 Y31.482 E47.81068
G1 X39.877 Y31.108 E47.88116
G1 X40.826 Y30.764 E47.95671
G1 X41.795 Y30.481 E48.03224
G1 X42.846 Y30.246 E48.11282
G1 X43.681 Y30.113 E48.17609
G1 X44.190 Y30.153 E48.21430
G1 X56.479 Y34.145 E49.18127
G1 X56.912 Y34.411 E49.21934
G1 X57.512 Y35.011 E49.28281
G1 X58.181 Y35.767 E49.35834
G1 X58.801 Y36.563 E49.43387
G1 X59.371 Y37.397 E49.50941
G1 X59.919 Y38.324 E49.59001
G1 X60.304 Y39.079 E49.65346
G1 X60.422 Y39.574 E49.69154
G1 X60.422 Y52.494 E50.65844
G1 X60.304 Y52.989 E50.69652
G1 X59.919 Y53.744 E50.75996
G1 X59.407 Y54.615 E50.83552
G1 X58.841 Y55.451 E50.91107
G1 X58.181 Y56.301 E50.99163
G1 X57.558 Y57.008 E51.06212
G1 X56.912 Y57.657 E51.13063
G1 X56.479 Y57.923 E51.16871
G1 X44.190 Y61.915 E52.13568
G1 X43.681 Y61.955 E52.17389
G1 X42.846 Y61.822 E52.23715
G1 X41.795 Y61.587 E52.31774
G1 X40.826 Y61.304 E52.39327
G1 X39.877 Y60.960 E52.46881
G1 X38.952 Y60.557 E52.54434
G1 X38.197 Y60.173 E52.60772
G1 X37.809 Y59.842 E52.64586
G1 X30.215 Y49.389 E53.61278
G1 X30.020 Y48.919 E53.65087
G1 X29.887 Y48.081 E53.71431
G1 X29.790 Y47.076 E53.78987
G1 X29.756 Y46.068 E53.86541
G1 X29.786 Y45.059 E53.94093
G1 X29.887 Y43.987 E54.02154
G1 X30.020 Y43.149 E54.08497
G1 X30.215 Y42.679 E54.12307
G1 X37.624 Y32.481 E55.06643
G1 X38.145 Y32.785 F30000.000
G1 F2100
G1 X38.253 Y32.636 E55.08018
G1 X38.532 Y32.398 E55.10767
G1 X39.216 Y32.050 E55.16505
G1 X40.107 Y31.662 E55.23776
G1 X41.021 Y31.332 E55.31048
G1 X41.953 Y31.059 E55.38319
G1 X42.901 Y30.846 E55.45589
G1 X43.705 Y30.717 E55.51685
G1 X44.072 Y30.745 E55.54440
G1 X56.226 Y34.694 E56.50071
G1 X56.538 Y34.886 E56.52816
G1 X57.081 Y35.429 E56.58561
G1 X57.725 Y36.156 E56.65832
G1 X58.321 Y36.923 E56.73103
G1 X58.869 Y37.726 E56.80375
G1 X59.365 Y38.562 E56.87646
G1 X59.737 Y39.288 E56.93754
G1 X59.822 Y39.645 E56.96499
G1 X59.822 Y52.423 E57.92126
G1 X59.737 Y52.780 E57.94871
G1 X59.388 Y53.464 E58.00614
G1 X58.895 Y54.301 E58.07888
G1 X58.350 Y55.106 E58.15160
G1 X57.725 Y55.912 E58.22794
G1 X57.114 Y56.604 E58.29701
G1 X56.538 Y57.182 E58.35810
G1 X56.226 Y57.374 E58.38554
G1 X44.072 Y61.323 E59.34186
G1 X43.705 Y61.351 E59.36941
G1 X42.901 Y61.222 E59.43036
G1 X41.953 Y61.009 E59.50306
G1 X41.021 Y60.736 E59.57578
G1 X40.107 Y60.406 E59.64850
G1 X39.216 Y60.018 E59.72121
G1 X38.532 Y59.670 E59.77859
G1 X38.253 Y59.432 E59.80608
G1 X30.742 Y49.094 E60.76237
G1 X30.602 Y48.755 E60.78983
G1 X30.481 Y47.997 E60.84725
G1 X30.389 Y47.029 E60.91999
G1 X30.356 Y46.058 E60.99270
G1 X30.385 Y45.087 E61.06541
G1 X30.475 Y44.120 E61.13813
G1 X30.602 Y43.313 E61.19920
G1 X30.742 Y42.974 E61.22666
G1 X38.110 Y32.833 E62.16471
G1 X38.630 Y33.137 F30000.000
G1 F2100
G1 X38.697 Y33.046 E62.17314
G1 X38.868 Y32.900 E62.18998
G1 X39.480 Y32.589 E62.24137
G1 X40.336 Y32.217 E62.31126
G1 X41.215 Y31.900 E62.38116
G1 X42.112 Y31.638 E62.45105
G1 X43.023 Y31.434 E62.52093
G1 X43.730 Y31.320 E62.57451
G1 X43.954 Y31.338 E62.59139
G1 X55.973 Y35.243 E63.53706
G1 X56.164 Y35.360 E63.55388
G1 X56.671 Y35.868 E63.60753
G1 X57.269 Y36.546 E63.67520
G1 X57.842 Y37.284 E63.74509
G1 X58.367 Y38.055 E63.81498
G1 X58.844 Y38.859 E63.88488
G1 X59.170 Y39.497 E63.93853
G1 X59.222 Y39.716 E63.95535
G1 X59.222 Y52.352 E64.90099
G1 X59.170 Y52.571 E64.91781
G1 X58.844 Y53.209 E64.97147
G1 X58.383 Y53.987 E65.03913
G1 X57.859 Y54.760 E65.10903
G1 X57.269 Y55.522 E65.18115
G1 X56.671 Y56.200 E65.24881
G1 X56.164 Y56.708 E65.30247
G1 X55.973 Y56.825 E65.31928
G1 X43.954 Y60.730 E66.26495
G1 X43.730 Y60.748 E66.28183
G1 X43.023 Y60.634 E66.33541
G1 X42.112 Y60.430 E66.40530
G1 X41.215 Y60.168 E66.47519
G1 X40.364 Y59.862 E66.54285
G1 X39.507 Y59.492 E66.61274
G1 X38.868 Y59.168 E66.66636
G1 X38.697 Y59.022 E66.68321
G1 X31.269 Y48.799 E67.62886
G1 X31.183 Y48.591 E67.64568
G1 X31.072 Y47.883 E67.69934
G1 X30.985 Y46.953 E67.76923
G1 X30.956 Y46.049 E67.83690
G1 X30.985 Y45.115 E67.90679
G1 X31.072 Y44.185 E67.97668
G1 X31.183 Y43.477 E68.03033
G1 X31.269 Y43.269 E68.04716
G1 X38.595 Y33.186 E68.97990
G1 X39.116 Y33.490 F30000.000
G1 F2100
G1 X39.203 Y33.403 E68.98914
G1 X39.754 Y33.123 E69.03535
G1 X40.566 Y32.771 E69.10160
G1 X41.409 Y32.467 E69.16868
G1 X42.270 Y32.217 E69.23575
G1 X43.144 Y32.021 E69.30282
G1 X43.754 Y31.924 E69.34902
G1 X43.837 Y31.931 E69.35523
G1 X55.720 Y35.792 E70.29025
G1 X55.790 Y35.835 E70.29644
G1 X56.227 Y36.272 E70.34267
G1 X56.812 Y36.936 E70.40892
G1 X57.362 Y37.644 E70.47599
G1 X57.866 Y38.385 E70.54306
G1 X58.322 Y39.156 E70.61013
G1 X58.603 Y39.706 E70.65636
G1 X58.622 Y39.787 E70.66255
G1 X58.622 Y52.281 E71.59756
G1 X58.603 Y52.362 E71.60375
G1 X58.322 Y52.912 E71.64998
G1 X57.872 Y53.674 E71.71623
G1 X57.368 Y54.415 E71.78331
G1 X56.812 Y55.132 E71.85120
G1 X56.227 Y55.796 E71.91745
G1 X55.790 Y56.233 E71.96368
G1 X55.720 Y56.276 E71.96987
G1 X43.837 Y60.137 E72.90489
G1 X43.754 Y60.144 E72.91110
G1 X43.144 Y60.047 E72.95730
G1 X42.270 Y59.851 E73.02437
G1 X41.420 Y59.604 E73.09062
G1 X40.576 Y59.301 E73.15769
G1 X39.754 Y58.945 E73.22476
G1 X39.203 Y58.665 E73.27098
G1 X39.140 Y58.611 E73.27718
G1 X31.796 Y48.503 E74.21219
G1 X31.765 Y48.427 E74.21838
G1 X31.668 Y47.817 E74.26461
G1 X31.585 Y46.935 E74.33086
G1 X31.556 Y46.039 E74.39794
G1 X31.584 Y45.144 E74.46501
G1 X31.668 Y44.251 E74.53208
G1 X31.765 Y43.641 E74.57831
G1 X31.796 Y43.565 E74.58450
G1 X39.081 Y33.539 E75.51192
G1 E73.51192 F2400.00000
G92 E0
G1 X56.492 Y54.486 F30000.000
G1 E2.00000 F2400.00000
G1 F2100
G1 X56.315 Y54.714 E2.01925
G1 X55.750 Y55.356 E2.07640
G1 X55.411 Y55.694 E2.10836
G1 X43.744 Y59.485 E2.92790
G1 X43.272 Y59.410 E2.95986
G1 X42.437 Y59.223 E3.01701
G1 X41.615 Y58.985 E3.07416
G1 X40.810 Y58.695 E3.13131
G1 X40.025 Y58.355 E3.18846
G1 X39.599 Y58.138 E3.22043
G1 X32.388 Y48.213 E4.03996
G1 X32.313 Y47.741 E4.07193
G1 X32.233 Y46.889 E4.12908
G1 X32.206 Y46.034 E4.18622
G1 X32.233 Y45.179 E4.24337
G1 X32.313 Y44.327 E4.30052
G1 X32.388 Y43.855 E4.33249
G1 X39.599 Y33.930 E5.15202
G1 X40.025 Y33.713 E5.18399
G1 X40.810 Y33.373 E5.24114
G1 X41.615 Y33.083 E5.29829
G1 X42.437 Y32.845 E5.35544
G1 X43.272 Y32.658 E5.41258
G1 X43.744 Y32.583 E5.44455
G1 X55.411 Y36.374 E6.26408
G1 X55.750 Y36.712 E6.29605
G1 X56.315 Y37.354 E6.35320
G1 X56.840 Y38.030 E6.41035
G1 X57.320 Y38.738 E6.46750
G1 X57.756 Y39.474 E6.52465
G1 X57.973 Y39.900 E6.55661
G1 X57.973 Y52.168 E7.37615
G1 X57.756 Y52.594 E7.40811
G1 X57.320 Y53.330 E7.46526
G1 X56.840 Y54.038 E7.52241
G1 X56.529 Y54.439 E7.55630
G1 X56.206 Y54.451 F30000.000
G1 X56.069 Y54.158 F30000.000
G1 F2100
G1 X55.902 Y54.372 E7.57442
G1 X55.359 Y54.989 E7.62933
G1 X55.123 Y55.224 E7.65158
G1 X43.701 Y58.936 E8.45393
G1 X43.372 Y58.883 E8.47618
G1 X42.570 Y58.704 E8.53108
G1 X41.781 Y58.475 E8.58598
G1 X41.008 Y58.197 E8.64088
G1 X40.253 Y57.870 E8.69578
G1 X39.957 Y57.719 E8.71803
G1 X32.897 Y48.002 E9.52038
G1 X32.845 Y47.673 E9.54264
G1 X32.768 Y46.855 E9.59753
G1 X32.742 Y46.034 E9.65243
G1 X32.768 Y45.213 E9.70734
G1 X32.845 Y44.394 E9.76223
G1 X32.897 Y44.065 E9.78449
G1 X39.957 Y34.349 E10.58684
G1 X40.253 Y34.198 E10.60909
