; generated by Slic3r 1.3.0 on 2020-11-01 at 14:02:59

; external perimeters extrusion width = 0.44mm (2.78mm^3/s)
; perimeters extrusion width = 0.40mm (7.14mm^3/s)
; infill extrusion width = 0.50mm (10.97mm^3/s)
; solid infill extrusion width = 0.60mm (6.68mm^3/s)
; top infill extrusion width = 0.40mm (2.14mm^3/s)

M107
M190 S80 ; set bed temperature and wait for it to be reached
M104 S220 ; set temperature
G28 ; home all axes
G1 Z5 F5000 ; lift nozzle

; Filament gcode

M109 S220 ; set temperature and wait for it to be reached
G21 ; set units to millimeters
G90 ; use absolute coordinates
M82 ; use absolute distances for extrusion
G92 E0
G1 Z0.300 F30000.000
G1 E-2.00000 F2400.00000
G92 E0
G1 X39.171 Y36.353 F30000.000
G1 E2.00000 F2400.00000
G1 F2100
G1 X41.206 Y34.874 E2.16809
G1 X71.663 Y24.978 E4.30749
G1 X74.179 Y24.978 E4.47558
G1 X107.371 Y35.763 E6.80709
G1 X109.407 Y37.242 E6.97518
G1 X128.230 Y63.150 E9.11458
G1 X129.008 Y65.543 E9.28267
G1 X129.008 Y100.443 E11.61418
G1 X128.230 Y102.836 E11.78228
G1 X109.407 Y128.744 E13.92167
G1 X107.371 Y130.223 E14.08976
G1 X74.179 Y141.008 E16.42128
G1 X71.663 Y141.008 E16.58937
G1 X41.206 Y131.112 E18.72877
G1 X39.171 Y129.633 E18.89685
G1 X18.657 Y101.398 E21.22837
G1 X17.879 Y99.005 E21.39646
G1 X17.879 Y66.981 E23.53586
G1 X18.657 Y64.588 E23.70395
G1 X39.135 Y36.401 E26.03146
G1 X39.604 Y36.668 F30000.000
G1 F2100
G1 X41.372 Y35.383 E26.17744
G1 X71.829 Y25.487 E28.31683
G1 X74.014 Y25.487 E28.46281
G1 X107.206 Y36.272 E30.79433
G1 X108.974 Y37.556 E30.94030
G1 X127.797 Y63.465 E33.07970
G1 X128.472 Y65.543 E33.22568
G1 X128.472 Y100.443 E35.55719
G1 X127.797 Y102.521 E35.70316
G1 X108.974 Y128.429 E37.84256
G1 X107.206 Y129.714 E37.98854
G1 X74.014 Y140.498 E40.32005
G1 X71.829 Y140.498 E40.46603
G1 X41.372 Y130.602 E42.60543
G1 X39.604 Y129.318 E42.75140
G1 X19.090 Y101.083 E45.08292
G1 X18.415 Y99.005 E45.22889
G1 X18.415 Y66.981 E47.36829
G1 X19.090 Y64.902 E47.51427
G1 X39.569 Y36.716 E49.84178
G1 E47.84178 F2400.00000
G92 E0
G1 X37.355 Y84.414 F30000.000
G1 E2.00000 F2400.00000
G1 F2100
G1 X39.605 Y84.771 E2.17045
G1 X61.457 Y114.848 E4.95265
G1 X61.101 Y117.098 E5.12310
G1 X43.159 Y130.133 E6.78277
G1 X40.909 Y129.777 E6.95321
G1 X19.057 Y99.700 E9.73542
G1 X19.413 Y97.450 E9.90587
G1 X37.307 Y84.450 E11.56105
G1 X37.507 Y85.046 F30000.000
G1 F2100
G1 X39.266 Y85.324 E11.69430
G1 X60.826 Y115.000 E14.43930
G1 X60.547 Y116.758 E14.57255
G1 X43.007 Y129.502 E16.19503
G1 X41.249 Y129.223 E16.32828
G1 X19.688 Y99.548 E19.07329
G1 X19.967 Y97.789 E19.20654
G1 X37.458 Y85.081 E20.82452
G1 X37.659 Y85.677 F30000.000
G1 F2100
G1 X38.926 Y85.878 E20.92057
G1 X60.194 Y115.151 E23.62838
G1 X59.994 Y116.419 E23.72443
G1 X42.856 Y128.870 E25.30971
G1 X41.588 Y128.670 E25.40576
G1 X20.320 Y99.396 E28.11357
G1 X20.521 Y98.129 E28.20963
G1 X37.610 Y85.713 E29.79041
G1 X37.810 Y86.309 F30000.000
G1 F2100
G1 X38.587 Y86.432 E29.84927
G1 X59.563 Y115.303 E32.51988
G1 X59.440 Y116.080 E32.57873
G1 X42.704 Y128.239 E34.12681
G1 X41.927 Y128.116 E34.18567
G1 X20.951 Y99.245 E36.85628
G1 X21.074 Y98.468 E36.91514
G1 X37.762 Y86.344 E38.45872
G1 X38.248 Y86.986 F30000.000
G1 F2100
G1 X58.931 Y115.454 E41.09214
G1 X58.886 Y115.740 E41.11380
G1 X42.553 Y127.607 E42.62468
G1 X42.267 Y127.562 E42.64634
G1 X21.583 Y99.093 E45.27975
G1 X21.628 Y98.807 E45.30141
G1 X37.962 Y86.940 E46.81229
G1 X38.188 Y86.976 E46.82946
G1 E44.82946 F2400.00000
G92 E0
G1 X37.389 Y81.566 F30000.000
G1 E2.00000 F2400.00000
G1 F2100
G1 X37.355 Y81.571 E2.00257
G1 X19.413 Y68.536 E3.66224
G1 X19.057 Y66.286 E3.83269
G1 X40.909 Y36.209 E6.61490
G1 X43.159 Y35.852 E6.78534
G1 X61.101 Y48.888 E8.44501
G1 X61.457 Y51.138 E8.61546
G1 X39.605 Y81.215 E11.39766
G1 X37.448 Y81.556 E11.56105
G1 X37.507 Y80.940 F30000.000
G1 F2100
G1 X19.967 Y68.196 E13.18352
G1 X19.688 Y66.438 E13.31677
G1 X41.249 Y36.762 E16.06178
G1 X43.007 Y36.484 E16.19503
G1 X60.547 Y49.227 E17.81750
G1 X60.826 Y50.986 E17.95075
G1 X39.266 Y80.661 E20.69576
G1 X37.566 Y80.930 E20.82452
G1 X37.658 Y80.308 F30000.000
G1 F2100
G1 X20.521 Y67.857 E22.40979
G1 X20.320 Y66.589 E22.50585
G1 X41.588 Y37.316 E25.21366
G1 X42.856 Y37.115 E25.30971
G1 X59.994 Y49.567 E26.89499
G1 X60.194 Y50.834 E26.99104
G1 X38.926 Y80.107 E29.69885
G1 X37.718 Y80.299 E29.79041
G1 X37.810 Y79.677 F30000.000
G1 F2100
G1 X21.074 Y67.518 E31.33849
G1 X20.951 Y66.741 E31.39735
G1 X41.927 Y37.870 E34.06796
G1 X42.704 Y37.747 E34.12682
G1 X59.440 Y49.906 E35.67489
G1 X59.563 Y50.683 E35.73375
G1 X38.587 Y79.554 E38.40436
G1 X37.869 Y79.667 E38.45873
G1 E36.45873 F2400.00000
G92 E0
G1 X63.452 Y51.522 F30000.000
G1 X58.931 Y50.531 F30000.000
G1 E2.00000 F2400.00000
G1 F2100
G1 X38.248 Y79.000 E4.63341
G1 X37.962 Y79.045 E4.65507
G1 X21.628 Y67.178 E6.16595
G1 X21.583 Y66.892 E6.18761
G1 X42.267 Y38.423 E8.82103
G1 X42.553 Y38.378 E8.84268
G1 X58.886 Y50.245 E10.35357
G1 X58.922 Y50.472 E10.37073
G1 E8.37073 F2400.00000
G92 E0
G1 X63.821 Y48.040 F30000.000
G1 E2.00000 F2400.00000
G1 F2100
G1 X63.805 Y48.009 E2.00256
G1 X70.658 Y26.917 E3.66223
G1 X72.688 Y25.883 E3.83268
G1 X108.046 Y37.372 E6.61489
G1 X109.080 Y39.401 E6.78534
G1 X102.227 Y60.493 E8.44501
G1 X100.197 Y61.527 E8.61546
G1 X64.839 Y50.039 E11.39765
G1 X63.848 Y48.093 E11.56105
G1 X64.453 Y47.958 F30000.000
G1 F2100
G1 X71.152 Y27.339 E13.18353
G1 X72.739 Y26.531 E13.31678
G1 X107.624 Y37.866 E16.06179
G1 X108.432 Y39.452 E16.19504
G1 X101.733 Y60.072 E17.81752
G1 X100.146 Y60.880 E17.95077
G1 X65.261 Y49.545 E20.69577
G1 X64.480 Y48.012 E20.82453
G1 X65.100 Y47.907 F30000.000
G1 F2100
G1 X71.646 Y27.761 E22.40980
G1 X72.790 Y27.178 E22.50586
G1 X107.202 Y38.359 E25.21367
G1 X107.785 Y39.503 E25.30973
G1 X101.239 Y59.650 E26.89500
G1 X100.095 Y60.232 E26.99106
G1 X65.683 Y49.051 E29.69886
G1 X65.127 Y47.961 E29.79042
G1 X65.747 Y47.857 F30000.000
G1 F2100
G1 X72.140 Y28.183 E31.33850
G1 X72.841 Y27.825 E31.39736
G1 X106.781 Y38.853 E34.06797
G1 X107.138 Y39.554 E34.12683
G1 X100.745 Y59.228 E35.67491
G1 X100.044 Y59.585 E35.73377
G1 X66.104 Y48.557 E38.40437
G1 X65.775 Y47.910 E38.45874
G1 E36.45874 F2400.00000
G92 E0
G1 X108.633 Y38.351 F30000.000
G1 X106.490 Y39.605 F30000.000
G1 E2.00000 F2400.00000
G1 F2100
G1 X100.251 Y58.806 E3.51088
G1 X99.993 Y58.938 E3.53254
G1 X66.526 Y48.063 E6.16595
G1 X66.395 Y47.806 E6.18761
G1 X72.634 Y28.604 E7.69849
G1 X72.892 Y28.473 E7.72015
G1 X106.359 Y39.347 E10.35357
G1 X106.463 Y39.551 E10.37074
G1 E8.37074 F2400.00000
G92 E0
G1 X106.490 Y62.793 F30000.000
G1 E2.00000 F2400.00000
G1 F2100
G1 X126.075 Y62.793 E3.46567
G1 X127.686 Y64.404 E3.63612
G1 X127.686 Y101.582 E6.41832
G1 X126.075 Y103.192 E6.58877
G1 X103.898 Y103.192 E8.24844
G1 X102.287 Y101.582 E8.41889
G1 X102.287 Y64.404 E11.20109
G1 X103.898 Y62.793 E11.37154
G1 X106.430 Y62.793 E11.56106
G1 X106.490 Y63.393 F30000.000
G1 F2100
G1 X125.827 Y63.393 E13.00812
G1 X127.086 Y64.652 E13.14137
G1 X127.086 Y101.333 E15.88638
G1 X125.827 Y102.592 E16.01963
G1 X104.146 Y102.592 E17.64211
G1 X102.887 Y101.333 E17.77536
G1 X102.887 Y64.652 E20.52036
G1 X104.146 Y63.393 E20.65361
G1 X106.430 Y63.393 E20.82453
G1 X106.490 Y63.993 F30000.000
G1 F2100
G1 X125.578 Y63.993 E22.25300
G1 X126.486 Y64.901 E22.34906
G1 X126.486 Y101.085 E25.05686
G1 X125.578 Y101.992 E25.15292
G1 X104.395 Y101.992 E26.73819
G1 X103.487 Y101.085 E26.83425
G1 X103.487 Y64.901 E29.54206
G1 X104.395 Y63.993 E29.63811
G1 X106.430 Y63.993 E29.79043
G1 X106.490 Y64.593 F30000.000
G1 F2100
G1 X125.330 Y64.593 E31.20030
G1 X125.886 Y65.150 E31.25916
G1 X125.886 Y100.836 E33.92977
G1 X125.330 Y101.392 E33.98862
G1 X104.643 Y101.392 E35.53670
G1 X104.087 Y100.836 E35.59556
G1 X104.087 Y65.150 E38.26617
G1 X104.643 Y64.593 E38.32503
G1 X106.430 Y64.593 E38.45875
G1 X106.490 Y65.193 F30000.000
G1 F2100
G1 X125.081 Y65.193 E39.85002
G1 X125.286 Y65.398 E39.87168
G1 X125.286 Y100.587 E42.50509
G1 X125.081 Y100.792 E42.52675
G1 X104.892 Y100.792 E44.03763
G1 X104.687 Y100.587 E44.05929
G1 X104.687 Y65.398 E46.69271
G1 X104.892 Y65.193 E46.71437
G1 X106.430 Y65.193 E46.82949
G1 E44.82949 F2400.00000
G92 E0
G1 X100.197 Y104.458 F30000.000
G1 E2.00000 F2400.00000
G1 F2100
G1 X102.227 Y105.492 E2.17045
G1 X102.621 Y106.708 E2.26608
G1 X109.080 Y126.584 E3.83012
G1 X108.046 Y128.614 E4.00057
G1 X72.688 Y140.102 E6.78278
G1 X70.658 Y139.068 E6.95323
G1 X63.805 Y117.976 E8.61290
G1 X64.839 Y115.947 E8.78335
G1 X100.140 Y104.477 E11.56105
G1 X100.146 Y105.106 F30000.000
G1 F2100
G1 X101.733 Y105.914 E11.69430
G1 X102.051 Y106.893 E11.77134
G1 X108.432 Y126.534 E13.31678
G1 X107.624 Y128.120 E13.45003
G1 X72.739 Y139.455 E16.19504
G1 X71.152 Y138.647 E16.32829
G1 X64.453 Y118.027 E17.95077
G1 X65.261 Y116.441 E18.08402
G1 X100.089 Y105.124 E20.82453
G1 X100.095 Y105.753 F30000.000
G1 F2100
G1 X101.239 Y106.336 E20.92058
G1 X101.480 Y107.078 E20.97902
G1 X107.785 Y126.483 E22.50586
G1 X107.202 Y127.626 E22.60192
G1 X72.790 Y138.808 E25.30973
G1 X71.646 Y138.225 E25.40578
G1 X65.100 Y118.078 E26.99106
G1 X65.683 Y116.934 E27.08711
G1 X100.038 Y105.772 E29.79043
G1 X100.044 Y106.401 F30000.000
G1 F2100
G1 X100.745 Y106.758 E29.84928
G1 X100.910 Y107.264 E29.88912
G1 X107.138 Y126.432 E31.39736
G1 X106.781 Y127.132 E31.45622
G1 X72.841 Y138.160 E34.12683
G1 X72.140 Y137.803 E34.18569
G1 X65.747 Y118.129 E35.73377
G1 X66.104 Y117.428 E35.79263
G1 X99.987 Y106.419 E38.45874
G1 X99.993 Y107.048 F30000.000
G1 F2100
G1 X100.251 Y107.179 E38.48040
G1 X100.339 Y107.449 E38.50164
G1 X106.490 Y126.381 E39.99129
G1 X106.359 Y126.639 E40.01295
G1 X72.892 Y137.513 E42.64636
G1 X72.634 Y137.381 E42.66802
G1 X66.395 Y118.180 E44.17890
G1 X66.526 Y117.922 E44.20056
G1 X99.936 Y107.067 E46.82948
G1 E44.82948 F2400.00000
G92 E0
G1 X105.735 Y126.158 F30000.000
G1 E2.00000 F2400.00000
G1 F2100
G1 X73.114 Y136.758 E4.29143
G1 X67.150 Y118.402 E5.58077
G1 X99.771 Y107.803 E7.87220
G1 X105.717 Y126.101 E9.15753
G1 X105.339 Y126.216 F30000.000
G1 X105.060 Y125.814 F30000.000
G1 F2100
G1 X73.458 Y136.083 E11.37740
G1 X73.016 Y134.724 E11.47284
G1 X104.619 Y124.456 E13.69271
G1 X105.042 Y125.757 E13.78415
G1 E11.78415 F2400.00000
G92 E0
G1 X99.869 Y109.837 F30000.000
G1 E2.00000 F2400.00000
G1 F2100
G1 X68.266 Y120.105 E4.21986
G1 X67.825 Y118.746 E4.31531
G1 X99.427 Y108.478 E6.53517
G1 X99.850 Y109.780 E6.62662
G1 X99.688 Y110.459 F30000.000
G1 F2100
G1 X104.107 Y124.059 E7.58193
G1 X73.197 Y134.102 E9.75311
G1 X68.778 Y120.502 E10.70842
G1 X99.631 Y110.477 E12.87559
G1 X100.068 Y110.335 F30000.000
G1 X100.033 Y110.065 F30000.000
G1 F2100
G1 X104.617 Y124.175 E13.43081
G1 X104.328 Y125.527 F30000.000
G1 F2100
G1 X104.442 Y125.414 E13.44190
G1 X104.332 Y125.074 E13.46653
G1 X103.841 Y125.233 E13.50205
G1 X103.171 Y125.904 E13.56740
G1 X102.013 Y126.280 E13.65126
G1 X102.684 Y125.609 E13.71660
G1 X101.527 Y125.985 E13.80047
G1 X100.856 Y126.656 E13.86581
G1 X99.699 Y127.032 E13.94968
G1 X100.369 Y126.361 E14.01502
G1 X99.212 Y126.737 E14.09888
G1 X98.541 Y127.408 E14.16423
G1 X97.384 Y127.784 E14.24809
G1 X98.054 Y127.113 E14.31344
G1 X96.897 Y127.490 E14.39730
G1 X96.226 Y128.160 E14.46264
G1 X95.069 Y128.536 E14.54651
G1 X95.739 Y127.866 E14.61185
G1 X94.582 Y128.242 E14.69572
G1 X93.911 Y128.912 E14.76106
G1 X92.754 Y129.288 E14.84493
G1 X93.424 Y128.618 E14.91027
G1 X92.267 Y128.994 E14.99413
G1 X91.597 Y129.664 E15.05948
G1 X90.439 Y130.040 E15.14334
G1 X91.110 Y129.370 E15.20869
G1 X89.952 Y129.746 E15.29255
G1 X89.282 Y130.416 E15.35790
G1 X88.124 Y130.793 E15.44176
G1 X88.795 Y130.122 E15.50711
G1 X87.637 Y130.498 E15.59097
G1 X86.967 Y131.169 E15.65632
G1 X85.809 Y131.545 E15.74018
G1 X86.480 Y130.874 E15.80553
G1 X85.322 Y131.250 E15.88939
G1 X84.652 Y131.921 E15.95474
G1 X83.495 Y132.297 E16.03860
G1 X84.165 Y131.626 E16.10395
G1 X83.008 Y132.002 E16.18781
G1 X82.337 Y132.673 E16.25316
G1 X81.180 Y133.049 E16.33702
G1 X81.850 Y132.378 E16.40237
G1 X80.693 Y132.754 E16.48623
G1 X80.022 Y133.425 E16.55158
G1 X78.865 Y133.801 E16.63545
G1 X79.535 Y133.131 E16.70079
G1 X78.378 Y133.507 E16.78466
G1 X77.707 Y134.177 E16.85000
G1 X76.550 Y134.553 E16.93387
G1 X77.220 Y133.883 E16.99921
G1 X76.063 Y134.259 E17.08308
G1 X75.393 Y134.929 E17.14843
G1 X74.235 Y135.305 E17.23229
G1 X74.906 Y134.635 E17.29764
G1 X73.748 Y135.011 E17.38150
G1 X73.635 Y135.125 E17.39258
G1 X72.852 Y134.496 F30000.000
G1 F2100
G1 X68.268 Y120.386 E17.94770
G1 X68.443 Y119.147 F30000.000
G1 F2100
G1 X68.557 Y119.033 E17.95877
G1 X69.714 Y118.657 E18.04264
G1 X69.044 Y119.328 E18.10799
G1 X70.201 Y118.952 E18.19186
G1 X70.872 Y118.281 E18.25721
G1 X72.029 Y117.905 E18.34108
G1 X71.358 Y118.576 E18.40643
G1 X72.516 Y118.199 E18.49030
G1 X73.186 Y117.529 E18.55565
G1 X74.344 Y117.153 E18.63952
G1 X73.673 Y117.823 E18.70487
G1 X74.831 Y117.447 E18.78873
G1 X75.501 Y116.777 E18.85409
G1 X76.659 Y116.401 E18.93795
G1 X75.988 Y117.071 E19.00331
G1 X77.146 Y116.695 E19.08717
G1 X77.816 Y116.025 E19.15252
G1 X78.974 Y115.649 E19.23639
G1 X78.303 Y116.319 E19.30174
G1 X79.460 Y115.943 E19.38561
G1 X80.131 Y115.272 E19.45096
G1 X81.288 Y114.896 E19.53482
G1 X80.618 Y115.567 E19.60018
G1 X81.775 Y115.191 E19.68404
G1 X82.446 Y114.520 E19.74939
G1 X83.603 Y114.144 E19.83326
G1 X82.933 Y114.815 E19.89861
G1 X84.090 Y114.439 E19.98248
G1 X84.761 Y113.768 E20.04783
G1 X85.918 Y113.392 E20.13169
G1 X85.248 Y114.063 E20.19705
G1 X86.405 Y113.687 E20.28091
G1 X87.076 Y113.016 E20.34626
G1 X88.233 Y112.640 E20.43013
G1 X87.562 Y113.311 E20.49548
G1 X88.720 Y112.934 E20.57934
G1 X89.390 Y112.264 E20.64470
G1 X90.548 Y111.888 E20.72856
G1 X89.877 Y112.558 E20.79391
G1 X91.035 Y112.182 E20.87778
G1 X91.705 Y111.512 E20.94313
G1 X92.863 Y111.136 E21.02699
G1 X92.192 Y111.806 E21.09234
G1 X93.350 Y111.430 E21.17621
G1 X94.020 Y110.760 E21.24156
G1 X95.178 Y110.383 E21.32543
G1 X94.507 Y111.054 E21.39078
G1 X95.664 Y110.678 E21.47464
G1 X96.335 Y110.007 E21.53999
G1 X97.492 Y109.631 E21.62386
G1 X96.822 Y110.302 E21.68921
G1 X97.979 Y109.926 E21.77307
G1 X98.650 Y109.255 E21.83842
G1 X99.140 Y109.096 E21.87394
G1 X99.251 Y109.436 E21.89858
G1 X99.137 Y109.550 E21.90967
G1 E19.90967 F2400.00000
G92 E0
G1 X105.337 Y100.143 F30000.000
G1 E2.00000 F2400.00000
G1 F2100
G1 X105.337 Y65.843 E4.29143
G1 X124.637 Y65.843 E5.58077
G1 X124.637 Y100.143 E7.87220
G1 X105.397 Y100.143 E9.15753
G1 X105.405 Y99.749 F30000.000
G1 E7.15753 F2400.00000
G92 E0
G1 X122.672 Y99.607 F30000.000
G1 E2.00000 F2400.00000
G1 F2100
G1 X122.672 Y66.378 E4.21986
G1 X124.101 Y66.378 E4.31531
G1 X124.101 Y99.607 E6.53517
G1 X122.732 Y99.607 E6.62661
G1 E4.62661 F2400.00000
G92 E0
G1 X107.301 Y99.607 F30000.000
G1 E2.00000 F2400.00000
G1 F2100
G1 X105.872 Y99.607 E2.09545
G1 X105.872 Y66.378 E4.31531
G1 X107.301 Y66.378 E4.41076
G1 X107.301 Y99.547 E6.62661
G1 X107.837 Y99.243 F30000.000
G1 F2100
G1 X107.837 Y66.743 E8.79779
G1 X122.137 Y66.743 E9.75311
G1 X122.137 Y99.243 E11.92428
G1 X107.897 Y99.243 E12.87559
G1 X107.466 Y99.393 F30000.000
G1 X107.569 Y99.693 F30000.000
G1 F2100
G1 X122.404 Y99.693 E13.43071
G1 X123.508 Y99.128 F30000.000
G1 F2100
G1 X123.622 Y99.015 E13.44169
G1 X123.622 Y98.240 E13.49455
G1 X123.151 Y98.712 E13.54004
G1 X123.151 Y97.937 E13.59290
G1 X123.622 Y97.466 E13.63840
G1 X123.622 Y96.692 E13.69126
G1 X123.151 Y97.163 E13.73675
G1 X123.151 Y96.389 E13.78961
G1 X123.622 Y95.918 E13.83511
G1 X123.622 Y95.144 E13.88796
G1 X123.151 Y95.615 E13.93346
G1 X123.151 Y94.841 E13.98632
G1 X123.622 Y94.370 E14.03182
G1 X123.622 Y93.595 E14.08467
G1 X123.151 Y94.067 E14.13017
G1 X123.151 Y93.292 E14.18303
G1 X123.622 Y92.821 E14.22852
G1 X123.622 Y92.047 E14.28138
G1 X123.151 Y92.518 E14.32688
G1 X123.151 Y91.744 E14.37974
G1 X123.622 Y91.273 E14.42523
G1 X123.622 Y90.499 E14.47809
G1 X123.151 Y90.970 E14.52359
G1 X123.151 Y90.196 E14.57644
G1 X123.622 Y89.725 E14.62194
G1 X123.622 Y88.950 E14.67480
G1 X123.151 Y89.422 E14.72029
G1 X123.151 Y88.648 E14.77315
G1 X123.622 Y88.176 E14.81865
G1 X123.622 Y87.402 E14.87151
