; generated by Slic3r 1.3.0 on 2021-11-13 at 22:22:17

; external perimeters extrusion width = 0.44mm (2.78mm^3/s)
; perimeters extrusion width = 0.40mm (7.14mm^3/s)
; infill extrusion width = 0.50mm (10.97mm^3/s)
; solid infill extrusion width = 0.60mm (6.68mm^3/s)
; top infill extrusion width = 0.40mm (2.14mm^3/s)

M107
M190 S80 ; set bed temperature and wait for it to be reached
M104 S210 ; set temperature
G28 ; home all axes
G1 Z5 F5000 ; lift nozzle

; Filament gcode

M109 S210 ; set temperature and wait for it to be reached
G21 ; set units to millimeters
G90 ; use absolute coordinates
M82 ; use absolute distances for extrusion
G92 E0
G1 Z0.300 F30000.000
G1 E-2.00000 F2400.00000
G92 E0
G1 X35.875 Y54.036 F30000.000
G1 E2.00000 F2400.00000
G1 F2100
G1 X37.905 Y52.798 E2.15882
G1 X51.811 Y48.280 E3.13565
G1 X54.528 Y48.153 E3.31735
G1 X88.913 Y55.883 E5.67175
G1 X91.421 Y57.264 E5.86305
G1 X94.071 Y59.914 E6.11341
G1 X95.191 Y61.593 E6.24826
G1 X95.578 Y63.574 E6.38310
G1 X94.877 Y66.142 E6.56090
G1 X93.576 Y68.371 E6.73334
G1 X91.859 Y70.140 E6.89802
G1 X87.105 Y73.111 E7.27251
G1 X85.678 Y73.726 E7.37634
G1 X54.698 Y81.805 E9.51518
G1 X51.811 Y81.720 E9.70812
G1 X37.905 Y77.202 E10.68495
G1 X36.145 Y76.213 E10.81979
G1 X34.901 Y74.624 E10.95463
G1 X34.352 Y72.311 E11.11345
G1 X34.352 Y57.689 E12.09027
G1 X34.748 Y55.710 E12.22511
G1 X35.842 Y54.085 E12.35595
G1 X36.402 Y54.274 F30000.000
G1 F2100
G1 X38.071 Y53.308 E12.48477
G1 X51.977 Y48.789 E13.46159
G1 X54.411 Y48.676 E13.62437
G1 X88.796 Y56.405 E15.97878
G1 X91.043 Y57.642 E16.15014
G1 X93.693 Y60.292 E16.40051
G1 X94.734 Y61.893 E16.52806
G1 X95.036 Y63.778 E16.65562
G1 X94.414 Y65.872 E16.80153
G1 X93.113 Y68.101 E16.97398
G1 X91.575 Y69.686 E17.12150
G1 X86.821 Y72.657 E17.49600
G1 X85.543 Y73.208 E17.58901
G1 X54.563 Y81.287 E19.72785
G1 X51.977 Y81.211 E19.90069
G1 X38.071 Y76.692 E20.87752
G1 X36.416 Y75.739 E21.00507
G1 X35.291 Y74.197 E21.13263
G1 X34.887 Y72.311 E21.26145
G1 X34.887 Y57.689 E22.23827
G1 X35.283 Y55.821 E22.36582
G1 X36.367 Y54.323 E22.48937
G1 X36.927 Y54.529 F30000.000
G1 F2100
G1 X38.236 Y53.817 E22.58896
G1 X52.142 Y49.299 E23.56579
G1 X54.293 Y49.198 E23.70964
G1 X88.678 Y56.928 E26.06404
G1 X90.664 Y58.021 E26.21549
G1 X93.314 Y60.671 E26.46585
G1 X94.272 Y62.188 E26.58568
G1 X94.485 Y63.969 E26.70550
G1 X93.951 Y65.602 E26.82029
G1 X92.650 Y67.831 E26.99273
G1 X91.292 Y69.232 E27.12310
G1 X86.538 Y72.203 E27.49759
G1 X85.408 Y72.689 E27.57979
G1 X54.428 Y80.769 E29.71863
G1 X52.142 Y80.701 E29.87138
G1 X38.236 Y76.183 E30.84821
G1 X36.694 Y75.267 E30.96803
G1 X35.696 Y73.777 E31.08785
G1 X35.423 Y72.311 E31.18744
G1 X35.423 Y57.689 E32.16427
G1 X35.818 Y55.939 E32.28409
G1 X36.889 Y54.577 E32.39991
G1 X37.448 Y54.806 F30000.000
G1 F2100
G1 X38.402 Y54.326 E32.47121
G1 X52.308 Y49.808 E33.44803
G1 X54.176 Y49.721 E33.57296
G1 X88.561 Y57.450 E35.92737
G1 X90.285 Y58.400 E36.05889
G1 X92.935 Y61.050 E36.30925
G1 X93.804 Y62.476 E36.42081
G1 X93.921 Y64.142 E36.53237
G1 X93.489 Y65.332 E36.61694
G1 X92.188 Y67.561 E36.78938
G1 X91.008 Y68.778 E36.90261
G1 X86.254 Y71.748 E37.27710
G1 X85.272 Y72.171 E37.34849
G1 X54.293 Y80.251 E39.48733
G1 X52.308 Y80.192 E39.61998
G1 X38.402 Y75.674 E40.59681
G1 X36.980 Y74.797 E40.70836
G1 X36.120 Y73.366 E40.81992
G1 X35.959 Y72.311 E40.89122
G1 X35.959 Y57.689 E41.86805
G1 X36.353 Y56.066 E41.97960
G1 X37.409 Y54.851 E42.08715
G1 E40.08715 F2400.00000
G92 E0
G1 X79.925 Y70.348 F30000.000
G1 E2.00000 F2400.00000
G1 F2100
G1 X78.495 Y71.779 E2.15143
G1 X76.217 Y71.779 E2.32191
G1 X76.060 Y71.622 E2.33852
G1 X75.872 Y71.584 E2.35282
G1 X75.232 Y71.849 E2.40467
G1 X73.580 Y71.849 E2.52832
G1 X72.569 Y71.431 E2.61018
G1 X72.186 Y71.048 E2.65069
G1 X71.925 Y71.048 E2.67022
G1 X71.543 Y71.431 E2.71074
G1 X70.532 Y71.849 E2.79259
G1 X68.880 Y71.849 E2.91625
G1 X68.119 Y71.534 E2.97790
G1 X67.993 Y71.534 E2.98728
G1 X67.232 Y71.849 E3.04893
G1 X64.941 Y71.849 E3.22040
G1 X64.756 Y72.034 E3.23993
G1 X64.756 Y72.314 E3.26088
G1 X63.146 Y73.924 E3.43133
G1 X58.994 Y73.924 E3.74199
G1 X58.860 Y73.993 E3.75331
G1 X55.100 Y79.168 E4.23202
G1 X53.400 Y79.720 E4.36572
G1 X37.795 Y74.650 E5.59367
G1 X36.745 Y73.204 E5.72737
G1 X36.745 Y56.796 E6.95532
G1 X37.795 Y55.350 E7.08902
G1 X53.400 Y50.280 E8.31697
G1 X55.100 Y50.832 E8.45067
G1 X58.860 Y56.007 E8.92938
G1 X58.994 Y56.076 E8.94070
G1 X63.146 Y56.076 E9.25136
G1 X64.756 Y57.686 E9.42181
G1 X64.756 Y57.966 E9.44276
G1 X64.941 Y58.151 E9.46229
G1 X88.332 Y58.151 E11.21278
G1 X89.343 Y58.569 E11.29463
G1 X93.678 Y62.905 E11.75350
G1 X92.218 Y66.431 E12.03910
G1 X92.212 Y66.537 E12.04709
G1 X92.348 Y67.013 E12.08412
G1 X85.509 Y71.286 E12.68759
G1 X84.767 Y71.499 E12.74543
G1 X84.242 Y71.499 E12.78470
G1 X84.126 Y71.547 E12.79408
G1 X83.895 Y71.779 E12.81856
G1 X81.617 Y71.779 E12.98901
G1 X80.186 Y70.348 E13.14043
G1 X79.985 Y70.348 E13.15546
G1 X79.925 Y69.499 F30000.000
G1 F2100
G1 X78.246 Y71.179 E13.33319
G1 X76.465 Y71.179 E13.46647
G1 X76.234 Y70.947 E13.49093
G1 X76.118 Y70.899 E13.50031
G1 X75.989 Y70.899 E13.50996
G1 X75.113 Y71.249 E13.58060
G1 X73.699 Y71.249 E13.68639
G1 X72.909 Y70.922 E13.75038
G1 X72.186 Y70.199 E13.82687
G1 X71.925 Y70.199 E13.84639
G1 X71.203 Y70.922 E13.92288
G1 X70.413 Y71.249 E13.98687
G1 X68.999 Y71.249 E14.09266
G1 X68.122 Y70.899 E14.16330
G1 X67.928 Y70.911 E14.17785
G1 X67.113 Y71.249 E14.24392
G1 X64.341 Y71.249 E14.45136
G1 X64.156 Y71.434 E14.47089
G1 X64.156 Y72.065 E14.51814
G1 X62.897 Y73.324 E14.65139
G1 X58.689 Y73.324 E14.96633
G1 X58.554 Y73.393 E14.97765
G1 X54.729 Y78.658 E15.46465
G1 X53.400 Y79.089 E15.56918
G1 X38.166 Y74.139 E16.76794
G1 X37.345 Y73.009 E16.87247
G1 X37.345 Y56.991 E18.07123
G1 X38.166 Y55.861 E18.17576
G1 X53.400 Y50.911 E19.37452
G1 X54.729 Y51.342 E19.47905
G1 X58.554 Y56.607 E19.96605
G1 X58.689 Y56.676 E19.97737
G1 X62.897 Y56.676 E20.29231
G1 X64.156 Y57.935 E20.42556
G1 X64.156 Y58.566 E20.47281
G1 X64.341 Y58.751 E20.49234
G1 X88.213 Y58.751 E22.27880
G1 X89.003 Y59.078 E22.34279
G1 X92.971 Y63.046 E22.76272
G1 X91.871 Y65.699 E22.97768
G1 X91.608 Y65.699 E22.99737
G1 X91.419 Y65.950 E23.02087
G1 X91.647 Y66.744 E23.08266
G1 X85.263 Y70.733 E23.64598
G1 X84.682 Y70.899 E23.69120
G1 X83.993 Y70.899 E23.74276
G1 X83.877 Y70.947 E23.75214
G1 X83.646 Y71.179 E23.77662
G1 X81.866 Y71.179 E23.90987
G1 X80.186 Y69.499 E24.08759
G1 X79.985 Y69.499 E24.10263
G1 E22.10263 F2400.00000
G92 E0
G1 X90.623 Y65.350 F30000.000
G1 E2.00000 F2400.00000
G1 F2100
G1 X90.945 Y66.475 E2.08754
G1 X85.017 Y70.179 E2.61072
G1 X84.598 Y70.299 E2.64331
G1 X83.745 Y70.299 E2.70716
G1 X83.629 Y70.347 E2.71654
G1 X83.398 Y70.579 E2.74102
G1 X82.114 Y70.579 E2.83707
G1 X80.483 Y68.947 E3.00972
G1 X80.367 Y68.899 E3.01910
G1 X79.745 Y68.899 E3.06567
G1 X79.629 Y68.947 E3.07504
G1 X77.998 Y70.579 E3.24770
G1 X76.714 Y70.579 E3.34377
G1 X76.483 Y70.347 E3.36824
G1 X76.367 Y70.299 E3.37762
G1 X75.745 Y70.299 E3.42417
G1 X75.629 Y70.347 E3.43355
G1 X75.563 Y70.414 E3.44056
G1 X74.993 Y70.649 E3.48668
G1 X73.818 Y70.649 E3.57461
G1 X73.249 Y70.414 E3.62074
G1 X72.483 Y69.647 E3.70182
G1 X72.367 Y69.599 E3.71120
G1 X71.745 Y69.599 E3.75777
G1 X71.629 Y69.647 E3.76714
G1 X70.863 Y70.413 E3.84823
G1 X70.293 Y70.649 E3.89436
G1 X69.118 Y70.649 E3.98229
G1 X68.549 Y70.414 E4.02841
G1 X68.483 Y70.347 E4.03542
G1 X68.367 Y70.299 E4.04479
G1 X67.745 Y70.299 E4.09136
G1 X67.629 Y70.347 E4.10074
G1 X67.563 Y70.413 E4.10774
G1 X66.993 Y70.649 E4.15387
G1 X63.741 Y70.649 E4.39727
G1 X63.556 Y70.834 E4.41680
G1 X63.556 Y71.817 E4.49036
G1 X62.649 Y72.724 E4.58641
G1 X58.383 Y72.724 E4.90563
G1 X58.248 Y72.793 E4.91695
G1 X54.358 Y78.147 E5.41224
G1 X53.400 Y78.459 E5.48759
G1 X38.537 Y73.629 E6.65717
G1 X37.945 Y72.814 E6.73252
G1 X37.945 Y57.186 E7.90211
G1 X38.537 Y56.371 E7.97745
G1 X53.400 Y51.541 E9.14704
G1 X54.358 Y51.853 E9.22239
G1 X58.248 Y57.207 E9.71768
G1 X58.383 Y57.276 E9.72900
G1 X62.649 Y57.276 E10.04822
G1 X63.556 Y58.183 E10.14427
G1 X63.556 Y59.166 E10.21783
G1 X63.741 Y59.351 E10.23735
G1 X88.093 Y59.351 E12.05979
G1 X88.663 Y59.586 E12.10591
G1 X92.263 Y63.186 E12.48691
G1 X91.470 Y65.099 E12.64186
G1 X90.812 Y65.099 E12.69113
G1 X90.659 Y65.302 E12.71015
G1 E10.71015 F2400.00000
G92 E0
G1 X70.814 Y75.965 F30000.000
G1 X63.141 Y70.049 F30000.000
G1 E2.00000 F2400.00000
G1 F2100
G1 X62.956 Y70.234 E2.01953
G1 X62.956 Y71.568 E2.11938
G1 X62.400 Y72.124 E2.17824
G1 X58.077 Y72.124 E2.50174
G1 X57.942 Y72.193 E2.51306
G1 X53.987 Y77.637 E3.01664
G1 X53.400 Y77.828 E3.06281
G1 X38.907 Y73.119 E4.20322
G1 X38.545 Y72.619 E4.24938
G1 X38.545 Y57.381 E5.38979
G1 X38.907 Y56.881 E5.43596
G1 X53.400 Y52.172 E6.57637
G1 X53.987 Y52.363 E6.62254
G1 X57.942 Y57.807 E7.12612
G1 X58.077 Y57.876 E7.13743
G1 X62.400 Y57.876 E7.46094
G1 X62.956 Y58.432 E7.51979
G1 X62.956 Y59.766 E7.61965
G1 X63.141 Y59.951 E7.63918
G1 X87.974 Y59.951 E9.49758
G1 X88.323 Y60.095 E9.52584
G1 X91.555 Y63.327 E9.86791
G1 X91.069 Y64.499 E9.96285
G1 X90.016 Y64.499 E10.04171
G1 X89.827 Y64.750 E10.06522
G1 X90.244 Y66.205 E10.17850
G1 X84.770 Y69.626 E10.66154
G1 X84.514 Y69.699 E10.68151
G1 X83.496 Y69.699 E10.75765
G1 X83.380 Y69.747 E10.76702
G1 X83.149 Y69.979 E10.79151
G1 X82.363 Y69.979 E10.85036
G1 X80.731 Y68.347 E11.02301
G1 X80.615 Y68.299 E11.03239
G1 X79.496 Y68.299 E11.11615
G1 X79.380 Y68.347 E11.12553
G1 X77.749 Y69.979 E11.29819
G1 X76.962 Y69.979 E11.35705
G1 X76.731 Y69.747 E11.38152
G1 X76.615 Y69.699 E11.39090
G1 X75.496 Y69.699 E11.47466
G1 X75.380 Y69.747 E11.48404
G1 X75.223 Y69.905 E11.50071
G1 X74.874 Y70.049 E11.52897
G1 X73.938 Y70.049 E11.59904
G1 X73.589 Y69.905 E11.62731
G1 X72.731 Y69.047 E11.71806
G1 X72.615 Y68.999 E11.72744
G1 X71.496 Y68.999 E11.81120
G1 X71.380 Y69.047 E11.82058
G1 X70.523 Y69.905 E11.91133
G1 X70.174 Y70.049 E11.93959
G1 X69.238 Y70.049 E12.00966
G1 X68.889 Y69.905 E12.03792
G1 X68.731 Y69.747 E12.05459
G1 X68.615 Y69.699 E12.06397
G1 X67.496 Y69.699 E12.14773
G1 X67.380 Y69.747 E12.15711
G1 X67.223 Y69.905 E12.17378
G1 X66.874 Y70.049 E12.20205
G1 X63.201 Y70.049 E12.47693
G1 X62.541 Y69.449 F30000.000
G1 F2100
G1 X62.356 Y69.634 E12.49646
G1 X62.356 Y71.320 E12.62262
G1 X62.152 Y71.524 E12.64428
G1 X57.772 Y71.524 E12.97206
G1 X57.637 Y71.593 E12.98338
G1 X53.616 Y77.127 E13.49524
G1 X53.400 Y77.197 E13.51223
G1 X39.278 Y72.608 E14.62346
G1 X39.145 Y72.424 E14.64046
G1 X39.145 Y57.575 E15.75169
G1 X39.278 Y57.392 E15.76868
G1 X53.400 Y52.803 E16.87991
G1 X53.616 Y52.873 E16.89690
G1 X57.637 Y58.407 E17.40876
G1 X57.772 Y58.476 E17.42008
G1 X62.152 Y58.476 E17.74786
G1 X62.356 Y58.680 E17.76952
G1 X62.356 Y60.366 E17.89568
G1 X62.541 Y60.551 E17.91521
G1 X87.855 Y60.551 E19.80958
G1 X87.983 Y60.604 E19.81998
G1 X90.847 Y63.468 E20.12311
G1 X90.669 Y63.899 E20.15805
G1 X62.541 Y63.899 E22.26301
G1 X62.356 Y64.084 E22.28253
G1 X62.356 Y65.246 E22.36946
G1 X62.541 Y65.430 E22.38899
G1 X89.397 Y65.430 E24.39882
G1 X89.543 Y65.936 E24.43823
G1 X84.524 Y69.072 E24.88111
G1 X84.429 Y69.099 E24.88846
G1 X83.248 Y69.099 E24.97689
G1 X83.132 Y69.147 E24.98627
G1 X82.901 Y69.379 E25.01075
G1 X82.611 Y69.379 E25.03241
G1 X80.980 Y67.747 E25.20506
G1 X80.864 Y67.699 E25.21444
G1 X79.248 Y67.699 E25.33540
G1 X79.132 Y67.747 E25.34477
G1 X77.501 Y69.379 E25.51743
G1 X77.211 Y69.379 E25.53909
G1 X76.980 Y69.147 E25.56357
G1 X76.864 Y69.099 E25.57295
G1 X75.248 Y69.099 E25.69391
G1 X75.132 Y69.147 E25.70328
G1 X74.883 Y69.396 E25.72962
G1 X74.755 Y69.449 E25.74002
G1 X74.057 Y69.449 E25.79223
G1 X73.929 Y69.396 E25.80263
G1 X72.980 Y68.447 E25.90305
G1 X72.864 Y68.399 E25.91242
G1 X71.248 Y68.399 E26.03338
G1 X71.132 Y68.447 E26.04276
G1 X70.183 Y69.396 E26.14318
G1 X70.055 Y69.449 E26.15358
G1 X69.357 Y69.449 E26.20579
G1 X69.229 Y69.396 E26.21619
G1 X68.980 Y69.147 E26.24253
G1 X68.864 Y69.099 E26.25190
G1 X67.248 Y69.099 E26.37286
G1 X67.132 Y69.147 E26.38224
G1 X66.883 Y69.396 E26.40858
G1 X66.755 Y69.449 E26.41898
G1 X62.601 Y69.449 E26.72984
G1 E24.72984 F2400.00000
G92 E0
G1 X39.930 Y67.540 F30000.000
G1 E2.00000 F2400.00000
G1 F2100
G1 X39.930 Y62.460 E2.51111
G1 E0.51111 F2400.00000
G92 E0
G1 X40.494 Y61.225 F30000.000
G1 X41.830 Y59.386 F30000.000
G1 X45.435 Y58.215 F30000.000
G1 X47.499 Y58.286 F30000.000
G1 X51.334 Y59.532 F30000.000
G1 X55.300 Y65.000 F30000.000
G1 X55.662 Y65.000 F30000.000
G1 X58.932 Y68.100 F30000.000
G1 X61.007 Y68.100 F30000.000
G1 X61.707 Y68.800 F30000.000
G1 E2.00000 F2400.00000
G1 F2100
G1 X61.707 Y70.875 E2.13862
G1 X57.356 Y70.875 E2.42930
G1 X53.286 Y76.477 E2.89187
G1 X39.794 Y72.093 E3.83957
G1 X39.794 Y67.811 E4.12562
G1 X45.580 Y69.691 E4.53204
G1 X48.988 Y65.000 E4.91942
G1 X45.580 Y60.309 E5.30680
G1 X39.794 Y62.189 E5.71323
G1 X39.794 Y57.907 E5.99928
G1 X53.286 Y53.523 E6.94698
G1 X57.356 Y59.125 E7.40955
G1 X61.707 Y59.125 E7.70023
G1 X61.707 Y61.200 E7.83885
G1 X87.661 Y61.200 E9.57272
G1 X89.711 Y63.250 E9.76639
G1 X61.707 Y63.250 E11.63722
G1 X61.707 Y66.079 E11.82624
G1 X87.649 Y66.079 E13.55929
G1 X87.715 Y66.312 E13.57547
G1 X84.294 Y68.450 E13.84497
G1 X82.911 Y68.450 E13.93739
G1 X82.756 Y68.605 E13.95203
G1 X81.201 Y67.050 E14.09895
G1 X78.911 Y67.050 E14.25193
G1 X77.356 Y68.605 E14.39884
G1 X77.201 Y68.450 E14.41349
G1 X74.911 Y68.450 E14.56647
G1 X74.561 Y68.800 E14.59954
G1 X74.251 Y68.800 E14.62025
G1 X73.201 Y67.750 E14.71945
G1 X70.911 Y67.750 E14.87243
G1 X69.861 Y68.800 E14.97163
G1 X69.551 Y68.800 E14.99235
G1 X69.201 Y68.450 E15.02541
G1 X66.911 Y68.450 E15.17839
G1 X66.561 Y68.800 E15.21146
G1 X61.767 Y68.800 E15.53173
G1 X61.307 Y68.809 F30000.000
G1 E13.53173 F2400.00000
G92 E0
G1 X81.523 Y66.615 F30000.000
G1 E2.00000 F2400.00000
G1 F2100
G1 X85.781 Y66.615 E2.28442
G1 X85.847 Y66.848 E2.30059
G1 X84.141 Y67.914 E2.43505
G1 X82.823 Y67.914 E2.52310
G1 X81.566 Y66.657 E2.64185
G1 E0.64185 F2400.00000
G92 E0
G1 X61.171 Y66.615 F30000.000
G1 E2.00000 F2400.00000
G1 F2100
G1 X78.588 Y66.615 E3.16356
G1 X77.289 Y67.914 E3.28632
G1 X74.689 Y67.914 E3.46001
G1 X74.406 Y68.198 E3.48676
G1 X73.423 Y67.214 E3.57965
G1 X70.689 Y67.214 E3.76227
G1 X69.706 Y68.198 E3.85516
G1 X69.423 Y67.914 E3.88191
G1 X66.689 Y67.914 E4.06454
G1 X66.339 Y68.264 E4.09760
G1 X61.171 Y68.264 E4.44284
G1 X61.171 Y70.339 E4.58146
G1 X57.083 Y70.339 E4.85459
G1 X53.081 Y75.847 E5.30939
G1 X40.330 Y71.704 E6.20510
G1 X40.330 Y68.548 E6.41590
G1 X45.785 Y70.321 E6.79907
G1 X49.651 Y65.000 E7.23845
G1 X45.785 Y59.679 E7.67782
G1 X40.330 Y61.452 E8.06100
G1 X40.330 Y58.296 E8.27180
G1 X53.081 Y54.153 E9.16750
G1 X57.083 Y59.661 E9.62231
G1 X61.171 Y59.661 E9.89543
G1 X61.171 Y61.736 E10.03406
G1 X87.439 Y61.736 E11.78889
G1 X88.418 Y62.714 E11.88136
G1 X61.171 Y62.714 E13.70157
G1 X61.171 Y66.555 E13.95815
G1 E11.95815 F2400.00000
G92 E0
G1 X60.903 Y62.225 F30000.000
G1 E2.00000 F2400.00000
G1 F2100
G1 X87.550 Y62.225 E3.25881
G1 E1.25881 F2400.00000
G92 E0
G1 X87.236 Y62.225 F30000.000
G1 X83.954 Y67.265 F30000.000
G1 X84.675 Y67.265 F30000.000
G1 E2.00000 F2400.00000
G1 F2100
G1 X82.552 Y67.265 E2.18520
G1 X81.094 Y66.565 F30000.000
G1 F2100
G1 X79.017 Y66.565 E2.28119
G1 X77.560 Y67.265 F30000.000
G1 F2100
G1 X74.578 Y67.265 E2.54129
G1 X74.428 Y67.280 E2.55448
G1 X74.411 Y67.424 E2.56713
G1 F2100
G1 X74.395 Y67.568 E2.57874
G1 F2100
G1 X74.379 Y67.712 E2.58877
G1 F2100
G1 X74.371 Y67.784 E2.59299
G1 E0.59299 F2400.00000
G92 E0
G1 X69.740 Y67.784 F30000.000
G1 E2.00000 F2400.00000
G1 F2100
G1 X69.724 Y67.640 E2.00844
G1 F2100
G1 X69.708 Y67.496 E2.01847
G1 F2100
G1 X69.692 Y67.352 E2.03008
G1 F2100
G1 X69.684 Y67.280 E2.03667
G1 X69.534 Y67.265 E2.05042
G1 X66.960 Y67.265 E2.28443
G1 X66.060 Y67.786 F30000.000
G1 F2100
G1 X66.481 Y67.365 E2.32445
G1 X66.481 Y67.094 E2.34265
G1 X65.990 Y67.094 E2.37567
G1 X65.298 Y67.786 E2.44143
G1 X64.536 Y67.786 E2.49265
G1 X65.228 Y67.094 E2.55841
G1 X64.466 Y67.094 E2.60963
G1 X63.774 Y67.786 E2.67539
G1 X63.012 Y67.786 E2.72661
G1 X63.704 Y67.094 E2.79237
G1 X62.941 Y67.094 E2.84359
