; generated by Slic3r 1.3.0 on 2021-01-11 at 13:23:49

; external perimeters extrusion width = 0.44mm (2.78mm^3/s)
; perimeters extrusion width = 0.40mm (7.14mm^3/s)
; infill extrusion width = 0.50mm (10.97mm^3/s)
; solid infill extrusion width = 0.60mm (6.68mm^3/s)
; top infill extrusion width = 0.40mm (2.14mm^3/s)

M107
M190 S80 ; set bed temperature and wait for it to be reached
M104 S210 ; set temperature
G28 ; home all axes
G1 Z5 F5000 ; lift nozzle

; Filament gcode

M109 S210 ; set temperature and wait for it to be reached
G21 ; set units to millimeters
G90 ; use absolute coordinates
M82 ; use absolute distances for extrusion
G92 E0
G1 Z0.300 F30000.000
G1 E-2.00000 F2400.00000
G92 E0
G1 X34.601 Y34.724 F30000.000
G1 E2.00000 F2400.00000
G1 F2100
G1 X36.597 Y32.727 E2.18865
G1 X38.902 Y30.685 E2.39437
G1 X41.537 Y28.640 E2.61718
G1 X43.873 Y27.053 E2.80582
G1 X46.519 Y25.479 E3.01155
G1 X49.491 Y23.965 E3.23435
G1 X52.320 Y22.749 E3.44007
G1 X54.977 Y21.792 E3.62872
G1 X57.932 Y20.926 E3.83445
G1 X60.936 Y20.246 E4.04017
G1 X64.230 Y19.724 E4.26298
G1 X67.296 Y19.442 E4.46870
G1 X70.119 Y19.354 E4.65735
G1 X73.452 Y19.459 E4.88015
G1 X76.517 Y19.756 E5.08588
G1 X79.306 Y20.198 E5.27453
G1 X82.313 Y20.862 E5.48025
G1 X85.273 Y21.713 E5.68597
G1 X88.411 Y22.843 E5.90877
G1 X91.002 Y23.965 E6.09742
G1 X93.750 Y25.356 E6.30315
G1 X96.620 Y27.053 E6.52595
G1 X99.163 Y28.791 E6.73167
G1 X101.394 Y30.521 E6.92032
G1 X103.896 Y32.727 E7.14312
G1 X105.893 Y34.724 E7.33177
G1 X107.935 Y37.028 E7.53749
G1 X109.979 Y39.664 E7.76030
G1 X111.703 Y42.215 E7.96603
G1 X113.141 Y44.646 E8.15471
G1 X114.655 Y47.617 E8.37747
G1 X115.777 Y50.209 E8.56614
G1 X116.827 Y53.104 E8.77184
G1 X117.694 Y56.059 E8.97758
G1 X118.374 Y59.062 E9.18329
G1 X118.895 Y62.356 E9.40610
G1 X119.177 Y65.423 E9.61182
G1 X119.266 Y68.245 E9.80048
G1 X119.161 Y71.578 E10.02327
G1 X118.895 Y74.390 E10.21192
G1 X118.421 Y77.433 E10.41766
G1 X117.694 Y80.687 E10.64044
G1 X116.906 Y83.399 E10.82910
G1 X115.871 Y86.299 E11.03482
G1 X114.546 Y89.360 E11.25763
G1 X113.141 Y92.100 E11.46334
G1 X111.566 Y94.747 E11.66907
G1 X109.979 Y97.083 E11.85774
G1 X108.098 Y99.520 E12.06345
G1 X105.893 Y102.022 E12.28625
G1 X103.709 Y104.194 E12.49197
G1 X101.591 Y106.061 E12.68062
G1 X98.956 Y108.106 E12.90342
G1 X96.620 Y109.693 E13.09207
G1 X93.974 Y111.267 E13.29780
G1 X91.002 Y112.781 E13.52060
G1 X88.411 Y113.903 E13.70925
G1 X85.516 Y114.953 E13.91497
G1 X82.561 Y115.820 E14.12070
G1 X79.558 Y116.500 E14.32642
G1 X76.264 Y117.022 E14.54922
G1 X73.197 Y117.303 E14.75494
G1 X70.374 Y117.392 E14.94359
G1 X67.041 Y117.287 E15.16639
G1 X63.976 Y116.990 E15.37213
G1 X61.187 Y116.548 E15.56078
G1 X57.932 Y115.820 E15.78356
G1 X54.977 Y114.953 E15.98930
G1 X52.320 Y113.997 E16.17795
G1 X49.491 Y112.781 E16.38367
G1 X49.124 Y112.603 E16.41095
G1 X46.520 Y111.267 E16.60647
G1 X43.873 Y109.693 E16.81220
G1 X41.330 Y107.955 E17.01792
G1 X39.099 Y106.224 E17.20658
G1 X36.597 Y104.019 E17.42938
G1 X34.601 Y102.022 E17.61803
G1 X32.558 Y99.718 E17.82375
G1 X30.514 Y97.082 E18.04655
G1 X28.927 Y94.747 E18.23520
G1 X27.352 Y92.100 E18.44093
G1 X25.838 Y89.129 E18.66373
G1 X24.623 Y86.299 E18.86943
G1 X23.666 Y83.642 E19.05810
G1 X22.799 Y80.687 E19.26383
G1 X22.120 Y77.684 E19.46955
G1 X21.598 Y74.390 E19.69236
G1 X21.332 Y71.578 E19.88100
G1 X21.227 Y68.501 E20.08673
G1 X21.332 Y65.167 E20.30952
G1 X21.598 Y62.356 E20.49817
G1 X22.072 Y59.313 E20.70391
G1 X22.799 Y56.059 E20.92670
G1 X23.666 Y53.104 E21.13243
G1 X24.623 Y50.446 E21.32112
G1 X25.947 Y47.386 E21.54388
G1 X27.229 Y44.870 E21.73252
G1 X28.790 Y42.215 E21.93824
G1 X30.664 Y39.457 E22.16105
G1 X32.558 Y37.028 E22.36678
G1 X34.560 Y34.768 E22.56849
G1 X34.979 Y35.103 F30000.000
G1 F2100
G1 X36.976 Y33.106 E22.75714
G1 X39.256 Y31.086 E22.96062
G1 X41.838 Y29.083 E23.17893
G1 X44.174 Y27.496 E23.36758
G1 X46.792 Y25.940 E23.57106
G1 X49.704 Y24.456 E23.78936
G1 X52.502 Y23.253 E23.99284
G1 X55.159 Y22.296 E24.18148
G1 X58.082 Y21.440 E24.38497
G1 X61.053 Y20.769 E24.58844
G1 X64.280 Y20.257 E24.80676
G1 X67.313 Y19.978 E25.01023
G1 X70.136 Y19.889 E25.19888
G1 X73.402 Y19.992 E25.41718
G1 X76.433 Y20.285 E25.62067
G1 X79.223 Y20.727 E25.80932
G1 X82.196 Y21.385 E26.01279
G1 X85.123 Y22.228 E26.21627
G1 X88.198 Y23.335 E26.43458
G1 X90.991 Y24.551 E26.63806
G1 X93.507 Y25.833 E26.82670
G1 X96.319 Y27.496 E27.04501
G1 X98.655 Y29.083 E27.23366
G1 X101.066 Y30.945 E27.43714
G1 X103.517 Y33.106 E27.65544
G1 X105.666 Y35.264 E27.85893
G1 X107.533 Y37.383 E28.04757
G1 X109.536 Y39.965 E28.26588
G1 X111.242 Y42.488 E28.46936
G1 X112.680 Y44.919 E28.65804
G1 X114.163 Y47.830 E28.87631
G1 X115.285 Y50.422 E29.06498
G1 X116.323 Y53.285 E29.26844
G1 X117.180 Y56.208 E29.47193
G1 X117.851 Y59.179 E29.67539
G1 X118.362 Y62.407 E29.89371
G1 X118.628 Y65.218 E30.08236
G1 X118.730 Y68.262 E30.28583
G1 X118.628 Y71.528 E30.50414
G1 X118.362 Y74.339 E30.69279
G1 X117.892 Y77.349 E30.89627
G1 X117.180 Y80.538 E31.11457
G1 X116.392 Y83.250 E31.30322
G1 X115.367 Y86.118 E31.50670
G1 X114.069 Y89.117 E31.72501
G1 X112.680 Y91.827 E31.92848
G1 X111.123 Y94.446 E32.13196
G1 X109.536 Y96.781 E32.32063
G1 X107.675 Y99.192 E32.52409
G1 X105.514 Y101.643 E32.74240
G1 X103.355 Y103.792 E32.94587
G1 X101.237 Y105.660 E33.13452
G1 X98.655 Y107.663 E33.35283
G1 X96.319 Y109.250 E33.54148
G1 X93.701 Y110.806 E33.74496
G1 X90.790 Y112.290 E33.96327
G1 X88.198 Y113.411 E34.15192
G1 X85.335 Y114.449 E34.35539
G1 X82.412 Y115.306 E34.55887
G1 X79.441 Y115.977 E34.76235
G1 X76.213 Y116.488 E34.98065
G1 X73.180 Y116.768 E35.18413
G1 X70.358 Y116.857 E35.37278
G1 X67.091 Y116.754 E35.59109
G1 X64.280 Y116.488 E35.77973
G1 X61.271 Y116.019 E35.98323
G1 X58.297 Y115.361 E36.18669
G1 X55.370 Y114.518 E36.39017
G1 X52.295 Y113.411 E36.60848
G1 X49.503 Y112.195 E36.81196
G1 X46.987 Y110.913 E37.00061
G1 X44.174 Y109.250 E37.21892
G1 X41.659 Y107.532 E37.42239
G1 X39.427 Y105.801 E37.61104
G1 X36.976 Y103.640 E37.82935
G1 X34.979 Y101.643 E38.01800
G1 X32.960 Y99.363 E38.22147
G1 X30.957 Y96.781 E38.43979
G1 X29.370 Y94.446 E38.62843
G1 X27.813 Y91.827 E38.83191
G1 X26.330 Y88.916 E39.05022
G1 X25.127 Y86.118 E39.25368
G1 X24.170 Y83.461 E39.44235
G1 X23.314 Y80.538 E39.64583
G1 X22.642 Y77.567 E39.84930
G1 X22.131 Y74.339 E40.06761
G1 X21.865 Y71.528 E40.25626
G1 X21.763 Y68.484 E40.45974
G1 X21.865 Y65.218 E40.67804
G1 X22.131 Y62.407 E40.86669
G1 X22.601 Y59.397 E41.07017
G1 X23.314 Y56.208 E41.28847
G1 X24.170 Y53.285 E41.49195
G1 X25.127 Y50.628 E41.68064
G1 X26.424 Y47.629 E41.89891
G1 X27.706 Y45.113 E42.08756
G1 X29.251 Y42.488 E42.29103
G1 X31.088 Y39.785 E42.50934
G1 X32.960 Y37.383 E42.71283
G1 X34.938 Y35.146 E42.91229
G1 X35.535 Y35.658 F30000.000
G1 F2100
G1 X37.626 Y33.572 E43.13331
G1 X39.875 Y31.592 E43.35756
G1 X42.175 Y29.809 E43.57535
G1 X44.652 Y28.122 E43.79959
G1 X47.305 Y26.553 E44.03030
G1 X49.976 Y25.195 E44.25455
G1 X52.647 Y24.039 E44.47234
G1 X55.548 Y22.995 E44.70304
G1 X58.342 Y22.183 E44.92083
G1 X61.266 Y21.527 E45.14507
G1 X64.311 Y21.044 E45.37579
G1 X67.208 Y20.770 E45.59357
G1 X70.203 Y20.674 E45.81782
G1 X73.285 Y20.770 E46.04853
G1 X76.268 Y21.055 E46.27277
G1 X79.142 Y21.510 E46.49057
G1 X82.151 Y22.183 E46.72127
G1 X84.945 Y22.995 E46.93906
G1 X87.766 Y24.007 E47.16330
G1 X90.595 Y25.232 E47.39401
G1 X93.188 Y26.553 E47.61180
G1 X95.769 Y28.076 E47.83604
G1 X98.249 Y29.758 E48.06029
G1 X100.618 Y31.592 E48.28454
G1 X102.931 Y33.631 E48.51525
G1 X105.048 Y35.752 E48.73950
G1 X106.972 Y37.935 E48.95731
G1 X108.862 Y40.371 E49.18799
G1 X110.544 Y42.851 E49.41224
G1 X112.025 Y45.356 E49.63005
G1 X113.425 Y48.103 E49.86074
G1 X114.580 Y50.774 E50.07853
G1 X115.598 Y53.592 E50.30276
G1 X116.437 Y56.469 E50.52702
G1 X117.093 Y59.393 E50.75126
G1 X117.575 Y62.438 E50.98197
G1 X117.855 Y65.421 E51.20622
G1 X117.946 Y68.330 E51.42401
G1 X117.849 Y71.411 E51.65471
G1 X117.575 Y74.308 E51.87250
G1 X117.109 Y77.269 E52.09675
G1 X116.458 Y80.193 E52.32100
G1 X115.625 Y83.072 E52.54524
G1 X114.580 Y85.972 E52.77595
G1 X113.388 Y88.721 E53.00020
G1 X112.067 Y91.314 E53.21798
G1 X110.497 Y93.968 E53.44869
G1 X108.861 Y96.375 E53.66649
G1 X107.027 Y98.744 E53.89070
G1 X104.988 Y101.057 E54.12143
G1 X102.931 Y103.115 E54.33922
G1 X100.685 Y105.098 E54.56347
G1 X98.249 Y106.988 E54.79418
G1 X95.842 Y108.624 E55.01197
G1 X93.264 Y110.151 E55.23622
G1 X90.517 Y111.551 E55.46692
G1 X87.766 Y112.739 E55.69117
G1 X85.028 Y113.724 E55.90895
G1 X82.151 Y114.563 E56.13320
G1 X79.227 Y115.219 E56.35745
G1 X76.182 Y115.702 E56.58815
G1 X73.199 Y115.981 E56.81240
G1 X70.290 Y116.072 E57.03020
G1 X67.208 Y115.975 E57.26091
G1 X64.311 Y115.702 E57.47869
G1 X61.351 Y115.235 E57.70294
G1 X58.343 Y114.563 E57.93364
G1 X55.466 Y113.724 E58.15789
G1 X52.727 Y112.739 E58.37568
G1 X49.898 Y111.514 E58.60638
G1 X47.305 Y110.193 E58.82417
G1 X44.725 Y108.670 E59.04841
G1 X42.245 Y106.988 E59.27266
G1 X39.875 Y105.153 E59.49692
G1 X37.563 Y103.115 E59.72762
G1 X35.505 Y101.057 E59.94541
G1 X33.521 Y98.811 E60.16967
G1 X31.632 Y96.375 E60.40037
G1 X29.950 Y93.895 E60.62461
G1 X28.468 Y91.390 E60.84240
G1 X27.069 Y88.643 E61.07311
G1 X25.881 Y85.892 E61.29735
G1 X24.895 Y83.154 E61.51514
G1 X24.057 Y80.277 E61.73939
G1 X23.443 Y77.544 E61.94898
G1 X23.384 Y77.269 E61.97009
G1 X22.918 Y74.308 E62.19435
G1 X22.644 Y71.411 E62.41213
G1 X22.547 Y68.416 E62.63638
G1 X22.644 Y65.335 E62.86709
G1 X22.918 Y62.437 E63.08487
G1 X23.384 Y59.477 E63.30913
G1 X24.057 Y56.469 E63.53983
G1 X24.895 Y53.592 E63.76408
G1 X25.881 Y50.854 E63.98189
G1 X27.105 Y48.024 E64.21257
G1 X28.427 Y45.431 E64.43036
G1 X29.950 Y42.851 E64.65460
G1 X31.682 Y40.301 E64.88532
G1 X33.521 Y37.935 E65.10951
G1 X35.493 Y35.701 E65.33255
G1 X35.960 Y36.083 F30000.000
G1 F2100
G1 X38.030 Y34.016 E65.55145
G1 X40.250 Y32.061 E65.77288
G1 X42.535 Y30.289 E65.98926
G1 X44.981 Y28.624 E66.21068
G1 X47.586 Y27.083 E66.43716
G1 X50.223 Y25.742 E66.65858
G1 X52.877 Y24.594 E66.87496
G1 X55.724 Y23.568 E67.10144
G1 X58.501 Y22.762 E67.31782
G1 X61.388 Y22.114 E67.53924
G1 X64.377 Y21.641 E67.76572
G1 X67.256 Y21.369 E67.98210
G1 X70.213 Y21.274 E68.20352
G1 X73.238 Y21.369 E68.43000
G1 X76.183 Y21.649 E68.65143
G1 X79.039 Y22.102 E68.86781
G1 X81.927 Y22.745 E69.08923
G1 X84.769 Y23.568 E69.31066
G1 X87.616 Y24.594 E69.53713
G1 X90.270 Y25.742 E69.75351
G1 X92.907 Y27.083 E69.97493
G1 X95.512 Y28.624 E70.20141
G1 X97.904 Y30.249 E70.41779
G1 X100.243 Y32.061 E70.63922
G1 X102.513 Y34.062 E70.86569
G1 X104.604 Y36.156 E71.08712
G1 X106.516 Y38.325 E71.30352
G1 X108.371 Y40.716 E71.52998
G1 X110.032 Y43.164 E71.75140
G1 X111.504 Y45.653 E71.96779
G1 X112.878 Y48.350 E72.19425
G1 X114.026 Y51.003 E72.41064
G1 X115.030 Y53.786 E72.63205
G1 X115.858 Y56.627 E72.85349
G1 X116.505 Y59.514 E73.07491
G1 X116.979 Y62.503 E73.30139
G1 X117.255 Y65.449 E73.52281
G1 X117.346 Y68.339 E73.73919
G1 X117.251 Y71.364 E73.96566
G1 X116.979 Y74.243 E74.18204
G1 X116.518 Y77.165 E74.40347
G1 X115.875 Y80.053 E74.62489
G1 X115.051 Y82.895 E74.84632
G1 X114.026 Y85.743 E75.07280
G1 X112.849 Y88.457 E75.29423
G1 X111.536 Y91.034 E75.51060
G1 X109.996 Y93.639 E75.73707
G1 X108.371 Y96.030 E75.95346
G1 X106.559 Y98.369 E76.17486
G1 X104.557 Y100.639 E76.40136
G1 X102.464 Y102.730 E76.62279
G1 X100.295 Y104.642 E76.83916
G1 X97.904 Y106.497 E77.06565
G1 X95.512 Y108.122 E77.28202
G1 X92.966 Y109.630 E77.50345
G1 X90.270 Y111.004 E77.72992
G1 X87.616 Y112.152 E77.94630
G1 X84.833 Y113.157 E78.16772
G1 X81.992 Y113.984 E78.38915
G1 X79.105 Y114.632 E78.61057
G1 X76.116 Y115.105 E78.83705
G1 X73.170 Y115.381 E79.05848
G1 X70.280 Y115.472 E79.27486
G1 X67.255 Y115.377 E79.50134
G1 X64.377 Y115.105 E79.71771
G1 X61.454 Y114.644 E79.93914
G1 X58.501 Y113.984 E80.16561
G1 X55.724 Y113.178 E80.38199
G1 X52.940 Y112.177 E80.60342
G1 X50.162 Y110.975 E80.82989
G1 X47.586 Y109.663 E81.04627
G1 X45.038 Y108.158 E81.26769
G1 X42.590 Y106.497 E81.48912
G1 X40.250 Y104.685 E81.71055
G1 X37.980 Y102.684 E81.93703
G1 X35.936 Y100.639 E82.15341
G1 X33.977 Y98.421 E82.37484
G1 X32.123 Y96.030 E82.60131
G1 X30.461 Y93.582 E82.82274
G1 X28.989 Y91.093 E83.03911
G1 X27.615 Y88.396 E83.26559
G1 X26.442 Y85.680 E83.48701
G1 X25.463 Y82.960 E83.70339
G1 X24.635 Y80.119 E83.92482
G1 X24.029 Y77.414 E84.13229
G1 X23.975 Y77.165 E84.15129
G1 X23.514 Y74.243 E84.37272
G1 X23.242 Y71.364 E84.58910
G1 X23.147 Y68.407 E84.81052
G1 X23.242 Y65.382 E85.03700
G1 X23.514 Y62.503 E85.25338
G1 X23.975 Y59.581 E85.47481
G1 X24.635 Y56.627 E85.70128
G1 X25.463 Y53.786 E85.92271
G1 X26.442 Y51.066 E86.13910
G1 X27.644 Y48.288 E86.36556
G1 X28.957 Y45.712 E86.58194
G1 X30.461 Y43.164 E86.80336
G1 X32.162 Y40.661 E87.02984
G1 X33.977 Y38.325 E87.25123
G1 X35.918 Y36.126 E87.47073
G1 X36.384 Y36.507 F30000.000
G1 F2100
G1 X38.433 Y34.460 E87.68752
G1 X40.626 Y32.529 E87.90612
G1 X42.935 Y30.740 E88.12473
G1 X45.310 Y29.125 E88.33970
G1 X47.867 Y27.614 E88.56194
G1 X50.426 Y26.309 E88.77690
G1 X53.106 Y25.148 E88.99551
G1 X55.901 Y24.142 E89.21776
G1 X58.659 Y23.341 E89.43273
G1 X61.510 Y22.702 E89.65133
G1 X64.443 Y22.237 E89.87358
G1 X67.303 Y21.967 E90.08854
G1 X70.222 Y21.874 E90.30715
G1 X73.191 Y21.967 E90.52939
G1 X76.050 Y22.237 E90.74436
G1 X78.936 Y22.693 E90.96297
G1 X81.787 Y23.328 E91.18157
G1 X84.593 Y24.142 E91.40018
G1 X87.387 Y25.148 E91.62242
G1 X90.067 Y26.309 E91.84103
G1 X92.626 Y27.614 E92.05599
G1 X95.183 Y29.125 E92.27824
G1 X97.559 Y30.740 E92.49320
G1 X99.868 Y32.529 E92.71181
G1 X102.095 Y34.493 E92.93406
G1 X104.160 Y36.560 E93.15267
G1 X106.060 Y38.715 E93.36764
G1 X107.880 Y41.061 E93.58988
G1 X109.520 Y43.478 E93.80848
G1 X110.983 Y45.951 E94.02346
G1 X112.331 Y48.597 E94.24569
G1 X113.472 Y51.233 E94.46067
G1 X114.463 Y53.981 E94.67926
G1 X115.279 Y56.786 E94.89787
G1 X115.918 Y59.636 E95.11647
G1 X116.382 Y62.569 E95.33872
G1 X116.656 Y65.478 E95.55733
G1 X116.746 Y68.349 E95.77230
G1 X116.653 Y71.317 E95.99454
G1 X116.382 Y74.177 E96.20951
G1 X115.927 Y77.062 E96.42812
G1 X115.291 Y79.913 E96.64672
G1 X114.478 Y82.719 E96.86532
G1 X113.472 Y85.513 E97.08757
G1 X112.310 Y88.193 E97.30618
G1 X111.006 Y90.753 E97.52114
G1 X109.494 Y93.309 E97.74338
G1 X107.880 Y95.685 E97.95836
G1 X106.091 Y97.994 E98.17695
G1 X104.127 Y100.222 E98.39920
G1 X102.095 Y102.253 E98.61417
G1 X99.905 Y104.186 E98.83277
G1 X97.559 Y106.006 E99.05503
G1 X95.183 Y107.621 E99.26999
G1 X92.669 Y109.109 E99.48860
G1 X90.023 Y110.457 E99.71084
G1 X87.387 Y111.598 E99.92581
G1 X84.639 Y112.589 E100.14441
G1 X81.834 Y113.405 E100.36302
G1 X78.984 Y114.044 E100.58162
G1 X76.050 Y114.509 E100.80387
G1 X73.142 Y114.782 E101.02247
G1 X70.271 Y114.872 E101.23744
G1 X67.303 Y114.779 E101.45969
G1 X64.443 Y114.509 E101.67465
G1 X61.557 Y114.053 E101.89326
G1 X58.659 Y113.405 E102.11550
G1 X55.854 Y112.589 E102.33412
G1 X53.152 Y111.616 E102.54908
G1 X50.268 Y110.356 E102.78454
G1 X47.824 Y109.109 E102.98990
G1 X45.310 Y107.621 E103.20851
G1 X42.935 Y106.006 E103.42347
G1 X40.626 Y104.217 E103.64208
G1 X38.398 Y102.253 E103.86433
G1 X36.367 Y100.222 E104.07930
G1 X34.434 Y98.031 E104.29791
G1 X32.613 Y95.685 E104.52015
G1 X30.973 Y93.268 E104.73875
G1 X29.511 Y90.796 E104.95372
G1 X28.162 Y88.149 E105.17596
G1 X27.004 Y85.468 E105.39457
G1 X26.031 Y82.765 E105.60953
G1 X25.214 Y79.960 E105.82814
G1 X24.614 Y77.283 E106.03350
G1 X24.111 Y74.177 E106.26897
G1 X23.841 Y71.317 E106.48394
G1 X23.747 Y68.397 E106.70254
G1 X23.841 Y65.429 E106.92479
G1 X24.111 Y62.569 E107.13975
G1 X24.566 Y59.684 E107.35836
G1 X25.214 Y56.786 E107.58060
G1 X26.016 Y54.027 E107.79557
G1 X27.004 Y51.278 E108.01419
G1 X28.183 Y48.552 E108.23642
G1 X29.487 Y45.993 E108.45139
G1 X30.973 Y43.478 E108.66999
G1 X32.642 Y41.022 E108.89224
G1 X34.433 Y38.715 E109.11082
G1 X36.342 Y36.550 E109.32678
G1 X36.808 Y36.931 F30000.000
G1 F2100
G1 X38.837 Y34.904 E109.54145
G1 X41.001 Y32.997 E109.75724
G1 X43.256 Y31.248 E109.97080
G1 X45.640 Y29.627 E110.18658
G1 X48.148 Y28.144 E110.40460
