; generated by Slic3r 1.3.0 on 2020-04-21 at 15:36:07

; external perimeters extrusion width = 0.44mm (2.78mm^3/s)
; perimeters extrusion width = 0.40mm (7.14mm^3/s)
; infill extrusion width = 0.50mm (10.97mm^3/s)
; solid infill extrusion width = 0.60mm (6.68mm^3/s)
; top infill extrusion width = 0.40mm (2.14mm^3/s)

M107
M190 S80 ; set bed temperature and wait for it to be reached
M104 S200 ; set temperature
G28 ; home all axes
G1 Z5 F5000 ; lift nozzle

; Filament gcode

M109 S200 ; set temperature and wait for it to be reached
G21 ; set units to millimeters
G90 ; use absolute coordinates
M82 ; use absolute distances for extrusion
G92 E0
G1 Z0.300 F30000.000
G1 E-2.00000 F2400.00000
G92 E0
G1 X35.839 Y81.218 F30000.000
G1 E2.00000 F2400.00000
G1 F2100
G1 X41.823 Y78.979 E2.42686
G1 X47.914 Y76.903 E2.85676
G1 X54.351 Y74.979 E3.30555
G1 X61.186 Y73.281 E3.77607
G1 X67.973 Y71.975 E4.23776
G1 X74.829 Y71.062 E4.69982
G1 X81.686 Y70.577 E5.15906
G1 X88.472 Y70.536 E5.61244
G1 X94.846 Y70.912 E6.03902
G1 X101.288 Y71.717 E6.47273
G1 X107.722 Y72.963 E6.91050
G1 X113.344 Y74.427 E7.29864
G1 X118.875 Y76.213 E7.68691
G1 X124.053 Y78.193 E8.05726
G1 X163.075 Y93.272 E10.85198
G1 X164.564 Y94.271 E10.97180
G1 X165.479 Y95.811 E11.09147
G1 X166.125 Y97.798 E11.23105
G1 X166.290 Y99.584 E11.35087
G1 X165.671 Y101.268 E11.47069
G1 X164.389 Y102.522 E11.59051
G1 X163.511 Y102.928 E11.65516
G1 X155.665 Y105.477 E12.20629
G1 X76.295 Y127.856 E17.71537
G1 X72.267 Y128.744 E17.99093
G1 X71.872 Y128.810 E18.01768
G1 X68.285 Y129.231 E18.25895
G1 X67.802 Y129.259 E18.29132
G1 X64.360 Y129.251 E18.52122
G1 X63.841 Y129.217 E18.55597
G1 X60.480 Y128.777 E18.78240
G1 X59.998 Y128.684 E18.81522
G1 X56.651 Y127.827 E19.04601
G1 X54.524 Y127.249 E19.19325
G1 X50.820 Y125.995 E19.45454
G1 X47.300 Y124.510 E19.70978
G1 X43.360 Y122.623 E20.00158
G1 X35.406 Y118.552 E20.59854
G1 X34.030 Y117.401 E20.71836
G1 X33.195 Y114.931 E20.89254
G1 X33.195 Y85.031 E22.89003
G1 X33.590 Y83.281 E23.00985
G1 X34.699 Y81.871 E23.12967
G1 X35.787 Y81.248 E23.21343
G1 X36.027 Y81.720 F30000.000
G1 F2100
G1 X41.996 Y79.486 E23.63923
G1 X48.087 Y77.410 E24.06912
G1 X54.504 Y75.493 E24.51653
G1 X61.288 Y73.807 E24.98352
G1 X68.044 Y72.506 E25.44315
G1 X74.867 Y71.596 E25.90301
G1 X81.690 Y71.112 E26.35994
G1 X88.441 Y71.071 E26.81094
G1 X94.815 Y71.447 E27.23752
G1 X101.221 Y72.249 E27.66885
G1 X107.587 Y73.482 E28.10200
G1 X113.210 Y74.945 E28.49015
G1 X118.710 Y76.723 E28.87631
G1 X123.860 Y78.692 E29.24469
G1 X162.882 Y93.771 E32.03940
G1 X164.253 Y94.724 E32.15096
G1 X164.970 Y95.977 E32.24736
G1 X165.616 Y97.964 E32.38694
G1 X165.742 Y99.629 E32.49850
G1 X165.090 Y101.166 E32.61005
G1 X163.346 Y102.419 E32.75354
G1 X155.500 Y104.968 E33.30467
G1 X76.150 Y127.341 E38.81234
G1 X72.153 Y128.221 E39.08577
G1 X71.810 Y128.278 E39.10900
G1 X68.223 Y128.699 E39.35027
G1 X67.803 Y128.723 E39.37838
G1 X64.361 Y128.716 E39.60828
G1 X63.911 Y128.686 E39.63846
G1 X60.550 Y128.246 E39.86490
G1 X60.131 Y128.166 E39.89340
G1 X56.784 Y127.308 E40.12419
G1 X54.695 Y126.742 E40.26882
G1 X51.028 Y125.501 E40.52741
G1 X47.508 Y124.016 E40.78265
G1 X43.603 Y122.146 E41.07187
G1 X35.650 Y118.076 E41.66871
G1 X34.387 Y116.983 E41.78027
G1 X33.731 Y114.931 E41.92421
G1 X33.731 Y85.031 E43.92170
G1 X34.125 Y83.408 E44.03325
G1 X35.220 Y82.148 E44.14481
G1 X35.974 Y81.748 E44.20178
G1 E42.20178 F2400.00000
G92 E0
G1 X40.240 Y82.282 F30000.000
G1 E2.00000 F2400.00000
G1 F2100
G1 X40.422 Y82.109 E2.01881
G1 X40.451 Y81.552 E2.06055
G1 X42.144 Y80.027 E2.23100
G1 X46.343 Y80.248 E2.54567
G1 X46.534 Y80.084 E2.56448
G1 X46.613 Y79.336 E2.62078
G1 X48.383 Y77.903 E2.79123
G1 X52.640 Y78.350 E3.11156
G1 X52.839 Y78.197 E3.13037
G1 X52.977 Y77.326 E3.19639
G1 X54.820 Y75.987 E3.36684
G1 X59.102 Y76.665 E3.69131
G1 X59.309 Y76.523 E3.71012
G1 X59.507 Y75.593 E3.78130
G1 X61.417 Y74.352 E3.95175
G1 X65.690 Y75.260 E4.27862
G1 X65.904 Y75.129 E4.29743
G1 X66.153 Y74.198 E4.36954
G1 X68.126 Y73.059 E4.54000
G1 X72.351 Y74.191 E4.86730
G1 X72.572 Y74.071 E4.88611
G1 X72.858 Y73.190 E4.95547
G1 X74.887 Y72.156 E5.12592
G1 X79.026 Y73.500 E5.45154
G1 X79.252 Y73.392 E5.47035
G1 X79.557 Y72.599 E5.53391
G1 X81.638 Y71.673 E5.70436
G1 X85.651 Y73.214 E6.02605
G1 X85.883 Y73.117 E6.04486
G1 X86.184 Y72.442 E6.10021
G1 X88.310 Y71.625 E6.27065
G1 X92.160 Y73.340 E6.58607
G1 X92.397 Y73.256 E6.60489
G1 X92.674 Y72.714 E6.65046
G1 X94.840 Y72.010 E6.82090
G1 X98.492 Y73.871 E7.12765
G1 X98.733 Y73.800 E7.14647
G1 X98.966 Y73.396 E7.18138
G1 X101.165 Y72.806 E7.35175
G1 X104.589 Y74.782 E7.64760
G1 X104.834 Y74.723 E7.66641
G1 X105.011 Y74.451 E7.69073
G1 X107.239 Y73.977 E7.86119
G1 X110.403 Y76.032 E8.14354
G1 X110.650 Y75.986 E8.16235
G1 X110.764 Y75.829 E8.17690
G1 X113.015 Y75.473 E8.34742
G1 X115.897 Y77.568 E8.61409
G1 X116.147 Y77.536 E8.63290
G1 X116.199 Y77.471 E8.63913
G1 X118.463 Y77.232 E8.80948
G1 X121.051 Y79.327 E9.05870
G1 X123.579 Y79.185 E9.24816
G1 X125.833 Y81.214 E9.47515
G1 X125.942 Y81.256 E9.48389
G1 X128.361 Y81.256 E9.66491
G1 X130.301 Y83.196 E9.87024
G1 X130.408 Y83.244 E9.87898
G1 X132.831 Y83.371 E10.06054
G1 X134.489 Y85.213 E10.24600
G1 X134.740 Y85.233 E10.26481
G1 X134.757 Y85.218 E10.26650
G1 X137.022 Y85.456 E10.43693
G1 X138.382 Y87.135 E10.59860
G1 X138.631 Y87.168 E10.61741
G1 X138.738 Y87.090 E10.62729
G1 X140.988 Y87.446 E10.79774
G1 X142.063 Y88.926 E10.93462
G1 X142.310 Y88.972 E10.95343
G1 X142.558 Y88.811 E10.97560
G1 X144.786 Y89.284 E11.14606
G1 X145.598 Y90.535 E11.25763
G1 X145.842 Y90.594 E11.27644
G1 X146.289 Y90.336 E11.31505
G1 X148.489 Y90.925 E11.48551
G1 X149.064 Y91.921 E11.57151
G1 X149.305 Y91.992 E11.59032
G1 X150.006 Y91.635 E11.64924
G1 X152.173 Y92.339 E11.81969
G1 X152.540 Y93.059 E11.88020
G1 X152.777 Y93.143 E11.89901
G1 X153.788 Y92.693 E11.98187
G1 X155.915 Y93.509 E12.15233
G1 X156.106 Y93.940 E12.18763
G1 X156.339 Y94.036 E12.20644
G1 X157.710 Y93.510 E12.31636
G1 X159.790 Y94.437 E12.48681
G1 X159.842 Y94.570 E12.49750
G1 X160.068 Y94.678 E12.51631
G1 X161.843 Y94.102 E12.65593
G1 X163.875 Y95.140 E12.82669
G1 X165.220 Y99.289 E13.15309
G1 X164.186 Y101.319 E13.32356
G1 X154.174 Y104.572 E14.11140
G1 X152.454 Y103.696 E14.25581
G1 X152.320 Y103.689 E14.26583
G1 X148.261 Y105.247 E14.59123
G1 X146.281 Y104.365 E14.75341
G1 X146.147 Y104.365 E14.76343
G1 X142.147 Y106.147 E15.09118
G1 X139.926 Y105.296 E15.26914
G1 X139.792 Y105.303 E15.27915
G1 X135.897 Y107.287 E15.60632
G1 X133.731 Y106.584 E15.77677
G1 X133.700 Y106.522 E15.78190
G1 X133.440 Y106.446 E15.80215
G1 X129.591 Y108.668 E16.13477
G1 X127.391 Y108.079 E16.30520
G1 X127.297 Y107.915 E16.31935
G1 X127.034 Y107.852 E16.33960
G1 X123.304 Y110.274 E16.67237
G1 X121.075 Y109.799 E16.84291
G1 X120.916 Y109.554 E16.86479
G1 X120.650 Y109.504 E16.88506
G1 X117.115 Y112.073 E17.21206
G1 X114.865 Y111.716 E17.38251
G1 X114.637 Y111.402 E17.41158
G1 X114.369 Y111.367 E17.43184
G1 X111.090 Y114.021 E17.74752
G1 X108.825 Y113.783 E17.91798
G1 X108.527 Y113.415 E17.95340
G1 X108.257 Y113.394 E17.97365
G1 X105.294 Y116.062 E18.27208
G1 X103.019 Y115.943 E18.44252
G1 X102.649 Y115.532 E18.48396
G1 X102.378 Y115.525 E18.50422
G1 X99.773 Y118.130 E18.77992
G1 X97.496 Y118.130 E18.95037
G1 X97.050 Y117.684 E18.99754
G1 X96.779 Y117.691 E19.01779
G1 X94.565 Y120.151 E19.26547
G1 X92.290 Y120.270 E19.43592
G1 X91.765 Y119.797 E19.48881
G1 X91.495 Y119.818 E19.50907
G1 X89.688 Y122.050 E19.72396
G1 X87.423 Y122.288 E19.89442
G1 X86.812 Y121.794 E19.95319
G1 X86.544 Y121.829 E19.97345
G1 X85.146 Y123.753 E20.15141
G1 X82.897 Y124.109 E20.32186
G1 X82.194 Y123.599 E20.38684
G1 X81.928 Y123.648 E20.40709
G1 X80.927 Y125.189 E20.54465
G1 X78.699 Y125.663 E20.71509
G1 X77.897 Y125.142 E20.78671
G1 X77.633 Y125.205 E20.80696
G1 X77.002 Y126.299 E20.90145
G1 X74.802 Y126.888 E21.07190
G1 X73.891 Y126.362 E21.15064
G1 X73.631 Y126.439 E21.17090
G1 X73.330 Y127.030 E21.22052
G1 X71.164 Y127.733 E21.39097
G1 X70.135 Y127.209 E21.47739
G1 X69.880 Y127.300 E21.49765
G1 X69.859 Y127.347 E21.50150
G1 X67.732 Y128.163 E21.67196
G1 X66.148 Y127.457 E21.80173
G1 X66.014 Y127.457 E21.81175
G1 X64.447 Y128.155 E21.94015
G1 X62.186 Y127.287 E22.12137
G1 X62.052 Y127.294 E22.13139
G1 X61.242 Y127.707 E22.19948
G1 X58.301 Y126.752 E22.43089
G1 X58.168 Y126.766 E22.44091
G1 X58.050 Y126.834 E22.45108
G1 X54.007 Y125.750 E22.76428
G1 X53.810 Y125.409 E22.79377
G1 X53.702 Y125.331 E22.80379
G1 X50.717 Y124.696 E23.03221
G1 X50.132 Y123.795 E23.11257
G1 X50.019 Y123.722 E23.12259
G1 X47.327 Y123.296 E23.32659
G1 X46.337 Y121.934 E23.45260
G1 X46.221 Y121.867 E23.46262
G1 X43.789 Y121.611 E23.64566
G1 X42.395 Y119.890 E23.81144
G1 X42.275 Y119.829 E23.82146
G1 X40.064 Y119.713 E23.98717
G1 X38.540 Y118.020 E24.15762
G1 X38.547 Y117.877 E24.16839
G1 X38.361 Y117.680 E24.18864
G1 X36.128 Y117.680 E24.35578
G1 X34.517 Y116.070 E24.52623
G1 X34.517 Y83.892 E26.93426
G1 X36.128 Y82.282 E27.10471
G1 X40.180 Y82.282 E27.40794
G1 X40.581 Y83.405 F30000.000
G1 F2100
G1 X40.963 Y83.259 E27.43856
G1 X41.037 Y81.831 E27.54554
G1 X42.361 Y80.640 E27.67879
G1 X46.036 Y80.832 E27.95425
G1 X46.615 Y81.475 E28.01899
G1 X47.004 Y81.349 E28.04961
G1 X47.183 Y79.646 E28.17774
G1 X48.567 Y78.525 E28.31099
G1 X52.229 Y78.910 E28.58651
G1 X52.836 Y79.661 E28.65878
G1 X53.232 Y79.555 E28.68940
G1 X53.531 Y77.665 E28.83258
G1 X54.971 Y76.619 E28.96583
G1 X58.610 Y77.195 E29.24148
G1 X59.219 Y78.034 E29.31914
G1 X59.620 Y77.949 E29.34976
G1 X60.042 Y75.961 E29.50191
G1 X61.536 Y74.991 E29.63516
G1 X65.141 Y75.757 E29.91096
G1 X65.728 Y76.661 E29.99163
G1 X66.132 Y76.597 E30.02225
G1 X66.669 Y74.594 E30.17748
G1 X68.211 Y73.703 E30.31073
G1 X71.773 Y74.658 E30.58673
G1 X72.314 Y75.595 E30.66772
G1 X72.721 Y75.552 E30.69833
G1 X73.352 Y73.612 E30.85103
G1 X74.938 Y72.803 E30.98429
G1 X78.449 Y73.944 E31.26055
G1 X78.925 Y74.877 E31.33893
G1 X79.333 Y74.856 E31.36954
G1 X80.028 Y73.046 E31.51458
G1 X81.655 Y72.322 E31.64784
G1 X85.105 Y73.647 E31.92440
G1 X85.500 Y74.534 E31.99709
G1 X85.909 Y74.534 E32.02771
G1 X86.631 Y72.913 E32.16052
G1 X88.293 Y72.275 E32.29377
G1 X91.674 Y73.780 E32.57071
G1 X91.979 Y74.576 E32.63448
G1 X92.388 Y74.597 E32.66510
G1 X93.096 Y73.208 E32.78182
G1 X94.789 Y72.657 E32.91507
G1 X98.091 Y74.340 E33.19241
G1 X98.304 Y74.996 E33.24399
G1 X98.711 Y75.039 E33.27462
G1 X99.362 Y73.911 E33.37206
G1 X101.081 Y73.450 E33.50525
G1 X104.296 Y75.306 E33.78310
G1 X104.422 Y75.773 E33.81931
G1 X104.826 Y75.837 E33.84993
G1 X105.378 Y74.986 E33.92588
G1 X107.120 Y74.616 E34.05913
G1 X110.238 Y76.641 E34.33735
G1 X110.287 Y76.871 E34.35496
G1 X110.687 Y76.956 E34.38558
G1 X111.103 Y76.383 E34.43858
G1 X112.863 Y76.105 E34.57188
G1 X116.005 Y78.389 E34.86259
G1 X116.255 Y78.356 E34.88140
G1 X116.509 Y78.042 E34.91165
G1 X118.279 Y77.855 E35.04482
G1 X121.116 Y80.152 E35.31802
G1 X121.367 Y80.132 E35.33683
G1 X121.584 Y79.890 E35.36116
G1 X123.362 Y79.797 E35.49440
G1 X125.880 Y82.064 E35.74791
G1 X126.131 Y82.057 E35.76672
G1 X126.332 Y81.856 E35.78797
G1 X128.113 Y81.856 E35.92123
G1 X130.307 Y84.051 E36.15346
G1 X130.558 Y84.057 E36.17227
G1 X130.773 Y83.864 E36.19389
G1 X132.551 Y83.957 E36.32715
G1 X134.424 Y86.037 E36.53663
G1 X134.675 Y86.057 E36.55544
G1 X134.942 Y85.841 E36.58114
G1 X136.712 Y86.027 E36.71438
G1 X138.274 Y87.955 E36.90006
G1 X138.523 Y87.988 E36.91886
G1 X138.890 Y87.722 E36.95275
G1 X140.648 Y88.000 E37.08600
G1 X141.912 Y89.740 E37.24689
G1 X142.159 Y89.785 E37.26570
G1 X142.677 Y89.449 E37.31188
G1 X144.418 Y89.820 E37.44514
G1 X145.405 Y91.339 E37.58073
G1 X145.649 Y91.398 E37.59954
G1 X146.374 Y90.980 E37.66216
G1 X148.094 Y91.441 E37.79542
G1 X148.829 Y92.714 E37.90544
G1 X149.070 Y92.785 E37.92425
G1 X150.057 Y92.282 E38.00718
G1 X151.751 Y92.832 E38.14043
G1 X152.263 Y93.839 E38.22496
G1 X152.500 Y93.923 E38.24377
G1 X153.805 Y93.342 E38.35063
G1 X155.467 Y93.980 E38.48390
G1 X155.790 Y94.704 E38.54321
G1 X156.022 Y94.801 E38.56202
G1 X157.693 Y94.159 E38.69595
G1 X159.319 Y94.884 E38.82920
G1 X159.485 Y95.317 E38.86390
G1 X159.712 Y95.425 E38.88271
G1 X161.792 Y94.749 E39.04632
G1 X163.380 Y95.561 E39.17981
G1 X164.572 Y99.239 E39.46910
G1 X163.764 Y100.825 E39.60237
G1 X154.225 Y103.925 E40.35301
G1 X152.489 Y103.040 E40.49881
G1 X152.355 Y103.033 E40.50884
G1 X148.278 Y104.598 E40.83562
G1 X146.651 Y103.873 E40.96889
G1 X146.594 Y103.725 E40.98082
G1 X146.344 Y103.621 E41.00107
G1 X142.129 Y105.498 E41.34634
G1 X140.468 Y104.861 E41.47951
G1 X140.388 Y104.682 E41.49417
G1 X140.232 Y104.580 E41.50812
G1 X139.927 Y104.580 E41.53094
G1 X139.854 Y104.598 E41.53652
G1 X135.846 Y106.640 E41.87316
G1 X134.153 Y106.090 E42.00640
G1 X133.947 Y105.687 E42.04025
G1 X133.688 Y105.610 E42.06051
G1 X129.506 Y108.024 E42.42183
G1 X127.787 Y107.563 E42.55507
G1 X127.500 Y107.067 E42.59793
G1 X127.237 Y107.004 E42.61819
G1 X123.186 Y109.635 E42.97966
G1 X121.443 Y109.264 E43.11298
G1 X121.075 Y108.696 E43.16361
G1 X120.809 Y108.647 E43.18387
G1 X116.963 Y111.441 E43.53963
G1 X115.205 Y111.163 E43.67288
G1 X114.751 Y110.538 E43.73067
G1 X114.482 Y110.503 E43.75093
G1 X110.906 Y113.399 E44.09532
G1 X109.135 Y113.212 E44.22858
G1 X108.596 Y112.546 E44.29272
G1 X108.326 Y112.525 E44.31298
G1 X105.077 Y115.450 E44.64013
G1 X103.299 Y115.357 E44.77338
G1 X102.672 Y114.660 E44.84353
G1 X102.401 Y114.653 E44.86379
G1 X99.525 Y117.530 E45.16820
G1 X97.744 Y117.530 E45.30145
G1 X97.027 Y116.813 E45.37734
G1 X96.757 Y116.820 E45.39759
G1 X94.285 Y119.564 E45.67399
G1 X92.507 Y119.658 E45.80724
G1 X91.697 Y118.928 E45.88885
G1 X91.427 Y118.949 E45.90911
G1 X89.378 Y121.479 E46.15272
G1 X87.607 Y121.665 E46.28598
G1 X86.699 Y120.929 E46.37347
G1 X86.430 Y120.965 E46.39373
G1 X84.807 Y123.199 E46.60040
G1 X83.048 Y123.477 E46.73366
G1 X82.035 Y122.741 E46.82735
G1 X81.769 Y122.791 E46.84761
G1 X80.559 Y124.654 E47.01388
G1 X78.817 Y125.024 E47.14713
G1 X77.693 Y124.294 E47.24746
G1 X77.430 Y124.357 E47.26772
G1 X76.607 Y125.783 E47.39092
G1 X74.887 Y126.244 E47.52418
G1 X73.643 Y125.526 E47.63163
G1 X73.384 Y125.603 E47.65189
G1 X72.908 Y126.536 E47.73023
G1 X71.215 Y127.086 E47.86348
G1 X69.844 Y126.388 E47.97862
G1 X69.589 Y126.478 E47.99888
G1 X69.412 Y126.875 E48.03144
G1 X67.749 Y127.513 E48.16470
G1 X66.148 Y126.800 E48.29587
G1 X66.014 Y126.800 E48.30589
G1 X64.430 Y127.506 E48.43568
G1 X62.152 Y126.631 E48.61830
G1 X62.018 Y126.638 E48.62832
G1 X61.191 Y127.060 E48.69780
G1 X58.232 Y126.099 E48.93061
G1 X58.099 Y126.113 E48.94063
G1 X57.965 Y126.190 E48.95218
G1 X54.403 Y125.235 E49.22819
G1 X54.196 Y124.878 E49.25907
G1 X54.088 Y124.799 E49.26909
G1 X51.084 Y124.161 E49.49890
G1 X50.489 Y123.245 E49.58065
G1 X50.377 Y123.172 E49.59067
G1 X47.666 Y122.742 E49.79607
G1 X46.666 Y121.365 E49.92347
G1 X46.550 Y121.298 E49.93349
G1 X44.099 Y121.040 E50.11792
G1 X42.978 Y119.657 E50.25117
G1 X42.998 Y119.463 E50.26578
G1 X42.823 Y119.257 E50.28604
G1 X40.344 Y119.127 E50.47181
G1 X39.152 Y117.804 E50.60507
G1 X39.180 Y117.277 E50.64455
G1 X38.993 Y117.080 E50.66481
G1 X36.376 Y117.080 E50.86067
G1 X35.117 Y115.821 E50.99392
G1 X35.117 Y84.141 E53.36475
G1 X36.376 Y82.882 E53.49800
G1 X40.057 Y82.882 E53.77344
G1 X40.538 Y83.363 E53.82438
G1 E51.82438 F2400.00000
G92 E0
G1 X41.124 Y83.031 F30000.000
G1 X40.716 Y87.707 F30000.000
G1 E2.00000 F2400.00000
G1 F2100
G1 X41.329 Y87.723 E2.04593
G1 X41.624 Y82.111 E2.46649
G1 X42.577 Y81.252 E2.56255
G1 X45.757 Y81.418 E2.80081
G1 X46.616 Y82.372 E2.89687
G1 X46.350 Y87.449 E3.27729
G1 X46.961 Y87.497 E3.32322
G1 X47.754 Y79.956 E3.89067
G1 X48.752 Y79.148 E3.98672
G1 X51.919 Y79.481 E4.22505
G1 X52.727 Y80.479 E4.32111
G1 X52.046 Y86.953 E4.80831
G1 X52.655 Y87.033 E4.85424
G1 X54.085 Y78.004 E5.53834
G1 X55.123 Y77.250 E5.63440
G1 X58.270 Y77.749 E5.87285
G1 X59.025 Y78.787 E5.96890
G1 X57.846 Y86.231 E6.53291
G1 X58.449 Y86.343 E6.57884
G1 X60.578 Y76.328 E7.34501
G1 X61.654 Y75.629 E7.44106
G1 X64.773 Y76.292 E7.67967
G1 X65.472 Y77.369 E7.77572
