; generated by Slic3r 1.3.0 on 2020-06-09 at 18:11:24

; external perimeters extrusion width = 0.44mm (2.78mm^3/s)
; perimeters extrusion width = 0.40mm (7.14mm^3/s)
; infill extrusion width = 0.50mm (10.97mm^3/s)
; solid infill extrusion width = 0.60mm (6.68mm^3/s)
; top infill extrusion width = 0.40mm (2.14mm^3/s)

M107
M190 S80 ; set bed temperature and wait for it to be reached
M104 S200 ; set temperature
G28 ; home all axes
G1 Z5 F5000 ; lift nozzle

; Filament gcode

M109 S200 ; set temperature and wait for it to be reached
G21 ; set units to millimeters
G90 ; use absolute coordinates
M82 ; use absolute distances for extrusion
G92 E0
G1 Z0.300 F30000.000
G1 E-2.00000 F2400.00000
G92 E0
G1 X71.958 Y86.635 F30000.000
G1 E2.00000 F2400.00000
G1 F2100
G1 X73.608 Y85.675 E2.12755
G1 X75.050 Y85.443 E2.22512
G1 X124.950 Y85.443 E5.55871
G1 X126.818 Y85.839 E5.68626
G1 X128.365 Y86.958 E5.81382
G1 X129.325 Y88.608 E5.94137
G1 X129.557 Y90.050 E6.03894
G1 X129.557 Y92.450 E6.19927
G1 X129.161 Y94.318 E6.32682
G1 X128.042 Y95.865 E6.45438
G1 X126.543 Y96.773 E6.57149
G1 X79.043 Y114.273 E9.95325
G1 X77.450 Y114.557 E10.06133
G1 X75.050 Y114.557 E10.22166
G1 X73.182 Y114.161 E10.34921
G1 X71.635 Y113.042 E10.47677
G1 X70.675 Y111.392 E10.60432
G1 X70.443 Y109.950 E10.70189
G1 X70.443 Y90.050 E12.03131
G1 X70.839 Y88.182 E12.15887
G1 X71.923 Y86.684 E12.28241
G1 X72.482 Y86.890 F30000.000
G1 F2100
G1 X74.089 Y86.094 E12.40223
G1 X75.050 Y85.979 E12.46687
G1 X124.950 Y85.979 E15.80046
G1 X126.700 Y86.374 E15.92028
G1 X128.110 Y87.482 E16.04010
G1 X128.906 Y89.089 E16.15992
G1 X129.021 Y90.050 E16.22456
G1 X129.021 Y92.450 E16.38489
G1 X128.626 Y94.200 E16.50471
G1 X127.518 Y95.610 E16.62454
G1 X126.357 Y96.270 E16.71373
G1 X78.857 Y113.770 E20.09549
G1 X77.450 Y114.021 E20.19100
G1 X75.050 Y114.021 E20.35133
G1 X73.300 Y113.626 E20.47116
G1 X71.890 Y112.518 E20.59098
G1 X71.094 Y110.911 E20.71080
G1 X70.979 Y109.950 E20.77544
G1 X70.979 Y90.050 E22.10486
G1 X71.374 Y88.300 E22.22468
G1 X72.445 Y86.938 E22.34050
G1 X73.004 Y87.167 F30000.000
G1 F2100
G1 X75.050 Y86.514 E22.48397
G1 X124.950 Y86.514 E25.81756
G1 X126.573 Y86.909 E25.92912
G1 X127.833 Y88.004 E26.04068
G1 X128.486 Y90.050 E26.18415
G1 X128.486 Y92.450 E26.34449
G1 X128.091 Y94.073 E26.45604
G1 X126.996 Y95.333 E26.56760
G1 X126.172 Y95.768 E26.62982
G1 X78.672 Y113.268 E30.01159
G1 X77.450 Y113.486 E30.09453
G1 X75.050 Y113.486 E30.25486
G1 X73.427 Y113.091 E30.36642
G1 X72.167 Y111.996 E30.47798
G1 X71.514 Y109.950 E30.62145
G1 X71.514 Y90.050 E31.95088
G1 X71.909 Y88.427 E32.06244
G1 X72.964 Y87.212 E32.16999
G1 E30.16999 F2400.00000
G92 E0
G1 X80.384 Y95.199 F30000.000
G1 E2.00000 F2400.00000
G1 F2100
G1 X80.199 Y95.384 E2.01953
G1 X80.199 Y111.089 E3.19481
G1 X78.589 Y112.699 E3.36526
G1 X73.911 Y112.699 E3.71532
G1 X72.301 Y111.089 E3.88576
G1 X72.301 Y88.911 E5.54544
G1 X73.911 Y87.301 E5.71589
G1 X126.089 Y87.301 E9.62062
G1 X127.699 Y88.911 E9.79107
G1 X127.699 Y93.589 E10.14112
G1 X126.089 Y95.199 E10.31157
G1 X80.444 Y95.199 E13.72742
G1 X79.784 Y94.599 F30000.000
G1 F2100
G1 X79.599 Y94.784 E13.74695
G1 X79.599 Y110.840 E14.94854
G1 X78.340 Y112.099 E15.08179
G1 X74.160 Y112.099 E15.39465
G1 X72.901 Y110.840 E15.52790
G1 X72.901 Y89.160 E17.15037
G1 X74.160 Y87.901 E17.28363
G1 X125.840 Y87.901 E21.15116
G1 X127.099 Y89.160 E21.28441
G1 X127.099 Y93.340 E21.59727
G1 X125.840 Y94.599 E21.73052
G1 X79.844 Y94.599 E25.17268
G1 X79.184 Y93.999 F30000.000
G1 F2100
G1 X78.999 Y94.184 E25.19220
G1 X78.999 Y110.592 E26.42009
G1 X78.092 Y111.499 E26.51615
G1 X74.408 Y111.499 E26.79181
G1 X73.501 Y110.592 E26.88786
G1 X73.501 Y89.408 E28.47314
G1 X74.408 Y88.501 E28.56919
G1 X125.592 Y88.501 E32.39953
G1 X126.499 Y89.408 E32.49558
G1 X126.499 Y93.092 E32.77124
G1 X125.592 Y93.999 E32.86730
G1 X79.244 Y93.999 E36.33576
G1 X78.584 Y93.399 F30000.000
G1 F2100
G1 X78.399 Y93.584 E36.35528
G1 X78.399 Y110.343 E37.60948
G1 X77.843 Y110.899 E37.66833
G1 X74.657 Y110.899 E37.90679
G1 X74.101 Y110.343 E37.96565
G1 X74.101 Y89.657 E39.51373
G1 X74.657 Y89.101 E39.57259
G1 X125.343 Y89.101 E43.36573
G1 X125.899 Y89.657 E43.42459
G1 X125.899 Y92.843 E43.66305
G1 X125.343 Y93.399 E43.72191
G1 X78.644 Y93.399 E47.21667
G1 X77.984 Y92.799 F30000.000
G1 F2100
G1 X77.799 Y92.984 E47.23619
G1 X77.799 Y110.095 E48.51669
G1 X77.595 Y110.299 E48.53835
G1 X74.905 Y110.299 E48.73961
G1 X74.701 Y110.095 E48.76127
G1 X74.701 Y89.905 E50.27215
G1 X74.905 Y89.701 E50.29381
G1 X125.095 Y89.701 E54.04976
G1 X125.299 Y89.905 E54.07142
G1 X125.299 Y92.595 E54.27268
G1 X125.095 Y92.799 E54.29434
G1 X78.044 Y92.799 E57.81540
G1 X77.150 Y92.150 F30000.000
G1 F2100
G1 X77.150 Y109.650 E58.98450
G1 X75.350 Y109.650 E59.10475
G1 X75.350 Y90.350 E60.39409
G1 X124.650 Y90.350 E63.68760
G1 X124.650 Y92.150 E63.80785
G1 X77.210 Y92.150 E66.97710
G1 X76.750 Y92.155 F30000.000
G1 X76.614 Y91.614 F30000.000
G1 F2100
G1 X76.614 Y109.114 E68.14619
G1 X75.886 Y109.114 E68.19488
G1 X75.886 Y90.886 E69.41266
G1 X124.114 Y90.886 E72.63460
G1 X124.114 Y91.614 E72.68328
G1 X76.674 Y91.614 E75.85253
G1 E73.85253 F2400.00000
G92 E0
G1 X76.250 Y108.847 F30000.000
G1 E2.00000 F2400.00000
G1 F2100
G1 X76.250 Y91.347 E2.28105
G1 X76.267 Y91.267 E2.28236
G1 X76.347 Y91.250 E2.28368
G1 X123.847 Y91.250 E3.04653
G1 Z0.500 F30000.000
G1 X76.853 Y91.853 F30000.000
G1 F6000
G1 X76.853 Y109.353 E3.56613
G1 X75.647 Y109.353 E3.60193
G1 X75.647 Y90.647 E4.15733
G1 X124.353 Y90.647 E5.60347
G1 X124.353 Y91.853 E5.63927
G1 X76.913 Y91.853 E7.04783
G1 X77.230 Y92.230 F30000.000
G1 F2100
G1 X77.230 Y109.730 E7.62563
G1 X75.270 Y109.730 E7.69035
G1 X75.270 Y90.270 E8.33286
G1 X124.730 Y90.270 E9.96590
G1 X124.730 Y92.230 E10.03061
G1 X77.290 Y92.230 E11.59695
G1 X76.830 Y92.235 F30000.000
G1 X76.153 Y108.944 F30000.000
G1 F3600
G1 X76.056 Y108.847 E11.60332
G1 X76.056 Y108.057 E11.64003
G1 X76.444 Y108.446 E11.66557
G1 X76.444 Y107.656 E11.70228
G1 X76.056 Y107.267 E11.72782
G1 X76.056 Y106.477 E11.76453
G1 X76.444 Y106.865 E11.79006
G1 X76.444 Y106.075 E11.82677
G1 X76.056 Y105.687 E11.85231
G1 X76.056 Y104.896 E11.88902
G1 X76.444 Y105.285 E11.91456
G1 X76.444 Y104.495 E11.95127
G1 X76.056 Y104.106 E11.97681
G1 X76.056 Y103.316 E12.01352
G1 X76.444 Y103.705 E12.03905
G1 X76.444 Y102.915 E12.07576
G1 X76.056 Y102.526 E12.10130
G1 X76.056 Y101.736 E12.13801
G1 X76.444 Y102.124 E12.16355
G1 X76.444 Y101.334 E12.20026
G1 X76.056 Y100.946 E12.22579
G1 X76.056 Y100.155 E12.26250
G1 X76.444 Y100.544 E12.28804
G1 X76.444 Y99.754 E12.32475
G1 X76.056 Y99.365 E12.35029
G1 X76.056 Y98.575 E12.38700
G1 X76.444 Y98.964 E12.41254
G1 X76.444 Y98.174 E12.44924
G1 X76.056 Y97.785 E12.47478
G1 X76.056 Y96.995 E12.51149
G1 X76.444 Y97.383 E12.53703
G1 X76.444 Y96.593 E12.57374
G1 X76.056 Y96.205 E12.59928
G1 X76.056 Y95.414 E12.63599
G1 X76.444 Y95.803 E12.66152
G1 X76.444 Y95.013 E12.69823
G1 X76.056 Y94.624 E12.72377
G1 X76.056 Y93.834 E12.76048
G1 X76.444 Y94.223 E12.78602
G1 X76.444 Y93.433 E12.82273
G1 X76.056 Y93.044 E12.84826
G1 X76.056 Y92.254 E12.88497
G1 X76.444 Y92.643 E12.91051
G1 X76.444 Y91.852 E12.94722
G1 X76.056 Y91.464 E12.97276
G1 X76.056 Y91.056 E12.99171
G1 X76.438 Y91.056 E13.00947
G1 X76.826 Y91.444 E13.03500
G1 X77.617 Y91.444 E13.07171
G1 X77.228 Y91.056 E13.09725
G1 X78.018 Y91.056 E13.13396
G1 X78.407 Y91.444 E13.15950
G1 X79.197 Y91.444 E13.19621
G1 X78.808 Y91.056 E13.22175
G1 X79.598 Y91.056 E13.25846
G1 X79.987 Y91.444 E13.28399
G1 X80.777 Y91.444 E13.32070
G1 X80.389 Y91.056 E13.34624
G1 X81.179 Y91.056 E13.38295
G1 X81.567 Y91.444 E13.40849
G1 X82.358 Y91.444 E13.44520
G1 X81.969 Y91.056 E13.47073
G1 X82.759 Y91.056 E13.50744
G1 X83.148 Y91.444 E13.53298
G1 X83.938 Y91.444 E13.56969
G1 X83.549 Y91.056 E13.59523
G1 X84.339 Y91.056 E13.63194
G1 X84.728 Y91.444 E13.65747
G1 X85.518 Y91.444 E13.69418
G1 X85.130 Y91.056 E13.71972
G1 X85.920 Y91.056 E13.75643
G1 X86.308 Y91.444 E13.78197
G1 X87.099 Y91.444 E13.81868
G1 X86.710 Y91.056 E13.84422
G1 X87.500 Y91.056 E13.88093
G1 X87.889 Y91.444 E13.90646
G1 X88.679 Y91.444 E13.94317
G1 X88.290 Y91.056 E13.96871
G1 X89.080 Y91.056 E14.00542
G1 X89.469 Y91.444 E14.03096
G1 X90.259 Y91.444 E14.06767
G1 X89.870 Y91.056 E14.09320
G1 X90.661 Y91.056 E14.12991
G1 X91.049 Y91.444 E14.15545
G1 X91.839 Y91.444 E14.19216
G1 X91.451 Y91.056 E14.21770
G1 X92.241 Y91.056 E14.25441
G1 X92.630 Y91.444 E14.27994
G1 X93.420 Y91.444 E14.31665
G1 X93.031 Y91.056 E14.34219
G1 X93.821 Y91.056 E14.37890
G1 X94.210 Y91.444 E14.40444
G1 X95.000 Y91.444 E14.44115
G1 X94.611 Y91.056 E14.46669
G1 X95.402 Y91.056 E14.50340
G1 X95.790 Y91.444 E14.52893
G1 X96.580 Y91.444 E14.56564
G1 X96.192 Y91.056 E14.59118
G1 X96.982 Y91.056 E14.62789
G1 X97.371 Y91.444 E14.65343
G1 X98.161 Y91.444 E14.69014
G1 X97.772 Y91.056 E14.71567
G1 X98.562 Y91.056 E14.75238
G1 X98.951 Y91.444 E14.77792
G1 X99.741 Y91.444 E14.81463
G1 X99.352 Y91.056 E14.84017
G1 X100.143 Y91.056 E14.87688
G1 X100.531 Y91.444 E14.90242
G1 X101.321 Y91.444 E14.93912
G1 X100.933 Y91.056 E14.96466
G1 X101.723 Y91.056 E15.00137
G1 X102.112 Y91.444 E15.02691
G1 X102.902 Y91.444 E15.06362
G1 X102.513 Y91.056 E15.08916
G1 X103.303 Y91.056 E15.12587
G1 X103.692 Y91.444 E15.15140
G1 X104.482 Y91.444 E15.18811
G1 X104.093 Y91.056 E15.21365
G1 X104.883 Y91.056 E15.25036
G1 X105.272 Y91.444 E15.27590
G1 X106.062 Y91.444 E15.31261
G1 X105.674 Y91.056 E15.33814
G1 X106.464 Y91.056 E15.37485
G1 X106.852 Y91.444 E15.40039
G1 X107.643 Y91.444 E15.43710
G1 X107.254 Y91.056 E15.46264
G1 X108.044 Y91.056 E15.49935
G1 X108.433 Y91.444 E15.52489
G1 X109.223 Y91.444 E15.56160
G1 X108.834 Y91.056 E15.58713
G1 X109.624 Y91.056 E15.62384
G1 X110.013 Y91.444 E15.64938
G1 X110.803 Y91.444 E15.68609
G1 X110.415 Y91.056 E15.71163
G1 X111.205 Y91.056 E15.74834
G1 X111.593 Y91.444 E15.77387
G1 X112.384 Y91.444 E15.81058
G1 X111.995 Y91.056 E15.83612
G1 X112.785 Y91.056 E15.87283
G1 X113.174 Y91.444 E15.89837
G1 X113.964 Y91.444 E15.93508
G1 X113.575 Y91.056 E15.96062
G1 X114.365 Y91.056 E15.99732
G1 X114.754 Y91.444 E16.02286
G1 X115.544 Y91.444 E16.05957
G1 X115.156 Y91.056 E16.08511
G1 X115.946 Y91.056 E16.12182
G1 X116.334 Y91.444 E16.14736
G1 X117.125 Y91.444 E16.18407
G1 X116.736 Y91.056 E16.20960
G1 X117.526 Y91.056 E16.24631
G1 X117.915 Y91.444 E16.27185
G1 X118.705 Y91.444 E16.30856
G1 X118.316 Y91.056 E16.33410
G1 X119.106 Y91.056 E16.37081
G1 X119.495 Y91.444 E16.39634
G1 X120.285 Y91.444 E16.43305
G1 X119.896 Y91.056 E16.45859
G1 X120.687 Y91.056 E16.49530
G1 X121.075 Y91.444 E16.52084
G1 X121.865 Y91.444 E16.55755
G1 X121.477 Y91.056 E16.58309
G1 X122.267 Y91.056 E16.61980
G1 X122.656 Y91.444 E16.64533
G1 X123.446 Y91.444 E16.68204
G1 X123.057 Y91.056 E16.70758
G1 X123.847 Y91.056 E16.74429
G1 X123.944 Y91.153 E16.75067
G1 Z0.700 F30000.000
G1 X76.853 Y91.853 F30000.000
G1 F6000
G1 X76.853 Y109.353 E17.27027
G1 X75.647 Y109.353 E17.30607
G1 X75.647 Y90.647 E17.86147
G1 X124.353 Y90.647 E19.30761
G1 X124.353 Y91.853 E19.34341
G1 X76.913 Y91.853 E20.75197
G1 X77.230 Y92.230 F30000.000
G1 F2100
G1 X77.230 Y109.730 E21.32977
G1 X75.270 Y109.730 E21.39448
G1 X75.270 Y90.270 E22.03700
G1 X124.730 Y90.270 E23.67004
G1 X124.730 Y92.230 E23.73475
G1 X77.290 Y92.230 E25.30109
G1 X76.830 Y92.235 F30000.000
G1 X76.056 Y91.153 F30000.000
G1 F3600
G1 X76.153 Y91.056 E25.30745
G1 X76.941 Y91.056 E25.34398
G1 X76.552 Y91.444 E25.36946
G1 X77.341 Y91.444 E25.40599
G1 X77.729 Y91.056 E25.43146
G1 X78.518 Y91.056 E25.46800
G1 X78.129 Y91.444 E25.49347
G1 X78.917 Y91.444 E25.53000
G1 X79.306 Y91.056 E25.55548
G1 X80.094 Y91.056 E25.59201
G1 X79.705 Y91.444 E25.61749
G1 X80.494 Y91.444 E25.65402
G1 X80.882 Y91.056 E25.67949
G1 X81.671 Y91.056 E25.71603
G1 X81.282 Y91.444 E25.74150
G1 X82.070 Y91.444 E25.77803
G1 X82.459 Y91.056 E25.80351
G1 X83.247 Y91.056 E25.84004
G1 X82.858 Y91.444 E25.86552
G1 X83.647 Y91.444 E25.90205
G1 X84.035 Y91.056 E25.92753
G1 X84.824 Y91.056 E25.96406
G1 X84.435 Y91.444 E25.98953
G1 X85.223 Y91.444 E26.02607
G1 X85.612 Y91.056 E26.05154
G1 X86.400 Y91.056 E26.08807
G1 X86.011 Y91.444 E26.11355
G1 X86.800 Y91.444 E26.15008
G1 X87.188 Y91.056 E26.17556
G1 X87.977 Y91.056 E26.21209
G1 X87.588 Y91.444 E26.23757
G1 X88.376 Y91.444 E26.27410
G1 X88.765 Y91.056 E26.29957
G1 X89.553 Y91.056 E26.33611
G1 X89.164 Y91.444 E26.36158
G1 X89.953 Y91.444 E26.39811
G1 X90.341 Y91.056 E26.42359
G1 X91.130 Y91.056 E26.46012
G1 X90.741 Y91.444 E26.48560
G1 X91.529 Y91.444 E26.52213
G1 X91.918 Y91.056 E26.54761
G1 X92.706 Y91.056 E26.58414
G1 X92.317 Y91.444 E26.60961
G1 X93.106 Y91.444 E26.64615
G1 X93.494 Y91.056 E26.67162
G1 X94.283 Y91.056 E26.70815
G1 X93.894 Y91.444 E26.73363
G1 X94.682 Y91.444 E26.77016
G1 X95.071 Y91.056 E26.79564
G1 X95.859 Y91.056 E26.83217
G1 X95.470 Y91.444 E26.85765
G1 X96.259 Y91.444 E26.89418
G1 X96.647 Y91.056 E26.91965
G1 X97.436 Y91.056 E26.95619
G1 X97.047 Y91.444 E26.98166
G1 X97.835 Y91.444 E27.01819
G1 X98.224 Y91.056 E27.04367
G1 X99.012 Y91.056 E27.08020
G1 X98.623 Y91.444 E27.10568
G1 X99.412 Y91.444 E27.14221
G1 X99.800 Y91.056 E27.16768
G1 X100.589 Y91.056 E27.20422
G1 X100.200 Y91.444 E27.22969
G1 X100.988 Y91.444 E27.26622
G1 X101.377 Y91.056 E27.29170
G1 X102.165 Y91.056 E27.32823
G1 X101.776 Y91.444 E27.35371
G1 X102.565 Y91.444 E27.39024
G1 X102.953 Y91.056 E27.41572
G1 X103.741 Y91.056 E27.45225
G1 X103.353 Y91.444 E27.47772
G1 X104.141 Y91.444 E27.51426
G1 X104.530 Y91.056 E27.53973
G1 X105.318 Y91.056 E27.57626
G1 X104.929 Y91.444 E27.60174
G1 X105.718 Y91.444 E27.63827
G1 X106.106 Y91.056 E27.66375
G1 X106.894 Y91.056 E27.70028
G1 X106.506 Y91.444 E27.72576
G1 X107.294 Y91.444 E27.76229
G1 X107.683 Y91.056 E27.78776
G1 X108.471 Y91.056 E27.82430
G1 X108.082 Y91.444 E27.84977
G1 X108.871 Y91.444 E27.88630
G1 X109.259 Y91.056 E27.91178
G1 X110.047 Y91.056 E27.94831
G1 X109.659 Y91.444 E27.97379
G1 X110.447 Y91.444 E28.01032
G1 X110.836 Y91.056 E28.03580
G1 X111.624 Y91.056 E28.07233
G1 X111.235 Y91.444 E28.09780
G1 X112.024 Y91.444 E28.13434
G1 X112.412 Y91.056 E28.15981
G1 X113.200 Y91.056 E28.19634
G1 X112.812 Y91.444 E28.22182
G1 X113.600 Y91.444 E28.25835
G1 X113.989 Y91.056 E28.28383
G1 X114.777 Y91.056 E28.32036
G1 X114.388 Y91.444 E28.34584
G1 X115.177 Y91.444 E28.38237
G1 X115.565 Y91.056 E28.40784
G1 X116.353 Y91.056 E28.44438
G1 X115.965 Y91.444 E28.46985
G1 X116.753 Y91.444 E28.50638
G1 X117.142 Y91.056 E28.53186
G1 X117.930 Y91.056 E28.56839
G1 X117.541 Y91.444 E28.59387
G1 X118.330 Y91.444 E28.63040
G1 X118.718 Y91.056 E28.65588
G1 X119.506 Y91.056 E28.69241
G1 X119.118 Y91.444 E28.71788
G1 X119.906 Y91.444 E28.75442
G1 X120.295 Y91.056 E28.77989
G1 X121.083 Y91.056 E28.81642
G1 X120.694 Y91.444 E28.84190
G1 X121.482 Y91.444 E28.87843
G1 X121.871 Y91.056 E28.90391
G1 X122.659 Y91.056 E28.94044
G1 X122.271 Y91.444 E28.96592
G1 X123.059 Y91.444 E29.00245
G1 X123.448 Y91.056 E29.02792
G1 X123.944 Y91.056 E29.05094
G1 X123.944 Y91.347 E29.06445
G1 X123.847 Y91.444 E29.07082
G1 X76.056 Y91.153 F30000.000
G1 F3600
G1 X76.056 Y91.941 E29.10735
G1 X76.444 Y91.552 E29.13283
G1 X76.444 Y92.341 E29.16936
G1 X76.056 Y92.729 E29.19484
G1 X76.056 Y93.518 E29.23137
G1 X76.444 Y93.129 E29.25684
G1 X76.444 Y93.917 E29.29338
G1 X76.056 Y94.306 E29.31885
G1 X76.056 Y95.094 E29.35538
G1 X76.444 Y94.705 E29.38086
G1 X76.444 Y95.494 E29.41739
G1 X76.056 Y95.882 E29.44287
G1 X76.056 Y96.671 E29.47940
G1 X76.444 Y96.282 E29.50487
G1 X76.444 Y97.070 E29.54141
G1 X76.056 Y97.459 E29.56688
G1 X76.056 Y98.247 E29.60341
G1 X76.444 Y97.858 E29.62889
G1 X76.444 Y98.647 E29.66542
G1 X76.056 Y99.035 E29.69090
G1 X76.056 Y99.824 E29.72743
G1 X76.444 Y99.435 E29.75291
G1 X76.444 Y100.223 E29.78944
G1 X76.056 Y100.612 E29.81491
G1 X76.056 Y101.400 E29.85145
G1 X76.444 Y101.011 E29.87692
G1 X76.444 Y101.800 E29.91345
G1 X76.056 Y102.188 E29.93893
G1 X76.056 Y102.977 E29.97546
G1 X76.444 Y102.588 E30.00094
G1 X76.444 Y103.376 E30.03747
G1 X76.056 Y103.765 E30.06295
G1 X76.056 Y104.553 E30.09948
