; generated by Slic3r 1.3.0 on 2020-06-09 at 18:28:23

; external perimeters extrusion width = 0.44mm (2.78mm^3/s)
; perimeters extrusion width = 0.40mm (7.14mm^3/s)
; infill extrusion width = 0.50mm (10.97mm^3/s)
; solid infill extrusion width = 0.60mm (6.68mm^3/s)
; top infill extrusion width = 0.40mm (2.14mm^3/s)

M107
M190 S80 ; set bed temperature and wait for it to be reached
M104 S200 ; set temperature
G28 ; home all axes
G1 Z5 F5000 ; lift nozzle

; Filament gcode

M109 S200 ; set temperature and wait for it to be reached
G21 ; set units to millimeters
G90 ; use absolute coordinates
M82 ; use absolute distances for extrusion
G92 E0
G1 Z0.300 F30000.000
G1 E-2.00000 F2400.00000
G92 E0
G1 X66.958 Y84.635 F30000.000
G1 E2.00000 F2400.00000
G1 F2100
G1 X68.608 Y83.675 E2.12755
G1 X70.050 Y83.443 E2.22512
G1 X129.950 Y83.443 E6.22677
G1 X131.818 Y83.839 E6.35432
G1 X133.365 Y84.958 E6.48187
G1 X134.325 Y86.608 E6.60942
G1 X134.557 Y88.050 E6.70699
G1 X134.557 Y92.950 E7.03434
G1 X134.161 Y94.818 E7.16189
G1 X133.042 Y96.365 E7.28944
G1 X131.395 Y97.324 E7.41676
G1 X73.895 Y116.324 E11.46235
G1 X72.450 Y116.557 E11.56016
G1 X70.050 Y116.557 E11.72049
G1 X68.182 Y116.161 E11.84804
G1 X66.635 Y115.042 E11.97560
G1 X65.675 Y113.392 E12.10315
G1 X65.443 Y111.950 E12.20072
G1 X65.443 Y88.050 E13.79737
G1 X65.839 Y86.182 E13.92492
G1 X66.923 Y84.684 E14.04846
G1 X67.482 Y84.890 F30000.000
G1 F2100
G1 X69.089 Y84.094 E14.16829
G1 X70.050 Y83.979 E14.23292
G1 X129.950 Y83.979 E18.23457
G1 X131.700 Y84.374 E18.35439
G1 X133.110 Y85.482 E18.47421
G1 X133.906 Y87.089 E18.59403
G1 X134.021 Y88.050 E18.65867
G1 X134.021 Y92.950 E18.98601
G1 X133.626 Y94.700 E19.10583
G1 X132.518 Y96.110 E19.22566
G1 X131.227 Y96.816 E19.32392
G1 X73.727 Y115.816 E23.36951
G1 X72.450 Y116.021 E23.45594
G1 X70.050 Y116.021 E23.61627
G1 X68.300 Y115.626 E23.73609
G1 X66.890 Y114.518 E23.85591
G1 X66.094 Y112.911 E23.97574
G1 X65.979 Y111.950 E24.04037
G1 X65.979 Y88.050 E25.63702
G1 X66.374 Y86.300 E25.75684
G1 X67.445 Y84.938 E25.87266
G1 X68.004 Y85.167 F30000.000
G1 F2100
G1 X70.050 Y84.514 E26.01613
G1 X129.950 Y84.514 E30.01778
G1 X131.573 Y84.909 E30.12933
G1 X132.833 Y86.004 E30.24089
G1 X133.486 Y88.050 E30.38437
G1 X133.486 Y92.950 E30.71171
G1 X133.091 Y94.573 E30.82327
G1 X131.996 Y95.833 E30.93483
G1 X131.059 Y96.307 E31.00496
G1 X73.559 Y115.307 E35.05055
G1 X72.450 Y115.486 E35.12561
G1 X70.050 Y115.486 E35.28595
G1 X68.427 Y115.091 E35.39750
G1 X67.167 Y113.996 E35.50906
G1 X66.514 Y111.950 E35.65254
G1 X66.514 Y88.050 E37.24919
G1 X66.909 Y86.427 E37.36074
G1 X67.964 Y85.212 E37.46829
G1 X68.524 Y85.687 F30000.000
G1 F2100
G1 X68.911 Y85.301 E37.50922
G1 X131.089 Y85.301 E42.16230
G1 X132.699 Y86.911 E42.33275
G1 X132.699 Y94.089 E42.86990
G1 X131.089 Y95.699 E43.04034
G1 X91.721 Y95.699 E45.98642
G1 X91.606 Y95.747 E45.99579
G1 X75.247 Y112.106 E47.72705
G1 X75.199 Y112.221 E47.73642
G1 X75.199 Y113.089 E47.80134
G1 X73.589 Y114.699 E47.97179
G1 X68.911 Y114.699 E48.32184
G1 X67.301 Y113.089 E48.49229
G1 X67.301 Y86.911 E50.45130
G1 X68.482 Y85.730 E50.57633
G1 X68.949 Y86.112 F30000.000
G1 F2100
G1 X69.160 Y85.901 E50.59866
G1 X130.840 Y85.901 E55.21455
G1 X132.099 Y87.160 E55.34780
G1 X132.099 Y93.840 E55.84775
G1 X130.840 Y95.099 E55.98100
G1 X91.473 Y95.099 E58.92707
G1 X91.357 Y95.147 E58.93645
G1 X74.647 Y111.857 E60.70490
G1 X74.599 Y111.973 E60.71428
G1 X74.599 Y112.840 E60.77919
G1 X73.340 Y114.099 E60.91244
G1 X69.160 Y114.099 E61.22530
G1 X67.901 Y112.840 E61.35855
G1 X67.901 Y87.160 E63.28036
G1 X68.906 Y86.154 E63.38680
G1 X69.373 Y86.536 F30000.000
G1 F2100
G1 X69.408 Y86.501 E63.39053
G1 X130.592 Y86.501 E67.96922
G1 X131.499 Y87.408 E68.06527
G1 X131.499 Y93.592 E68.52802
G1 X130.592 Y94.499 E68.62407
G1 X91.224 Y94.499 E71.57015
G1 X91.109 Y94.547 E71.57952
G1 X74.047 Y111.609 E73.38517
G1 X73.999 Y111.724 E73.39455
G1 X73.999 Y112.592 E73.45946
G1 X73.092 Y113.499 E73.55552
G1 X69.408 Y113.499 E73.83117
G1 X68.501 Y112.592 E73.92723
G1 X68.501 Y87.408 E75.81185
G1 X69.331 Y86.578 E75.89968
G1 X69.657 Y87.101 F30000.000
G1 F2100
G1 X130.343 Y87.101 E80.44118
G1 X130.899 Y87.657 E80.50003
G1 X130.899 Y93.343 E80.92558
G1 X130.343 Y93.899 E80.98444
G1 X90.976 Y93.899 E83.93051
G1 X90.860 Y93.947 E83.93989
G1 X73.447 Y111.360 E85.78273
G1 X73.399 Y111.476 E85.79211
G1 X73.399 Y112.343 E85.85702
G1 X72.843 Y112.899 E85.91588
G1 X69.657 Y112.899 E86.15434
G1 X69.101 Y112.343 E86.21320
G1 X69.101 Y87.657 E88.06062
G1 X69.614 Y87.143 E88.11499
G1 E86.11499 F2400.00000
G92 E0
G1 X68.050 Y113.950 F30000.000
G1 X69.701 Y112.095 F30000.000
G1 E2.00000 F2400.00000
G1 F2100
G1 X69.701 Y87.905 E3.81022
G1 X69.905 Y87.701 E3.83188
G1 X130.095 Y87.701 E8.33618
G1 X130.299 Y87.905 E8.35784
G1 X130.299 Y93.095 E8.74619
G1 X130.095 Y93.299 E8.76785
G1 X90.727 Y93.299 E11.71392
G1 X90.612 Y93.347 E11.72330
G1 X72.847 Y111.112 E13.60334
G1 X72.799 Y111.227 E13.61272
G1 X72.799 Y112.095 E13.67763
G1 X72.595 Y112.299 E13.69929
G1 X69.905 Y112.299 E13.90056
G1 X69.743 Y112.137 E13.91773
G1 E11.91773 F2400.00000
G92 E0
G1 X129.650 Y92.650 F30000.000
G1 E2.00000 F2400.00000
G1 F2100
G1 X90.391 Y92.650 E4.62275
G1 X72.150 Y110.891 E6.34606
G1 X72.150 Y111.650 E6.39679
G1 X70.350 Y111.650 E6.51704
G1 X70.350 Y88.350 E8.07361
G1 X129.650 Y88.350 E12.03517
G1 X129.650 Y92.590 E12.31843
G1 X129.250 Y92.640 F30000.000
G1 X129.114 Y92.114 F30000.000
G1 F2100
G1 X90.169 Y92.114 E14.92021
G1 X71.614 Y110.669 E16.67317
G1 X71.614 Y111.114 E16.70294
G1 X70.886 Y111.114 E16.75163
G1 X70.886 Y88.886 E18.23663
G1 X129.114 Y88.886 E22.12663
G1 X129.114 Y92.054 E22.33832
G1 E20.33832 F2400.00000
G92 E0
G1 X79.345 Y92.650 F30000.000
G1 E2.00000 F2400.00000
G1 F2100
G1 X72.150 Y99.845 E2.67976
G1 X72.150 Y92.650 E3.16042
G1 X79.285 Y92.650 E3.63708
G1 X79.731 Y92.754 F30000.000
G1 X80.638 Y92.114 F30000.000
G1 F2100
G1 X71.614 Y101.138 E4.48961
G1 X71.614 Y92.114 E5.09244
G1 X80.578 Y92.114 E5.69127
G1 E3.69127 F2400.00000
G92 E0
G1 X87.845 Y92.650 F30000.000
G1 E2.00000 F2400.00000
G1 F2100
G1 X72.150 Y108.345 E3.48282
G1 X72.150 Y102.391 E3.88061
G1 X81.891 Y92.650 E4.80086
G1 X87.785 Y92.650 E5.19464
G1 X88.222 Y92.783 F30000.000
G1 X89.138 Y92.114 F30000.000
G1 F2100
G1 X71.614 Y109.638 E6.85023
G1 X71.614 Y102.169 E7.34923
G1 X81.669 Y92.114 E8.29913
G1 X89.078 Y92.114 E8.79412
G1 X89.921 Y91.847 F30000.000
G1 F2100
G1 X71.415 Y110.353 E9.21436
G1 F2100
G1 X71.293 Y110.414 E9.21801
G1 X71.272 Y110.349 E9.21983
G1 F2100
G1 X71.250 Y110.285 E9.22120
G1 X71.250 Y102.058 E9.38733
G1 X71.267 Y101.978 E9.38898
G1 F2100
G1 X71.293 Y101.914 E9.39084
G1 X71.272 Y101.849 E9.39266
G1 F2100
G1 X71.250 Y101.785 E9.39375
G1 X71.250 Y91.847 E9.55336
G1 E7.55336 F2400.00000
G92 E0
G1 X71.478 Y89.364 F30000.000
G1 E2.00000 F2400.00000
G1 F2100
G1 X71.364 Y89.478 E2.01079
G1 X71.364 Y90.239 E2.06179
G1 X72.239 Y89.364 E2.14471
G1 X72.999 Y89.364 E2.19571
G1 X71.364 Y90.999 E2.35075
G1 X71.364 Y91.368 E2.37548
G1 X71.756 Y91.368 E2.40175
G1 X73.760 Y89.364 E2.59177
G1 X74.520 Y89.364 E2.64277
G1 X72.249 Y91.636 E2.85818
G1 X73.009 Y91.636 E2.90918
G1 X75.280 Y89.364 E3.12460
G1 X76.041 Y89.364 E3.17560
G1 X73.770 Y91.636 E3.39102
G1 X74.530 Y91.636 E3.44202
G1 X76.801 Y89.364 E3.65743
G1 X77.562 Y89.364 E3.70843
G1 X75.291 Y91.636 E3.92385
G1 X76.051 Y91.636 E3.97485
G1 X78.322 Y89.364 E4.19026
G1 X79.083 Y89.364 E4.24127
G1 X76.811 Y91.636 E4.45668
G1 X77.572 Y91.636 E4.50768
G1 X79.843 Y89.364 E4.72310
G1 X80.604 Y89.364 E4.77410
G1 X78.332 Y91.636 E4.98951
G1 X79.093 Y91.636 E5.04052
G1 X81.364 Y89.364 E5.25593
G1 X82.124 Y89.364 E5.30693
G1 X79.853 Y91.636 E5.52235
G1 X80.614 Y91.636 E5.57335
G1 X82.885 Y89.364 E5.78876
G1 X83.645 Y89.364 E5.83977
G1 X81.614 Y91.396 E6.03242
G1 X81.854 Y91.636 E6.05518
G1 X82.135 Y91.636 E6.07400
G1 X84.406 Y89.364 E6.28941
G1 X85.166 Y89.364 E6.34041
G1 X82.895 Y91.636 E6.55583
G1 X83.655 Y91.636 E6.60683
G1 X85.927 Y89.364 E6.82225
G1 X86.687 Y89.364 E6.87325
G1 X84.416 Y91.636 E7.08866
G1 X85.176 Y91.636 E7.13966
G1 X87.448 Y89.364 E7.35508
G1 X88.208 Y89.364 E7.40608
G1 X85.937 Y91.636 E7.62150
G1 X86.697 Y91.636 E7.67250
G1 X88.968 Y89.364 E7.88791
G1 X89.729 Y89.364 E7.93891
G1 X87.458 Y91.636 E8.15433
G1 X88.218 Y91.636 E8.20533
G1 X90.489 Y89.364 E8.42075
G1 X91.250 Y89.364 E8.47175
G1 X88.979 Y91.636 E8.68716
G1 X89.238 Y91.636 E8.70457
G1 X89.796 Y91.078 E8.75749
G1 X90.047 Y91.328 E8.78124
G1 X92.010 Y89.364 E8.96749
G1 X92.771 Y89.364 E9.01849
G1 X90.499 Y91.636 E9.23391
G1 X91.260 Y91.636 E9.28491
G1 X93.531 Y89.364 E9.50033
G1 X94.292 Y89.364 E9.55133
G1 X92.020 Y91.636 E9.76674
G1 X92.781 Y91.636 E9.81774
G1 X95.052 Y89.364 E10.03316
G1 X95.812 Y89.364 E10.08416
G1 X93.541 Y91.636 E10.29958
G1 X94.302 Y91.636 E10.35058
G1 X96.573 Y89.364 E10.56599
G1 X97.333 Y89.364 E10.61699
G1 X95.062 Y91.636 E10.83241
G1 X95.823 Y91.636 E10.88341
G1 X98.094 Y89.364 E11.09882
G1 X98.854 Y89.364 E11.14983
G1 X96.583 Y91.636 E11.36524
G1 X97.344 Y91.636 E11.41624
G1 X99.615 Y89.364 E11.63166
G1 X100.375 Y89.364 E11.68266
G1 X98.104 Y91.636 E11.89807
G1 X98.864 Y91.636 E11.94908
G1 X101.136 Y89.364 E12.16449
G1 X101.896 Y89.364 E12.21549
G1 X99.625 Y91.636 E12.43091
G1 X100.385 Y91.636 E12.48191
G1 X102.656 Y89.364 E12.69732
G1 X103.417 Y89.364 E12.74832
G1 X101.146 Y91.636 E12.96374
G1 X101.906 Y91.636 E13.01474
G1 X104.177 Y89.364 E13.23016
G1 X104.938 Y89.364 E13.28116
G1 X102.667 Y91.636 E13.49657
G1 X103.427 Y91.636 E13.54757
G1 X105.698 Y89.364 E13.76299
G1 X106.459 Y89.364 E13.81399
G1 X104.188 Y91.636 E14.02941
G1 X104.948 Y91.636 E14.08041
G1 X107.219 Y89.364 E14.29582
G1 X107.980 Y89.364 E14.34682
G1 X105.708 Y91.636 E14.56224
G1 X106.469 Y91.636 E14.61324
G1 X108.740 Y89.364 E14.82865
G1 X109.501 Y89.364 E14.87966
G1 X107.229 Y91.636 E15.09507
G1 X107.990 Y91.636 E15.14607
G1 X110.261 Y89.364 E15.36149
G1 X111.021 Y89.364 E15.41249
G1 X108.750 Y91.636 E15.62790
G1 X109.511 Y91.636 E15.67890
G1 X111.782 Y89.364 E15.89432
G1 X112.542 Y89.364 E15.94532
G1 X110.271 Y91.636 E16.16074
G1 X111.032 Y91.636 E16.21174
G1 X113.303 Y89.364 E16.42715
G1 X114.063 Y89.364 E16.47815
G1 X111.792 Y91.636 E16.69357
G1 X112.552 Y91.636 E16.74457
G1 X114.824 Y89.364 E16.95999
G1 X115.584 Y89.364 E17.01099
G1 X113.313 Y91.636 E17.22640
G1 X114.073 Y91.636 E17.27740
G1 X116.345 Y89.364 E17.49282
G1 X117.105 Y89.364 E17.54382
G1 X114.834 Y91.636 E17.75924
G1 X115.594 Y91.636 E17.81024
G1 X117.865 Y89.364 E18.02565
G1 X118.626 Y89.364 E18.07665
G1 X116.355 Y91.636 E18.29207
G1 X117.115 Y91.636 E18.34307
G1 X119.386 Y89.364 E18.55848
G1 X120.147 Y89.364 E18.60949
G1 X117.876 Y91.636 E18.82490
G1 X118.636 Y91.636 E18.87590
G1 X120.907 Y89.364 E19.09132
G1 X121.668 Y89.364 E19.14232
G1 X119.396 Y91.636 E19.35773
G1 X120.157 Y91.636 E19.40873
G1 X122.428 Y89.364 E19.62415
G1 X123.189 Y89.364 E19.67515
G1 X120.917 Y91.636 E19.89057
G1 X121.678 Y91.636 E19.94157
G1 X123.949 Y89.364 E20.15698
G1 X124.709 Y89.364 E20.20798
G1 X122.438 Y91.636 E20.42340
G1 X123.199 Y91.636 E20.47440
G1 X125.470 Y89.364 E20.68982
G1 X126.230 Y89.364 E20.74082
G1 X123.959 Y91.636 E20.95623
G1 X124.720 Y91.636 E21.00723
G1 X126.991 Y89.364 E21.22265
G1 X127.751 Y89.364 E21.27365
G1 X125.480 Y91.636 E21.48907
G1 X126.240 Y91.636 E21.54007
G1 X128.512 Y89.364 E21.75548
G1 X128.636 Y89.364 E21.76379
G1 X128.636 Y90.001 E21.80649
G1 X127.001 Y91.636 E21.96153
G1 X127.761 Y91.636 E22.01253
G1 X128.636 Y90.761 E22.09545
G1 X128.636 Y91.522 E22.14645
G1 X128.522 Y91.636 E22.15724
G1 E20.15724 F2400.00000
G92 E0
G1 X81.421 Y91.847 F30000.000
G1 E2.00000 F2400.00000
G1 F2100
G1 X71.415 Y101.853 E2.22722
G1 X71.354 Y101.883 E2.22832
G1 F2100
G1 X71.293 Y101.914 E2.23014
G1 Z0.500 F30000.000
G1 E0.23014 F2400.00000
G92 E0
G1 X88.562 Y92.353 F30000.000
G1 E2.00000 F2400.00000
G1 F6000
G1 X71.853 Y109.062 E2.70162
G1 X71.853 Y102.267 E2.90336
G1 X81.767 Y92.353 E3.31967
G1 X88.502 Y92.353 E3.51964
G1 X87.652 Y92.730 F30000.000
G1 F2100
G1 X72.230 Y108.152 E4.23974
G1 X72.230 Y102.424 E4.42886
G1 X81.924 Y92.730 E4.88150
G1 X87.592 Y92.730 E5.06864
G1 X88.029 Y92.862 F30000.000
G1 X80.062 Y92.353 F30000.000
G1 F1500
G1 X71.853 Y100.562 E5.41335
G1 X71.853 Y92.353 E5.65709
G1 X80.002 Y92.353 E5.89905
G1 X79.152 Y92.730 F30000.000
G1 F1500
G1 X72.230 Y99.652 E6.22226
G1 X72.230 Y92.730 E6.45080
G1 X79.092 Y92.730 E6.67736
G1 X79.538 Y92.834 F30000.000
G1 X70.647 Y88.647 F30000.000
G1 F6000
G1 X129.353 Y88.647 E8.42041
G1 X129.353 Y92.353 E8.53044
G1 X90.267 Y92.353 E9.69094
G1 X71.853 Y110.767 E10.46416
G1 X71.853 Y111.353 E10.48155
G1 X70.647 Y111.353 E10.51735
G1 X70.647 Y88.707 E11.18973
G1 X70.270 Y88.270 F30000.000
G1 F2100
G1 X129.730 Y88.270 E13.15294
G1 X129.730 Y92.730 E13.30020
G1 X90.424 Y92.730 E14.59799
G1 X72.230 Y110.924 E15.44752
G1 X72.230 Y111.730 E15.47414
G1 X70.270 Y111.730 E15.53885
G1 X70.270 Y88.330 E16.31146
G1 X70.622 Y88.460 F30000.000
G1 X81.073 Y92.498 F30000.000
G1 F3600
G1 X80.770 Y92.195 E16.33132
G1 X80.376 Y92.589 E16.35714
G1 X80.679 Y92.892 E16.37700
G1 X80.285 Y93.286 E16.40282
G1 X79.982 Y92.983 E16.42268
G1 X79.588 Y93.377 E16.44850
G1 X79.891 Y93.680 E16.46836
G1 X79.497 Y94.074 E16.49418
G1 X79.194 Y93.771 E16.51404
G1 X78.800 Y94.165 E16.53986
G1 X79.103 Y94.468 E16.55972
G1 X78.709 Y94.862 E16.58554
G1 X78.406 Y94.559 E16.60540
G1 X78.012 Y94.953 E16.63122
G1 X78.315 Y95.256 E16.65108
G1 X77.921 Y95.650 E16.67690
G1 X77.618 Y95.347 E16.69676
G1 X77.224 Y95.741 E16.72257
G1 X77.527 Y96.044 E16.74244
G1 X77.133 Y96.438 E16.76825
G1 X76.830 Y96.135 E16.78812
G1 X76.436 Y96.529 E16.81393
G1 X76.739 Y96.832 E16.83380
G1 X76.345 Y97.226 E16.85961
G1 X76.042 Y96.923 E16.87948
G1 X75.648 Y97.317 E16.90529
G1 X75.951 Y97.620 E16.92516
G1 X75.557 Y98.014 E16.95097
G1 X75.254 Y97.711 E16.97084
G1 X74.860 Y98.105 E16.99665
G1 X75.163 Y98.408 E17.01652
G1 X74.769 Y98.802 E17.04233
G1 X74.466 Y98.499 E17.06220
G1 X74.072 Y98.892 E17.08801
G1 X74.375 Y99.196 E17.10788
G1 X73.981 Y99.590 E17.13369
G1 X73.678 Y99.286 E17.15356
G1 X73.284 Y99.680 E17.17937
G1 X73.587 Y99.984 E17.19924
G1 X73.193 Y100.378 E17.22505
G1 X72.890 Y100.074 E17.24492
G1 X72.496 Y100.468 E17.27073
G1 X72.799 Y100.772 E17.29060
G1 X72.405 Y101.166 E17.31641
G1 X72.102 Y100.862 E17.33628
G1 X71.708 Y101.256 E17.36209
G1 X72.011 Y101.560 E17.38196
G1 X71.617 Y101.954 E17.40777
G1 X71.721 Y109.937 F30000.000
G1 F3600
G1 X71.444 Y110.214 E17.42592
G1 X71.444 Y109.660 E17.45159
G1 X71.056 Y109.271 E17.47706
G1 X71.056 Y108.483 E17.51356
G1 X71.444 Y108.872 E17.53903
G1 X71.444 Y108.084 E17.57554
G1 X71.056 Y107.695 E17.60100
G1 X71.056 Y106.907 E17.63751
G1 X71.444 Y107.296 E17.66297
G1 X71.444 Y106.508 E17.69948
G1 X71.056 Y106.119 E17.72494
G1 X71.056 Y105.332 E17.76145
G1 X71.444 Y105.720 E17.78691
G1 X71.444 Y104.932 E17.82342
G1 X71.056 Y104.544 E17.84889
G1 X71.056 Y103.756 E17.88539
G1 X71.444 Y104.144 E17.91086
G1 X71.444 Y103.356 E17.94736
G1 X71.056 Y102.968 E17.97283
G1 X71.056 Y102.180 E18.00933
G1 X71.444 Y102.568 E18.03480
G1 X71.444 Y102.127 E18.05527
G1 X71.617 Y101.954 E18.06661
G1 X71.056 Y101.392 E18.10341
G1 X71.056 Y100.604 E18.13992
G1 X71.444 Y100.993 E18.16538
G1 X71.444 Y100.205 E18.20189
G1 X71.056 Y99.816 E18.22735
G1 X71.056 Y99.028 E18.26386
G1 X71.444 Y99.417 E18.28933
G1 X71.444 Y98.629 E18.32583
G1 X71.056 Y98.240 E18.35130
G1 X71.056 Y97.452 E18.38780
G1 X71.444 Y97.841 E18.41327
G1 X71.444 Y97.053 E18.44977
G1 X71.056 Y96.664 E18.47524
G1 X71.056 Y95.876 E18.51174
G1 X71.444 Y96.265 E18.53721
G1 X71.444 Y95.477 E18.57371
G1 X71.056 Y95.088 E18.59918
G1 X71.056 Y94.300 E18.63569
G1 X71.444 Y94.689 E18.66115
G1 X71.444 Y93.901 E18.69766
G1 X71.056 Y93.512 E18.72312
G1 X71.056 Y92.724 E18.75963
G1 X71.444 Y93.113 E18.78509
G1 X71.444 Y92.325 E18.82160
G1 X71.056 Y91.936 E18.84706
G1 X71.056 Y91.148 E18.88357
G1 X71.852 Y91.944 E18.93572
G1 X72.640 Y91.944 E18.97222
G1 X71.056 Y90.360 E19.07600
G1 X71.056 Y89.572 E19.11250
