; generated by Slic3r 1.3.0 on 2021-01-01 at 19:59:15

; external perimeters extrusion width = 0.44mm (2.78mm^3/s)
; perimeters extrusion width = 0.40mm (7.14mm^3/s)
; infill extrusion width = 0.50mm (10.97mm^3/s)
; solid infill extrusion width = 0.60mm (6.68mm^3/s)
; top infill extrusion width = 0.40mm (2.14mm^3/s)

M107
M190 S80 ; set bed temperature and wait for it to be reached
M104 S210 ; set temperature
G28 ; home all axes
G1 Z5 F5000 ; lift nozzle

; Filament gcode

M109 S210 ; set temperature and wait for it to be reached
G21 ; set units to millimeters
G90 ; use absolute coordinates
M82 ; use absolute distances for extrusion
G92 E0
G1 Z0.300 F30000.000
G1 E-2.00000 F2400.00000
G92 E0
G1 X29.601 Y36.558 F30000.000
G1 E2.00000 F2400.00000
G1 F2100
G1 X31.314 Y35.307 E2.14175
G1 X33.748 Y34.758 E2.30845
G1 X53.648 Y34.758 E3.63788
G1 X55.733 Y35.155 E3.77963
G1 X57.526 Y36.289 E3.92139
G1 X58.778 Y38.002 E4.06314
G1 X59.326 Y40.436 E4.22984
G1 X59.326 Y60.336 E5.55927
G1 X58.930 Y62.421 E5.70102
G1 X57.796 Y64.214 E5.84278
G1 X56.083 Y65.466 E5.98453
G1 X53.648 Y66.014 E6.15123
G1 X33.748 Y66.014 E7.48066
G1 X31.664 Y65.618 E7.62241
G1 X29.870 Y64.484 E7.76417
G1 X28.619 Y62.771 E7.90592
G1 X28.070 Y60.336 E8.07262
G1 X28.070 Y40.436 E9.40204
G1 X28.467 Y38.352 E9.54380
G1 X29.569 Y36.609 E9.68155
G1 X30.129 Y36.783 F30000.000
G1 F2100
G1 X31.814 Y35.671 E9.81639
G1 X33.748 Y35.294 E9.94804
G1 X53.648 Y35.294 E11.27747
G1 X55.627 Y35.690 E11.41231
G1 X57.302 Y36.817 E11.54715
G1 X58.413 Y38.502 E11.68199
G1 X58.791 Y40.436 E11.81365
G1 X58.791 Y60.336 E13.14308
G1 X58.395 Y62.315 E13.27792
G1 X57.267 Y63.990 E13.41276
G1 X55.583 Y65.101 E13.54760
G1 X53.648 Y65.479 E13.67925
G1 X33.748 Y65.479 E15.00868
G1 X31.769 Y65.083 E15.14352
G1 X30.095 Y63.955 E15.27836
G1 X28.983 Y62.271 E15.41320
G1 X28.606 Y60.336 E15.54486
G1 X28.606 Y40.436 E16.87429
G1 X29.002 Y38.457 E17.00913
G1 X30.096 Y36.833 E17.13996
G1 X30.656 Y37.021 F30000.000
G1 F2100
G1 X32.306 Y36.061 E17.26751
G1 X33.748 Y35.829 E17.36508
G1 X53.648 Y35.829 E18.69451
G1 X55.516 Y36.225 E18.82206
G1 X57.063 Y37.344 E18.94961
G1 X58.024 Y38.994 E19.07717
G1 X58.255 Y40.436 E19.17474
G1 X58.255 Y60.336 E20.50416
G1 X57.860 Y62.204 E20.63172
G1 X56.741 Y63.751 E20.75927
G1 X55.090 Y64.712 E20.88682
G1 X53.648 Y64.943 E20.98439
G1 X33.748 Y64.943 E22.31382
G1 X31.880 Y64.548 E22.44137
G1 X30.333 Y63.429 E22.56892
G1 X29.373 Y61.778 E22.69648
G1 X29.141 Y60.336 E22.79404
G1 X29.141 Y40.436 E24.12347
G1 X29.537 Y38.568 E24.25102
G1 X30.621 Y37.070 E24.37457
G1 X31.181 Y37.277 F30000.000
G1 F2100
G1 X32.788 Y36.480 E24.49439
G1 X33.748 Y36.365 E24.55903
G1 X53.648 Y36.365 E25.88845
G1 X55.398 Y36.760 E26.00828
G1 X56.808 Y37.869 E26.12810
G1 X57.605 Y39.476 E26.24792
G1 X57.720 Y40.436 E26.31255
G1 X57.720 Y60.336 E27.64198
G1 X57.324 Y62.086 E27.76180
G1 X56.216 Y63.496 E27.88163
G1 X54.609 Y64.293 E28.00145
G1 X53.648 Y64.408 E28.06608
G1 X33.748 Y64.408 E29.39551
G1 X31.999 Y64.012 E29.51533
G1 X30.589 Y62.904 E29.63515
G1 X29.792 Y61.297 E29.75498
G1 X29.677 Y60.336 E29.81961
G1 X29.677 Y40.436 E31.14904
G1 X30.072 Y38.687 E31.26886
G1 X31.144 Y37.324 E31.38468
G1 X31.702 Y37.553 F30000.000
G1 F2100
G1 X33.748 Y36.901 E31.52815
G1 X53.648 Y36.901 E32.85758
G1 X55.271 Y37.295 E32.96914
G1 X56.532 Y38.390 E33.08069
G1 X57.184 Y40.436 E33.22417
G1 X57.184 Y60.336 E34.55360
G1 X56.790 Y61.959 E34.66515
G1 X55.695 Y63.220 E34.77671
G1 X53.648 Y63.872 E34.92018
G1 X33.748 Y63.872 E36.24961
G1 X32.126 Y63.478 E36.36117
G1 X30.865 Y62.383 E36.47273
G1 X30.213 Y60.336 E36.61620
G1 X30.213 Y40.436 E37.94563
G1 X30.607 Y38.814 E38.05719
G1 X31.663 Y37.598 E38.16474
G1 X32.223 Y38.074 F30000.000
G1 F2100
G1 X32.610 Y37.687 E38.20566
G1 X54.787 Y37.687 E39.86533
G1 X56.398 Y39.297 E40.03578
G1 X56.398 Y61.475 E41.69546
G1 X54.787 Y63.086 E41.86591
G1 X32.610 Y63.086 E43.52558
G1 X30.999 Y61.475 E43.69603
G1 X30.999 Y39.297 E45.35570
G1 X32.180 Y38.116 E45.48073
G1 X32.647 Y38.498 F30000.000
G1 F2100
G1 X32.858 Y38.287 E45.50306
G1 X54.539 Y38.287 E47.12553
G1 X55.798 Y39.546 E47.25879
G1 X55.798 Y61.227 E48.88126
G1 X54.539 Y62.486 E49.01451
G1 X32.858 Y62.486 E50.63699
G1 X31.599 Y61.227 E50.77024
G1 X31.599 Y39.546 E52.39272
G1 X32.605 Y38.540 E52.49915
G1 X33.071 Y38.922 F30000.000
G1 F2100
G1 X33.107 Y38.887 E52.50288
G1 X54.290 Y38.887 E54.08816
G1 X55.198 Y39.795 E54.18421
G1 X55.198 Y60.978 E55.76949
G1 X54.290 Y61.886 E55.86554
G1 X33.107 Y61.886 E57.45082
G1 X32.199 Y60.978 E57.54687
G1 X32.199 Y39.795 E59.13215
G1 X33.029 Y38.965 E59.21999
G1 X33.355 Y39.487 F30000.000
G1 F2100
G1 X54.042 Y39.487 E60.76807
G1 X54.598 Y40.043 E60.82692
G1 X54.598 Y60.730 E62.37500
G1 X54.042 Y61.286 E62.43386
G1 X33.355 Y61.286 E63.98194
G1 X32.799 Y60.730 E64.04080
G1 X32.799 Y40.043 E65.58888
G1 X33.313 Y39.529 E65.64325
G1 X33.604 Y40.087 F30000.000
G1 F2100
G1 X53.793 Y40.087 E67.15413
G1 X53.998 Y40.292 E67.17579
G1 X53.998 Y60.481 E68.68667
G1 X53.793 Y60.686 E68.70833
G1 X33.604 Y60.686 E70.21921
G1 X33.399 Y60.481 E70.24087
G1 X33.399 Y40.292 E71.75176
G1 X33.561 Y40.129 E71.76893
G1 E69.76893 F2400.00000
G92 E0
G1 X53.348 Y60.036 F30000.000
G1 E2.00000 F2400.00000
G1 F2100
G1 X34.048 Y60.036 E3.28934
G1 X34.048 Y40.736 E4.57869
G1 X53.348 Y40.736 E5.86803
G1 X53.348 Y59.976 E7.15337
G1 X52.962 Y59.933 F30000.000
G1 X52.813 Y59.501 F30000.000
G1 F2100
G1 X34.584 Y59.501 E8.37115
G1 X34.584 Y41.272 E9.58893
G1 X52.813 Y41.272 E10.80671
G1 X52.813 Y59.441 E12.02048
G1 X52.220 Y59.022 F30000.000
G1 F2100
G1 X52.334 Y58.908 E12.03130
G1 X52.334 Y58.146 E12.08258
G1 X51.458 Y59.022 E12.16593
G1 X50.695 Y59.022 E12.21721
G1 X52.334 Y57.383 E12.37308
G1 X52.334 Y56.621 E12.42437
G1 X49.933 Y59.022 E12.65277
G1 X49.170 Y59.022 E12.70405
G1 X52.334 Y55.858 E13.00497
G1 X52.334 Y55.095 E13.05626
G1 X48.407 Y59.022 E13.42971
G1 X47.645 Y59.022 E13.48099
G1 X52.334 Y54.333 E13.92696
G1 X52.334 Y53.570 E13.97825
G1 X46.882 Y59.022 E14.49675
G1 X46.120 Y59.022 E14.54803
G1 X52.334 Y52.808 E15.13906
G1 X52.334 Y52.045 E15.19034
G1 X45.357 Y59.022 E15.85390
G1 X44.595 Y59.022 E15.90518
G1 X52.334 Y51.283 E16.64126
G1 X52.334 Y50.520 E16.69254
G1 X43.832 Y59.022 E17.50115
G1 X43.070 Y59.022 E17.55243
G1 X52.334 Y49.758 E18.43356
G1 X52.334 Y48.995 E18.48484
G1 X42.307 Y59.022 E19.43850
G1 X41.544 Y59.022 E19.48979
G1 X52.334 Y48.232 E20.51597
G1 X52.334 Y47.470 E20.56725
G1 X40.782 Y59.022 E21.66596
G1 X40.019 Y59.022 E21.71724
G1 X52.334 Y46.707 E22.88848
G1 X52.334 Y45.945 E22.93976
G1 X39.257 Y59.022 E24.18352
G1 X38.494 Y59.022 E24.23480
G1 X52.334 Y45.182 E25.55109
G1 X52.334 Y44.420 E25.60237
G1 X37.732 Y59.022 E26.99119
G1 X36.969 Y59.022 E27.04247
G1 X52.334 Y43.657 E28.50381
G1 X52.334 Y42.895 E28.55509
G1 X36.207 Y59.022 E30.08895
G1 X35.444 Y59.022 E30.14024
G1 X52.334 Y42.132 E31.74663
G1 X52.334 Y41.751 E31.77227
G1 X51.953 Y41.751 E31.79791
G1 X35.063 Y58.641 E33.40431
G1 X35.063 Y57.878 E33.45559
G1 X51.190 Y41.751 E34.98946
G1 X50.428 Y41.751 E35.04074
G1 X35.063 Y57.116 E36.50208
G1 X35.063 Y56.353 E36.55337
G1 X49.665 Y41.751 E37.94219
G1 X48.902 Y41.751 E37.99347
G1 X35.063 Y55.590 E39.30976
G1 X35.063 Y54.828 E39.36104
G1 X48.140 Y41.751 E40.60481
G1 X47.377 Y41.751 E40.65609
G1 X35.063 Y54.065 E41.82733
G1 X35.063 Y53.303 E41.87861
G1 X46.615 Y41.751 E42.97733
G1 X45.852 Y41.751 E43.02861
G1 X35.063 Y52.540 E44.05480
G1 X35.063 Y51.778 E44.10608
G1 X45.090 Y41.751 E45.05974
G1 X44.327 Y41.751 E45.11103
G1 X35.063 Y51.015 E45.99216
G1 X35.063 Y50.253 E46.04345
G1 X43.565 Y41.751 E46.85206
G1 X42.802 Y41.751 E46.90334
G1 X35.063 Y49.490 E47.63942
G1 X35.063 Y48.728 E47.69071
G1 X42.040 Y41.751 E48.35427
G1 X41.277 Y41.751 E48.40555
G1 X35.063 Y47.965 E48.99658
G1 X35.063 Y47.202 E49.04787
G1 X40.514 Y41.751 E49.56637
G1 X39.752 Y41.751 E49.61766
G1 X35.063 Y46.440 E50.06364
G1 X35.063 Y45.677 E50.11492
G1 X38.989 Y41.751 E50.48837
G1 X38.227 Y41.751 E50.53966
G1 X35.063 Y44.915 E50.84059
G1 X35.063 Y44.152 E50.89187
G1 X37.464 Y41.751 E51.12027
G1 X36.702 Y41.751 E51.17155
G1 X35.063 Y43.390 E51.32743
G1 X35.063 Y42.627 E51.37872
G1 X35.939 Y41.751 E51.46207
G1 X35.177 Y41.751 E51.51335
G1 X35.063 Y41.864 E51.52416
G1 Z0.500 F30000.000
G1 X53.051 Y59.739 F30000.000
G1 F6000
G1 X34.345 Y59.739 E52.07956
G1 X34.345 Y41.033 E52.63496
G1 X53.051 Y41.033 E53.19036
G1 X53.051 Y59.679 E53.74398
G1 X53.428 Y60.116 F30000.000
G1 F2100
G1 X33.968 Y60.116 E54.38649
G1 X33.968 Y40.656 E55.02901
G1 X53.428 Y40.656 E55.67153
G1 X53.428 Y60.056 E56.31206
G1 X53.042 Y60.013 F30000.000
G1 X52.643 Y41.539 F30000.000
G1 F3600
G1 X52.546 Y41.442 E56.31845
G1 X51.755 Y41.442 E56.35521
G1 X52.643 Y42.330 E56.41359
G1 X52.643 Y43.121 E56.45035
G1 X50.964 Y41.442 E56.56072
G1 X50.173 Y41.442 E56.59748
G1 X52.643 Y43.911 E56.75984
G1 X52.643 Y44.702 E56.79660
G1 X49.383 Y41.442 E57.01095
G1 X48.592 Y41.442 E57.04771
G1 X52.643 Y45.493 E57.31405
G1 X52.643 Y46.284 E57.35081
G1 X47.801 Y41.442 E57.66914
G1 X47.010 Y41.442 E57.70591
G1 X52.643 Y47.074 E58.07623
G1 X52.643 Y47.865 E58.11299
G1 X46.220 Y41.442 E58.53530
G1 X45.429 Y41.442 E58.57206
G1 X52.643 Y48.656 E59.04637
G1 X52.643 Y49.446 E59.08313
G1 X44.638 Y41.442 E59.60942
G1 X43.847 Y41.442 E59.64619
G1 X52.643 Y50.237 E60.22447
G1 X52.643 Y51.028 E60.26123
G1 X43.057 Y41.442 E60.89151
G1 X42.266 Y41.442 E60.92827
G1 X52.643 Y51.819 E61.61054
G1 X52.643 Y52.609 E61.64730
G1 X41.475 Y41.442 E62.38156
G1 X40.685 Y41.442 E62.41832
G1 X52.643 Y53.400 E63.20457
G1 X52.643 Y54.191 E63.24133
G1 X39.894 Y41.442 E64.07957
G1 X39.103 Y41.442 E64.11634
G1 X52.643 Y54.982 E65.00657
G1 X52.643 Y55.772 E65.04333
G1 X38.312 Y41.442 E65.98555
G1 X37.522 Y41.442 E66.02231
G1 X52.643 Y56.563 E67.01652
G1 X52.643 Y57.354 E67.05329
G1 X36.731 Y41.442 E68.09949
G1 X35.940 Y41.442 E68.13625
G1 X52.643 Y58.145 E69.23445
G1 X52.643 Y58.935 E69.27121
G1 X35.149 Y41.442 E70.42139
G1 X34.754 Y41.442 E70.43978
G1 X34.754 Y41.837 E70.45816
G1 X52.247 Y59.331 E71.60834
G1 X51.457 Y59.331 E71.64511
G1 X34.754 Y42.628 E72.74330
G1 X34.754 Y43.419 E72.78007
G1 X50.666 Y59.331 E73.82627
G1 X49.875 Y59.331 E73.86304
G1 X34.754 Y44.210 E74.85725
G1 X34.754 Y45.000 E74.89401
G1 X49.084 Y59.331 E75.83624
G1 X48.294 Y59.331 E75.87300
G1 X34.754 Y45.791 E76.76323
G1 X34.754 Y46.582 E76.79999
G1 X47.503 Y59.331 E77.63824
G1 X46.712 Y59.331 E77.67500
G1 X34.754 Y47.372 E78.46125
G1 X34.754 Y48.163 E78.49801
G1 X45.921 Y59.331 E79.23227
G1 X45.131 Y59.331 E79.26904
G1 X34.754 Y48.954 E79.95131
G1 X34.754 Y49.745 E79.98807
G1 X44.340 Y59.331 E80.61835
G1 X43.549 Y59.331 E80.65511
G1 X34.754 Y50.535 E81.23340
G1 X34.754 Y51.326 E81.27016
G1 X42.758 Y59.331 E81.79646
G1 X41.968 Y59.331 E81.83322
G1 X34.754 Y52.117 E82.30752
G1 X34.754 Y52.908 E82.34429
G1 X41.177 Y59.331 E82.76660
G1 X40.386 Y59.331 E82.80337
G1 X34.754 Y53.698 E83.17369
G1 X34.754 Y54.489 E83.21045
G1 X39.596 Y59.331 E83.52878
G1 X38.805 Y59.331 E83.56555
G1 X34.754 Y55.280 E83.83189
G1 X34.754 Y56.071 E83.86865
G1 X38.014 Y59.331 E84.08300
G1 X37.223 Y59.331 E84.11977
G1 X34.754 Y56.861 E84.28213
G1 X34.754 Y57.652 E84.31889
G1 X36.433 Y59.331 E84.42926
G1 X35.642 Y59.331 E84.46602
G1 X34.754 Y58.443 E84.52440
G1 X34.754 Y59.234 E84.56116
G1 X34.851 Y59.330 E84.56754
G1 Z0.700 F30000.000
G1 X53.051 Y59.739 F30000.000
G1 F6000
G1 X34.345 Y59.739 E85.12294
G1 X34.345 Y41.033 E85.67834
G1 X53.051 Y41.033 E86.23374
G1 X53.051 Y59.679 E86.78736
G1 X53.428 Y60.116 F30000.000
G1 F2100
G1 X33.968 Y60.116 E87.42988
G1 X33.968 Y40.656 E88.07239
G1 X53.428 Y40.656 E88.71491
G1 X53.428 Y60.056 E89.35545
G1 X53.042 Y60.013 F30000.000
G1 X52.546 Y59.331 F30000.000
G1 F3600
G1 X52.643 Y59.234 E89.36183
G1 X52.643 Y58.443 E89.39859
G1 X51.755 Y59.331 E89.45697
G1 X50.964 Y59.331 E89.49373
G1 X52.643 Y57.652 E89.60410
G1 X52.643 Y56.861 E89.64086
G1 X50.173 Y59.331 E89.80322
G1 X49.383 Y59.331 E89.83998
G1 X52.643 Y56.071 E90.05433
G1 X52.643 Y55.280 E90.09109
G1 X48.592 Y59.331 E90.35743
G1 X47.801 Y59.331 E90.39419
G1 X52.643 Y54.489 E90.71252
G1 X52.643 Y53.698 E90.74929
G1 X47.010 Y59.331 E91.11961
G1 X46.220 Y59.331 E91.15637
G1 X52.643 Y52.908 E91.57868
G1 X52.643 Y52.117 E91.61545
G1 X45.429 Y59.331 E92.08975
G1 X44.638 Y59.331 E92.12651
G1 X52.643 Y51.326 E92.65280
G1 X52.643 Y50.535 E92.68957
G1 X43.847 Y59.331 E93.26785
G1 X43.057 Y59.331 E93.30462
G1 X52.643 Y49.745 E93.93489
G1 X52.643 Y48.954 E93.97165
G1 X42.266 Y59.331 E94.65392
G1 X41.475 Y59.331 E94.69068
G1 X52.643 Y48.163 E95.42494
G1 X52.643 Y47.373 E95.46170
G1 X40.685 Y59.331 E96.24795
G1 X39.894 Y59.331 E96.28471
G1 X52.643 Y46.582 E97.12295
G1 X52.643 Y45.791 E97.15972
G1 X39.103 Y59.331 E98.04995
G1 X38.312 Y59.331 E98.08671
G1 X52.643 Y45.000 E99.02893
G1 X52.643 Y44.210 E99.06569
G1 X37.522 Y59.331 E100.05990
G1 X36.731 Y59.331 E100.09667
G1 X52.643 Y43.419 E101.14287
G1 X52.643 Y42.628 E101.17963
G1 X35.940 Y59.331 E102.27783
G1 X35.149 Y59.331 E102.31459
G1 X52.643 Y41.837 E103.46477
G1 X52.643 Y41.442 E103.48316
G1 X52.247 Y41.442 E103.50154
G1 X34.754 Y58.935 E104.65172
G1 X34.754 Y58.145 E104.68849
G1 X51.457 Y41.442 E105.78668
G1 X50.666 Y41.442 E105.82345
G1 X34.754 Y57.354 E106.86965
G1 X34.754 Y56.563 E106.90642
G1 X49.875 Y41.442 E107.90063
G1 X49.084 Y41.442 E107.93739
G1 X34.754 Y55.772 E108.87962
G1 X34.754 Y54.982 E108.91638
G1 X48.294 Y41.442 E109.80661
G1 X47.503 Y41.442 E109.84337
G1 X34.754 Y54.191 E110.68162
G1 X34.754 Y53.400 E110.71838
G1 X46.712 Y41.442 E111.50463
G1 X45.921 Y41.442 E111.54139
G1 X34.754 Y52.609 E112.27565
G1 X34.754 Y51.819 E112.31242
G1 X45.131 Y41.442 E112.99468
G1 X44.340 Y41.442 E113.03145
G1 X34.754 Y51.028 E113.66173
G1 X34.754 Y50.237 E113.69849
G1 X43.549 Y41.442 E114.27678
G1 X42.758 Y41.442 E114.31354
G1 X34.754 Y49.446 E114.83984
G1 X34.754 Y48.656 E114.87660
G1 X41.968 Y41.442 E115.35090
G1 X41.177 Y41.442 E115.38767
G1 X34.754 Y47.865 E115.80998
G1 X34.754 Y47.074 E115.84674
G1 X40.386 Y41.442 E116.21707
G1 X39.596 Y41.442 E116.25383
G1 X34.754 Y46.284 E116.57216
G1 X34.754 Y45.493 E116.60893
G1 X38.805 Y41.442 E116.87527
G1 X38.014 Y41.442 E116.91203
G1 X34.754 Y44.702 E117.12638
G1 X34.754 Y43.911 E117.16314
G1 X37.223 Y41.442 E117.32550
G1 X36.433 Y41.442 E117.36227
G1 X34.754 Y43.121 E117.47264
G1 X34.754 Y42.330 E117.50940
G1 X35.642 Y41.442 E117.56778
G1 X34.851 Y41.442 E117.60454
G1 X34.754 Y41.539 E117.61092
M106 S255
G1 Z0.900 F30000.000
G1 X53.051 Y59.739 F30000.000
G1 F5312.6
G1 X34.345 Y59.739 E118.16632
G1 X34.345 Y41.033 E118.72172
G1 X53.051 Y41.033 E119.27712
G1 X53.051 Y59.679 E119.83074
G1 X53.428 Y60.116 F30000.000
G1 F1859.41
G1 X33.968 Y60.116 E120.47325
G1 X33.968 Y40.656 E121.11577
G1 X53.428 Y40.656 E121.75829
G1 X53.428 Y60.056 E122.39882
G1 X53.042 Y60.013 F30000.000
G1 X52.687 Y43.215 F30000.000
G1 F6375.12
G1 X50.869 Y41.397 E122.49653
G1 X47.637 Y41.397 E122.61937
G1 X52.687 Y46.447 E122.89080
G1 X52.687 Y49.679 E123.01364
G1 X44.405 Y41.397 E123.45878
G1 X41.173 Y41.397 E123.58162
G1 X52.687 Y52.911 E124.20049
G1 X52.687 Y56.143 E124.32333
G1 X37.941 Y41.397 E125.11591
G1 X34.709 Y41.397 E125.23875
G1 X52.687 Y59.375 E126.20505
G1 X49.455 Y59.375 E126.32789
G1 X34.709 Y44.629 E127.12048
G1 X34.709 Y47.861 E127.24331
G1 X46.223 Y59.375 E127.86218
G1 X42.991 Y59.375 E127.98502
G1 X34.709 Y51.093 E128.43017
G1 X34.709 Y54.325 E128.55300
G1 X39.759 Y59.375 E128.82443
G1 X36.527 Y59.375 E128.94727
G1 X34.709 Y57.557 E129.04498
G1 Z1.100 F30000.000
G1 X53.051 Y59.739 F30000.000
G1 F5312.6
G1 X34.345 Y59.739 E129.60038
G1 X34.345 Y41.033 E130.15578
G1 X53.051 Y41.033 E130.71118
G1 X53.051 Y59.679 E131.26480
G1 X53.428 Y60.116 F30000.000
G1 F1859.41
G1 X33.968 Y60.116 E131.90732
G1 X33.968 Y40.656 E132.54983
G1 X53.428 Y40.656 E133.19235
G1 X53.428 Y60.056 E133.83289
G1 X53.042 Y60.013 F30000.000
G1 X50.869 Y59.375 F30000.000
G1 F6375.12
G1 X52.687 Y57.557 E133.93060
G1 X52.687 Y54.325 E134.05343
G1 X47.637 Y59.375 E134.32486
