; generated by Slic3r 1.3.0 on 2021-01-01 at 20:06:21

; external perimeters extrusion width = 0.44mm (2.78mm^3/s)
; perimeters extrusion width = 0.40mm (7.14mm^3/s)
; infill extrusion width = 0.50mm (10.97mm^3/s)
; solid infill extrusion width = 0.60mm (6.68mm^3/s)
; top infill extrusion width = 0.40mm (2.14mm^3/s)

M107
M190 S80 ; set bed temperature and wait for it to be reached
M104 S210 ; set temperature
G28 ; home all axes
G1 Z5 F5000 ; lift nozzle

; Filament gcode

M109 S210 ; set temperature and wait for it to be reached
G21 ; set units to millimeters
G90 ; use absolute coordinates
M82 ; use absolute distances for extrusion
G92 E0
G1 Z0.300 F30000.000
G1 E-2.00000 F2400.00000
G92 E0
G1 X20.986 Y28.589 F30000.000
G1 E2.00000 F2400.00000
G1 F2100
G1 X22.699 Y27.337 E2.14175
G1 X25.133 Y26.789 E2.30845
G1 X45.033 Y26.789 E3.63788
G1 X47.118 Y27.185 E3.77963
G1 X48.911 Y28.319 E3.92139
G1 X50.163 Y30.032 E4.06314
G1 X50.711 Y32.467 E4.22984
G1 X50.711 Y52.367 E5.55927
G1 X50.315 Y54.451 E5.70102
G1 X49.181 Y56.245 E5.84278
G1 X47.467 Y57.496 E5.98453
G1 X45.033 Y58.045 E6.15123
G1 X25.133 Y58.045 E7.48066
G1 X23.049 Y57.648 E7.62241
G1 X21.255 Y56.514 E7.76417
G1 X20.003 Y54.801 E7.90592
G1 X19.455 Y52.367 E8.07262
G1 X19.455 Y32.467 E9.40204
G1 X19.852 Y30.382 E9.54380
G1 X20.954 Y28.639 E9.68155
G1 X21.514 Y28.813 F30000.000
G1 F2100
G1 X23.199 Y27.702 E9.81639
G1 X25.133 Y27.324 E9.94804
G1 X45.033 Y27.324 E11.27747
G1 X47.012 Y27.720 E11.41231
G1 X48.687 Y28.848 E11.54715
G1 X49.798 Y30.532 E11.68199
G1 X50.176 Y32.467 E11.81365
G1 X50.176 Y52.367 E13.14308
G1 X49.779 Y54.346 E13.27792
G1 X48.652 Y56.020 E13.41276
G1 X46.967 Y57.132 E13.54760
G1 X45.033 Y57.509 E13.67925
G1 X25.133 Y57.509 E15.00868
G1 X23.154 Y57.113 E15.14352
G1 X21.480 Y55.986 E15.27836
G1 X20.368 Y54.301 E15.41320
G1 X19.991 Y52.367 E15.54486
G1 X19.991 Y32.467 E16.87429
G1 X20.387 Y30.488 E17.00913
G1 X21.481 Y28.863 E17.13996
G1 X22.041 Y29.052 F30000.000
G1 F2100
G1 X23.691 Y28.091 E17.26751
G1 X25.133 Y27.860 E17.36508
G1 X45.033 Y27.860 E18.69451
G1 X46.901 Y28.255 E18.82206
G1 X48.448 Y29.374 E18.94961
G1 X49.408 Y31.025 E19.07717
G1 X49.640 Y32.467 E19.17474
G1 X49.640 Y52.367 E20.50416
G1 X49.244 Y54.235 E20.63172
G1 X48.125 Y55.782 E20.75927
G1 X46.475 Y56.742 E20.88682
G1 X45.033 Y56.974 E20.98439
G1 X25.133 Y56.974 E22.31382
G1 X23.265 Y56.578 E22.44137
G1 X21.718 Y55.459 E22.56892
G1 X20.758 Y53.809 E22.69648
G1 X20.526 Y52.367 E22.79404
G1 X20.526 Y32.467 E24.12347
G1 X20.922 Y30.599 E24.25102
G1 X22.006 Y29.100 E24.37457
G1 X22.566 Y29.307 F30000.000
G1 F2100
G1 X24.172 Y28.510 E24.49439
G1 X25.133 Y28.395 E24.55903
G1 X45.033 Y28.395 E25.88845
G1 X46.783 Y28.791 E26.00828
G1 X48.193 Y29.899 E26.12810
G1 X48.989 Y31.506 E26.24792
G1 X49.104 Y32.467 E26.31255
G1 X49.104 Y52.367 E27.64198
G1 X48.709 Y54.116 E27.76180
G1 X47.601 Y55.526 E27.88163
G1 X45.994 Y56.323 E28.00145
G1 X45.033 Y56.438 E28.06608
G1 X25.133 Y56.438 E29.39551
G1 X23.384 Y56.043 E29.51533
G1 X21.974 Y54.934 E29.63515
G1 X21.177 Y53.327 E29.75498
G1 X21.062 Y52.367 E29.81961
G1 X21.062 Y32.467 E31.14904
G1 X21.457 Y30.717 E31.26886
G1 X22.528 Y29.354 E31.38468
G1 X23.087 Y29.583 F30000.000
G1 F2100
G1 X25.133 Y28.931 E31.52815
G1 X45.033 Y28.931 E32.85758
G1 X46.656 Y29.325 E32.96914
G1 X47.916 Y30.420 E33.08069
G1 X48.569 Y32.467 E33.22417
G1 X48.569 Y52.367 E34.55360
G1 X48.174 Y53.989 E34.66515
G1 X47.079 Y55.250 E34.77671
G1 X45.033 Y55.902 E34.92018
G1 X25.133 Y55.902 E36.24961
G1 X23.510 Y55.508 E36.36117
G1 X22.250 Y54.413 E36.47273
G1 X21.598 Y52.367 E36.61620
G1 X21.598 Y32.467 E37.94563
G1 X21.992 Y30.844 E38.05719
G1 X23.048 Y29.629 E38.16474
G1 X23.608 Y30.104 F30000.000
G1 F2100
G1 X23.994 Y29.717 E38.20566
G1 X46.172 Y29.717 E39.86533
G1 X47.783 Y31.328 E40.03578
G1 X47.783 Y53.506 E41.69546
G1 X46.172 Y55.116 E41.86591
G1 X23.994 Y55.116 E43.52558
G1 X22.384 Y53.506 E43.69603
G1 X22.384 Y31.328 E45.35570
G1 X23.565 Y30.146 E45.48073
G1 X24.032 Y30.528 F30000.000
G1 F2100
G1 X24.243 Y30.317 E45.50306
G1 X45.923 Y30.317 E47.12553
G1 X47.183 Y31.576 E47.25879
G1 X47.183 Y53.257 E48.88126
G1 X45.923 Y54.516 E49.01451
G1 X24.243 Y54.516 E50.63699
G1 X22.984 Y53.257 E50.77024
G1 X22.984 Y31.576 E52.39272
G1 X23.989 Y30.571 E52.49915
G1 X24.456 Y30.953 F30000.000
G1 F2100
G1 X24.491 Y30.917 E52.50288
G1 X45.675 Y30.917 E54.08816
G1 X46.583 Y31.825 E54.18421
G1 X46.583 Y53.008 E55.76949
G1 X45.675 Y53.916 E55.86554
G1 X24.491 Y53.916 E57.45082
G1 X23.584 Y53.008 E57.54687
G1 X23.584 Y31.825 E59.13215
G1 X24.414 Y30.995 E59.21999
G1 X24.740 Y31.517 F30000.000
G1 F2100
G1 X45.426 Y31.517 E60.76807
G1 X45.983 Y32.073 E60.82692
G1 X45.983 Y52.760 E62.37500
G1 X45.426 Y53.316 E62.43386
G1 X24.740 Y53.316 E63.98194
G1 X24.184 Y52.760 E64.04080
G1 X24.184 Y32.073 E65.58888
G1 X24.697 Y31.560 E65.64325
G1 X24.988 Y32.117 F30000.000
G1 F2100
G1 X45.178 Y32.117 E67.15413
G1 X45.383 Y32.322 E67.17579
G1 X45.383 Y52.511 E68.68667
G1 X45.178 Y52.716 E68.70833
G1 X24.988 Y52.716 E70.21921
G1 X24.784 Y52.511 E70.24087
G1 X24.784 Y32.322 E71.75176
G1 X24.946 Y32.160 E71.76893
G1 E69.76893 F2400.00000
G92 E0
G1 X44.733 Y52.067 F30000.000
G1 E2.00000 F2400.00000
G1 F2100
G1 X25.433 Y52.067 E3.28934
G1 X25.433 Y32.767 E4.57869
G1 X44.733 Y32.767 E5.86803
G1 X44.733 Y52.007 E7.15337
G1 X44.347 Y51.963 F30000.000
G1 X44.198 Y51.531 F30000.000
G1 F2100
G1 X25.969 Y51.531 E8.37115
G1 X25.969 Y33.302 E9.58893
G1 X44.198 Y33.302 E10.80671
G1 X44.198 Y51.471 E12.02048
G1 X43.605 Y51.052 F30000.000
G1 F2100
G1 X43.719 Y50.939 E12.03130
G1 X43.719 Y50.176 E12.08258
G1 X42.842 Y51.052 E12.16593
G1 X42.080 Y51.052 E12.21721
G1 X43.719 Y49.413 E12.37308
G1 X43.719 Y48.651 E12.42437
G1 X41.317 Y51.052 E12.65277
G1 X40.555 Y51.052 E12.70405
G1 X43.719 Y47.888 E13.00497
G1 X43.719 Y47.126 E13.05626
G1 X39.792 Y51.052 E13.42971
G1 X39.030 Y51.052 E13.48099
G1 X43.719 Y46.363 E13.92696
G1 X43.719 Y45.601 E13.97825
G1 X38.267 Y51.052 E14.49675
G1 X37.505 Y51.052 E14.54803
G1 X43.719 Y44.838 E15.13906
G1 X43.719 Y44.076 E15.19034
G1 X36.742 Y51.052 E15.85390
G1 X35.979 Y51.052 E15.90518
G1 X43.719 Y43.313 E16.64126
G1 X43.719 Y42.550 E16.69254
G1 X35.217 Y51.052 E17.50115
G1 X34.454 Y51.052 E17.55243
G1 X43.719 Y41.788 E18.43356
G1 X43.719 Y41.025 E18.48484
G1 X33.692 Y51.052 E19.43850
G1 X32.929 Y51.052 E19.48979
G1 X43.719 Y40.263 E20.51597
G1 X43.719 Y39.500 E20.56725
G1 X32.167 Y51.052 E21.66596
G1 X31.404 Y51.052 E21.71724
G1 X43.719 Y38.738 E22.88848
G1 X43.719 Y37.975 E22.93976
G1 X30.642 Y51.052 E24.18352
G1 X29.879 Y51.052 E24.23480
G1 X43.719 Y37.213 E25.55109
G1 X43.719 Y36.450 E25.60237
G1 X29.116 Y51.052 E26.99119
G1 X28.354 Y51.052 E27.04247
G1 X43.719 Y35.687 E28.50381
G1 X43.719 Y34.925 E28.55509
G1 X27.591 Y51.052 E30.08895
G1 X26.829 Y51.052 E30.14024
G1 X43.719 Y34.162 E31.74663
G1 X43.719 Y33.781 E31.77227
G1 X43.337 Y33.781 E31.79791
G1 X26.448 Y50.671 E33.40431
G1 X26.448 Y49.908 E33.45559
G1 X42.575 Y33.781 E34.98946
G1 X41.812 Y33.781 E35.04074
G1 X26.448 Y49.146 E36.50208
G1 X26.448 Y48.383 E36.55337
G1 X41.050 Y33.781 E37.94219
G1 X40.287 Y33.781 E37.99347
G1 X26.448 Y47.621 E39.30976
G1 X26.448 Y46.858 E39.36104
G1 X39.525 Y33.781 E40.60481
G1 X38.762 Y33.781 E40.65609
G1 X26.448 Y46.096 E41.82733
G1 X26.448 Y45.333 E41.87861
G1 X38.000 Y33.781 E42.97733
G1 X37.237 Y33.781 E43.02861
G1 X26.448 Y44.571 E44.05480
G1 X26.448 Y43.808 E44.10608
G1 X36.475 Y33.781 E45.05974
G1 X35.712 Y33.781 E45.11103
G1 X26.448 Y43.046 E45.99216
G1 X26.448 Y42.283 E46.04345
G1 X34.949 Y33.781 E46.85206
G1 X34.187 Y33.781 E46.90334
G1 X26.448 Y41.520 E47.63942
G1 X26.448 Y40.758 E47.69071
G1 X33.424 Y33.781 E48.35427
G1 X32.662 Y33.781 E48.40555
G1 X26.448 Y39.995 E48.99658
G1 X26.448 Y39.233 E49.04787
G1 X31.899 Y33.781 E49.56637
G1 X31.137 Y33.781 E49.61766
G1 X26.448 Y38.470 E50.06364
G1 X26.448 Y37.708 E50.11492
G1 X30.374 Y33.781 E50.48837
G1 X29.612 Y33.781 E50.53966
G1 X26.448 Y36.945 E50.84059
G1 X26.448 Y36.183 E50.89187
G1 X28.849 Y33.781 E51.12027
G1 X28.086 Y33.781 E51.17155
G1 X26.448 Y35.420 E51.32743
G1 X26.448 Y34.657 E51.37872
G1 X27.324 Y33.781 E51.46207
G1 X26.561 Y33.781 E51.51335
G1 X26.448 Y33.895 E51.52416
G1 Z0.500 F30000.000
G1 X44.436 Y51.770 F30000.000
G1 F6000
G1 X25.730 Y51.770 E52.07956
G1 X25.730 Y33.064 E52.63496
G1 X44.436 Y33.064 E53.19036
G1 X44.436 Y51.710 E53.74398
G1 X44.813 Y52.147 F30000.000
G1 F2100
G1 X25.353 Y52.147 E54.38649
G1 X25.353 Y32.687 E55.02901
G1 X44.813 Y32.687 E55.67153
G1 X44.813 Y52.087 E56.31206
G1 X44.427 Y52.043 F30000.000
G1 X44.027 Y33.569 F30000.000
G1 F3600
G1 X43.930 Y33.472 E56.31845
G1 X43.140 Y33.472 E56.35521
G1 X44.027 Y34.360 E56.41359
G1 X44.027 Y35.151 E56.45035
G1 X42.349 Y33.472 E56.56072
G1 X41.558 Y33.472 E56.59748
G1 X44.027 Y35.942 E56.75984
G1 X44.027 Y36.732 E56.79660
G1 X40.767 Y33.472 E57.01095
G1 X39.977 Y33.472 E57.04771
G1 X44.027 Y37.523 E57.31405
G1 X44.027 Y38.314 E57.35081
G1 X39.186 Y33.472 E57.66914
G1 X38.395 Y33.472 E57.70591
G1 X44.027 Y39.105 E58.07623
G1 X44.027 Y39.895 E58.11299
G1 X37.604 Y33.472 E58.53530
G1 X36.814 Y33.472 E58.57206
G1 X44.027 Y40.686 E59.04637
G1 X44.027 Y41.477 E59.08313
G1 X36.023 Y33.472 E59.60942
G1 X35.232 Y33.472 E59.64619
G1 X44.027 Y42.268 E60.22447
G1 X44.027 Y43.058 E60.26123
G1 X34.442 Y33.472 E60.89151
G1 X33.651 Y33.472 E60.92827
G1 X44.027 Y43.849 E61.61054
G1 X44.027 Y44.640 E61.64730
G1 X32.860 Y33.472 E62.38156
G1 X32.069 Y33.472 E62.41832
G1 X44.027 Y45.430 E63.20457
G1 X44.027 Y46.221 E63.24133
G1 X31.279 Y33.472 E64.07957
G1 X30.488 Y33.472 E64.11634
G1 X44.027 Y47.012 E65.00657
G1 X44.027 Y47.803 E65.04333
G1 X29.697 Y33.472 E65.98555
G1 X28.906 Y33.472 E66.02231
G1 X44.027 Y48.593 E67.01652
G1 X44.027 Y49.384 E67.05329
G1 X28.116 Y33.472 E68.09949
G1 X27.325 Y33.472 E68.13625
G1 X44.027 Y50.175 E69.23445
G1 X44.027 Y50.966 E69.27121
G1 X26.534 Y33.472 E70.42139
G1 X26.139 Y33.472 E70.43978
G1 X26.139 Y33.868 E70.45816
G1 X43.632 Y51.361 E71.60834
G1 X42.841 Y51.361 E71.64511
G1 X26.139 Y34.658 E72.74330
G1 X26.139 Y35.449 E72.78007
G1 X42.051 Y51.361 E73.82627
G1 X41.260 Y51.361 E73.86304
G1 X26.139 Y36.240 E74.85725
G1 X26.139 Y37.031 E74.89401
G1 X40.469 Y51.361 E75.83624
G1 X39.678 Y51.361 E75.87300
G1 X26.139 Y37.821 E76.76323
G1 X26.139 Y38.612 E76.79999
G1 X38.888 Y51.361 E77.63824
G1 X38.097 Y51.361 E77.67500
G1 X26.139 Y39.403 E78.46125
G1 X26.139 Y40.194 E78.49801
G1 X37.306 Y51.361 E79.23227
G1 X36.516 Y51.361 E79.26904
G1 X26.139 Y40.984 E79.95131
G1 X26.139 Y41.775 E79.98807
G1 X35.725 Y51.361 E80.61835
G1 X34.934 Y51.361 E80.65511
G1 X26.139 Y42.566 E81.23340
G1 X26.139 Y43.357 E81.27016
G1 X34.143 Y51.361 E81.79646
G1 X33.353 Y51.361 E81.83322
G1 X26.139 Y44.147 E82.30752
G1 X26.139 Y44.938 E82.34429
G1 X32.562 Y51.361 E82.76660
G1 X31.771 Y51.361 E82.80337
G1 X26.139 Y45.729 E83.17369
G1 X26.139 Y46.519 E83.21045
G1 X30.980 Y51.361 E83.52878
G1 X30.190 Y51.361 E83.56555
G1 X26.139 Y47.310 E83.83189
G1 X26.139 Y48.101 E83.86865
G1 X29.399 Y51.361 E84.08300
G1 X28.608 Y51.361 E84.11977
G1 X26.139 Y48.892 E84.28213
G1 X26.139 Y49.682 E84.31889
G1 X27.817 Y51.361 E84.42926
G1 X27.027 Y51.361 E84.46602
G1 X26.139 Y50.473 E84.52440
G1 X26.139 Y51.264 E84.56116
G1 X26.236 Y51.361 E84.56754
G1 Z0.700 F30000.000
G1 X44.436 Y51.770 F30000.000
G1 F6000
G1 X25.730 Y51.770 E85.12294
G1 X25.730 Y33.064 E85.67834
G1 X44.436 Y33.064 E86.23374
G1 X44.436 Y51.710 E86.78736
G1 X44.813 Y52.147 F30000.000
G1 F2100
G1 X25.353 Y52.147 E87.42988
G1 X25.353 Y32.687 E88.07239
G1 X44.813 Y32.687 E88.71491
G1 X44.813 Y52.087 E89.35545
G1 X44.427 Y52.043 F30000.000
G1 X43.930 Y51.361 F30000.000
G1 F3600
G1 X44.027 Y51.264 E89.36183
G1 X44.027 Y50.473 E89.39859
G1 X43.140 Y51.361 E89.45697
G1 X42.349 Y51.361 E89.49373
G1 X44.027 Y49.682 E89.60410
G1 X44.027 Y48.892 E89.64086
G1 X41.558 Y51.361 E89.80322
G1 X40.767 Y51.361 E89.83998
G1 X44.027 Y48.101 E90.05433
G1 X44.027 Y47.310 E90.09109
G1 X39.977 Y51.361 E90.35743
G1 X39.186 Y51.361 E90.39419
G1 X44.027 Y46.520 E90.71252
G1 X44.027 Y45.729 E90.74929
G1 X38.395 Y51.361 E91.11961
G1 X37.604 Y51.361 E91.15637
G1 X44.027 Y44.938 E91.57868
G1 X44.027 Y44.147 E91.61545
G1 X36.814 Y51.361 E92.08975
G1 X36.023 Y51.361 E92.12651
G1 X44.027 Y43.357 E92.65280
G1 X44.027 Y42.566 E92.68957
G1 X35.232 Y51.361 E93.26785
G1 X34.442 Y51.361 E93.30462
G1 X44.027 Y41.775 E93.93489
G1 X44.027 Y40.984 E93.97165
G1 X33.651 Y51.361 E94.65392
G1 X32.860 Y51.361 E94.69068
G1 X44.027 Y40.194 E95.42494
G1 X44.027 Y39.403 E95.46170
G1 X32.069 Y51.361 E96.24795
G1 X31.279 Y51.361 E96.28471
G1 X44.027 Y38.612 E97.12295
G1 X44.027 Y37.821 E97.15972
G1 X30.488 Y51.361 E98.04995
G1 X29.697 Y51.361 E98.08671
G1 X44.027 Y37.031 E99.02893
G1 X44.027 Y36.240 E99.06569
G1 X28.906 Y51.361 E100.05990
G1 X28.116 Y51.361 E100.09667
G1 X44.027 Y35.449 E101.14287
G1 X44.027 Y34.658 E101.17963
G1 X27.325 Y51.361 E102.27783
G1 X26.534 Y51.361 E102.31459
G1 X44.027 Y33.868 E103.46477
G1 X44.027 Y33.472 E103.48316
G1 X43.632 Y33.472 E103.50154
G1 X26.139 Y50.966 E104.65172
G1 X26.139 Y50.175 E104.68849
G1 X42.841 Y33.472 E105.78668
G1 X42.051 Y33.472 E105.82345
G1 X26.139 Y49.384 E106.86965
G1 X26.139 Y48.593 E106.90642
G1 X41.260 Y33.472 E107.90063
G1 X40.469 Y33.472 E107.93739
G1 X26.139 Y47.803 E108.87962
G1 X26.139 Y47.012 E108.91638
G1 X39.678 Y33.472 E109.80661
G1 X38.888 Y33.472 E109.84337
G1 X26.139 Y46.221 E110.68162
G1 X26.139 Y45.431 E110.71838
G1 X38.097 Y33.472 E111.50463
G1 X37.306 Y33.472 E111.54139
G1 X26.139 Y44.640 E112.27565
G1 X26.139 Y43.849 E112.31242
G1 X36.516 Y33.472 E112.99468
G1 X35.725 Y33.472 E113.03145
G1 X26.139 Y43.058 E113.66173
G1 X26.139 Y42.268 E113.69849
G1 X34.934 Y33.472 E114.27678
G1 X34.143 Y33.472 E114.31354
G1 X26.139 Y41.477 E114.83984
G1 X26.139 Y40.686 E114.87660
G1 X33.353 Y33.472 E115.35090
G1 X32.562 Y33.472 E115.38767
G1 X26.139 Y39.895 E115.80998
G1 X26.139 Y39.105 E115.84674
G1 X31.771 Y33.472 E116.21707
G1 X30.980 Y33.472 E116.25383
G1 X26.139 Y38.314 E116.57216
G1 X26.139 Y37.523 E116.60893
G1 X30.190 Y33.472 E116.87527
G1 X29.399 Y33.472 E116.91203
G1 X26.139 Y36.732 E117.12638
G1 X26.139 Y35.942 E117.16314
G1 X28.608 Y33.472 E117.32550
G1 X27.817 Y33.472 E117.36227
G1 X26.139 Y35.151 E117.47264
G1 X26.139 Y34.360 E117.50940
G1 X27.027 Y33.472 E117.56778
G1 X26.236 Y33.472 E117.60454
G1 X26.139 Y33.569 E117.61092
M106 S255
G1 Z0.900 F30000.000
G1 X44.436 Y51.770 F30000.000
G1 F5312.6
G1 X25.730 Y51.770 E118.16632
G1 X25.730 Y33.064 E118.72172
G1 X44.436 Y33.064 E119.27712
G1 X44.436 Y51.710 E119.83074
G1 X44.813 Y52.147 F30000.000
G1 F1859.41
G1 X25.353 Y52.147 E120.47325
G1 X25.353 Y32.687 E121.11577
G1 X44.813 Y32.687 E121.75829
G1 X44.813 Y52.087 E122.39882
G1 X44.427 Y52.043 F30000.000
G1 X44.072 Y35.246 F30000.000
G1 F6375.12
G1 X42.254 Y33.428 E122.49653
G1 X39.022 Y33.428 E122.61937
G1 X44.072 Y38.478 E122.89080
G1 X44.072 Y41.710 E123.01364
G1 X35.790 Y33.428 E123.45878
G1 X32.558 Y33.428 E123.58162
G1 X44.072 Y44.942 E124.20049
G1 X44.072 Y48.174 E124.32333
G1 X29.326 Y33.428 E125.11591
G1 X26.094 Y33.428 E125.23875
G1 X44.072 Y51.406 E126.20505
G1 X40.840 Y51.406 E126.32789
G1 X26.094 Y36.660 E127.12048
G1 X26.094 Y39.892 E127.24331
G1 X37.608 Y51.406 E127.86218
G1 X34.376 Y51.406 E127.98502
G1 X26.094 Y43.124 E128.43017
G1 X26.094 Y46.356 E128.55300
G1 X31.144 Y51.406 E128.82443
G1 X27.912 Y51.406 E128.94727
G1 X26.094 Y49.588 E129.04498
G1 Z1.100 F30000.000
G1 X44.436 Y51.770 F30000.000
G1 F5312.6
G1 X25.730 Y51.770 E129.60038
G1 X25.730 Y33.064 E130.15578
G1 X44.436 Y33.064 E130.71118
G1 X44.436 Y51.710 E131.26480
G1 X44.813 Y52.147 F30000.000
G1 F1859.41
G1 X25.353 Y52.147 E131.90732
G1 X25.353 Y32.687 E132.54983
G1 X44.813 Y32.687 E133.19235
G1 X44.813 Y52.087 E133.83289
G1 X44.427 Y52.043 F30000.000
G1 X42.254 Y51.406 F30000.000
G1 F6375.12
G1 X44.072 Y49.588 E133.93060
G1 X44.072 Y46.356 E134.05343
G1 X39.022 Y51.406 E134.32486
