; generated by Slic3r 1.3.0 on 2021-01-01 at 20:14:44

; external perimeters extrusion width = 0.44mm (2.78mm^3/s)
; perimeters extrusion width = 0.40mm (7.14mm^3/s)
; infill extrusion width = 0.50mm (10.97mm^3/s)
; solid infill extrusion width = 0.60mm (6.68mm^3/s)
; top infill extrusion width = 0.40mm (2.14mm^3/s)

M107
M190 S80 ; set bed temperature and wait for it to be reached
M104 S210 ; set temperature
G28 ; home all axes
G1 Z5 F5000 ; lift nozzle

; Filament gcode

M109 S210 ; set temperature and wait for it to be reached
G21 ; set units to millimeters
G90 ; use absolute coordinates
M82 ; use absolute distances for extrusion
G92 E0
G1 Z0.300 F30000.000
G1 E-2.00000 F2400.00000
G92 E0
G1 X35.127 Y46.590 F30000.000
G1 E2.00000 F2400.00000
G1 F2100
G1 X37.561 Y46.042 E2.16670
G1 X57.461 Y46.042 E3.49612
G1 X59.546 Y46.438 E3.63788
G1 X61.339 Y47.572 E3.77963
G1 X62.591 Y49.286 E3.92139
G1 X63.139 Y51.720 E4.08809
G1 X63.139 Y71.620 E5.41751
G1 X62.743 Y73.705 E5.55927
G1 X61.609 Y75.498 E5.70102
G1 X59.895 Y76.750 E5.84278
G1 X57.461 Y77.298 E6.00947
G1 X37.561 Y77.298 E7.33890
G1 X35.477 Y76.902 E7.48066
G1 X33.683 Y75.768 E7.62241
G1 X32.431 Y74.054 E7.76417
G1 X31.883 Y71.620 E7.93086
G1 X31.883 Y51.720 E9.26029
G1 X32.280 Y49.635 E9.40204
G1 X33.414 Y47.842 E9.54380
G1 X35.078 Y46.626 E9.68155
G1 X35.627 Y46.955 F30000.000
G1 F2100
G1 X37.561 Y46.578 E9.81320
G1 X57.461 Y46.578 E11.14263
G1 X59.440 Y46.974 E11.27747
G1 X61.115 Y48.101 E11.41231
G1 X62.226 Y49.786 E11.54715
G1 X62.604 Y51.720 E11.67881
G1 X62.604 Y71.620 E13.00823
G1 X62.208 Y73.599 E13.14308
G1 X61.080 Y75.273 E13.27792
G1 X59.395 Y76.385 E13.41276
G1 X57.461 Y76.762 E13.54441
G1 X37.561 Y76.762 E14.87384
G1 X35.582 Y76.366 E15.00868
G1 X33.908 Y75.239 E15.14352
G1 X32.796 Y73.554 E15.27836
G1 X32.419 Y71.620 E15.41002
G1 X32.419 Y51.720 E16.73945
G1 X32.815 Y49.741 E16.87429
G1 X33.942 Y48.067 E17.00913
G1 X35.577 Y46.988 E17.13996
G1 X36.119 Y47.345 F30000.000
G1 F2100
G1 X37.561 Y47.113 E17.23753
G1 X57.461 Y47.113 E18.56696
G1 X59.329 Y47.509 E18.69451
G1 X60.876 Y48.628 E18.82206
G1 X61.837 Y50.278 E18.94961
G1 X62.068 Y51.720 E19.04718
G1 X62.068 Y71.620 E20.37661
G1 X61.672 Y73.488 E20.50416
G1 X60.553 Y75.035 E20.63172
G1 X58.903 Y75.995 E20.75927
G1 X57.461 Y76.227 E20.85684
G1 X37.561 Y76.227 E22.18626
G1 X35.693 Y75.831 E22.31382
G1 X34.146 Y74.712 E22.44137
G1 X33.186 Y73.062 E22.56892
G1 X32.954 Y71.620 E22.66649
G1 X32.954 Y51.720 E23.99592
G1 X33.350 Y49.852 E24.12347
G1 X34.469 Y48.305 E24.25102
G1 X36.067 Y47.375 E24.37457
G1 X36.601 Y47.764 F30000.000
G1 F2100
G1 X37.561 Y47.649 E24.43920
G1 X57.461 Y47.649 E25.76863
G1 X59.211 Y48.044 E25.88845
G1 X60.621 Y49.152 E26.00828
G1 X61.417 Y50.759 E26.12810
G1 X61.532 Y51.720 E26.19273
G1 X61.532 Y71.620 E27.52216
G1 X61.137 Y73.370 E27.64198
G1 X60.029 Y74.780 E27.76180
G1 X58.422 Y75.576 E27.88163
G1 X57.461 Y75.691 E27.94626
G1 X37.561 Y75.691 E29.27569
G1 X35.812 Y75.296 E29.39551
G1 X34.402 Y74.188 E29.51533
G1 X33.605 Y72.581 E29.63515
G1 X33.490 Y71.620 E29.69979
G1 X33.490 Y51.720 E31.02922
G1 X33.885 Y49.970 E31.14904
G1 X34.994 Y48.560 E31.26886
G1 X36.547 Y47.790 E31.38468
G1 X37.561 Y48.184 F30000.000
G1 F2100
G1 X57.461 Y48.184 E32.71410
G1 X59.084 Y48.579 E32.82566
G1 X60.345 Y49.674 E32.93722
G1 X60.997 Y51.720 E33.08069
G1 X60.997 Y71.620 E34.41012
G1 X60.602 Y73.243 E34.52168
G1 X59.507 Y74.503 E34.63323
G1 X57.461 Y75.156 E34.77671
G1 X37.561 Y75.156 E36.10614
G1 X35.939 Y74.761 E36.21769
G1 X34.678 Y73.666 E36.32925
G1 X34.026 Y71.620 E36.47273
G1 X34.026 Y51.720 E37.80215
G1 X34.420 Y50.097 E37.91371
G1 X35.515 Y48.837 E38.02527
G1 X37.504 Y48.203 E38.16474
G1 X37.561 Y48.971 F30000.000
G1 F2100
G1 X58.600 Y48.971 E39.73918
G1 X60.211 Y50.581 E39.90963
G1 X60.211 Y72.759 E41.56930
G1 X58.600 Y74.369 E41.73975
G1 X36.422 Y74.369 E43.39943
G1 X34.812 Y72.759 E43.56988
G1 X34.812 Y50.581 E45.22955
G1 X36.422 Y48.971 E45.40000
G1 X37.501 Y48.971 E45.48073
G1 X37.561 Y49.571 F30000.000
G1 F2100
G1 X58.352 Y49.571 E47.03658
G1 X59.611 Y50.830 E47.16983
G1 X59.611 Y72.510 E48.79231
G1 X58.352 Y73.769 E48.92556
G1 X36.671 Y73.769 E50.54803
G1 X35.412 Y72.510 E50.68129
G1 X35.412 Y50.830 E52.30376
G1 X36.671 Y49.571 E52.43701
G1 X37.501 Y49.571 E52.49915
G1 X37.561 Y50.171 F30000.000
G1 F2100
G1 X58.103 Y50.171 E54.03640
G1 X59.011 Y51.078 E54.13245
G1 X59.011 Y72.262 E55.71773
G1 X58.103 Y73.169 E55.81379
G1 X36.919 Y73.169 E57.39906
G1 X36.012 Y72.262 E57.49512
G1 X36.012 Y51.078 E59.08039
G1 X36.919 Y50.171 E59.17645
G1 X37.501 Y50.171 E59.21999
G1 X37.561 Y50.771 F30000.000
G1 F2100
G1 X57.854 Y50.771 E60.73864
G1 X58.411 Y51.327 E60.79750
G1 X58.411 Y72.013 E62.34558
G1 X57.854 Y72.569 E62.40443
G1 X37.168 Y72.569 E63.95251
G1 X36.612 Y72.013 E64.01137
G1 X36.612 Y51.327 E65.55945
G1 X37.168 Y50.771 E65.61831
G1 X37.501 Y50.771 E65.64325
G1 X37.561 Y51.371 F30000.000
G1 F2100
G1 X57.606 Y51.371 E67.14330
G1 X57.811 Y51.575 E67.16496
G1 X57.811 Y71.765 E68.67584
G1 X57.606 Y71.969 E68.69750
G1 X37.416 Y71.969 E70.20838
G1 X37.212 Y71.765 E70.23004
G1 X37.212 Y51.575 E71.74093
G1 X37.416 Y51.371 E71.76259
G1 X37.501 Y51.371 E71.76893
G1 E69.76893 F2400.00000
G92 E0
G1 X57.161 Y71.320 F30000.000
G1 E2.00000 F2400.00000
G1 F2100
G1 X37.861 Y71.320 E3.28934
G1 X37.861 Y52.020 E4.57869
G1 X57.161 Y52.020 E5.86803
G1 X57.161 Y71.260 E7.15337
G1 X56.775 Y71.216 F30000.000
G1 X56.626 Y70.784 F30000.000
G1 F2100
G1 X38.397 Y70.784 E8.37115
G1 X38.397 Y52.556 E9.58893
G1 X56.626 Y52.556 E10.80671
G1 X56.626 Y70.724 E12.02048
G1 X56.033 Y70.306 F30000.000
G1 F2100
G1 X56.147 Y70.192 E12.03130
G1 X56.147 Y69.429 E12.08258
G1 X55.270 Y70.306 E12.16593
G1 X54.508 Y70.306 E12.21721
G1 X56.147 Y68.667 E12.37308
G1 X56.147 Y67.904 E12.42437
G1 X53.745 Y70.306 E12.65277
G1 X52.983 Y70.306 E12.70405
G1 X56.147 Y67.142 E13.00497
G1 X56.147 Y66.379 E13.05626
G1 X52.220 Y70.306 E13.42971
G1 X51.458 Y70.306 E13.48099
G1 X56.147 Y65.617 E13.92696
G1 X56.147 Y64.854 E13.97825
G1 X50.695 Y70.306 E14.49675
G1 X49.933 Y70.306 E14.54803
G1 X56.147 Y64.091 E15.13906
G1 X56.147 Y63.329 E15.19034
G1 X49.170 Y70.306 E15.85390
G1 X48.408 Y70.306 E15.90518
G1 X56.147 Y62.566 E16.64126
G1 X56.147 Y61.804 E16.69254
G1 X47.645 Y70.306 E17.50115
G1 X46.882 Y70.306 E17.55243
G1 X56.147 Y61.041 E18.43356
G1 X56.147 Y60.279 E18.48484
G1 X46.120 Y70.306 E19.43850
G1 X45.357 Y70.306 E19.48979
G1 X56.147 Y59.516 E20.51597
G1 X56.147 Y58.754 E20.56725
G1 X44.595 Y70.306 E21.66596
G1 X43.832 Y70.306 E21.71724
G1 X56.147 Y57.991 E22.88848
G1 X56.147 Y57.228 E22.93976
G1 X43.070 Y70.306 E24.18352
G1 X42.307 Y70.306 E24.23480
G1 X56.147 Y56.466 E25.55109
G1 X56.147 Y55.703 E25.60237
G1 X41.545 Y70.306 E26.99119
G1 X40.782 Y70.306 E27.04247
G1 X56.147 Y54.941 E28.50381
G1 X56.147 Y54.178 E28.55509
G1 X40.019 Y70.306 E30.08895
G1 X39.257 Y70.306 E30.14024
G1 X56.147 Y53.416 E31.74663
G1 X56.147 Y53.034 E31.77227
G1 X55.766 Y53.034 E31.79791
G1 X38.876 Y69.924 E33.40431
G1 X38.876 Y69.162 E33.45559
G1 X55.003 Y53.034 E34.98946
G1 X54.240 Y53.034 E35.04074
G1 X38.876 Y68.399 E36.50208
G1 X38.876 Y67.637 E36.55337
G1 X53.478 Y53.034 E37.94219
G1 X52.715 Y53.034 E37.99347
G1 X38.876 Y66.874 E39.30976
G1 X38.876 Y66.112 E39.36104
G1 X51.953 Y53.034 E40.60481
G1 X51.190 Y53.034 E40.65609
G1 X38.876 Y65.349 E41.82733
G1 X38.876 Y64.587 E41.87861
G1 X50.428 Y53.034 E42.97733
G1 X49.665 Y53.034 E43.02861
G1 X38.876 Y63.824 E44.05480
G1 X38.876 Y63.061 E44.10608
G1 X48.903 Y53.034 E45.05974
G1 X48.140 Y53.034 E45.11103
G1 X38.876 Y62.299 E45.99216
G1 X38.876 Y61.536 E46.04345
G1 X47.377 Y53.034 E46.85206
G1 X46.615 Y53.034 E46.90334
G1 X38.876 Y60.774 E47.63942
G1 X38.876 Y60.011 E47.69071
G1 X45.852 Y53.034 E48.35427
G1 X45.090 Y53.034 E48.40555
G1 X38.876 Y59.249 E48.99658
G1 X38.876 Y58.486 E49.04787
G1 X44.327 Y53.034 E49.56637
G1 X43.565 Y53.034 E49.61766
G1 X38.876 Y57.724 E50.06364
G1 X38.876 Y56.961 E50.11492
G1 X42.802 Y53.034 E50.48837
G1 X42.040 Y53.034 E50.53966
G1 X38.876 Y56.198 E50.84059
G1 X38.876 Y55.436 E50.89187
G1 X41.277 Y53.034 E51.12027
G1 X40.515 Y53.034 E51.17155
G1 X38.876 Y54.673 E51.32743
G1 X38.876 Y53.911 E51.37872
G1 X39.752 Y53.034 E51.46207
G1 X38.989 Y53.034 E51.51335
G1 X38.876 Y53.148 E51.52416
G1 Z0.500 F30000.000
G1 X56.864 Y71.023 F30000.000
G1 F6000
G1 X38.158 Y71.023 E52.07956
G1 X38.158 Y52.317 E52.63496
G1 X56.864 Y52.317 E53.19036
G1 X56.864 Y70.963 E53.74398
G1 X57.241 Y71.400 F30000.000
G1 F2100
G1 X37.781 Y71.400 E54.38649
G1 X37.781 Y51.940 E55.02901
G1 X57.241 Y51.940 E55.67153
G1 X57.241 Y71.340 E56.31206
G1 X56.855 Y71.296 F30000.000
G1 X56.456 Y52.823 F30000.000
G1 F3600
G1 X56.358 Y52.726 E56.31845
G1 X55.568 Y52.726 E56.35521
G1 X56.456 Y53.614 E56.41359
G1 X56.456 Y54.404 E56.45035
G1 X54.777 Y52.726 E56.56072
G1 X53.986 Y52.726 E56.59748
G1 X56.456 Y55.195 E56.75984
G1 X56.456 Y55.986 E56.79660
G1 X53.195 Y52.726 E57.01095
G1 X52.405 Y52.726 E57.04771
G1 X56.456 Y56.776 E57.31405
G1 X56.456 Y57.567 E57.35081
G1 X51.614 Y52.726 E57.66914
G1 X50.823 Y52.726 E57.70591
G1 X56.456 Y58.358 E58.07623
G1 X56.456 Y59.149 E58.11299
G1 X50.033 Y52.726 E58.53530
G1 X49.242 Y52.726 E58.57206
G1 X56.456 Y59.939 E59.04637
G1 X56.456 Y60.730 E59.08313
G1 X48.451 Y52.726 E59.60942
G1 X47.660 Y52.726 E59.64619
G1 X56.456 Y61.521 E60.22447
G1 X56.456 Y62.312 E60.26123
G1 X46.870 Y52.726 E60.89151
G1 X46.079 Y52.726 E60.92827
G1 X56.456 Y63.102 E61.61054
G1 X56.456 Y63.893 E61.64730
G1 X45.288 Y52.726 E62.38156
G1 X44.497 Y52.726 E62.41832
G1 X56.456 Y64.684 E63.20457
G1 X56.456 Y65.475 E63.24133
G1 X43.707 Y52.726 E64.07957
G1 X42.916 Y52.726 E64.11634
G1 X56.456 Y66.265 E65.00657
G1 X56.456 Y67.056 E65.04333
G1 X42.125 Y52.726 E65.98555
G1 X41.334 Y52.726 E66.02231
G1 X56.456 Y67.847 E67.01652
G1 X56.456 Y68.637 E67.05329
G1 X40.544 Y52.726 E68.09949
G1 X39.753 Y52.726 E68.13625
G1 X56.456 Y69.428 E69.23445
G1 X56.456 Y70.219 E69.27121
G1 X38.962 Y52.726 E70.42139
G1 X38.567 Y52.726 E70.43978
G1 X38.567 Y53.121 E70.45816
G1 X56.060 Y70.614 E71.60834
G1 X55.269 Y70.614 E71.64511
G1 X38.567 Y53.912 E72.74330
G1 X38.567 Y54.702 E72.78007
G1 X54.479 Y70.614 E73.82627
G1 X53.688 Y70.614 E73.86304
G1 X38.567 Y55.493 E74.85725
G1 X38.567 Y56.284 E74.89401
G1 X52.897 Y70.614 E75.83624
G1 X52.107 Y70.614 E75.87300
G1 X38.567 Y57.075 E76.76323
G1 X38.567 Y57.865 E76.79999
G1 X51.316 Y70.614 E77.63824
G1 X50.525 Y70.614 E77.67500
G1 X38.567 Y58.656 E78.46125
G1 X38.567 Y59.447 E78.49801
G1 X49.734 Y70.614 E79.23227
G1 X48.944 Y70.614 E79.26904
G1 X38.567 Y60.238 E79.95131
G1 X38.567 Y61.028 E79.98807
G1 X48.153 Y70.614 E80.61835
G1 X47.362 Y70.614 E80.65511
G1 X38.567 Y61.819 E81.23340
G1 X38.567 Y62.610 E81.27016
G1 X46.571 Y70.614 E81.79646
G1 X45.781 Y70.614 E81.83322
G1 X38.567 Y63.401 E82.30752
G1 X38.567 Y64.191 E82.34429
G1 X44.990 Y70.614 E82.76660
G1 X44.199 Y70.614 E82.80337
G1 X38.567 Y64.982 E83.17369
G1 X38.567 Y65.773 E83.21045
G1 X43.408 Y70.614 E83.52878
G1 X42.618 Y70.614 E83.56555
G1 X38.567 Y66.564 E83.83189
G1 X38.567 Y67.354 E83.86865
G1 X41.827 Y70.614 E84.08300
G1 X41.036 Y70.614 E84.11977
G1 X38.567 Y68.145 E84.28213
G1 X38.567 Y68.936 E84.31889
G1 X40.245 Y70.614 E84.42926
G1 X39.455 Y70.614 E84.46602
G1 X38.567 Y69.726 E84.52440
G1 X38.567 Y70.517 E84.56116
G1 X38.664 Y70.614 E84.56754
G1 Z0.700 F30000.000
G1 X56.864 Y71.023 F30000.000
G1 F6000
G1 X38.158 Y71.023 E85.12294
G1 X38.158 Y52.317 E85.67834
G1 X56.864 Y52.317 E86.23374
G1 X56.864 Y70.963 E86.78736
G1 X57.241 Y71.400 F30000.000
G1 F2100
G1 X37.781 Y71.400 E87.42988
G1 X37.781 Y51.940 E88.07239
G1 X57.241 Y51.940 E88.71491
G1 X57.241 Y71.340 E89.35545
G1 X56.855 Y71.296 F30000.000
G1 X56.358 Y70.614 F30000.000
G1 F3600
G1 X56.456 Y70.517 E89.36183
G1 X56.456 Y69.727 E89.39859
G1 X55.568 Y70.614 E89.45697
G1 X54.777 Y70.614 E89.49373
G1 X56.456 Y68.936 E89.60410
G1 X56.456 Y68.145 E89.64086
G1 X53.986 Y70.614 E89.80322
G1 X53.195 Y70.614 E89.83998
G1 X56.456 Y67.354 E90.05433
G1 X56.456 Y66.564 E90.09109
G1 X52.405 Y70.614 E90.35743
G1 X51.614 Y70.614 E90.39419
G1 X56.456 Y65.773 E90.71252
G1 X56.456 Y64.982 E90.74929
G1 X50.823 Y70.614 E91.11961
G1 X50.033 Y70.614 E91.15637
G1 X56.456 Y64.191 E91.57868
G1 X56.456 Y63.401 E91.61545
G1 X49.242 Y70.614 E92.08975
G1 X48.451 Y70.614 E92.12651
G1 X56.456 Y62.610 E92.65280
G1 X56.456 Y61.819 E92.68957
G1 X47.660 Y70.614 E93.26785
G1 X46.870 Y70.614 E93.30462
G1 X56.456 Y61.028 E93.93489
G1 X56.456 Y60.238 E93.97165
G1 X46.079 Y70.614 E94.65392
G1 X45.288 Y70.614 E94.69068
G1 X56.456 Y59.447 E95.42494
G1 X56.456 Y58.656 E95.46170
G1 X44.497 Y70.614 E96.24795
G1 X43.707 Y70.614 E96.28471
G1 X56.456 Y57.865 E97.12295
G1 X56.456 Y57.075 E97.15972
G1 X42.916 Y70.614 E98.04995
G1 X42.125 Y70.614 E98.08671
G1 X56.456 Y56.284 E99.02893
G1 X56.456 Y55.493 E99.06569
G1 X41.334 Y70.614 E100.05990
G1 X40.544 Y70.614 E100.09667
G1 X56.456 Y54.703 E101.14287
G1 X56.456 Y53.912 E101.17963
G1 X39.753 Y70.614 E102.27783
G1 X38.962 Y70.614 E102.31459
G1 X56.456 Y53.121 E103.46477
G1 X56.456 Y52.726 E103.48316
G1 X56.060 Y52.726 E103.50154
G1 X38.567 Y70.219 E104.65172
G1 X38.567 Y69.428 E104.68849
G1 X55.269 Y52.726 E105.78668
G1 X54.479 Y52.726 E105.82345
G1 X38.567 Y68.638 E106.86965
G1 X38.567 Y67.847 E106.90642
G1 X53.688 Y52.726 E107.90063
G1 X52.897 Y52.726 E107.93739
G1 X38.567 Y67.056 E108.87962
G1 X38.567 Y66.265 E108.91638
G1 X52.107 Y52.726 E109.80661
G1 X51.316 Y52.726 E109.84337
G1 X38.567 Y65.475 E110.68162
G1 X38.567 Y64.684 E110.71838
G1 X50.525 Y52.726 E111.50463
G1 X49.734 Y52.726 E111.54139
G1 X38.567 Y63.893 E112.27565
G1 X38.567 Y63.102 E112.31242
G1 X48.944 Y52.726 E112.99468
G1 X48.153 Y52.726 E113.03145
G1 X38.567 Y62.312 E113.66173
G1 X38.567 Y61.521 E113.69849
G1 X47.362 Y52.726 E114.27678
G1 X46.571 Y52.726 E114.31354
G1 X38.567 Y60.730 E114.83984
G1 X38.567 Y59.939 E114.87660
G1 X45.781 Y52.726 E115.35090
G1 X44.990 Y52.726 E115.38767
G1 X38.567 Y59.149 E115.80998
G1 X38.567 Y58.358 E115.84674
G1 X44.199 Y52.726 E116.21707
G1 X43.408 Y52.726 E116.25383
G1 X38.567 Y57.567 E116.57216
G1 X38.567 Y56.776 E116.60893
G1 X42.618 Y52.726 E116.87527
G1 X41.827 Y52.726 E116.91203
G1 X38.567 Y55.986 E117.12638
G1 X38.567 Y55.195 E117.16314
G1 X41.036 Y52.726 E117.32550
G1 X40.245 Y52.726 E117.36227
G1 X38.567 Y54.404 E117.47264
G1 X38.567 Y53.614 E117.50940
G1 X39.455 Y52.726 E117.56778
G1 X38.664 Y52.726 E117.60454
G1 X38.567 Y52.823 E117.61092
M106 S255
G1 Z0.900 F30000.000
G1 X56.864 Y71.023 F30000.000
G1 F5312.6
G1 X38.158 Y71.023 E118.16632
G1 X38.158 Y52.317 E118.72172
G1 X56.864 Y52.317 E119.27712
G1 X56.864 Y70.963 E119.83074
G1 X57.241 Y71.400 F30000.000
G1 F1859.41
G1 X37.781 Y71.400 E120.47325
G1 X37.781 Y51.940 E121.11577
G1 X57.241 Y51.940 E121.75829
G1 X57.241 Y71.340 E122.39882
G1 X56.855 Y71.296 F30000.000
G1 X56.500 Y54.499 F30000.000
G1 F6375.12
G1 X54.682 Y52.681 E122.49653
G1 X51.450 Y52.681 E122.61937
G1 X56.500 Y57.731 E122.89080
G1 X56.500 Y60.963 E123.01364
G1 X48.218 Y52.681 E123.45878
G1 X44.986 Y52.681 E123.58162
G1 X56.500 Y64.195 E124.20049
G1 X56.500 Y67.427 E124.32333
G1 X41.754 Y52.681 E125.11591
G1 X38.522 Y52.681 E125.23875
G1 X56.500 Y70.659 E126.20505
G1 X53.268 Y70.659 E126.32789
G1 X38.522 Y55.913 E127.12048
G1 X38.522 Y59.145 E127.24331
G1 X50.036 Y70.659 E127.86218
G1 X46.804 Y70.659 E127.98502
G1 X38.522 Y62.377 E128.43017
G1 X38.522 Y65.609 E128.55300
G1 X43.572 Y70.659 E128.82443
G1 X40.340 Y70.659 E128.94727
G1 X38.522 Y68.841 E129.04498
G1 Z1.100 F30000.000
G1 X56.864 Y71.023 F30000.000
G1 F5312.6
G1 X38.158 Y71.023 E129.60038
G1 X38.158 Y52.317 E130.15578
G1 X56.864 Y52.317 E130.71118
G1 X56.864 Y70.963 E131.26480
G1 X57.241 Y71.400 F30000.000
G1 F1859.41
G1 X37.781 Y71.400 E131.90732
G1 X37.781 Y51.940 E132.54983
G1 X57.241 Y51.940 E133.19235
G1 X57.241 Y71.340 E133.83289
G1 X56.855 Y71.296 F30000.000
G1 X54.682 Y70.659 F30000.000
G1 F6375.12
G1 X56.500 Y68.841 E133.93060
