; generated by Slic3r 1.3.0 on 2020-05-02 at 16:02:39

; external perimeters extrusion width = 0.44mm (2.78mm^3/s)
; perimeters extrusion width = 0.40mm (7.14mm^3/s)
; infill extrusion width = 0.50mm (10.97mm^3/s)
; solid infill extrusion width = 0.60mm (6.68mm^3/s)
; top infill extrusion width = 0.40mm (2.14mm^3/s)

M107
M190 S80 ; set bed temperature and wait for it to be reached
M104 S200 ; set temperature
G28 ; home all axes
G1 Z5 F5000 ; lift nozzle

; Filament gcode

M109 S200 ; set temperature and wait for it to be reached
G21 ; set units to millimeters
G90 ; use absolute coordinates
M82 ; use absolute distances for extrusion
G92 E0
G1 Z0.300 F30000.000
G1 E-2.00000 F2400.00000
G92 E0
G1 X82.587 Y82.689 F30000.000
G1 E2.00000 F2400.00000
G1 F2100
G1 X83.245 Y82.051 E2.06119
G1 X84.405 Y81.035 E2.16423
G1 X85.509 Y80.178 E2.25762
G1 X86.259 Y79.651 E2.31882
G1 X87.439 Y78.902 E2.41220
G1 X88.235 Y78.448 E2.47342
G1 X89.480 Y77.814 E2.56677
G1 X90.315 Y77.437 E2.62798
G1 X91.614 Y76.922 E2.72134
G1 X92.481 Y76.626 E2.78257
G1 X93.823 Y76.236 E2.87593
G1 X95.328 Y75.895 E2.97899
G1 X96.231 Y75.737 E3.04019
G1 X97.617 Y75.562 E3.13354
G1 X98.530 Y75.490 E3.19476
G1 X99.928 Y75.446 E3.28819
G1 X100.844 Y75.461 E3.34935
G1 X102.239 Y75.548 E3.44274
G1 X103.769 Y75.737 E3.54577
G1 X104.672 Y75.895 E3.60698
G1 X106.036 Y76.199 E3.70034
G1 X106.920 Y76.441 E3.76155
G1 X108.249 Y76.873 E3.85495
G1 X109.106 Y77.197 E3.91614
G1 X110.389 Y77.752 E4.00952
G1 X111.765 Y78.448 E4.11255
G1 X112.561 Y78.902 E4.17377
G1 X113.741 Y79.651 E4.26715
G1 X114.491 Y80.178 E4.32834
G1 X115.595 Y81.035 E4.42173
G1 X116.292 Y81.630 E4.48292
G1 X117.311 Y82.587 E4.57634
G1 X117.949 Y83.245 E4.63753
G1 X118.873 Y84.293 E4.73090
G1 X119.446 Y85.008 E4.79212
G1 X120.349 Y86.259 E4.89516
G1 X121.098 Y87.439 E4.98854
G1 X121.552 Y88.235 E5.04976
G1 X122.186 Y89.480 E5.14311
G1 X122.563 Y90.315 E5.20431
G1 X123.078 Y91.614 E5.29768
G1 X123.374 Y92.481 E5.35890
G1 X123.764 Y93.823 E5.45226
G1 X124.105 Y95.328 E5.55532
G1 X124.263 Y96.231 E5.61653
G1 X124.438 Y97.617 E5.70988
G1 X124.510 Y98.530 E5.77110
G1 X124.554 Y99.928 E5.86452
G1 X124.539 Y100.844 E5.92569
G1 X124.452 Y102.239 E6.01908
G1 X124.351 Y103.149 E6.08026
G1 X124.132 Y104.530 E6.17365
G1 X123.947 Y105.426 E6.23482
G1 X123.599 Y106.781 E6.32825
G1 X123.330 Y107.656 E6.38944
G1 X122.803 Y109.106 E6.49248
G1 X122.248 Y110.389 E6.58586
G1 X121.552 Y111.765 E6.68889
G1 X121.098 Y112.561 E6.75010
G1 X120.349 Y113.741 E6.84348
G1 X119.822 Y114.491 E6.90468
G1 X118.965 Y115.595 E6.99807
G1 X118.370 Y116.292 E7.05926
G1 X117.413 Y117.311 E7.15268
G1 X116.755 Y117.949 E7.21387
G1 X115.595 Y118.965 E7.31691
G1 X114.491 Y119.822 E7.41030
G1 X113.741 Y120.349 E7.47150
G1 X112.561 Y121.098 E7.56488
G1 X111.765 Y121.552 E7.62609
G1 X110.520 Y122.186 E7.71945
G1 X109.685 Y122.563 E7.78065
G1 X108.386 Y123.078 E7.87402
G1 X107.519 Y123.374 E7.93524
G1 X106.177 Y123.764 E8.02860
G1 X104.672 Y124.105 E8.13166
G1 X103.769 Y124.263 E8.19287
G1 X102.383 Y124.438 E8.28622
G1 X101.470 Y124.510 E8.34744
G1 X100.072 Y124.554 E8.44086
G1 X99.156 Y124.539 E8.50203
G1 X97.761 Y124.452 E8.59541
G1 X96.231 Y124.263 E8.69845
G1 X95.328 Y124.105 E8.75966
G1 X93.964 Y123.801 E8.85301
G1 X93.080 Y123.559 E8.91423
G1 X91.751 Y123.127 E9.00763
G1 X90.894 Y122.803 E9.06881
G1 X89.611 Y122.248 E9.16220
G1 X88.235 Y121.552 E9.26523
G1 X87.439 Y121.098 E9.32644
G1 X86.259 Y120.349 E9.41982
G1 X85.509 Y119.822 E9.48102
G1 X84.405 Y118.965 E9.57441
G1 X83.708 Y118.370 E9.63559
G1 X82.689 Y117.413 E9.72902
G1 X82.051 Y116.755 E9.79021
G1 X81.127 Y115.707 E9.88358
G1 X80.554 Y114.992 E9.94479
G1 X79.651 Y113.741 E10.04783
G1 X78.902 Y112.561 E10.14121
G1 X78.448 Y111.765 E10.20243
G1 X77.814 Y110.520 E10.29578
G1 X77.437 Y109.685 E10.35699
G1 X76.922 Y108.386 E10.45035
G1 X76.626 Y107.519 E10.51158
G1 X76.199 Y106.036 E10.61464
G1 X75.895 Y104.672 E10.70800
G1 X75.737 Y103.769 E10.76921
G1 X75.562 Y102.383 E10.86256
G1 X75.490 Y101.470 E10.92378
G1 X75.446 Y100.072 E11.01720
G1 X75.461 Y99.156 E11.07837
G1 X75.548 Y97.761 E11.17175
G1 X75.737 Y96.231 E11.27479
G1 X75.895 Y95.328 E11.33600
G1 X76.199 Y93.964 E11.42935
G1 X76.441 Y93.080 E11.49056
G1 X76.873 Y91.751 E11.58397
G1 X77.197 Y90.894 E11.64515
G1 X77.752 Y89.611 E11.73854
G1 X78.155 Y88.789 E11.79971
G1 X78.829 Y87.563 E11.89314
G1 X79.307 Y86.782 E11.95431
G1 X80.093 Y85.626 E12.04773
G1 X80.643 Y84.894 E12.10890
G1 X81.534 Y83.817 E12.20229
G1 X82.545 Y82.732 E12.30135
G1 X82.971 Y83.062 F30000.000
G1 F2100
G1 X83.605 Y82.447 E12.36029
G1 X84.739 Y81.453 E12.46108
G1 X85.831 Y80.606 E12.55335
G1 X86.553 Y80.099 E12.61230
G1 X87.719 Y79.359 E12.70456
G1 X88.485 Y78.922 E12.76352
G1 X89.716 Y78.295 E12.85575
G1 X90.520 Y77.932 E12.91471
G1 X91.804 Y77.423 E13.00695
G1 X92.639 Y77.137 E13.06593
G1 X94.089 Y76.720 E13.16674
G1 X95.437 Y76.419 E13.25898
G1 X96.306 Y76.267 E13.31794
G1 X97.676 Y76.094 E13.41016
G1 X98.556 Y76.025 E13.46914
G1 X99.937 Y75.982 E13.56143
G1 X100.818 Y75.996 E13.62035
G1 X102.197 Y76.082 E13.71261
G1 X103.694 Y76.267 E13.81340
G1 X104.563 Y76.419 E13.87236
G1 X105.911 Y76.720 E13.96460
G1 X106.762 Y76.953 E14.02356
G1 X108.076 Y77.380 E14.11583
G1 X108.901 Y77.692 E14.17478
G1 X110.169 Y78.240 E14.26703
G1 X111.515 Y78.922 E14.36782
G1 X112.281 Y79.359 E14.42679
G1 X113.447 Y80.099 E14.51904
G1 X114.169 Y80.606 E14.57799
G1 X115.261 Y81.453 E14.67026
G1 X115.931 Y82.026 E14.72919
G1 X116.938 Y82.971 E14.82149
G1 X117.553 Y83.605 E14.88043
G1 X118.466 Y84.641 E14.97268
G1 X119.018 Y85.330 E15.03165
G1 X119.901 Y86.553 E15.13244
G1 X120.641 Y87.719 E15.22470
G1 X121.078 Y88.485 E15.28366
G1 X121.705 Y89.716 E15.37589
G1 X122.068 Y90.520 E15.43485
G1 X122.577 Y91.804 E15.52709
G1 X122.863 Y92.639 E15.58607
G1 X123.248 Y93.965 E15.67831
G1 X123.581 Y95.437 E15.77912
G1 X123.733 Y96.306 E15.83808
G1 X123.906 Y97.676 E15.93030
G1 X123.975 Y98.556 E15.98927
G1 X124.018 Y99.936 E16.08157
G1 X124.004 Y100.818 E16.14049
G1 X123.918 Y102.197 E16.23275
G1 X123.733 Y103.694 E16.33354
G1 X123.581 Y104.563 E16.39250
G1 X123.280 Y105.911 E16.48474
G1 X123.047 Y106.762 E16.54370
G1 X122.620 Y108.076 E16.63598
G1 X122.308 Y108.901 E16.69492
G1 X121.760 Y110.169 E16.78717
G1 X121.078 Y111.515 E16.88796
G1 X120.641 Y112.281 E16.94692
G1 X119.901 Y113.447 E17.03918
G1 X119.394 Y114.169 E17.09813
G1 X118.547 Y115.261 E17.19040
G1 X117.974 Y115.931 E17.24933
G1 X117.029 Y116.938 E17.34163
G1 X116.395 Y117.553 E17.40057
G1 X115.261 Y118.547 E17.50136
G1 X114.169 Y119.394 E17.59363
G1 X113.447 Y119.901 E17.65258
G1 X112.281 Y120.641 E17.74484
G1 X111.515 Y121.078 E17.80380
G1 X110.284 Y121.705 E17.89603
G1 X109.480 Y122.068 E17.95499
G1 X108.196 Y122.577 E18.04723
G1 X107.361 Y122.863 E18.10621
G1 X106.035 Y123.248 E18.19845
G1 X104.563 Y123.581 E18.29926
G1 X103.694 Y123.733 E18.35822
G1 X102.324 Y123.906 E18.45045
G1 X101.444 Y123.975 E18.50941
G1 X100.064 Y124.018 E18.60171
G1 X99.182 Y124.004 E18.66063
G1 X97.803 Y123.918 E18.75289
G1 X96.306 Y123.733 E18.85368
G1 X95.437 Y123.581 E18.91264
G1 X94.089 Y123.280 E19.00488
G1 X93.238 Y123.047 E19.06384
G1 X91.924 Y122.620 E19.15612
G1 X91.099 Y122.308 E19.21506
G1 X89.831 Y121.760 E19.30731
G1 X88.485 Y121.078 E19.40810
G1 X87.719 Y120.641 E19.46706
G1 X86.553 Y119.901 E19.55932
G1 X85.831 Y119.394 E19.61827
G1 X84.739 Y118.547 E19.71054
G1 X84.069 Y117.974 E19.76947
G1 X83.062 Y117.029 E19.86177
G1 X82.447 Y116.395 E19.92071
G1 X81.534 Y115.359 E20.01296
G1 X80.982 Y114.670 E20.07193
G1 X80.099 Y113.447 E20.17272
G1 X79.359 Y112.281 E20.26497
G1 X78.922 Y111.515 E20.32394
G1 X78.295 Y110.284 E20.41617
G1 X77.932 Y109.480 E20.47513
G1 X77.423 Y108.196 E20.56737
G1 X77.137 Y107.361 E20.62635
G1 X76.752 Y106.035 E20.71859
G1 X76.419 Y104.563 E20.81940
G1 X76.267 Y103.694 E20.87836
G1 X76.094 Y102.324 E20.97058
G1 X76.025 Y101.444 E21.02956
G1 X75.982 Y100.063 E21.12185
G1 X75.996 Y99.182 E21.18077
G1 X76.082 Y97.803 E21.27303
G1 X76.267 Y96.306 E21.37382
G1 X76.419 Y95.437 E21.43278
G1 X76.720 Y94.089 E21.52502
G1 X76.953 Y93.238 E21.58398
G1 X77.380 Y91.924 E21.67625
G1 X77.692 Y91.099 E21.73520
G1 X78.240 Y89.831 E21.82745
G1 X78.628 Y89.039 E21.88639
G1 X79.294 Y87.829 E21.97868
G1 X79.755 Y87.077 E22.03761
G1 X80.531 Y85.934 E22.12990
G1 X81.061 Y85.229 E22.18882
G1 X81.941 Y84.164 E22.28109
G1 X82.930 Y83.105 E22.37790
G1 X83.356 Y83.434 F30000.000
G1 F2100
G1 X83.966 Y82.844 E22.43460
G1 X85.074 Y81.871 E22.53314
G1 X86.152 Y81.035 E22.62428
G1 X86.847 Y80.547 E22.68098
G1 X87.999 Y79.816 E22.77212
G1 X88.736 Y79.395 E22.82883
G1 X89.951 Y78.776 E22.91994
G1 X90.725 Y78.427 E22.97665
G1 X91.993 Y77.924 E23.06777
G1 X92.796 Y77.649 E23.12450
G1 X94.106 Y77.269 E23.21562
G1 X95.545 Y76.944 E23.31418
G1 X96.381 Y76.798 E23.37089
G1 X97.734 Y76.627 E23.46199
G1 X98.581 Y76.560 E23.51871
G1 X99.945 Y76.517 E23.60988
G1 X100.793 Y76.531 E23.66656
G1 X102.155 Y76.616 E23.75770
G1 X103.619 Y76.798 E23.85624
G1 X104.455 Y76.944 E23.91295
G1 X105.786 Y77.241 E24.00406
G1 X106.605 Y77.465 E24.06078
G1 X107.902 Y77.887 E24.15193
G1 X108.696 Y78.187 E24.20862
G1 X109.948 Y78.729 E24.29975
G1 X111.264 Y79.395 E24.39829
G1 X112.001 Y79.816 E24.45501
G1 X113.153 Y80.547 E24.54614
G1 X113.848 Y81.035 E24.60284
G1 X114.926 Y81.871 E24.69398
G1 X115.571 Y82.422 E24.75067
G1 X116.566 Y83.356 E24.84184
G1 X117.156 Y83.966 E24.89854
G1 X118.129 Y85.074 E24.99708
G1 X118.965 Y86.152 E25.08822
G1 X119.453 Y86.847 E25.14493
G1 X120.184 Y87.999 E25.23606
G1 X120.605 Y88.736 E25.29278
G1 X121.224 Y89.951 E25.38389
G1 X121.573 Y90.725 E25.44060
G1 X122.076 Y91.993 E25.53172
G1 X122.351 Y92.796 E25.58844
G1 X122.731 Y94.106 E25.67956
G1 X123.056 Y95.545 E25.77812
G1 X123.202 Y96.381 E25.83483
G1 X123.373 Y97.734 E25.92594
G1 X123.440 Y98.581 E25.98266
G1 X123.483 Y99.945 E26.07382
G1 X123.469 Y100.793 E26.13050
G1 X123.384 Y102.155 E26.22164
G1 X123.291 Y102.998 E26.27833
G1 X123.077 Y104.346 E26.36947
G1 X122.905 Y105.176 E26.42615
G1 X122.566 Y106.498 E26.51732
G1 X122.316 Y107.309 E26.57401
G1 X121.813 Y108.696 E26.67256
G1 X121.271 Y109.948 E26.76370
G1 X120.605 Y111.264 E26.86223
G1 X120.184 Y112.001 E26.91895
G1 X119.453 Y113.153 E27.01008
G1 X118.965 Y113.848 E27.06678
G1 X118.129 Y114.926 E27.15793
G1 X117.578 Y115.571 E27.21462
G1 X116.644 Y116.566 E27.30578
G1 X116.034 Y117.156 E27.36248
G1 X115.011 Y118.058 E27.45361
G1 X114.349 Y118.589 E27.51032
G1 X113.153 Y119.453 E27.60887
G1 X112.001 Y120.184 E27.70000
G1 X111.264 Y120.605 E27.75672
G1 X110.049 Y121.224 E27.84783
G1 X109.275 Y121.573 E27.90454
G1 X108.007 Y122.076 E27.99566
G1 X107.204 Y122.351 E28.05238
G1 X105.894 Y122.731 E28.14350
G1 X104.455 Y123.056 E28.24206
G1 X103.619 Y123.202 E28.29877
G1 X102.266 Y123.373 E28.38988
G1 X101.419 Y123.440 E28.44660
G1 X100.055 Y123.483 E28.53776
G1 X99.207 Y123.469 E28.59444
G1 X97.845 Y123.384 E28.68558
G1 X96.381 Y123.202 E28.78412
G1 X95.545 Y123.056 E28.84083
G1 X94.214 Y122.759 E28.93195
G1 X93.395 Y122.535 E28.98866
G1 X92.098 Y122.113 E29.07981
G1 X91.304 Y121.813 E29.13650
G1 X90.052 Y121.271 E29.22764
G1 X88.736 Y120.605 E29.32617
G1 X87.999 Y120.184 E29.38289
G1 X86.847 Y119.453 E29.47402
G1 X86.152 Y118.965 E29.53073
G1 X85.074 Y118.129 E29.62187
G1 X84.429 Y117.578 E29.67856
G1 X83.434 Y116.644 E29.76972
G1 X82.844 Y116.034 E29.82642
G1 X81.871 Y114.926 E29.92497
G1 X81.035 Y113.848 E30.01611
G1 X80.547 Y113.153 E30.07281
G1 X79.816 Y112.001 E30.16394
G1 X79.395 Y111.264 E30.22066
G1 X78.776 Y110.049 E30.31177
G1 X78.427 Y109.275 E30.36848
G1 X77.924 Y108.007 E30.45960
G1 X77.649 Y107.204 E30.51632
G1 X77.269 Y105.894 E30.60744
G1 X76.944 Y104.455 E30.70600
G1 X76.798 Y103.619 E30.76271
G1 X76.627 Y102.266 E30.85382
G1 X76.560 Y101.419 E30.91054
G1 X76.517 Y100.055 E31.00171
G1 X76.531 Y99.207 E31.05838
G1 X76.616 Y97.845 E31.14952
G1 X76.798 Y96.381 E31.24806
G1 X76.944 Y95.545 E31.30477
G1 X77.241 Y94.214 E31.39589
G1 X77.465 Y93.395 E31.45260
G1 X77.887 Y92.098 E31.54375
G1 X78.187 Y91.304 E31.60044
G1 X78.729 Y90.052 E31.69158
G1 X79.102 Y89.290 E31.74827
G1 X79.759 Y88.094 E31.83943
G1 X80.203 Y87.371 E31.89611
G1 X80.970 Y86.242 E31.98728
G1 X81.479 Y85.563 E32.04395
G1 X82.349 Y84.512 E32.13510
G1 X83.314 Y83.477 E32.22966
G1 X83.921 Y83.982 F30000.000
G1 F2100
G1 X84.479 Y83.440 E32.28785
G1 X85.516 Y82.525 E32.39132
G1 X86.106 Y82.053 E32.44792
G1 X87.224 Y81.240 E32.55138
G1 X87.857 Y80.825 E32.60798
G1 X89.047 Y80.121 E32.71145
G1 X90.317 Y79.472 E32.81815
G1 X91.006 Y79.161 E32.87475
G1 X92.291 Y78.652 E32.97821
G1 X93.007 Y78.407 E33.03482
G1 X94.335 Y78.022 E33.13828
G1 X95.726 Y77.709 E33.24499
G1 X96.471 Y77.579 E33.30158
G1 X97.842 Y77.406 E33.40504
G1 X98.596 Y77.346 E33.46164
G1 X99.979 Y77.303 E33.56513
G1 X100.734 Y77.315 E33.62170
G1 X102.115 Y77.402 E33.72519
G1 X102.866 Y77.485 E33.78177
G1 X104.232 Y77.701 E33.88524
G1 X104.972 Y77.854 E33.94182
G1 X106.312 Y78.198 E34.04531
G1 X107.034 Y78.421 E34.10190
G1 X108.375 Y78.905 E34.20861
G1 X109.644 Y79.454 E34.31208
G1 X110.915 Y80.100 E34.41877
G1 X111.572 Y80.475 E34.47537
G1 X112.740 Y81.216 E34.57884
G1 X113.894 Y82.053 E34.68554
G1 X114.967 Y82.938 E34.78969
G1 X115.027 Y82.960 E34.79445
G1 X116.034 Y83.936 E34.89936
G1 X116.560 Y84.479 E34.95595
G1 X117.475 Y85.516 E35.05942
G1 X117.947 Y86.106 E35.11602
G1 X118.784 Y87.260 E35.22271
G1 X119.525 Y88.428 E35.32619
G1 X119.900 Y89.085 E35.38279
G1 X120.528 Y90.317 E35.48625
G1 X120.839 Y91.006 E35.54284
G1 X121.348 Y92.291 E35.64631
G1 X121.593 Y93.007 E35.70291
G1 X121.989 Y94.377 E35.80962
G1 X122.291 Y95.726 E35.91308
G1 X122.421 Y96.471 E35.96968
G1 X122.594 Y97.842 E36.07313
G1 X122.653 Y98.596 E36.12973
G1 X122.697 Y99.979 E36.23322
G1 X122.685 Y100.734 E36.28980
G1 X122.598 Y102.115 E36.39328
G1 X122.515 Y102.866 E36.44987
G1 X122.299 Y104.232 E36.55334
G1 X122.146 Y104.972 E36.60992
G1 X121.802 Y106.312 E36.71341
G1 X121.579 Y107.034 E36.77000
G1 X121.095 Y108.375 E36.87670
G1 X120.546 Y109.644 E36.98017
G1 X119.900 Y110.915 E37.08686
G1 X119.525 Y111.572 E37.14347
G1 X118.784 Y112.740 E37.24694
G1 X118.349 Y113.358 E37.30353
G1 X117.502 Y114.451 E37.40700
G1 X117.011 Y115.026 E37.46359
G1 X116.064 Y116.034 E37.56708
G1 X115.521 Y116.560 E37.62366
G1 X114.484 Y117.475 E37.72713
G1 X113.894 Y117.947 E37.78374
G1 X112.740 Y118.784 E37.89043
G1 X111.572 Y119.525 E37.99390
G1 X110.915 Y119.900 E38.05050
G1 X109.683 Y120.528 E38.15396
G1 X108.994 Y120.839 E38.21056
G1 X107.709 Y121.348 E38.31402
G1 X106.993 Y121.593 E38.37063
G1 X105.665 Y121.978 E38.47409
G1 X104.274 Y122.291 E38.58080
G1 X103.529 Y122.421 E38.63739
G1 X102.158 Y122.594 E38.74085
G1 X101.404 Y122.653 E38.79745
G1 X100.021 Y122.697 E38.90094
G1 X99.266 Y122.685 E38.95752
G1 X97.885 Y122.598 E39.06100
G1 X97.134 Y122.515 E39.11758
G1 X95.768 Y122.299 E39.22105
G1 X95.028 Y122.146 E39.27763
G1 X93.688 Y121.802 E39.38112
G1 X92.966 Y121.579 E39.43771
G1 X91.625 Y121.095 E39.54442
G1 X90.356 Y120.546 E39.64789
G1 X89.085 Y119.900 E39.75458
G1 X88.428 Y119.525 E39.81118
G1 X87.260 Y118.784 E39.91465
G1 X86.642 Y118.349 E39.97125
G1 X85.549 Y117.502 E40.07472
G1 X84.974 Y117.011 E40.13130
G1 X83.966 Y116.064 E40.23479
G1 X82.960 Y115.027 E40.34292
G1 X82.938 Y114.967 E40.34768
G1 X82.053 Y113.894 E40.45183
G1 X81.216 Y112.740 E40.55853
G1 X80.475 Y111.572 E40.66200
G1 X80.100 Y110.915 E40.71860
G1 X79.472 Y109.683 E40.82206
G1 X79.161 Y108.994 E40.87866
G1 X78.652 Y107.709 E40.98212
G1 X78.407 Y106.993 E41.03872
G1 X78.022 Y105.665 E41.14219
G1 X77.709 Y104.274 E41.24889
G1 X77.579 Y103.529 E41.30549
G1 X77.406 Y102.158 E41.40894
G1 X77.346 Y101.404 E41.46555
G1 X77.303 Y100.021 E41.56904
G1 X77.315 Y99.266 E41.62561
G1 X77.402 Y97.885 E41.72910
G1 X77.579 Y96.471 E41.83579
G1 X77.709 Y95.726 E41.89238
G1 X78.011 Y94.377 E41.99585
G1 X78.210 Y93.647 E42.05244
G1 X78.638 Y92.332 E42.15593
G1 X78.905 Y91.625 E42.21251
G1 X79.454 Y90.356 E42.31598
G1 X79.787 Y89.677 E42.37256
G1 X80.453 Y88.465 E42.47606
