; generated by Slic3r 1.3.0 on 2020-04-09 at 23:47:35

; external perimeters extrusion width = 0.44mm (2.78mm^3/s)
; perimeters extrusion width = 0.40mm (7.14mm^3/s)
; infill extrusion width = 0.50mm (10.97mm^3/s)
; solid infill extrusion width = 0.60mm (6.68mm^3/s)
; top infill extrusion width = 0.40mm (2.14mm^3/s)

M107
M190 S80 ; set bed temperature and wait for it to be reached
M104 S200 ; set temperature
G28 ; home all axes
G1 Z5 F5000 ; lift nozzle

; Filament gcode

M109 S200 ; set temperature and wait for it to be reached
G21 ; set units to millimeters
G90 ; use absolute coordinates
M82 ; use absolute distances for extrusion
G92 E0
G1 Z0.300 F30000.000
G1 E-2.00000 F2400.00000
G92 E0
G1 X65.888 Y94.756 F30000.000
G1 E2.00000 F2400.00000
G1 F2100
G1 X66.345 Y94.468 E2.03611
G1 X69.695 Y92.602 E2.29229
G1 X87.028 Y83.057 E3.61417
G1 X93.023 Y79.853 E4.06831
G1 X96.602 Y77.986 E4.33796
G1 X99.534 Y76.549 E4.55608
G1 X101.486 Y76.035 E4.69092
G1 X103.485 Y76.311 E4.82576
G1 X105.224 Y77.336 E4.96060
G1 X106.435 Y78.951 E5.09544
G1 X106.937 Y81.167 E5.24722
G1 X106.937 Y118.565 E7.74560
G1 X106.541 Y120.544 E7.88044
G1 X105.413 Y122.218 E8.01529
G1 X103.729 Y123.330 E8.15013
G1 X101.009 Y123.647 E8.33306
G1 X100.216 Y123.524 E8.38667
G1 X98.677 Y123.029 E8.49464
G1 X93.441 Y120.374 E8.88686
G1 X84.063 Y115.318 E9.59861
G1 X70.428 Y107.803 E10.63866
G1 X66.226 Y105.460 E10.96009
G1 X65.570 Y105.025 E11.01271
G1 X64.859 Y104.402 E11.07584
G1 X64.368 Y103.831 E11.12618
G1 X63.921 Y103.149 E11.18062
G1 X63.793 Y102.915 E11.19846
G1 X63.483 Y102.240 E11.24808
G1 X63.200 Y101.239 E11.31757
G1 X63.089 Y100.471 E11.36943
G1 X63.117 Y99.294 E11.44803
G1 X63.160 Y98.989 E11.46860
G1 X63.495 Y97.748 E11.55449
G1 X63.610 Y97.469 E11.57466
G1 X64.225 Y96.374 E11.65860
G1 X64.411 Y96.121 E11.67957
G1 X65.592 Y94.964 E11.79002
G1 X65.839 Y94.790 E11.81014
G1 X66.196 Y95.194 F30000.000
G1 F2100
G1 X66.606 Y94.936 E11.84249
G1 X69.954 Y93.071 E12.09853
G1 X87.233 Y83.555 E13.41633
G1 X93.276 Y80.325 E13.87407
G1 X96.955 Y78.407 E14.15126
G1 X99.769 Y77.030 E14.36056
G1 X101.621 Y76.564 E14.48811
G1 X103.502 Y76.890 E14.61566
G1 X105.090 Y77.950 E14.74321
G1 X106.112 Y79.562 E14.87077
G1 X106.401 Y81.167 E14.97970
G1 X106.401 Y118.565 E17.47808
G1 X106.006 Y120.433 E17.60563
G1 X104.887 Y121.980 E17.73318
G1 X103.236 Y122.940 E17.86073
G1 X101.091 Y123.118 E18.00457
G1 X100.298 Y122.995 E18.05818
G1 X98.919 Y122.552 E18.15490
G1 X93.695 Y119.902 E18.54622
G1 X84.317 Y114.847 E19.25797
G1 X70.687 Y107.334 E20.29768
G1 X66.487 Y104.992 E20.61894
G1 X65.899 Y104.602 E20.66608
G1 X65.245 Y104.032 E20.72403
G1 X64.791 Y103.503 E20.77062
G1 X64.391 Y102.892 E20.81940
G1 X64.263 Y102.658 E20.83723
G1 X63.981 Y102.043 E20.88244
G1 X63.728 Y101.146 E20.94469
G1 X63.622 Y100.422 E20.99355
G1 X63.647 Y99.368 E21.06397
G1 X63.690 Y99.063 E21.08454
G1 X63.991 Y97.952 E21.16147
G1 X64.105 Y97.672 E21.18165
G1 X64.657 Y96.691 E21.25685
G1 X64.843 Y96.438 E21.27781
G1 X65.901 Y95.402 E21.37676
G1 X66.147 Y95.228 E21.39688
G1 X66.504 Y95.632 F30000.000
G1 F2100
G1 X66.867 Y95.404 E21.42547
G1 X70.213 Y93.540 E21.68136
G1 X87.491 Y84.025 E22.99910
G1 X93.528 Y80.798 E23.45642
G1 X97.191 Y78.888 E23.73234
G1 X100.005 Y77.511 E23.94163
G1 X101.750 Y77.097 E24.06145
G1 X103.504 Y77.473 E24.18127
G1 X104.926 Y78.566 E24.30110
G1 X105.740 Y80.164 E24.42092
G1 X105.866 Y81.167 E24.48845
G1 X105.866 Y118.565 E26.98682
G1 X105.471 Y120.315 E27.10664
G1 X104.362 Y121.725 E27.22646
G1 X102.755 Y122.521 E27.34629
G1 X101.172 Y122.588 E27.45211
G1 X100.380 Y122.466 E27.50571
G1 X99.162 Y122.074 E27.59119
G1 X93.949 Y119.431 E27.98160
G1 X84.571 Y114.375 E28.69335
G1 X70.946 Y106.865 E29.73273
G1 X66.748 Y104.524 E30.05381
G1 X66.228 Y104.180 E30.09547
G1 X65.632 Y103.661 E30.14824
G1 X65.214 Y103.175 E30.19109
G1 X64.861 Y102.635 E30.23420
G1 X64.733 Y102.401 E30.25202
G1 X64.479 Y101.845 E30.29281
G1 X64.255 Y101.053 E30.34782
G1 X64.156 Y100.374 E30.39369
G1 X64.178 Y99.442 E30.45592
G1 X64.221 Y99.138 E30.47649
G1 X64.486 Y98.155 E30.54448
G1 X64.601 Y97.876 E30.56465
G1 X65.088 Y97.008 E30.63111
G1 X65.274 Y96.756 E30.65207
G1 X66.209 Y95.840 E30.73952
G1 X66.455 Y95.666 E30.75964
G1 X66.813 Y96.070 F30000.000
G1 F2100
G1 X67.128 Y95.872 E30.78447
G1 X70.472 Y94.009 E31.04021
G1 X87.749 Y84.494 E32.35789
G1 X93.781 Y81.270 E32.81479
G1 X97.426 Y79.370 E33.08943
G1 X100.240 Y77.992 E33.29872
G1 X101.871 Y77.633 E33.41028
G1 X103.485 Y78.063 E33.52184
G1 X104.721 Y79.185 E33.63339
G1 X105.330 Y81.167 E33.77193
G1 X105.330 Y118.565 E36.27030
G1 X104.936 Y120.188 E36.38186
G1 X103.841 Y121.448 E36.49341
G1 X102.289 Y122.066 E36.60497
G1 X101.254 Y122.059 E36.67410
G1 X100.461 Y121.936 E36.72770
G1 X99.404 Y121.596 E36.80193
G1 X94.204 Y118.959 E37.19144
G1 X84.825 Y113.904 E37.90319
G1 X71.204 Y106.396 E38.94223
G1 X67.009 Y104.057 E39.26314
G1 X66.557 Y103.757 E39.29931
G1 X66.019 Y103.291 E39.34691
G1 X65.638 Y102.847 E39.38602
G1 X65.331 Y102.378 E39.42345
G1 X65.202 Y102.144 E39.44128
G1 X64.977 Y101.648 E39.47764
G1 X64.783 Y100.960 E39.52542
G1 X64.689 Y100.325 E39.56829
G1 X64.708 Y99.517 E39.62233
G1 X64.751 Y99.212 E39.64290
G1 X64.982 Y98.358 E39.70195
G1 X65.096 Y98.079 E39.72212
G1 X65.519 Y97.326 E39.77983
G1 X65.705 Y97.073 E39.80080
G1 X66.518 Y96.278 E39.87674
G1 X66.764 Y96.104 E39.89686
G1 X67.266 Y96.712 F30000.000
G1 F2100
G1 X67.447 Y96.594 E39.91309
G1 X70.849 Y94.698 E40.20452
G1 X88.149 Y85.172 E41.68250
G1 X94.158 Y81.960 E42.19234
G1 X97.725 Y80.099 E42.49342
G1 X101.956 Y78.028 E42.84595
G1 X104.543 Y79.642 E43.07420
G1 X104.544 Y119.829 E46.08160
G1 X102.624 Y121.475 E46.27084
G1 X100.367 Y121.126 E46.44176
G1 X99.953 Y120.993 E46.47429
G1 X94.592 Y118.275 E46.92410
G1 X85.193 Y113.209 E47.72318
G1 X71.581 Y105.706 E48.88633
G1 X67.299 Y103.318 E49.25318
G1 X67.123 Y103.202 E49.26898
G1 X66.656 Y102.819 E49.31421
G1 X66.377 Y102.517 E49.34493
G1 X66.073 Y102.097 E49.38379
G1 X65.851 Y101.692 E49.41831
G1 X65.657 Y101.229 E49.45587
G1 X65.581 Y100.961 E49.47673
G1 X65.498 Y100.490 E49.51251
G1 X65.458 Y100.097 E49.54208
G1 X65.465 Y99.781 E49.56570
G1 X65.554 Y99.149 E49.61346
G1 X65.644 Y98.816 E49.63928
G1 X65.888 Y98.221 E49.68740
G1 X66.053 Y97.928 E49.71263
G1 X66.471 Y97.360 E49.76538
G1 X66.788 Y97.049 E49.79867
G1 X67.217 Y96.747 E49.83786
G1 X67.611 Y97.203 F30000.000
G1 F2100
G1 X71.139 Y95.223 E50.14063
G1 X88.433 Y85.700 E51.61809
G1 X94.439 Y82.490 E52.12769
G1 X97.999 Y80.633 E52.42814
G1 X101.920 Y78.713 E52.75490
G1 X103.944 Y79.975 E52.93334
G1 X103.944 Y119.553 E55.89517
G1 X102.443 Y120.840 E56.04312
G1 X100.505 Y120.541 E56.18983
G1 X100.182 Y120.436 E56.21526
G1 X94.873 Y117.745 E56.66067
G1 X85.479 Y112.681 E57.45936
G1 X71.871 Y105.181 E58.62214
G1 X67.612 Y102.806 E58.98709
G1 X67.074 Y102.388 E59.03804
G1 X66.842 Y102.137 E59.06361
G1 X66.588 Y101.788 E59.09597
G1 X66.387 Y101.420 E59.12730
G1 X66.226 Y101.037 E59.15842
G1 X66.167 Y100.827 E59.17473
G1 X66.091 Y100.398 E59.20730
G1 X66.058 Y100.077 E59.23147
G1 X66.064 Y99.830 E59.24994
G1 X66.143 Y99.270 E59.29230
G1 X66.213 Y99.009 E59.31249
G1 X66.429 Y98.483 E59.35504
G1 X66.558 Y98.253 E59.37476
G1 X66.925 Y97.754 E59.42112
G1 X67.174 Y97.511 E59.44715
G1 X67.562 Y97.238 E59.48270
G1 X67.956 Y97.694 F30000.000
G1 F2100
G1 X71.430 Y95.748 E59.78062
G1 X88.718 Y86.228 E61.25756
G1 X94.721 Y83.020 E61.76692
G1 X98.273 Y81.167 E62.06675
G1 X101.885 Y79.399 E62.36774
G1 X103.344 Y80.308 E62.49636
G1 X103.344 Y119.278 E65.41263
G1 X102.262 Y120.205 E65.51928
G1 X100.644 Y119.955 E65.64179
G1 X100.411 Y119.880 E65.66012
G1 X95.155 Y117.215 E66.10112
G1 X85.765 Y112.154 E66.89942
G1 X72.161 Y104.656 E68.06184
G1 X67.924 Y102.293 E68.42490
G1 X67.492 Y101.957 E68.46582
G1 X67.307 Y101.758 E68.48623
G1 X67.103 Y101.479 E68.51209
G1 X66.922 Y101.149 E68.54024
G1 X66.795 Y100.844 E68.56493
G1 X66.684 Y100.307 E68.60599
G1 X66.659 Y100.057 E68.62477
G1 X66.663 Y99.879 E68.63808
G1 X66.732 Y99.390 E68.67505
G1 X66.782 Y99.202 E68.68960
G1 X66.970 Y98.745 E68.72658
G1 X67.063 Y98.579 E68.74080
G1 X67.380 Y98.149 E68.78078
G1 X67.559 Y97.974 E68.79954
G1 X67.907 Y97.728 E68.83145
G1 X68.302 Y98.184 F30000.000
G1 F2100
G1 X71.720 Y96.273 E69.12452
G1 X89.002 Y86.757 E70.60095
G1 X95.002 Y83.550 E71.11006
G1 X98.547 Y81.701 E71.40926
G1 X101.850 Y80.084 E71.68448
G1 X102.744 Y80.641 E71.76329
G1 X102.744 Y119.002 E74.63400
G1 X102.081 Y119.570 E74.69935
G1 X100.783 Y119.369 E74.79765
G1 X100.640 Y119.323 E74.80888
G1 X95.436 Y116.686 E75.24548
G1 X86.050 Y111.626 E76.04339
G1 X72.452 Y104.130 E77.20544
G1 X68.236 Y101.780 E77.56661
G1 X67.910 Y101.527 E77.59751
G1 X67.771 Y101.378 E77.61276
G1 X67.618 Y101.170 E77.63212
G1 X67.457 Y100.877 E77.65709
G1 X67.364 Y100.652 E77.67534
G1 X67.260 Y100.037 E77.72198
G1 X67.321 Y99.510 E77.76167
G1 X67.511 Y99.007 E77.80195
G1 X67.834 Y98.544 E77.84420
G1 X67.944 Y98.436 E77.85569
G1 X68.253 Y98.219 E77.88398
G1 X68.647 Y98.675 F30000.000
G1 F2100
G1 X72.011 Y96.798 E78.17219
G1 X89.287 Y87.285 E79.64810
G1 X95.284 Y84.080 E80.15697
G1 X98.821 Y82.234 E80.45554
G1 X101.815 Y80.769 E80.70499
G1 X102.144 Y80.974 E80.73400
G1 X102.144 Y118.726 E83.55914
G1 X101.900 Y118.935 E83.58318
G1 X100.869 Y118.767 E83.66136
G1 X95.721 Y116.158 E84.09323
G1 X86.335 Y111.098 E84.89121
G1 X72.742 Y103.605 E86.05276
G1 X68.549 Y101.267 E86.41204
G1 X68.329 Y101.096 E86.43292
G1 X68.132 Y100.861 E86.45583
G1 X67.933 Y100.459 E86.48939
G1 X67.860 Y100.017 E86.52290
G1 X67.921 Y99.588 E86.55532
G1 X68.073 Y99.231 E86.58435
G1 X68.289 Y98.939 E86.61155
G1 X68.598 Y98.709 E86.64039
G1 E84.64039 F2400.00000
G92 E0
G1 X101.494 Y118.215 F30000.000
G1 E2.00000 F2400.00000
G1 F2100
G1 X101.095 Y118.153 E2.02699
G1 X96.020 Y115.581 E2.40708
G1 X86.647 Y110.528 E3.11848
G1 X73.056 Y103.037 E4.15517
G1 X68.897 Y100.718 E4.47333
G1 X68.781 Y100.627 E4.48317
G1 X68.684 Y100.514 E4.49311
G1 X68.554 Y100.254 E4.51256
G1 X68.513 Y100.002 E4.52956
G1 X68.545 Y99.779 E4.54460
G1 X68.631 Y99.569 E4.55979
G1 X68.766 Y99.386 E4.57502
G1 X69.008 Y99.215 E4.59480
G1 X80.633 Y92.782 E5.48239
G1 X89.595 Y87.856 E6.16558
G1 X95.588 Y84.654 E6.61950
G1 X99.116 Y82.813 E6.88535
G1 X101.494 Y81.649 E7.06226
G1 X101.494 Y118.155 E9.50107
G1 X101.165 Y117.988 F30000.000
G1 X100.959 Y117.484 F30000.000
G1 F2100
G1 X96.268 Y115.106 E9.85236
G1 X86.903 Y110.058 E10.56314
G1 X73.316 Y102.569 E11.59957
G1 X69.194 Y100.270 E11.91489
G1 X69.140 Y100.228 E11.91942
G1 X69.069 Y100.087 E11.92995
G1 X69.055 Y99.997 E11.93607
G1 X69.101 Y99.834 E11.94742
G1 X69.146 Y99.773 E11.95242
G1 X69.293 Y99.670 E11.96444
G1 X80.892 Y93.251 E12.85005
G1 X89.850 Y88.327 E13.53297
G1 X95.838 Y85.127 E13.98651
G1 X99.358 Y83.291 E14.25172
G1 X100.959 Y82.507 E14.37081
G1 X100.959 Y117.424 E16.70341
G1 X100.366 Y116.669 F30000.000
G1 F2100
G1 X100.480 Y116.555 E16.71422
G1 X100.480 Y115.793 E16.76540
G1 X99.861 Y116.412 E16.82424
G1 X99.355 Y116.156 E16.86232
G1 X100.480 Y115.031 E16.96919
G1 X100.480 Y114.269 E17.02038
G1 X98.850 Y115.900 E17.17529
G1 X98.344 Y115.644 E17.21337
G1 X100.480 Y113.508 E17.41631
G1 X100.480 Y112.746 E17.46749
G1 X97.838 Y115.387 E17.71847
G1 X97.333 Y115.131 E17.75655
G1 X100.480 Y111.984 E18.05557
G1 X100.480 Y111.222 E18.10675
G1 X96.827 Y114.875 E18.45380
G1 X96.325 Y114.616 E18.49180
G1 X100.480 Y110.460 E18.88661
G1 X100.480 Y109.699 E18.93779
G1 X95.830 Y114.349 E19.37963
G1 X95.335 Y114.082 E19.41741
G1 X100.480 Y108.937 E19.90629
G1 X100.480 Y108.175 E19.95747
G1 X94.840 Y113.815 E20.49337
G1 X94.345 Y113.548 E20.53115
G1 X100.480 Y107.413 E21.11408
G1 X100.480 Y106.652 E21.16526
G1 X93.850 Y113.282 E21.79523
G1 X93.355 Y113.015 E21.83301
G1 X100.480 Y105.890 E22.51000
G1 X100.480 Y105.128 E22.56118
G1 X92.860 Y112.748 E23.28520
G1 X92.365 Y112.481 E23.32298
G1 X100.480 Y104.366 E24.09404
G1 X100.480 Y103.604 E24.14522
G1 X91.870 Y112.214 E24.96330
G1 X91.375 Y111.948 E25.00108
G1 X100.480 Y102.843 E25.86619
G1 X100.480 Y102.081 E25.91737
G1 X90.880 Y111.681 E26.82952
G1 X90.385 Y111.414 E26.86730
G1 X100.480 Y101.319 E27.82647
G1 X100.480 Y100.557 E27.87765
G1 X89.890 Y111.147 E28.88385
G1 X89.395 Y110.880 E28.92163
G1 X100.480 Y99.795 E29.97487
G1 X100.480 Y99.034 E30.02605
G1 X88.900 Y110.614 E31.12631
G1 X88.405 Y110.347 E31.16409
G1 X100.480 Y98.272 E32.31138
G1 X100.480 Y97.510 E32.36256
G1 X87.910 Y110.080 E33.55689
G1 X87.415 Y109.813 E33.59467
G1 X100.480 Y96.748 E34.83602
G1 X100.480 Y95.986 E34.88720
G1 X86.922 Y109.545 E36.17545
G1 X86.431 Y109.274 E36.21313
G1 X100.480 Y95.225 E37.54803
G1 X100.480 Y94.463 E37.59922
G1 X85.939 Y109.003 E38.98079
G1 X85.448 Y108.733 E39.01846
G1 X100.480 Y93.701 E40.44669
G1 X100.480 Y92.939 E40.49787
G1 X84.957 Y108.462 E41.97277
G1 X84.466 Y108.191 E42.01044
G1 X100.480 Y92.177 E43.53200
G1 X100.480 Y91.416 E43.58318
G1 X83.975 Y107.921 E45.15140
G1 X83.484 Y107.650 E45.18907
G1 X100.480 Y90.654 E46.80395
G1 X100.480 Y89.892 E46.85513
G1 X82.993 Y107.379 E48.51667
G1 X82.502 Y107.109 E48.55434
G1 X100.480 Y89.130 E50.26254
G1 X100.480 Y88.369 E50.31373
G1 X82.011 Y106.838 E52.06859
G1 X81.520 Y106.567 E52.10626
G1 X100.480 Y87.607 E53.90778
G1 X100.480 Y86.845 E53.95897
G1 X81.028 Y106.296 E55.80715
G1 X80.537 Y106.026 E55.84483
G1 X100.480 Y86.083 E57.73967
G1 X100.480 Y85.321 E57.79085
G1 X80.046 Y105.755 E59.73236
G1 X79.555 Y105.484 E59.77004
G1 X100.480 Y84.560 E61.75820
G1 X100.480 Y83.798 E61.80939
G1 X79.064 Y105.214 E63.84422
G1 X78.573 Y104.943 E63.88189
G1 X99.945 Y83.571 E65.91258
G1 X98.372 Y84.382 E66.03150
G1 X78.082 Y104.672 E67.95938
G1 X77.591 Y104.402 E67.99706
G1 X96.780 Y85.213 E69.82028
G1 X95.161 Y86.070 E69.94336
G1 X77.100 Y104.131 E71.65942
G1 X76.609 Y103.860 E71.69709
G1 X93.524 Y86.945 E73.30433
G1 X91.888 Y87.819 E73.42899
G1 X76.117 Y103.590 E74.92740
G1 X75.626 Y103.319 E74.96507
G1 X90.251 Y88.694 E76.35465
G1 X88.563 Y89.621 E76.48405
G1 X75.135 Y103.048 E77.75987
G1 X74.644 Y102.777 E77.79754
G1 X86.871 Y90.550 E78.95931
G1 X85.180 Y91.480 E79.08898
G1 X74.153 Y102.507 E80.13671
G1 X73.662 Y102.236 E80.17438
G1 X83.489 Y92.409 E81.10807
G1 X81.797 Y93.339 E81.23774
G1 X73.172 Y101.964 E82.05724
G1 X72.683 Y101.691 E82.09486
G1 X80.097 Y94.278 E82.79924
G1 X78.391 Y95.222 E82.93021
G1 X72.194 Y101.418 E83.51900
G1 X71.705 Y101.146 E83.55662
G1 X76.685 Y96.166 E84.02982
G1 X74.980 Y97.109 E84.16079
G1 X71.216 Y100.873 E84.51839
G1 X70.727 Y100.600 E84.55601
G1 X73.274 Y98.053 E84.79802
G1 X71.568 Y98.997 E84.92899
G1 X70.238 Y100.328 E85.05540
G1 X69.749 Y100.055 E85.09302
G1 X69.863 Y99.941 E85.10384
G1 Z0.500 F30000.000
G1 E83.10384 F2400.00000
G92 E0
G1 X130.819 Y135.731 F30000.000
G1 E2.00000 F2400.00000

G1 F4800
G1 X130.645 Y135.784 E2.00948
G1 X130.442 Y135.746 E2.02027
G1 X127.377 Y134.057 E2.20313
G1 X109.627 Y124.159 E3.26491
G1 X87.787 Y111.893 E4.57362
G1 X75.237 Y104.810 E5.32650

G1 F6000
G1 X68.702 Y101.122 E5.54930
G1 X68.415 Y100.887 E5.56032
G1 X68.252 Y100.666 E5.56845
G1 X68.161 Y100.483 E5.57451
G1 X68.100 Y100.290 E5.58053
G1 X68.071 Y100.079 E5.58685
G1 X68.077 Y99.861 E5.59332
G1 X68.116 Y99.655 E5.59956
G1 X68.189 Y99.454 E5.60591
G1 X68.293 Y99.265 E5.61231
G1 X68.438 Y99.090 E5.61907
G1 X68.626 Y98.926 E5.62646
G1 X75.435 Y95.080 E5.85865

G1 F4800
G1 X85.737 Y89.259 E6.47685
G1 X101.498 Y80.404 E7.42137
G1 X114.333 Y73.208 E8.19009
G1 X126.646 Y66.347 E8.92655
G1 X130.463 Y64.246 E9.15414
G1 X130.695 Y64.223 E9.16636
G1 X130.787 Y64.249 E9.17137
G1 X130.886 Y64.309 E9.17739
G1 X130.960 Y64.387 E9.18302
G1 X131.033 Y64.537 E9.19171
G1 X131.045 Y64.737 E9.20220
G1 X131.045 Y135.414 E12.89469
G1 X130.991 Y135.563 E12.90298
G1 X130.868 Y135.696 E12.91247

G1 X131.041 Y136.037 F30000.000

G1 F4800
G1 X130.989 Y136.074 E12.91577
G1 X130.699 Y136.162 E12.93163
G1 X130.455 Y136.144 E12.94442
G1 X130.296 Y136.096 E12.95312
G1 X127.194 Y134.387 E13.13812
G1 X109.443 Y124.488 E14.19999
G1 X87.602 Y112.221 E15.50874
G1 X68.494 Y101.438 E16.65500
