; generated by Slic3r 1.3.0 on 2020-04-09 at 20:15:29

; external perimeters extrusion width = 0.44mm (2.78mm^3/s)
; perimeters extrusion width = 0.40mm (7.14mm^3/s)
; infill extrusion width = 0.50mm (10.97mm^3/s)
; solid infill extrusion width = 0.60mm (6.68mm^3/s)
; top infill extrusion width = 0.40mm (2.14mm^3/s)

M107
M190 S80 ; set bed temperature and wait for it to be reached
M104 S200 ; set temperature
G28 ; home all axes
G1 Z5 F5000 ; lift nozzle

; Filament gcode

M109 S200 ; set temperature and wait for it to be reached
G21 ; set units to millimeters
G90 ; use absolute coordinates
M82 ; use absolute distances for extrusion
G92 E0
G1 Z0.300 F30000.000
G1 E-2.00000 F2400.00000
G92 E0
G1 X77.783 Y84.899 F30000.000
G1 E2.00000 F2400.00000
G1 F2100
G1 X78.831 Y84.099 E2.08807
G1 X91.245 Y76.931 E3.04572
G1 X93.158 Y76.284 E3.18056
G1 X95.171 Y76.424 E3.31540
G1 X96.388 Y76.931 E3.40347
G1 X116.216 Y88.379 E4.93305
G1 X117.732 Y89.712 E5.06789
G1 X118.619 Y91.525 E5.20273
G1 X118.788 Y92.833 E5.29081
G1 X118.788 Y107.167 E6.24845
G1 X118.392 Y109.147 E6.38329
G1 X117.264 Y110.821 E6.51813
G1 X116.216 Y111.621 E6.60621
G1 X96.388 Y123.069 E8.13578
G1 X94.476 Y123.716 E8.27062
G1 X92.462 Y123.576 E8.40546
G1 X91.245 Y123.069 E8.49354
G1 X78.831 Y115.901 E9.45119
G1 X77.315 Y114.569 E9.58603
G1 X76.429 Y112.755 E9.72087
G1 X76.260 Y111.448 E9.80894
G1 X76.260 Y88.552 E11.33851
G1 X76.656 Y86.573 E11.47335
G1 X77.750 Y84.948 E11.60418
G1 X78.310 Y85.137 F30000.000
G1 F2100
G1 X79.099 Y84.562 E11.66938
G1 X91.513 Y77.395 E12.62703
G1 X93.329 Y76.804 E12.75458
G1 X95.228 Y76.999 E12.88213
G1 X96.120 Y77.395 E12.94733
G1 X115.949 Y88.843 E14.47691
G1 X117.368 Y90.120 E14.60446
G1 X118.149 Y91.862 E14.73201
G1 X118.252 Y92.833 E14.79721
G1 X118.252 Y107.167 E15.75486
G1 X117.856 Y109.035 E15.88241
G1 X116.737 Y110.582 E16.00996
G1 X115.949 Y111.157 E16.07516
G1 X96.120 Y122.605 E17.60474
G1 X94.305 Y123.196 E17.73229
G1 X92.405 Y123.001 E17.85984
G1 X91.513 Y122.605 E17.92504
G1 X79.099 Y115.438 E18.88269
G1 X77.679 Y114.161 E19.01024
G1 X76.899 Y112.418 E19.13780
G1 X76.796 Y111.448 E19.20299
G1 X76.796 Y88.552 E20.73256
G1 X77.191 Y86.684 E20.86012
G1 X78.275 Y85.186 E20.98366
G1 X79.367 Y85.026 F30000.000
G1 F2100
G1 X91.781 Y77.859 E21.94131
G1 X93.494 Y77.326 E22.06113
G1 X95.852 Y77.859 E22.22266
G1 X115.681 Y89.307 E23.75224
G1 X116.998 Y90.524 E23.87206
G1 X117.716 Y92.833 E24.03359
G1 X117.716 Y107.167 E24.99124
G1 X117.321 Y108.917 E25.11106
G1 X115.681 Y110.693 E25.27259
G1 X95.852 Y122.141 E26.80217
G1 X94.140 Y122.674 E26.92199
G1 X91.781 Y122.141 E27.08352
G1 X79.367 Y114.974 E28.04117
G1 X78.049 Y113.757 E28.16099
G1 X77.331 Y111.448 E28.32252
G1 X77.331 Y88.552 E29.85209
G1 X77.726 Y86.803 E29.97191
G1 X79.326 Y85.070 E30.12943
G1 X79.635 Y85.490 F30000.000
G1 F2100
G1 X92.049 Y78.323 E31.08708
G1 X93.651 Y77.853 E31.19864
G1 X95.585 Y78.323 E31.33154
G1 X115.413 Y89.771 E32.86112
G1 X116.621 Y90.923 E32.97268
G1 X117.181 Y92.833 E33.10558
G1 X117.181 Y107.167 E34.06323
G1 X116.787 Y108.790 E34.17479
G1 X115.413 Y110.229 E34.30769
G1 X95.585 Y121.677 E35.83727
G1 X93.982 Y122.147 E35.94883
G1 X92.049 Y121.677 E36.08173
G1 X79.635 Y114.510 E37.03938
G1 X78.427 Y113.357 E37.15094
G1 X77.867 Y111.448 E37.28384
G1 X77.867 Y88.552 E38.81341
G1 X78.261 Y86.929 E38.92497
G1 X79.593 Y85.534 E39.05387
G1 X80.028 Y86.171 F30000.000
G1 F2100
G1 X93.080 Y78.635 E40.18175
G1 X94.553 Y78.635 E40.29201
G1 X115.658 Y90.820 E42.11571
G1 X116.395 Y92.096 E42.22597
G1 X116.395 Y107.904 E43.40898
G1 X115.658 Y109.180 E43.51924
G1 X94.553 Y121.365 E45.34293
G1 X93.080 Y121.365 E45.45319
G1 X79.390 Y113.461 E46.63621
G1 X78.653 Y112.185 E46.74647
G1 X78.653 Y87.815 E48.57015
G1 X79.390 Y86.539 E48.68041
G1 X79.976 Y86.201 E48.73105
G1 X80.328 Y86.691 F30000.000
G1 F2100
G1 X93.241 Y79.235 E49.84691
G1 X94.393 Y79.235 E49.93311
G1 X115.219 Y91.259 E51.73274
G1 X115.795 Y92.257 E51.81894
G1 X115.795 Y107.743 E52.97789
G1 X115.219 Y108.741 E53.06409
G1 X94.393 Y120.765 E54.86371
G1 X93.241 Y120.765 E54.94991
G1 X79.829 Y113.021 E56.10887
G1 X79.253 Y112.024 E56.19507
G1 X79.253 Y87.976 E57.99468
G1 X79.829 Y86.979 E58.08088
G1 X80.276 Y86.721 E58.11949
G1 X80.628 Y87.210 F30000.000
G1 F2100
G1 X93.402 Y79.835 E59.22331
G1 X94.232 Y79.835 E59.28545
G1 X114.779 Y91.698 E61.06102
G1 X115.195 Y92.417 E61.12315
G1 X115.195 Y107.583 E62.25804
G1 X114.779 Y108.302 E62.32018
G1 X94.232 Y120.165 E64.09574
G1 X93.402 Y120.165 E64.15788
G1 X80.268 Y112.582 E65.29277
G1 X79.853 Y111.863 E65.35491
G1 X79.853 Y88.137 E67.13047
G1 X80.268 Y87.418 E67.19260
G1 X80.576 Y87.240 E67.21918
G1 X80.928 Y87.730 F30000.000
G1 F2100
G1 X93.562 Y80.435 E68.31097
G1 X94.071 Y80.435 E68.34904
G1 X114.340 Y92.138 E70.10055
G1 X114.595 Y92.578 E70.13862
G1 X114.595 Y107.422 E71.24945
G1 X114.340 Y107.862 E71.28752
G1 X94.071 Y119.565 E73.03903
G1 X93.562 Y119.565 E73.07710
G1 X80.707 Y112.143 E74.18793
G1 X80.453 Y111.702 E74.22600
G1 X80.453 Y88.298 E75.97750
G1 X80.707 Y87.857 E76.01557
G1 X80.876 Y87.760 E76.03012
G1 E74.03012 F2400.00000
G92 E0
G1 X94.431 Y120.570 F30000.000
G1 X93.723 Y118.965 F30000.000
G1 E2.00000 F2400.00000
G1 F2100
G1 X81.147 Y111.704 E3.08677
G1 X81.053 Y111.542 E3.10078
G1 X81.053 Y88.458 E4.82821
G1 X81.147 Y88.296 E4.84222
G1 X93.723 Y81.035 E5.92899
G1 X93.910 Y81.035 E5.94300
G1 X113.901 Y92.577 E7.67044
G1 X113.995 Y92.739 E7.68445
G1 X113.995 Y107.261 E8.77121
G1 X113.901 Y107.423 E8.78523
G1 X93.910 Y118.965 E10.51267
G1 X93.783 Y118.965 E10.52219
G1 E8.52219 F2400.00000
G92 E0
G1 X113.345 Y106.994 F30000.000
G1 E2.00000 F2400.00000
G1 F2100
G1 X93.817 Y118.269 E3.50643
G1 X81.702 Y111.275 E4.44094
G1 X81.702 Y88.725 E5.94737
G1 X93.817 Y81.731 E6.88187
G1 X113.345 Y93.006 E8.38831
G1 X113.345 Y106.934 E9.31880
G1 X112.946 Y107.012 F30000.000
G1 X112.810 Y106.685 F30000.000
G1 F2100
G1 X93.817 Y117.651 E10.78392
G1 X82.238 Y110.966 E11.67710
G1 X82.238 Y89.034 E13.14221
G1 X93.817 Y82.349 E14.03540
G1 X112.810 Y93.315 E15.50052
G1 X112.810 Y106.625 E16.38969
G1 X112.217 Y106.433 F30000.000
G1 F2100
G1 X112.331 Y106.319 E16.40054
G1 X112.331 Y105.556 E16.45186
G1 X110.412 Y107.475 E16.63442
G1 X108.607 Y108.517 E16.77463
G1 X112.331 Y104.793 E17.12891
G1 X112.331 Y104.030 E17.18023
G1 X106.802 Y109.559 E17.70624
G1 X104.997 Y110.601 E17.84644
G1 X112.331 Y103.268 E18.54417
G1 X112.331 Y102.505 E18.59549
G1 X103.193 Y111.643 E19.46494
G1 X101.388 Y112.685 E19.60514
G1 X112.331 Y101.742 E20.64631
G1 X112.331 Y100.979 E20.69763
G1 X99.583 Y113.727 E21.91052
G1 X97.778 Y114.769 E22.05073
G1 X112.331 Y100.216 E23.43534
G1 X112.331 Y99.453 E23.48666
G1 X95.973 Y115.811 E25.04298
G1 X94.168 Y116.853 E25.18319
G1 X112.331 Y98.691 E26.91124
G1 X112.331 Y97.928 E26.96256
G1 X93.386 Y116.873 E28.76506
G1 X92.902 Y116.594 E28.80263
G1 X112.331 Y97.165 E30.65114
G1 X112.331 Y96.402 E30.70246
G1 X92.419 Y116.314 E32.59698
G1 X91.935 Y116.035 E32.63455
G1 X112.331 Y95.639 E34.57509
G1 X112.331 Y94.876 E34.62641
G1 X91.451 Y115.756 E36.61295
G1 X90.968 Y115.477 E36.65052
G1 X112.331 Y94.114 E38.68308
G1 X112.331 Y93.567 E38.71983
G1 X112.194 Y93.488 E38.73050
G1 X90.484 Y115.198 E40.79600
G1 X90.000 Y114.918 E40.83357
G1 X111.710 Y93.209 E42.89907
G1 X111.226 Y92.930 E42.93664
G1 X89.517 Y114.639 E45.00215
G1 X89.033 Y114.360 E45.03972
G1 X110.743 Y92.651 E47.10522
G1 X110.259 Y92.371 E47.14279
G1 X88.550 Y114.081 E49.20829
G1 X88.066 Y113.802 E49.24586
G1 X109.775 Y92.092 E51.31137
G1 X109.292 Y91.813 E51.34893
G1 X87.582 Y113.522 E53.41444
G1 X87.099 Y113.243 E53.45201
G1 X108.808 Y91.534 E55.51751
G1 X108.325 Y91.254 E55.55508
G1 X86.615 Y112.964 E57.62058
G1 X86.132 Y112.685 E57.65815
G1 X107.841 Y90.975 E59.72365
G1 X107.357 Y90.696 E59.76122
G1 X85.648 Y112.405 E61.82673
G1 X85.164 Y112.126 E61.86430
G1 X106.874 Y90.417 E63.92980
G1 X106.390 Y90.138 E63.96737
G1 X84.681 Y111.847 E66.03287
G1 X84.197 Y111.568 E66.07044
G1 X105.907 Y89.858 E68.13594
G1 X105.423 Y89.579 E68.17351
G1 X83.714 Y111.289 E70.23901
G1 X83.230 Y111.009 E70.27658
G1 X104.939 Y89.300 E72.34208
G1 X104.456 Y89.021 E72.37965
G1 X82.746 Y110.730 E74.44515
G1 X82.717 Y110.713 E74.44745
G1 X82.717 Y109.997 E74.49563
G1 X103.972 Y88.742 E76.51794
G1 X103.489 Y88.462 E76.55550
G1 X82.717 Y109.234 E78.53179
G1 X82.717 Y108.471 E78.58311
G1 X103.005 Y88.183 E80.51339
G1 X102.521 Y87.904 E80.55096
G1 X82.717 Y107.708 E82.43522
G1 X82.717 Y106.946 E82.48654
G1 X102.038 Y87.625 E84.32479
G1 X101.554 Y87.345 E84.36236
G1 X82.717 Y106.183 E86.15460
G1 X82.717 Y105.420 E86.20592
G1 X101.071 Y87.066 E87.95215
G1 X100.587 Y86.787 E87.98972
G1 X82.717 Y104.657 E89.68994
G1 X82.717 Y103.894 E89.74126
G1 X100.103 Y86.508 E91.39546
G1 X99.620 Y86.229 E91.43303
G1 X82.717 Y103.131 E93.04122
G1 X82.717 Y102.369 E93.09254
G1 X99.136 Y85.949 E94.65472
G1 X98.652 Y85.670 E94.69229
G1 X82.717 Y101.606 E96.20846
G1 X82.717 Y100.843 E96.25978
G1 X98.169 Y85.391 E97.72993
G1 X97.685 Y85.112 E97.76750
G1 X82.717 Y100.080 E99.19165
G1 X82.717 Y99.317 E99.24297
G1 X97.202 Y84.833 E100.62110
G1 X96.718 Y84.553 E100.65867
G1 X82.717 Y98.555 E101.99079
G1 X82.717 Y97.792 E102.04211
G1 X96.234 Y84.274 E103.32821
G1 X95.751 Y83.995 E103.36578
G1 X82.717 Y97.029 E104.60588
G1 X82.717 Y96.266 E104.65720
G1 X95.267 Y83.716 E105.85128
G1 X94.784 Y83.437 E105.88885
G1 X82.717 Y95.503 E107.03692
G1 X82.717 Y94.740 E107.08824
G1 X94.300 Y83.157 E108.19030
G1 X93.874 Y82.911 E108.22343
G1 X93.660 Y83.034 E108.24000
G1 X82.717 Y93.978 E109.28119
G1 X82.717 Y93.215 E109.33251
G1 X91.855 Y84.076 E110.20197
G1 X90.050 Y85.118 E110.34219
G1 X82.717 Y92.452 E111.03993
G1 X82.717 Y91.689 E111.09125
G1 X88.246 Y86.160 E111.61726
G1 X86.441 Y87.203 E111.75748
G1 X82.717 Y90.926 E112.11177
G1 X82.717 Y90.164 E112.16309
G1 X84.636 Y88.245 E112.34566
G1 X82.831 Y89.287 E112.48587
G1 X82.717 Y89.400 E112.49669
G1 Z0.500 F30000.000
G1 X113.193 Y106.616 F30000.000
G1 F6000
G1 X93.565 Y117.947 E113.16960
G1 X82.107 Y111.332 E113.56245
G1 X82.107 Y88.668 E114.23536
G1 X93.565 Y82.053 E114.62822
G1 X113.193 Y93.384 E115.30113
G1 X113.193 Y106.556 E115.69220
G1 X113.570 Y106.833 F30000.000
G1 F2100
G1 X93.565 Y118.383 E116.45487
G1 X81.730 Y111.549 E116.90611
G1 X81.730 Y88.451 E117.66877
G1 X93.565 Y81.617 E118.12001
G1 X113.570 Y93.167 E118.88268
G1 X113.570 Y106.773 E119.33193
G1 X113.170 Y106.853 F30000.000
G1 X112.784 Y93.697 F30000.000
G1 F3600
G1 X112.687 Y93.600 E119.33835
G1 X110.810 Y92.516 E119.43941
G1 X112.784 Y94.490 E119.56960
G1 X112.784 Y95.283 E119.60659
G1 X108.933 Y91.433 E119.86056
G1 X107.057 Y90.349 E119.96162
G1 X112.784 Y96.076 E120.33937
G1 X112.784 Y96.870 E120.37636
G1 X105.180 Y89.265 E120.87788
G1 X103.303 Y88.182 E120.97894
G1 X112.784 Y97.663 E121.60423
G1 X112.784 Y98.456 E121.64122
G1 X101.426 Y87.098 E122.39029
G1 X99.550 Y86.015 E122.49135
G1 X112.784 Y99.249 E123.36420
G1 X112.784 Y100.042 E123.40119
G1 X97.673 Y84.931 E124.39781
G1 X95.796 Y83.848 E124.49887
G1 X112.784 Y100.836 E125.61926
G1 X112.784 Y101.629 E125.65626
G1 X93.920 Y82.764 E126.90043
G1 X93.517 Y82.532 E126.92212
G1 X93.122 Y82.760 E126.94338
G1 X112.784 Y102.422 E128.24017
G1 X112.784 Y103.215 E128.27716
G1 X92.619 Y83.050 E129.60711
G1 X92.116 Y83.340 E129.63419
G1 X112.784 Y104.008 E130.99730
G1 X112.784 Y104.801 E131.03429
G1 X91.613 Y83.631 E132.43057
G1 X91.110 Y83.921 E132.45765
G1 X112.784 Y105.595 E133.88709
G1 X112.784 Y106.388 E133.92408
G1 X90.608 Y84.211 E135.38669
G1 X90.105 Y84.502 E135.41377
G1 X112.289 Y106.686 E136.87690
G1 X111.786 Y106.976 E136.90398
G1 X89.602 Y84.792 E138.36711
G1 X89.099 Y85.082 E138.39419
G1 X111.283 Y107.267 E139.85731
G1 X110.780 Y107.557 E139.88439
G1 X88.596 Y85.373 E141.34752
G1 X88.093 Y85.663 E141.37460
G1 X110.278 Y107.847 E142.83773
G1 X109.775 Y108.138 E142.86481
G1 X87.590 Y85.953 E144.32794
G1 X87.088 Y86.244 E144.35501
G1 X109.272 Y108.428 E145.81814
G1 X108.769 Y108.718 E145.84522
G1 X86.585 Y86.534 E147.30835
G1 X86.082 Y86.824 E147.33543
G1 X108.266 Y109.009 E148.79856
G1 X107.763 Y109.299 E148.82563
G1 X85.579 Y87.115 E150.28876
G1 X85.076 Y87.405 E150.31584
G1 X107.260 Y109.589 E151.77897
G1 X106.758 Y109.880 E151.80605
G1 X84.573 Y87.695 E153.26917
G1 X84.070 Y87.986 E153.29625
G1 X106.255 Y110.170 E154.75938
G1 X105.752 Y110.460 E154.78646
G1 X83.568 Y88.276 E156.24959
G1 X83.065 Y88.566 E156.27667
G1 X105.249 Y110.751 E157.73979
G1 X104.746 Y111.041 E157.76687
G1 X82.562 Y88.857 E159.23000
G1 X82.515 Y88.884 E159.23251
G1 X82.515 Y89.603 E159.26607
G1 X104.243 Y111.331 E160.69911
G1 X103.740 Y111.622 E160.72619
G1 X82.515 Y90.396 E162.12606
G1 X82.515 Y91.190 E162.16305
G1 X103.238 Y111.912 E163.52976
G1 X102.735 Y112.202 E163.55684
G1 X82.515 Y91.983 E164.89038
G1 X82.515 Y92.776 E164.92737
G1 X102.232 Y112.493 E166.22775
G1 X101.729 Y112.783 E166.25483
G1 X82.515 Y93.569 E167.52204
G1 X82.515 Y94.362 E167.55903
G1 X101.226 Y113.073 E168.79307
G1 X100.723 Y113.364 E168.82015
G1 X82.515 Y95.156 E170.02103
G1 X82.515 Y95.949 E170.05803
G1 X100.220 Y113.654 E171.22574
G1 X99.717 Y113.944 E171.25282
G1 X82.515 Y96.742 E172.38737
G1 X82.515 Y97.535 E172.42436
G1 X99.215 Y114.234 E173.52575
G1 X98.712 Y114.525 E173.55283
G1 X82.515 Y98.328 E174.62105
G1 X82.515 Y99.121 E174.65804
G1 X98.209 Y114.815 E175.69309
G1 X97.706 Y115.105 E175.72017
G1 X82.515 Y99.915 E176.72206
G1 X82.515 Y100.708 E176.75905
G1 X97.203 Y115.396 E177.72778
G1 X96.700 Y115.686 E177.75485
G1 X82.515 Y101.501 E178.69041
G1 X82.515 Y102.294 E178.72740
G1 X96.197 Y115.976 E179.62980
G1 X95.695 Y116.267 E179.65688
G1 X82.515 Y103.087 E180.52611
G1 X82.515 Y103.881 E180.56310
G1 X95.192 Y116.557 E181.39916
G1 X94.689 Y116.847 E181.42624
G1 X82.515 Y104.674 E182.22914
G1 X82.515 Y105.467 E182.26613
G1 X94.186 Y117.138 E183.03586
G1 X93.683 Y117.428 E183.06294
G1 X82.515 Y106.260 E183.79951
G1 X82.515 Y107.053 E183.83650
G1 X91.996 Y116.534 E184.46180
G1 X90.120 Y115.451 E184.56287
G1 X82.515 Y107.846 E185.06440
G1 X82.515 Y108.640 E185.10139
G1 X88.243 Y114.367 E185.47914
G1 X86.366 Y113.284 E185.58020
G1 X82.515 Y109.433 E185.83418
G1 X82.515 Y110.226 E185.87117
G1 X84.489 Y112.200 E186.00137
G1 X82.613 Y111.117 E186.10243
G1 X82.515 Y111.019 E186.10885
G1 Z0.700 F30000.000
G1 X113.308 Y106.450 F30000.000
G1 F6000
G1 X93.364 Y117.965 E186.79262
G1 X82.192 Y111.515 E187.17564
G1 X82.192 Y88.485 E187.85940
G1 X93.364 Y82.035 E188.24242
G1 X113.308 Y93.550 E188.92619
G1 X113.308 Y106.390 E189.30743
G1 X113.685 Y106.668 F30000.000
G1 F2100
G1 X93.364 Y118.400 E190.08217
G1 X81.815 Y111.732 E190.52247
G1 X81.815 Y88.268 E191.29720
G1 X93.364 Y81.600 E191.73750
G1 X113.685 Y93.332 E192.51224
G1 X113.685 Y106.608 E192.95056
G1 X113.286 Y106.688 F30000.000
G1 X112.802 Y106.235 F30000.000
G1 F3600
G1 X112.899 Y106.137 E192.95699
G1 X112.899 Y105.344 E192.99405
G1 X110.924 Y107.319 E193.12449
G1 X109.045 Y108.404 E193.22575
G1 X112.899 Y104.550 E193.48022
G1 X112.899 Y103.756 E193.51728
G1 X107.166 Y109.489 E193.89576
G1 X105.288 Y110.573 E193.99702
G1 X112.899 Y102.962 E194.49952
G1 X112.899 Y102.168 E194.53659
G1 X103.409 Y111.658 E195.16311
G1 X101.531 Y112.742 E195.26437
G1 X112.899 Y101.374 E196.01491
G1 X112.899 Y100.580 E196.05198
G1 X99.652 Y113.827 E196.92653
G1 X97.774 Y114.911 E197.02780
G1 X112.899 Y99.786 E198.02638
G1 X112.899 Y98.992 E198.06344
G1 X95.895 Y115.996 E199.18604
G1 X94.017 Y117.081 E199.28730
G1 X112.899 Y98.198 E200.53392
G1 X112.899 Y97.404 E200.57098
G1 X93.000 Y117.303 E201.88471
G1 X92.497 Y117.013 E201.91184
G1 X112.899 Y96.610 E203.25880
G1 X112.899 Y95.816 E203.29586
G1 X91.993 Y116.722 E204.67605
G1 X91.490 Y116.431 E204.70318
G1 X112.899 Y95.022 E206.11660
G1 X112.899 Y94.228 E206.15366
G1 X90.987 Y116.141 E207.60031
G1 X90.483 Y115.850 E207.62744
G1 X112.689 Y93.644 E209.09345
G1 X112.186 Y93.353 E209.12058
G1 X89.980 Y115.560 E210.58659
G1 X89.477 Y115.269 E210.61372
G1 X111.683 Y93.063 E212.07973
G1 X111.179 Y92.772 E212.10687
