; generated by Slic3r 1.3.0 on 2020-04-09 at 23:16:16

; external perimeters extrusion width = 0.44mm (2.78mm^3/s)
; perimeters extrusion width = 0.40mm (7.14mm^3/s)
; infill extrusion width = 0.50mm (10.97mm^3/s)
; solid infill extrusion width = 0.60mm (6.68mm^3/s)
; top infill extrusion width = 0.40mm (2.14mm^3/s)

M107
M190 S80 ; set bed temperature and wait for it to be reached
M104 S200 ; set temperature
G28 ; home all axes
G1 Z5 F5000 ; lift nozzle

; Filament gcode

M109 S200 ; set temperature and wait for it to be reached
G21 ; set units to millimeters
G90 ; use absolute coordinates
M82 ; use absolute distances for extrusion
G92 E0
G1 Z0.300 F30000.000
G1 E-2.00000 F2400.00000
G92 E0
G1 X77.935 Y95.725 F30000.000
G1 E2.00000 F2400.00000
G1 F2100
G1 X78.998 Y94.911 E2.08945
G1 X81.776 Y93.311 E2.30359
G1 X111.228 Y77.089 E4.54986
G1 X113.152 Y76.481 E4.68470
G1 X115.163 Y76.660 E4.81954
G1 X116.949 Y77.600 E4.95438
G1 X118.236 Y79.155 E5.08922
G1 X118.851 Y81.593 E5.25721
G1 X118.851 Y118.957 E7.75336
G1 X118.455 Y120.937 E7.88820
G1 X117.328 Y122.611 E8.02304
G1 X115.643 Y123.722 E8.15788
G1 X113.660 Y124.100 E8.29272
G1 X111.150 Y123.418 E8.46647
G1 X78.622 Y104.761 E10.97164
G1 X77.102 Y103.432 E11.10648
G1 X76.210 Y101.621 E11.24132
G1 X76.085 Y99.607 E11.37616
G1 X76.427 Y98.336 E11.46408
G1 X76.813 Y97.403 E11.53157
G1 X77.901 Y95.774 E11.66241
G1 X78.387 Y96.032 F30000.000
G1 F2100
G1 X79.265 Y95.375 E11.73570
G1 X82.034 Y93.780 E11.94915
G1 X111.486 Y77.558 E14.19541
G1 X113.313 Y77.003 E14.32296
G1 X115.208 Y77.237 E14.45051
G1 X116.845 Y78.219 E14.57807
G1 X117.944 Y79.781 E14.70562
G1 X118.315 Y81.593 E14.82922
G1 X118.315 Y118.957 E17.32536
G1 X117.920 Y120.825 E17.45291
G1 X116.801 Y122.372 E17.58047
G1 X115.151 Y123.333 E17.70802
G1 X113.253 Y123.542 E17.83557
G1 X111.417 Y122.954 E17.96438
G1 X78.888 Y104.296 E20.46955
G1 X77.465 Y103.023 E20.59710
G1 X76.679 Y101.283 E20.72466
G1 X76.922 Y98.541 E20.90857
G1 X77.308 Y97.607 E20.97607
G1 X78.353 Y96.081 E21.09961
G1 X79.533 Y95.839 F30000.000
G1 F2100
G1 X82.293 Y94.249 E21.31236
G1 X111.744 Y78.027 E23.55863
G1 X113.468 Y77.529 E23.67845
G1 X115.237 Y77.820 E23.79827
G1 X116.711 Y78.843 E23.91809
G1 X117.601 Y80.400 E24.03792
G1 X117.780 Y81.593 E24.11852
G1 X117.780 Y118.957 E26.61467
G1 X117.385 Y120.707 E26.73449
G1 X116.276 Y122.117 E26.85431
G1 X114.669 Y122.914 E26.97413
G1 X112.876 Y122.943 E27.09396
G1 X111.683 Y122.489 E27.17922
G1 X79.155 Y103.831 E29.68438
G1 X77.833 Y102.618 E29.80421
G1 X77.162 Y100.955 E29.92403
G1 X77.417 Y98.745 E30.07263
G1 X77.803 Y97.812 E30.14013
G1 X79.493 Y95.884 E30.31140
G1 X79.800 Y96.303 F30000.000
G1 F2100
G1 X82.551 Y94.718 E30.52346
G1 X112.003 Y78.496 E32.76973
G1 X113.614 Y78.059 E32.88128
G1 X115.247 Y78.410 E32.99284
G1 X116.536 Y79.471 E33.10440
G1 X117.244 Y81.593 E33.25386
G1 X117.244 Y118.957 E35.75000
G1 X116.850 Y120.580 E35.86156
G1 X115.755 Y121.841 E35.97311
G1 X114.203 Y122.458 E36.08467
G1 X111.950 Y122.024 E36.23800
G1 X79.421 Y103.367 E38.74317
G1 X78.210 Y102.217 E38.85473
G1 X77.661 Y100.640 E38.96629
G1 X77.912 Y98.950 E39.08045
G1 X78.298 Y98.016 E39.14795
G1 X79.761 Y96.348 E39.29616
G1 X80.193 Y96.984 F30000.000
G1 F2100
G1 X82.919 Y95.413 E39.53158
G1 X113.756 Y78.428 E42.16625
G1 X116.458 Y80.024 E42.40107
G1 X116.458 Y120.542 E45.43326
G1 X113.715 Y122.131 E45.67045
G1 X78.913 Y102.169 E48.67288
G1 X78.243 Y100.208 E48.82799
G1 X79.199 Y97.896 E49.01520
G1 X79.799 Y97.211 E49.08332
G1 X80.141 Y97.014 E49.11289
G1 X80.493 Y97.504 F30000.000
G1 F2100
G1 X83.211 Y95.938 E49.34765
G1 X113.746 Y79.119 E51.95648
G1 X115.858 Y80.367 E52.14006
G1 X115.858 Y120.196 E55.12074
G1 X113.714 Y121.438 E55.30617
G1 X79.408 Y101.761 E58.26579
G1 X78.884 Y100.228 E58.38705
G1 X79.715 Y98.217 E58.54991
G1 X80.184 Y97.681 E58.60316
G1 X80.441 Y97.534 E58.62530
G1 X80.792 Y98.024 F30000.000
G1 F2100
G1 X83.503 Y96.462 E58.85940
G1 X113.736 Y79.809 E61.44239
G1 X115.258 Y80.709 E61.57473
G1 X115.258 Y119.851 E64.50390
G1 X113.712 Y120.746 E64.63757
G1 X79.903 Y101.353 E67.55439
G1 X79.525 Y100.248 E67.64180
G1 X80.232 Y98.537 E67.78030
G1 X80.570 Y98.152 E67.81868
G1 X80.740 Y98.054 E67.83339
G1 X81.092 Y98.544 F30000.000
G1 F2100
G1 X83.795 Y96.986 E68.06684
G1 X113.725 Y80.500 E70.62399
G1 X114.658 Y81.051 E70.70508
G1 X114.658 Y119.505 E73.58275
G1 X113.711 Y120.053 E73.66465
G1 X80.397 Y100.945 E76.53867
G1 X80.166 Y100.268 E76.59223
G1 X80.748 Y98.858 E76.70637
G1 X80.956 Y98.622 E76.72990
G1 X81.040 Y98.573 E76.73717
G1 X80.892 Y100.537 F30000.000
G1 F2100
G1 X80.807 Y100.288 E76.75688
G1 X81.265 Y99.179 E76.84667
G1 X81.341 Y99.092 E76.85532
G1 X84.087 Y97.510 E77.09245
G1 X113.715 Y81.191 E79.62376
G1 X114.058 Y81.394 E79.65360
G1 X114.058 Y119.159 E82.47977
G1 X113.709 Y119.361 E82.50991
G1 X80.944 Y100.567 E85.33663
G1 E83.33663 F2400.00000
G92 E0
G1 X113.409 Y118.440 F30000.000
G1 E2.00000 F2400.00000
G1 F2100
G1 X81.558 Y100.171 E4.45296
G1 X81.804 Y99.575 E4.49602
G1 X84.404 Y98.077 E4.69649
G1 X113.409 Y82.101 E6.90864
G1 X113.409 Y118.380 E9.33225
G1 X113.068 Y118.230 F30000.000
G1 X112.873 Y117.515 F30000.000
G1 F2100
G1 X82.238 Y99.943 E11.69160
G1 X84.667 Y98.543 E11.87890
G1 X112.873 Y83.007 E14.03014
G1 X112.873 Y117.455 E16.33143
G1 X112.281 Y116.647 F30000.000
G1 F2100
G1 X112.394 Y116.533 E16.34222
G1 X112.394 Y115.772 E16.39333
G1 X111.797 Y116.369 E16.45005
G1 X111.313 Y116.092 E16.48749
G1 X112.394 Y115.011 E16.59014
G1 X112.394 Y114.250 E16.64124
G1 X110.829 Y115.815 E16.78982
G1 X110.346 Y115.537 E16.82726
G1 X112.394 Y113.488 E17.02177
G1 X112.394 Y112.727 E17.07288
G1 X109.862 Y115.260 E17.31331
G1 X109.378 Y114.982 E17.35075
G1 X112.394 Y111.966 E17.63712
G1 X112.394 Y111.205 E17.68822
G1 X108.894 Y114.705 E18.02051
G1 X108.411 Y114.427 E18.05795
G1 X112.394 Y110.444 E18.43617
G1 X112.394 Y109.682 E18.48728
G1 X107.927 Y114.150 E18.91142
G1 X107.443 Y113.872 E18.94886
G1 X112.394 Y108.921 E19.41894
G1 X112.394 Y108.160 E19.47004
G1 X106.959 Y113.595 E19.98605
G1 X106.476 Y113.317 E20.02349
G1 X112.394 Y107.399 E20.58542
G1 X112.394 Y106.637 E20.63652
G1 X105.992 Y113.040 E21.24438
G1 X105.508 Y112.762 E21.28182
G1 X112.394 Y105.876 E21.93561
G1 X112.394 Y105.115 E21.98672
G1 X105.024 Y112.485 E22.68643
G1 X104.541 Y112.207 E22.72387
G1 X112.394 Y104.354 E23.46952
G1 X112.394 Y103.593 E23.52062
G1 X104.057 Y111.930 E24.31219
G1 X103.573 Y111.653 E24.34963
G1 X112.394 Y102.831 E25.18713
G1 X112.394 Y102.070 E25.23824
G1 X103.089 Y111.375 E26.12167
G1 X102.606 Y111.098 E26.15911
G1 X112.394 Y101.309 E27.08846
G1 X112.394 Y100.548 E27.13957
G1 X102.122 Y110.820 E28.11485
G1 X101.638 Y110.543 E28.15229
G1 X112.394 Y99.787 E29.17351
G1 X112.394 Y99.025 E29.22461
G1 X101.154 Y110.265 E30.29175
G1 X100.671 Y109.988 E30.32919
G1 X112.394 Y98.264 E31.44226
G1 X112.394 Y97.503 E31.49336
G1 X100.187 Y109.710 E32.65236
G1 X99.703 Y109.433 E32.68980
G1 X112.394 Y96.742 E33.89473
G1 X112.394 Y95.981 E33.94583
G1 X99.219 Y109.155 E35.19668
G1 X98.736 Y108.878 E35.23412
G1 X112.394 Y95.219 E36.53090
G1 X112.394 Y94.458 E36.58201
G1 X98.252 Y108.600 E37.92472
G1 X97.768 Y108.323 E37.96216
G1 X112.394 Y93.697 E39.35080
G1 X112.394 Y92.936 E39.40190
G1 X97.284 Y108.045 E40.83647
G1 X96.801 Y107.768 E40.87390
G1 X112.394 Y92.174 E42.35440
G1 X112.394 Y91.413 E42.40550
G1 X96.317 Y107.491 E43.93193
G1 X95.833 Y107.213 E43.96936
G1 X112.394 Y90.652 E45.54171
G1 X112.394 Y89.891 E45.59282
G1 X95.349 Y106.936 E47.21110
G1 X94.866 Y106.658 E47.24854
G1 X112.394 Y89.130 E48.91274
G1 X112.394 Y88.368 E48.96385
G1 X94.382 Y106.381 E50.67398
G1 X93.898 Y106.103 E50.71142
G1 X112.394 Y87.607 E52.46748
G1 X112.394 Y86.846 E52.51859
G1 X93.414 Y105.826 E54.32058
G1 X92.931 Y105.548 E54.35802
G1 X112.394 Y86.085 E56.20594
G1 X112.394 Y85.324 E56.25704
G1 X92.447 Y105.271 E58.15089
G1 X91.963 Y104.993 E58.18832
G1 X112.394 Y84.562 E60.12810
G1 X112.394 Y83.857 E60.17545
G1 X112.270 Y83.925 E60.18498
G1 X91.479 Y104.716 E62.15888
G1 X90.996 Y104.438 E62.19632
G1 X110.575 Y84.859 E64.05526
G1 X108.881 Y85.792 E64.18514
G1 X90.512 Y104.161 E65.92912
G1 X90.028 Y103.884 E65.96655
G1 X107.186 Y86.726 E67.59557
G1 X105.491 Y87.659 E67.72545
G1 X89.544 Y103.606 E69.23950
G1 X89.061 Y103.329 E69.27694
G1 X103.797 Y88.592 E70.67603
G1 X102.102 Y89.526 E70.80592
G1 X88.577 Y103.051 E72.09005
G1 X88.093 Y102.774 E72.12749
G1 X100.408 Y90.459 E73.29665
G1 X98.713 Y91.393 E73.42654
G1 X87.609 Y102.496 E74.48074
G1 X87.126 Y102.219 E74.51818
G1 X97.019 Y92.326 E75.45743
G1 X95.324 Y93.259 E75.58731
G1 X86.642 Y101.941 E76.41160
G1 X86.158 Y101.664 E76.44903
G1 X93.629 Y94.193 E77.15836
G1 X91.935 Y95.126 E77.28824
G1 X85.674 Y101.386 E77.88260
G1 X85.191 Y101.109 E77.92004
G1 X90.240 Y96.059 E78.39944
G1 X88.546 Y96.993 E78.52932
G1 X84.707 Y100.831 E78.89376
G1 X84.223 Y100.554 E78.93120
G1 X86.851 Y97.926 E79.18068
G1 X85.156 Y98.860 E79.31056
G1 X83.739 Y100.276 E79.44508
G1 X83.256 Y99.999 E79.48252
G1 X83.370 Y99.885 E79.49334
G1 Z0.500 F30000.000
G1 X81.707 Y100.118 F30000.000
G1 F6000
G1 X81.815 Y99.857 E79.50173
G1 X113.909 Y81.360 E80.60158

G1 F4800
G1 X118.280 Y78.841 E80.86518
G1 X118.366 Y79.076 E80.87829
G1 X118.366 Y121.145 E83.07616
G1 X113.909 Y118.589 E83.34460

G1 F6000
G1 X81.759 Y100.148 E84.44505
G1 X81.232 Y100.281 F30000.000
G1 F2100
G1 X81.515 Y99.595 E84.46956
G1 X100.997 Y88.366 E85.21198

G1 F4800
G1 X118.285 Y78.402 E86.25449
G1 X118.623 Y78.680 E86.27733
G1 X118.743 Y79.010 E86.29568
G1 X118.743 Y121.273 E88.50372
G1 X118.401 Y121.600 E88.52843
G1 X113.909 Y119.023 E88.79897

G1 F2100
G1 X81.284 Y100.310 E90.04077
G1 X81.577 Y100.079 F30000.000
G1 X82.499 Y100.067 F30000.000
G1 F3600
G1 X82.402 Y99.970 E90.04724
G1 X82.911 Y99.676 E90.07492
G1 X84.380 Y101.146 E90.17288
G1 X86.261 Y102.224 E90.27509
G1 X83.420 Y99.383 E90.46452
G1 X83.928 Y99.090 E90.49220
G1 X88.141 Y103.303 E90.77310
G1 X90.022 Y104.381 E90.87532
G1 X84.437 Y98.797 E91.24769
G1 X84.946 Y98.504 E91.27537
G1 X91.902 Y105.460 E91.73922
G1 X93.783 Y106.539 E91.84143
G1 X85.455 Y98.210 E92.39675
G1 X85.963 Y97.917 E92.42443
G1 X95.663 Y107.617 E93.07122
G1 X97.544 Y108.696 E93.17344
G1 X86.472 Y97.624 E93.91170
G1 X86.981 Y97.331 E93.93938
G1 X99.424 Y109.775 E94.76912
G1 X101.305 Y110.853 E94.87133
G1 X87.489 Y97.038 E95.79254
G1 X87.998 Y96.745 E95.82022
G1 X103.185 Y111.932 E96.83290
G1 X105.066 Y113.010 E96.93512
G1 X88.507 Y96.451 E98.03927
G1 X89.016 Y96.158 E98.06695
G1 X106.947 Y114.089 E99.26257
G1 X108.827 Y115.168 E99.36479
G1 X89.524 Y95.865 E100.65188
G1 X90.033 Y95.572 E100.67957
G1 X110.479 Y116.017 E102.04286
G1 X110.479 Y115.215 E102.08067
G1 X90.542 Y95.279 E103.41005
G1 X91.050 Y94.985 E103.43773
G1 X110.479 Y114.414 E104.73318
G1 X110.479 Y113.612 E104.77099
G1 X91.559 Y94.692 E106.03252
G1 X92.068 Y94.399 E106.06021
G1 X110.479 Y112.810 E107.28782
G1 X110.479 Y112.008 E107.32563
G1 X92.577 Y94.106 E108.51932
G1 X93.085 Y93.813 E108.54701
G1 X110.479 Y111.206 E109.70678
G1 X110.479 Y110.404 E109.74459
G1 X93.594 Y93.519 E110.87044
G1 X94.103 Y93.226 E110.89812
G1 X110.479 Y109.602 E111.99005
G1 X110.479 Y108.800 E112.02786
G1 X94.611 Y92.933 E113.08587
G1 X95.120 Y92.640 E113.11355
G1 X110.479 Y107.998 E114.13764
G1 X110.479 Y107.196 E114.17545
G1 X95.629 Y92.347 E115.16562
G1 X96.138 Y92.053 E115.19330
G1 X110.479 Y106.394 E116.14955
G1 X110.479 Y105.592 E116.18736
G1 X96.646 Y91.760 E117.10969
G1 X97.155 Y91.467 E117.13737
G1 X110.479 Y104.791 E118.02578
G1 X110.479 Y103.989 E118.06358
G1 X97.664 Y91.174 E118.91807
G1 X98.172 Y90.881 E118.94575
G1 X110.479 Y103.187 E119.76632
G1 X110.479 Y102.385 E119.80413
G1 X98.681 Y90.587 E120.59077
G1 X99.190 Y90.294 E120.61846
G1 X110.479 Y101.583 E121.37118
G1 X110.479 Y100.781 E121.40899
G1 X99.699 Y90.001 E122.12779
G1 X100.207 Y89.708 E122.15548
G1 X110.479 Y99.979 E122.84036
G1 X110.479 Y99.177 E122.87817
G1 X100.716 Y89.415 E123.52913
G1 X101.225 Y89.121 E123.55682
G1 X110.479 Y98.375 E124.17386
G1 X110.479 Y97.573 E124.21167
G1 X101.733 Y88.828 E124.79479
G1 X102.242 Y88.535 E124.82247
G1 X110.479 Y96.771 E125.37167
G1 X110.479 Y95.970 E125.40948
G1 X102.751 Y88.242 E125.92476
G1 X103.260 Y87.949 E125.95245
G1 X110.479 Y95.168 E126.43380
G1 X110.479 Y94.366 E126.47161
G1 X103.768 Y87.655 E126.91905
G1 X104.277 Y87.362 E126.94674
G1 X110.479 Y93.564 E127.36026
G1 X110.479 Y92.762 E127.39806
G1 X104.786 Y87.069 E127.77766
G1 X105.294 Y86.776 E127.80535
G1 X110.479 Y91.960 E128.15102
G1 X110.479 Y91.158 E128.18883
G1 X105.803 Y86.483 E128.50059
G1 X106.312 Y86.189 E128.52827
G1 X110.479 Y90.356 E128.80611
G1 X110.479 Y89.554 E128.84392
G1 X106.821 Y85.896 E129.08783
G1 X107.329 Y85.603 E129.11552
G1 X110.479 Y88.752 E129.32551
G1 X110.479 Y87.950 E129.36332
G1 X107.838 Y85.310 E129.53940
G1 X108.347 Y85.017 E129.56708
G1 X110.479 Y87.149 E129.70923
G1 X110.479 Y86.347 E129.74704
G1 X108.855 Y84.723 E129.85528
G1 X109.364 Y84.430 E129.88296
G1 X110.479 Y85.545 E129.95727
G1 X110.479 Y84.743 E129.99508
G1 X109.873 Y84.137 E130.03547
G1 X110.382 Y83.844 E130.06316
G1 X110.479 Y83.941 E130.06963
G1 E128.06963 F2400.00000
G92 E0
G1 X117.963 Y79.559 F30000.000
G1 E2.00000 F2400.00000

G1 F4800
G1 X117.961 Y79.429 E2.00730
G1 X117.500 Y79.695 E2.03714
G1 X117.942 Y120.497 E4.32356
G1 X117.475 Y120.229 E4.35374
G1 X117.039 Y79.961 E6.61024
G1 X116.577 Y80.227 E6.64008
G1 X117.008 Y119.961 E8.86667
G1 X116.541 Y119.693 E8.89684
G1 X116.116 Y80.493 E11.09351
G1 X115.654 Y80.759 E11.12335
G1 X116.073 Y119.425 E13.29010
G1 X115.606 Y119.157 E13.32028
G1 X115.193 Y81.025 E15.45712
G1 X114.732 Y81.290 E15.48696
G1 X115.139 Y118.889 E17.59387
G1 X114.672 Y118.621 E17.62405
G1 X114.270 Y81.556 E19.70105
G1 X113.809 Y81.822 E19.73089
G1 X114.205 Y118.353 E21.77797
G1 X113.737 Y118.085 E21.80815
G1 X113.347 Y82.088 E23.82532
G1 X112.886 Y82.354 E23.85516
G1 X113.270 Y117.817 E25.84241
G1 X112.803 Y117.550 E25.87258
G1 X112.425 Y82.620 E27.82991
G1 X111.963 Y82.886 E27.85975
G1 X112.336 Y117.282 E29.78717
G1 X111.869 Y117.014 E29.81735
G1 X111.502 Y83.152 E31.71484
G1 X111.040 Y83.418 E31.74468
G1 X111.402 Y116.746 E33.61226
G1 X110.934 Y116.478 E33.64244
G1 X110.933 Y116.347 E33.64977

G1 Z0.700 F30000.000
G1 X81.526 Y100.179 F30000.000
G1 F6000
G1 X81.634 Y99.918 E33.65816
G1 X118.318 Y78.775 E34.91532
G1 X118.574 Y78.985 E34.92514
G1 X118.574 Y121.019 E36.17319
G1 X118.306 Y121.275 E36.18418
G1 X81.578 Y100.209 E37.44132
G1 X81.214 Y100.435 F30000.000
G1 F2100
G1 X81.125 Y100.162 E37.45080
G1 X81.335 Y99.655 E37.46890
G1 X118.138 Y78.443 E38.87143
G1 X118.378 Y78.336 E38.88013
G1 X118.951 Y78.807 E38.90461
G1 X118.951 Y121.095 E40.30085
G1 X118.944 Y121.187 E40.30391
G1 X118.363 Y121.742 E40.33043
G1 X81.267 Y100.464 E41.74241
G1 X81.347 Y100.180 F30000.000
G1 X82.222 Y100.127 F30000.000
G1 F3600
G1 X82.319 Y100.030 E41.74882
G1 X84.194 Y98.949 E41.84992
G1 X82.727 Y100.417 E41.94687
G1 X83.232 Y100.706 E41.97406
G1 X86.070 Y97.868 E42.16154
G1 X87.945 Y96.787 E42.26264
G1 X83.736 Y100.996 E42.54065
G1 X84.241 Y101.285 E42.56783
G1 X89.820 Y95.707 E42.93637
G1 X91.695 Y94.626 E43.03747
G1 X84.746 Y101.575 E43.49654
G1 X85.251 Y101.865 E43.52372
G1 X93.571 Y93.545 E44.07332
G1 X95.446 Y92.464 E44.17442
G1 X85.756 Y102.154 E44.81454
G1 X86.261 Y102.444 E44.84173
G1 X97.321 Y91.383 E45.57238
G1 X99.197 Y90.303 E45.67348
G1 X86.766 Y102.733 E46.49466
G1 X87.271 Y103.023 E46.52185
G1 X101.072 Y89.222 E47.43355
G1 X102.947 Y88.141 E47.53466
G1 X87.775 Y103.312 E48.53689
G1 X88.280 Y103.602 E48.56408
G1 X104.822 Y87.060 E49.65684
G1 X106.698 Y85.979 E49.75794
G1 X88.785 Y103.892 E50.94123
G1 X89.290 Y104.181 E50.96842
G1 X108.573 Y84.898 E52.24224
G1 X110.448 Y83.818 E52.34334
G1 X89.795 Y104.471 E53.70769
G1 X90.300 Y104.760 E53.73488
G1 X112.323 Y82.737 E55.18975
G1 X114.199 Y81.656 E55.29086
G1 X90.805 Y105.050 E56.83626
G1 X91.310 Y105.340 E56.86345
G1 X116.074 Y80.575 E58.49938
G1 X117.949 Y79.494 E58.60049
G1 X91.815 Y105.629 E60.32695
