; generated by Slic3r 1.3.0 on 2020-04-09 at 23:51:36

; external perimeters extrusion width = 0.44mm (2.78mm^3/s)
; perimeters extrusion width = 0.40mm (7.14mm^3/s)
; infill extrusion width = 0.50mm (10.97mm^3/s)
; solid infill extrusion width = 0.60mm (6.68mm^3/s)
; top infill extrusion width = 0.40mm (2.14mm^3/s)

M107
M190 S80 ; set bed temperature and wait for it to be reached
M104 S200 ; set temperature
G28 ; home all axes
G1 Z5 F5000 ; lift nozzle

; Filament gcode

M109 S200 ; set temperature and wait for it to be reached
G21 ; set units to millimeters
G90 ; use absolute coordinates
M82 ; use absolute distances for extrusion
G92 E0
G1 Z0.300 F30000.000
G1 E-2.00000 F2400.00000
G92 E0
G1 X54.098 Y94.468 F30000.000
G1 E2.00000 F2400.00000
G1 F2100
G1 X65.756 Y88.017 E2.89013
G1 X74.781 Y83.057 E3.57805
G1 X80.776 Y79.853 E4.03220
G1 X84.355 Y77.986 E4.30185
G1 X87.286 Y76.549 E4.51995
G1 X89.238 Y76.035 E4.65480
G1 X91.238 Y76.311 E4.78964
G1 X92.976 Y77.336 E4.92448
G1 X94.187 Y78.951 E5.05932
G1 X94.689 Y81.167 E5.21112
G1 X94.689 Y118.565 E7.70948
G1 X94.293 Y120.544 E7.84432
G1 X93.166 Y122.218 E7.97916
G1 X91.481 Y123.330 E8.11400
G1 X88.762 Y123.647 E8.29691
G1 X87.969 Y123.525 E8.35049
G1 X86.430 Y123.029 E8.45851
G1 X81.194 Y120.374 E8.85073
G1 X71.815 Y115.318 E9.56249
G1 X58.159 Y107.791 E10.60422
G1 X53.979 Y105.460 E10.92397
G1 X53.322 Y105.025 E10.97659
G1 X52.611 Y104.403 E11.03971
G1 X52.120 Y103.831 E11.09004
G1 X51.674 Y103.149 E11.14450
G1 X51.276 Y102.340 E11.20474
G1 X50.953 Y101.239 E11.28140
G1 X50.904 Y100.962 E11.30019
G1 X50.841 Y100.471 E11.33327
G1 X50.870 Y99.294 E11.41188
G1 X50.912 Y98.989 E11.43245
G1 X51.248 Y97.748 E11.51833
G1 X51.362 Y97.469 E11.53850
G1 X51.978 Y96.374 E11.62244
G1 X52.164 Y96.121 E11.64341
G1 X53.345 Y94.964 E11.75387
G1 X54.047 Y94.500 E11.81008
G1 X54.359 Y94.936 F30000.000
G1 F2100
G1 X66.015 Y88.486 E12.70006
G1 X75.033 Y83.530 E13.38750
G1 X81.029 Y80.325 E13.84165
G1 X84.602 Y78.461 E14.11094
G1 X87.522 Y77.030 E14.32813
G1 X89.373 Y76.565 E14.45568
G1 X91.255 Y76.890 E14.58323
G1 X92.843 Y77.950 E14.71079
G1 X93.865 Y79.562 E14.83834
G1 X94.154 Y81.167 E14.94729
G1 X94.154 Y118.565 E17.44565
G1 X93.758 Y120.433 E17.57320
G1 X92.639 Y121.980 E17.70075
G1 X90.989 Y122.940 E17.82831
G1 X88.844 Y123.118 E17.97212
G1 X88.051 Y122.995 E18.02570
G1 X86.672 Y122.552 E18.12247
G1 X81.448 Y119.902 E18.51379
G1 X72.070 Y114.847 E19.22555
G1 X58.440 Y107.334 E20.26526
G1 X54.240 Y104.992 E20.58651
G1 X53.651 Y104.602 E20.63365
G1 X52.998 Y104.032 E20.69159
G1 X52.544 Y103.503 E20.73819
G1 X52.143 Y102.892 E20.78697
G1 X52.015 Y102.658 E20.80480
G1 X51.734 Y102.043 E20.85000
G1 X51.480 Y101.146 E20.91226
G1 X51.375 Y100.422 E20.96111
G1 X51.400 Y99.368 E21.03154
G1 X51.443 Y99.063 E21.05211
G1 X51.743 Y97.952 E21.12905
G1 X51.858 Y97.672 E21.14922
G1 X52.409 Y96.691 E21.22442
G1 X52.595 Y96.438 E21.24538
G1 X53.653 Y95.402 E21.34433
G1 X54.308 Y94.968 E21.39679
G1 X54.619 Y95.404 F30000.000
G1 F2100
G1 X66.274 Y88.955 E22.28662
G1 X75.244 Y84.025 E22.97041
G1 X81.281 Y80.798 E23.42773
G1 X84.943 Y78.888 E23.70365
G1 X87.757 Y77.511 E23.91293
G1 X89.502 Y77.097 E24.03275
G1 X91.256 Y77.473 E24.15258
G1 X92.678 Y78.566 E24.27240
G1 X93.492 Y80.164 E24.39222
G1 X93.618 Y81.168 E24.45977
G1 X93.618 Y118.565 E26.95812
G1 X93.223 Y120.314 E27.07795
G1 X92.115 Y121.724 E27.19777
G1 X90.508 Y122.521 E27.31759
G1 X88.925 Y122.588 E27.42339
G1 X88.133 Y122.466 E27.47697
G1 X86.914 Y122.074 E27.56249
G1 X81.702 Y119.431 E27.95290
G1 X72.324 Y114.375 E28.66465
G1 X58.698 Y106.865 E29.70403
G1 X54.500 Y104.524 E30.02511
G1 X53.981 Y104.180 E30.06677
G1 X53.385 Y103.661 E30.11953
G1 X52.967 Y103.175 E30.16238
G1 X52.613 Y102.635 E30.20549
G1 X52.485 Y102.401 E30.22332
G1 X52.232 Y101.845 E30.26410
G1 X52.008 Y101.053 E30.31912
G1 X51.908 Y100.374 E30.36498
G1 X51.931 Y99.442 E30.42722
G1 X51.973 Y99.137 E30.44779
G1 X52.239 Y98.155 E30.51578
G1 X52.353 Y97.876 E30.53595
G1 X52.841 Y97.008 E30.60241
G1 X53.027 Y96.756 E30.62337
G1 X53.962 Y95.840 E30.71082
G1 X54.569 Y95.436 E30.75951
G1 X54.880 Y95.872 F30000.000
G1 F2100
G1 X66.533 Y89.424 E31.64920
G1 X75.502 Y84.494 E32.33293
G1 X81.534 Y81.270 E32.78983
G1 X85.179 Y79.370 E33.06447
G1 X87.993 Y77.992 E33.27375
G1 X89.624 Y77.633 E33.38531
G1 X91.237 Y78.063 E33.49687
G1 X92.474 Y79.185 E33.60843
G1 X93.083 Y81.168 E33.74698
G1 X93.083 Y118.565 E36.24533
G1 X92.688 Y120.188 E36.35689
G1 X91.593 Y121.448 E36.46844
G1 X90.042 Y122.066 E36.58000
G1 X89.007 Y122.059 E36.64912
G1 X88.215 Y121.937 E36.70269
G1 X87.156 Y121.596 E36.77696
G1 X81.956 Y118.959 E37.16646
G1 X72.578 Y113.904 E37.87822
G1 X58.957 Y106.396 E38.91726
G1 X54.761 Y104.057 E39.23817
G1 X54.310 Y103.757 E39.27435
G1 X53.772 Y103.291 E39.32193
G1 X53.390 Y102.847 E39.36104
G1 X53.083 Y102.378 E39.39848
G1 X52.955 Y102.144 E39.41631
G1 X52.730 Y101.648 E39.45267
G1 X52.535 Y100.960 E39.50045
G1 X52.442 Y100.325 E39.54331
G1 X52.461 Y99.517 E39.59736
G1 X52.504 Y99.212 E39.61793
G1 X52.734 Y98.358 E39.67698
G1 X52.849 Y98.079 E39.69715
G1 X53.272 Y97.326 E39.75486
G1 X53.458 Y97.073 E39.77583
G1 X54.270 Y96.278 E39.85177
G1 X54.829 Y95.904 E39.89670
G1 X55.263 Y96.559 F30000.000
G1 F2100
G1 X66.914 Y90.112 E40.89317
G1 X75.902 Y85.172 E41.66070
G1 X81.910 Y81.960 E42.17055
G1 X85.477 Y80.099 E42.47162
G1 X89.708 Y78.028 E42.82415
G1 X92.296 Y79.643 E43.05243
G1 X92.296 Y119.829 E46.05980
G1 X90.377 Y121.475 E46.24904
G1 X88.120 Y121.126 E46.41993
G1 X87.706 Y120.993 E46.45248
G1 X82.345 Y118.275 E46.90229
G1 X72.945 Y113.209 E47.70137
G1 X59.333 Y105.706 E48.86453
G1 X55.052 Y103.318 E49.23137
G1 X54.876 Y103.202 E49.24717
G1 X54.408 Y102.819 E49.29241
G1 X54.130 Y102.517 E49.32312
G1 X53.825 Y102.097 E49.36199
G1 X53.604 Y101.692 E49.39650
G1 X53.410 Y101.229 E49.43406
G1 X53.334 Y100.961 E49.45492
G1 X53.251 Y100.490 E49.49071
G1 X53.210 Y100.097 E49.52028
G1 X53.218 Y99.782 E49.54390
G1 X53.306 Y99.149 E49.59165
G1 X53.396 Y98.816 E49.61748
G1 X53.640 Y98.221 E49.66560
G1 X53.805 Y97.928 E49.69083
G1 X54.223 Y97.360 E49.74357
G1 X54.541 Y97.049 E49.77687
G1 X55.210 Y96.588 E49.83768
G1 X55.555 Y97.083 F30000.000
G1 F2100
G1 X67.203 Y90.637 E50.83394
G1 X76.186 Y85.700 E51.60102
G1 X82.192 Y82.490 E52.11062
G1 X85.751 Y80.633 E52.41107
G1 X89.673 Y78.713 E52.73783
G1 X91.696 Y79.976 E52.91629
G1 X91.696 Y119.553 E55.87810
G1 X90.196 Y120.840 E56.02604
G1 X88.258 Y120.541 E56.17273
G1 X87.935 Y120.437 E56.19818
G1 X82.626 Y117.745 E56.64359
G1 X73.231 Y112.681 E57.44228
G1 X59.624 Y105.181 E58.60507
G1 X55.364 Y102.806 E58.97002
G1 X54.942 Y102.493 E59.00935
G1 X54.668 Y102.223 E59.03813
G1 X54.434 Y101.931 E59.06613
G1 X54.139 Y101.420 E59.11025
G1 X53.979 Y101.037 E59.14137
G1 X53.919 Y100.827 E59.15768
G1 X53.832 Y100.309 E59.19697
G1 X53.811 Y100.077 E59.21442
G1 X53.817 Y99.830 E59.23288
G1 X53.895 Y99.270 E59.27525
G1 X53.966 Y99.009 E59.29543
G1 X54.181 Y98.483 E59.33798
G1 X54.311 Y98.253 E59.35771
G1 X54.678 Y97.754 E59.40407
G1 X54.926 Y97.511 E59.43010
G1 X55.503 Y97.112 E59.48256
G1 X55.847 Y97.607 F30000.000
G1 F2100
G1 X67.493 Y91.162 E60.47862
G1 X76.470 Y86.228 E61.24524
G1 X82.473 Y83.020 E61.75461
G1 X86.025 Y81.167 E62.05442
G1 X89.638 Y79.399 E62.35542
G1 X91.096 Y80.308 E62.48406
G1 X91.096 Y119.277 E65.40031
G1 X90.015 Y120.205 E65.50695
G1 X88.397 Y119.955 E65.62944
G1 X88.164 Y119.880 E65.64778
G1 X82.907 Y117.215 E66.08879
G1 X73.517 Y112.154 E66.88709
G1 X59.914 Y104.656 E68.04951
G1 X55.677 Y102.293 E68.41257
G1 X55.328 Y102.033 E68.44512
G1 X55.112 Y101.819 E68.46784
G1 X54.855 Y101.479 E68.49976
G1 X54.675 Y101.149 E68.52792
G1 X54.548 Y100.844 E68.55260
G1 X54.505 Y100.693 E68.56436
G1 X54.428 Y100.242 E68.59856
G1 X54.416 Y99.879 E68.62575
G1 X54.484 Y99.390 E68.66272
G1 X54.535 Y99.202 E68.67728
G1 X54.723 Y98.745 E68.71426
G1 X54.816 Y98.579 E68.72847
G1 X55.132 Y98.149 E68.76845
G1 X55.311 Y97.974 E68.78721
G1 X55.795 Y97.637 E68.83132
G1 X56.139 Y98.131 F30000.000
G1 F2100
G1 X67.783 Y91.688 E69.82718
G1 X76.755 Y86.757 E70.59335
G1 X82.755 Y83.550 E71.10247
G1 X86.299 Y81.701 E71.40166
G1 X89.603 Y80.084 E71.67688
G1 X90.496 Y80.641 E71.75570
G1 X90.496 Y119.002 E74.62640
G1 X89.833 Y119.570 E74.69174
G1 X88.536 Y119.369 E74.79003
G1 X88.393 Y119.323 E74.80127
G1 X83.189 Y116.686 E75.23787
G1 X73.803 Y111.626 E76.03579
G1 X60.204 Y104.130 E77.19783
G1 X55.989 Y101.780 E77.55900
G1 X55.714 Y101.573 E77.58477
G1 X55.556 Y101.415 E77.60144
G1 X55.370 Y101.170 E77.62451
G1 X55.210 Y100.877 E77.64949
G1 X55.091 Y100.559 E77.67490
G1 X55.025 Y100.176 E77.70401
G1 X55.015 Y99.928 E77.72254
G1 X55.104 Y99.395 E77.76298
G1 X55.321 Y98.905 E77.80305
G1 X55.587 Y98.544 E77.83664
G1 X55.696 Y98.436 E77.84814
G1 X56.088 Y98.162 E77.88390
G1 X56.431 Y98.655 F30000.000
G1 F2100
G1 X68.072 Y92.213 E78.87955
G1 X77.039 Y87.285 E79.64527
G1 X83.036 Y84.080 E80.15415
G1 X86.574 Y82.234 E80.45271
G1 X89.567 Y80.769 E80.70216
G1 X89.896 Y80.974 E80.73117
G1 X89.896 Y118.726 E83.55630
G1 X89.652 Y118.935 E83.58035
G1 X88.621 Y118.767 E83.65852
G1 X83.474 Y116.158 E84.09039
G1 X74.088 Y111.098 E84.88837
G1 X60.494 Y103.605 E86.04992
G1 X56.301 Y101.267 E86.40920
G1 X56.100 Y101.113 E86.42819
G1 X55.989 Y100.998 E86.44017
G1 X55.885 Y100.861 E86.45303
G1 X55.745 Y100.605 E86.47482
G1 X55.676 Y100.425 E86.48927
G1 X55.614 Y99.977 E86.52311
G1 X55.674 Y99.588 E86.55255
G1 X55.826 Y99.231 E86.58158
G1 X56.082 Y98.899 E86.61297
G1 X56.381 Y98.688 E86.64037
G1 E84.64037 F2400.00000
G92 E0
G1 X89.247 Y118.215 F30000.000
G1 E2.00000 F2400.00000
G1 F2100
G1 X88.848 Y118.153 E2.02699
G1 X83.773 Y115.581 E2.40708
G1 X74.399 Y110.528 E3.11848
G1 X60.809 Y103.037 E4.15517
G1 X56.649 Y100.718 E4.47333
G1 X56.533 Y100.627 E4.48317
G1 X56.437 Y100.514 E4.49311
G1 X56.306 Y100.254 E4.51256
G1 X56.266 Y100.002 E4.52956
G1 X56.297 Y99.779 E4.54460
G1 X56.383 Y99.569 E4.55978
G1 X56.519 Y99.386 E4.57502
G1 X56.761 Y99.215 E4.59479
G1 X68.386 Y92.782 E5.48239
G1 X77.348 Y87.856 E6.16557
G1 X83.340 Y84.654 E6.61950
G1 X86.868 Y82.813 E6.88535
G1 X89.247 Y81.649 E7.06225
G1 X89.247 Y118.155 E9.50105
G1 X88.918 Y117.988 F30000.000
G1 X88.711 Y117.484 F30000.000
G1 F2100
G1 X84.021 Y115.106 E9.85234
G1 X74.656 Y110.058 E10.56312
G1 X61.069 Y102.569 E11.59956
G1 X56.946 Y100.270 E11.91488
G1 X56.893 Y100.228 E11.91941
G1 X56.822 Y100.087 E11.92994
G1 X56.808 Y99.997 E11.93605
G1 X56.854 Y99.833 E11.94741
G1 X56.898 Y99.773 E11.95241
G1 X57.045 Y99.670 E11.96442
G1 X68.644 Y93.251 E12.85003
G1 X77.603 Y88.327 E13.53295
G1 X83.590 Y85.127 E13.98649
G1 X87.110 Y83.291 E14.25170
G1 X88.711 Y82.507 E14.37079
G1 X88.711 Y117.424 E16.70339
G1 X88.119 Y116.669 F30000.000
G1 F2100
G1 X88.233 Y116.555 E16.71420
G1 X88.233 Y115.793 E16.76538
G1 X87.613 Y116.412 E16.82422
G1 X87.108 Y116.156 E16.86230
G1 X88.233 Y115.031 E16.96917
G1 X88.233 Y114.269 E17.02035
G1 X86.602 Y115.900 E17.17526
G1 X86.097 Y115.644 E17.21334
G1 X88.233 Y113.508 E17.41628
G1 X88.233 Y112.746 E17.46746
G1 X85.591 Y115.387 E17.71844
G1 X85.086 Y115.131 E17.75652
G1 X88.233 Y111.984 E18.05554
G1 X88.233 Y111.222 E18.10672
G1 X84.580 Y114.875 E18.45376
G1 X84.077 Y114.616 E18.49176
G1 X88.233 Y110.460 E18.88657
G1 X88.233 Y109.699 E18.93775
G1 X83.582 Y114.349 E19.37959
G1 X83.087 Y114.082 E19.41737
G1 X88.233 Y108.937 E19.90623
G1 X88.233 Y108.175 E19.95741
G1 X82.592 Y113.815 E20.49331
G1 X82.097 Y113.548 E20.53109
G1 X88.233 Y107.413 E21.11402
G1 X88.233 Y106.652 E21.16520
G1 X81.602 Y113.282 E21.79516
G1 X81.108 Y113.015 E21.83293
G1 X88.233 Y105.890 E22.50992
G1 X88.233 Y105.128 E22.56110
G1 X80.613 Y112.748 E23.28512
G1 X80.118 Y112.481 E23.32290
G1 X88.233 Y104.366 E24.09394
G1 X88.233 Y103.604 E24.14513
G1 X79.623 Y112.214 E24.96320
G1 X79.128 Y111.948 E25.00098
G1 X88.233 Y102.843 E25.86609
G1 X88.233 Y102.081 E25.91727
G1 X78.633 Y111.681 E26.82940
G1 X78.138 Y111.414 E26.86718
G1 X88.233 Y101.319 E27.82635
G1 X88.233 Y100.557 E27.87753
G1 X77.643 Y111.147 E28.88372
G1 X77.148 Y110.880 E28.92150
G1 X88.233 Y99.795 E29.97472
G1 X88.233 Y99.034 E30.02591
G1 X76.653 Y110.613 E31.12616
G1 X76.158 Y110.347 E31.16394
G1 X88.233 Y98.272 E32.31122
G1 X88.233 Y97.510 E32.36240
G1 X75.663 Y110.080 E33.55672
G1 X75.168 Y109.813 E33.59450
G1 X88.233 Y96.748 E34.83584
G1 X88.233 Y95.986 E34.88702
G1 X74.674 Y109.545 E36.17526
G1 X74.183 Y109.274 E36.21293
G1 X88.233 Y95.225 E37.54783
G1 X88.233 Y94.463 E37.59901
G1 X73.692 Y109.003 E38.98057
G1 X73.201 Y108.733 E39.01825
G1 X88.233 Y93.701 E40.44647
G1 X88.233 Y92.939 E40.49765
G1 X72.710 Y108.462 E41.97253
G1 X72.219 Y108.191 E42.01021
G1 X88.233 Y92.178 E43.53175
G1 X88.233 Y91.416 E43.58293
G1 X71.728 Y107.921 E45.15114
G1 X71.237 Y107.650 E45.18881
G1 X88.233 Y90.654 E46.80368
G1 X88.233 Y89.892 E46.85486
G1 X70.746 Y107.379 E48.51638
G1 X70.254 Y107.109 E48.55406
G1 X88.233 Y89.130 E50.26225
G1 X88.233 Y88.369 E50.31343
G1 X69.763 Y106.838 E52.06828
G1 X69.272 Y106.567 E52.10595
G1 X88.233 Y87.607 E53.90746
G1 X88.233 Y86.845 E53.95865
G1 X68.781 Y106.296 E55.80682
G1 X68.290 Y106.026 E55.84449
G1 X88.233 Y86.083 E57.73933
G1 X88.233 Y85.321 E57.79051
G1 X67.799 Y105.755 E59.73200
G1 X67.308 Y105.484 E59.76968
G1 X88.233 Y84.560 E61.75783
G1 X88.233 Y83.798 E61.80902
G1 X66.817 Y105.214 E63.84383
G1 X66.326 Y104.943 E63.88151
G1 X87.698 Y83.571 E65.91219
G1 X86.125 Y84.382 E66.03111
G1 X65.835 Y104.672 E67.95898
G1 X65.343 Y104.402 E67.99666
G1 X84.532 Y85.213 E69.81988
G1 X82.913 Y86.070 E69.94296
G1 X64.852 Y104.131 E71.65901
G1 X64.361 Y103.860 E71.69669
G1 X81.277 Y86.945 E73.30391
G1 X79.640 Y87.819 E73.42858
G1 X63.870 Y103.590 E74.92698
G1 X63.379 Y103.319 E74.96466
G1 X78.004 Y88.694 E76.35423
G1 X76.316 Y89.621 E76.48362
G1 X62.888 Y103.048 E77.75943
G1 X62.397 Y102.777 E77.79711
G1 X74.624 Y90.550 E78.95888
G1 X72.933 Y91.480 E79.08855
G1 X61.906 Y102.507 E80.13627
G1 X61.415 Y102.236 E80.17394
G1 X71.241 Y92.409 E81.10763
G1 X69.550 Y93.339 E81.23729
G1 X60.925 Y101.964 E82.05680
G1 X60.436 Y101.691 E82.09442
G1 X67.849 Y94.278 E82.79880
G1 X66.144 Y95.222 E82.92977
G1 X59.947 Y101.418 E83.51856
G1 X59.458 Y101.146 E83.55618
G1 X64.438 Y96.166 E84.02938
G1 X62.732 Y97.109 E84.16035
G1 X58.969 Y100.873 E84.51795
G1 X58.480 Y100.600 E84.55557
G1 X61.027 Y98.053 E84.79759
G1 X59.321 Y98.997 E84.92856
G1 X57.991 Y100.328 E85.05497
G1 X57.502 Y100.055 E85.09260
G1 X57.615 Y99.941 E85.10342
G1 Z0.500 F30000.000
G1 E83.10342 F2400.00000
G92 E0
G1 X142.451 Y148.809 F30000.000
G1 E2.00000 F2400.00000

G1 F4800
G1 X138.088 Y146.597 E2.25560
G1 X128.718 Y141.547 E2.81168
G1 X115.130 Y134.057 E3.62231
G1 X97.380 Y124.159 E4.68409
G1 X75.539 Y111.893 E5.99281
G1 X62.989 Y104.810 E6.74568

G1 F6000
G1 X56.454 Y101.122 E6.96848
G1 X56.167 Y100.887 E6.97950
G1 X56.005 Y100.666 E6.98764
G1 X55.914 Y100.483 E6.99370
G1 X55.853 Y100.290 E6.99971
G1 X55.823 Y100.079 E7.00603
G1 X55.829 Y99.861 E7.01250
G1 X55.869 Y99.655 E7.01874
G1 X55.942 Y99.454 E7.02510
G1 X56.046 Y99.265 E7.03149
G1 X56.191 Y99.090 E7.03825
G1 X56.379 Y98.926 E7.04564
G1 X63.187 Y95.080 E7.27782

G1 F4800
G1 X73.490 Y89.259 E7.89604
G1 X89.251 Y80.404 E8.84057
G1 X102.085 Y73.208 E9.60928
G1 X114.399 Y66.347 E10.34573
G1 X131.667 Y56.838 E11.37562
G1 X137.656 Y53.637 E11.73043
G1 X141.179 Y51.799 E11.93806
G1 X142.451 Y51.176 E12.01204
G1 X142.451 Y148.749 E17.10972

G1 X142.828 Y149.423 F30000.000

G1 F4800
G1 X137.913 Y146.932 E17.39764
G1 X128.538 Y141.878 E17.95406
G1 X114.947 Y134.387 E18.76483
G1 X97.196 Y124.488 E19.82669
G1 X75.354 Y112.221 E21.13546
G1 X56.247 Y101.438 E22.28171
G1 X56.007 Y101.256 E22.29743
G1 X55.783 Y101.021 E22.31443
G1 X55.564 Y100.625 E22.33806
G1 X55.485 Y100.378 E22.35162
G1 X55.446 Y100.097 E22.36643
G1 X55.453 Y99.821 E22.38088
G1 X55.504 Y99.555 E22.39503
G1 X55.597 Y99.297 E22.40932
G1 X55.733 Y99.052 E22.42396
G1 X55.920 Y98.825 E22.43932
G1 X56.160 Y98.617 E22.45593
G1 X73.305 Y88.931 E23.48471
G1 X101.901 Y72.879 E25.19802
