; generated by Slic3r 1.3.0 on 2020-09-23 at 11:53:12

; external perimeters extrusion width = 0.44mm (2.78mm^3/s)
; perimeters extrusion width = 0.40mm (7.14mm^3/s)
; infill extrusion width = 0.50mm (10.97mm^3/s)
; solid infill extrusion width = 0.60mm (6.68mm^3/s)
; top infill extrusion width = 0.40mm (2.14mm^3/s)

M107
M190 S80 ; set bed temperature and wait for it to be reached
M104 S200 ; set temperature
G28 ; home all axes
G1 Z5 F5000 ; lift nozzle

; Filament gcode

M109 S200 ; set temperature and wait for it to be reached
G21 ; set units to millimeters
G90 ; use absolute coordinates
M82 ; use absolute distances for extrusion
G92 E0
G1 Z0.300 F30000.000
G1 E-2.00000 F2400.00000
G92 E0
G1 X41.621 Y54.108 F30000.000
G1 E2.00000 F2400.00000
G1 F2100
G1 X42.040 Y53.804 E2.03454
G1 X42.861 Y53.268 E2.10001
G1 X43.966 Y52.581 E2.18693
G1 X44.418 Y52.333 E2.22145
G1 X45.300 Y51.904 E2.28692
G1 X46.482 Y51.361 E2.37383
G1 X46.963 Y51.171 E2.40836
G1 X48.134 Y50.777 E2.49091
G1 X49.132 Y50.466 E2.56076
G1 X49.633 Y50.338 E2.59528
G1 X50.593 Y50.142 E2.66074
G1 X51.873 Y49.910 E2.74767
G1 X52.386 Y49.845 E2.78220
G1 X53.429 Y49.767 E2.85205
G1 X54.662 Y49.702 E2.93457
G1 X55.180 Y49.702 E2.96913
G1 X56.479 Y49.772 E3.05603
G1 X57.456 Y49.845 E3.12150
G1 X57.969 Y49.910 E3.15603
G1 X59.185 Y50.129 E3.23863
G1 X60.209 Y50.338 E3.30842
G1 X60.710 Y50.466 E3.34294
G1 X61.951 Y50.857 E3.42987
G1 X62.879 Y51.171 E3.49534
G1 X63.360 Y51.361 E3.52987
G1 X64.542 Y51.904 E3.61678
G1 X65.423 Y52.333 E3.68225
G1 X65.876 Y52.581 E3.71677
G1 X66.981 Y53.268 E3.80369
G1 X67.802 Y53.804 E3.86916
G1 X68.220 Y54.108 E3.90370
G1 X69.034 Y54.764 E3.97350
G1 X69.978 Y55.561 E4.05607
G1 X70.355 Y55.915 E4.09063
G1 X71.035 Y56.621 E4.15610
G1 X71.916 Y57.578 E4.24300
G1 X72.246 Y57.976 E4.27754
G1 X72.831 Y58.762 E4.34301
G1 X73.586 Y59.822 E4.42993
G1 X73.863 Y60.258 E4.46445
G1 X74.501 Y61.392 E4.55137
G1 X74.962 Y62.257 E4.61684
G1 X75.182 Y62.724 E4.65136
G1 X75.579 Y63.692 E4.72120
G1 X76.022 Y64.845 E4.80374
G1 X76.181 Y65.337 E4.83830
G1 X76.437 Y66.283 E4.90376
G1 X76.749 Y67.546 E4.99065
G1 X76.845 Y68.054 E5.02520
G1 X76.980 Y69.024 E5.09066
G1 X77.131 Y70.317 E5.17758
G1 X77.164 Y70.832 E5.21211
G1 X77.176 Y71.812 E5.27758
G1 X77.164 Y73.113 E5.36450
G1 X77.131 Y73.629 E5.39903
G1 X77.013 Y74.667 E5.46883
G1 X76.845 Y75.892 E5.55141
G1 X76.749 Y76.400 E5.58596
G1 X76.517 Y77.352 E5.65142
G1 X76.181 Y78.609 E5.73832
G1 X76.022 Y79.101 E5.77287
G1 X75.672 Y80.016 E5.83834
G1 X75.182 Y81.221 E5.92525
G1 X74.962 Y81.689 E5.95977
G1 X74.469 Y82.612 E6.02967
G1 X73.863 Y83.688 E6.11216
G1 X73.586 Y84.124 E6.14668
G1 X73.020 Y84.924 E6.21215
G1 X72.246 Y85.969 E6.29907
G1 X71.916 Y86.368 E6.33361
G1 X71.254 Y87.091 E6.39908
G1 X70.355 Y88.030 E6.48598
G1 X69.978 Y88.385 E6.52054
G1 X69.033 Y89.182 E6.60311
G1 X68.220 Y89.838 E6.67291
G1 X67.802 Y90.142 E6.70745
G1 X66.981 Y90.678 E6.77292
G1 X65.876 Y91.364 E6.85984
G1 X65.423 Y91.613 E6.89436
G1 X64.542 Y92.042 E6.95983
G1 X63.360 Y92.584 E7.04674
G1 X62.879 Y92.775 E7.08127
G1 X61.708 Y93.169 E7.16382
G1 X60.710 Y93.480 E7.23367
G1 X60.209 Y93.608 E7.26819
G1 X59.249 Y93.804 E7.33366
G1 X57.969 Y94.036 E7.42058
G1 X57.456 Y94.100 E7.45511
G1 X56.413 Y94.179 E7.52496
G1 X55.180 Y94.243 E7.60748
G1 X54.662 Y94.243 E7.64204
G1 X53.363 Y94.174 E7.72894
G1 X52.386 Y94.100 E7.79441
G1 X51.873 Y94.036 E7.82894
G1 X50.656 Y93.816 E7.91154
G1 X49.633 Y93.608 E7.98133
G1 X49.132 Y93.480 E8.01585
G1 X47.891 Y93.089 E8.10278
G1 X46.963 Y92.775 E8.16825
G1 X46.482 Y92.584 E8.20278
G1 X45.300 Y92.042 E8.28969
G1 X44.418 Y91.613 E8.35516
G1 X43.966 Y91.364 E8.38968
G1 X43.076 Y90.815 E8.45957
G1 X42.040 Y90.142 E8.54207
G1 X41.621 Y89.838 E8.57661
G1 X40.611 Y89.019 E8.66351
G1 X39.864 Y88.385 E8.72898
G1 X39.487 Y88.030 E8.76354
G1 X38.588 Y87.091 E8.85044
G1 X37.926 Y86.368 E8.91591
G1 X37.596 Y85.969 E8.95045
G1 X36.860 Y84.978 E9.03295
G1 X36.256 Y84.124 E9.10285
G1 X35.979 Y83.688 E9.13736
G1 X35.341 Y82.554 E9.22428
G1 X34.880 Y81.689 E9.28975
G1 X34.660 Y81.221 E9.32428
G1 X34.170 Y80.016 E9.41118
G1 X33.820 Y79.101 E9.47665
G1 X33.660 Y78.609 E9.51121
G1 X33.325 Y77.352 E9.59810
G1 X33.093 Y76.400 E9.66357
G1 X32.996 Y75.892 E9.69811
G1 X32.829 Y74.667 E9.78068
G1 X32.710 Y73.629 E9.85050
G1 X32.678 Y73.113 E9.88503
G1 X32.666 Y72.134 E9.95049
G1 X32.678 Y70.832 E10.03741
G1 X32.710 Y70.317 E10.07194
G1 X32.829 Y69.278 E10.14175
G1 X32.996 Y68.054 E10.22432
G1 X33.093 Y67.546 E10.25887
G1 X33.405 Y66.283 E10.34576
G1 X33.660 Y65.337 E10.41123
G1 X33.820 Y64.845 E10.44578
G1 X34.288 Y63.631 E10.53269
G1 X34.660 Y62.724 E10.59816
G1 X34.880 Y62.257 E10.63269
G1 X35.373 Y61.334 E10.70258
G1 X35.979 Y60.258 E10.78507
G1 X36.256 Y59.822 E10.81959
G1 X36.860 Y58.968 E10.88949
G1 X37.596 Y57.976 E10.97198
G1 X37.926 Y57.578 E11.00652
G1 X38.631 Y56.808 E11.07630
G1 X39.487 Y55.915 E11.15890
G1 X39.864 Y55.561 E11.19345
G1 X40.611 Y54.927 E11.25893
G1 X41.575 Y54.145 E11.34182
G1 X41.958 Y54.524 F30000.000
G1 F2100
G1 X42.332 Y54.252 E11.37276
G1 X43.153 Y53.717 E11.43823
G1 X44.247 Y53.037 E11.52425
G1 X44.653 Y52.814 E11.55517
G1 X45.534 Y52.386 E11.62064
G1 X46.704 Y51.849 E11.70666
G1 X47.135 Y51.678 E11.73759
G1 X48.300 Y51.287 E11.81970
G1 X49.291 Y50.978 E11.88909
G1 X49.740 Y50.863 E11.92001
G1 X50.700 Y50.667 E11.98548
G1 X51.967 Y50.438 E12.07150
G1 X52.426 Y50.380 E12.10244
G1 X53.462 Y50.302 E12.17183
G1 X54.689 Y50.237 E12.25391
G1 X55.153 Y50.237 E12.28487
G1 X56.438 Y50.306 E12.37088
G1 X57.415 Y50.380 E12.43635
G1 X57.875 Y50.438 E12.46728
G1 X59.085 Y50.656 E12.54943
G1 X60.102 Y50.863 E12.61877
G1 X60.550 Y50.978 E12.64970
G1 X61.779 Y51.364 E12.73573
G1 X62.707 Y51.678 E12.80120
G1 X63.138 Y51.849 E12.83213
G1 X64.308 Y52.386 E12.91815
G1 X65.189 Y52.814 E12.98361
G1 X65.595 Y53.037 E13.01454
G1 X66.689 Y53.717 E13.10055
G1 X67.509 Y54.252 E13.16602
G1 X67.884 Y54.524 E13.19697
G1 X68.692 Y55.176 E13.26632
G1 X69.631 Y55.970 E13.34845
G1 X69.969 Y56.287 E13.37940
G1 X70.649 Y56.993 E13.44487
G1 X71.521 Y57.940 E13.53088
G1 X71.816 Y58.297 E13.56182
G1 X72.402 Y59.082 E13.62729
G1 X73.149 Y60.131 E13.71331
G1 X73.397 Y60.522 E13.74424
G1 X74.028 Y61.644 E13.83025
G1 X74.489 Y62.509 E13.89572
G1 X74.687 Y62.928 E13.92665
G1 X75.081 Y63.889 E13.99603
G1 X75.521 Y65.036 E14.07813
G1 X75.664 Y65.477 E14.10909
G1 X75.920 Y66.423 E14.17456
G1 X76.228 Y67.672 E14.26055
G1 X76.315 Y68.127 E14.29150
G1 X76.450 Y69.098 E14.35696
G1 X76.599 Y70.377 E14.44298
G1 X76.628 Y70.839 E14.47392
G1 X76.641 Y71.819 E14.53938
G1 X76.628 Y73.107 E14.62540
G1 X76.599 Y73.569 E14.65634
G1 X76.482 Y74.600 E14.72569
G1 X76.315 Y75.818 E14.80782
G1 X76.228 Y76.273 E14.83877
G1 X75.996 Y77.225 E14.90424
G1 X75.664 Y78.469 E14.99023
G1 X75.521 Y78.910 E15.02119
G1 X75.172 Y79.826 E15.08666
G1 X74.687 Y81.018 E15.17267
G1 X74.489 Y81.437 E15.20360
G1 X74.000 Y82.354 E15.27304
G1 X73.397 Y83.424 E15.35509
G1 X73.149 Y83.815 E15.38601
G1 X72.583 Y84.615 E15.45148
G1 X71.816 Y85.649 E15.53750
G1 X71.521 Y86.006 E15.56845
G1 X70.859 Y86.729 E15.63392
G1 X69.969 Y87.659 E15.71992
G1 X69.631 Y87.976 E15.75088
G1 X68.692 Y88.769 E15.83300
G1 X67.884 Y89.421 E15.90235
G1 X67.509 Y89.694 E15.93330
G1 X66.689 Y90.229 E15.99877
G1 X65.595 Y90.909 E16.08479
G1 X65.189 Y91.132 E16.11571
G1 X64.308 Y91.560 E16.18118
G1 X63.138 Y92.097 E16.26720
G1 X62.707 Y92.267 E16.29813
G1 X61.542 Y92.659 E16.38023
G1 X60.550 Y92.968 E16.44963
G1 X60.102 Y93.083 E16.48055
G1 X59.142 Y93.279 E16.54602
G1 X57.875 Y93.508 E16.63204
G1 X57.415 Y93.566 E16.66298
G1 X56.380 Y93.644 E16.73237
G1 X55.153 Y93.709 E16.81445
G1 X54.689 Y93.709 E16.84541
G1 X53.404 Y93.640 E16.93141
G1 X52.426 Y93.566 E16.99688
G1 X51.967 Y93.508 E17.02782
G1 X50.757 Y93.290 E17.10997
G1 X49.740 Y93.083 E17.17931
G1 X49.291 Y92.968 E17.21023
G1 X48.063 Y92.582 E17.29627
G1 X47.135 Y92.267 E17.36173
G1 X46.704 Y92.097 E17.39266
G1 X45.534 Y91.560 E17.47868
G1 X44.653 Y91.132 E17.54415
G1 X44.247 Y90.909 E17.57508
G1 X43.153 Y90.229 E17.66109
G1 X42.332 Y89.694 E17.72656
G1 X41.958 Y89.421 E17.75751
G1 X41.150 Y88.769 E17.82686
G1 X40.211 Y87.976 E17.90898
G1 X39.873 Y87.659 E17.93994
G1 X39.193 Y86.953 E18.00541
G1 X38.321 Y86.006 E18.09141
G1 X38.026 Y85.649 E18.12236
G1 X37.440 Y84.864 E18.18783
G1 X36.693 Y83.815 E18.27385
G1 X36.445 Y83.424 E18.30477
G1 X35.814 Y82.302 E18.39079
G1 X35.352 Y81.437 E18.45626
G1 X35.155 Y81.018 E18.48719
G1 X34.761 Y80.057 E18.55657
G1 X34.321 Y78.910 E18.63867
G1 X34.177 Y78.469 E18.66963
G1 X33.922 Y77.523 E18.73509
G1 X33.614 Y76.273 E18.82109
G1 X33.527 Y75.818 E18.85204
G1 X33.392 Y74.848 E18.91750
G1 X33.243 Y73.569 E19.00352
G1 X33.214 Y73.107 E19.03446
G1 X33.201 Y72.127 E19.09992
G1 X33.214 Y70.839 E19.18594
G1 X33.243 Y70.377 E19.21688
G1 X33.360 Y69.346 E19.28623
G1 X33.527 Y68.127 E19.36836
G1 X33.614 Y67.672 E19.39931
G1 X33.845 Y66.720 E19.46478
G1 X34.177 Y65.477 E19.55077
G1 X34.321 Y65.036 E19.58173
G1 X34.670 Y64.120 E19.64720
G1 X35.155 Y62.928 E19.73321
G1 X35.352 Y62.509 E19.76414
G1 X35.842 Y61.592 E19.83357
G1 X36.445 Y60.522 E19.91563
G1 X36.693 Y60.131 E19.94655
G1 X37.259 Y59.331 E20.01202
G1 X38.026 Y58.297 E20.09804
G1 X38.321 Y57.940 E20.12898
G1 X38.983 Y57.217 E20.19445
G1 X39.873 Y56.287 E20.28046
G1 X40.211 Y55.970 E20.31142
G1 X41.911 Y54.562 E20.45887
G1 X42.294 Y54.941 F30000.000
G1 F2100
G1 X42.625 Y54.701 E20.48622
G1 X43.446 Y54.165 E20.55169
G1 X44.528 Y53.493 E20.63681
G1 X44.887 Y53.296 E20.66414
G1 X45.768 Y52.868 E20.72961
G1 X46.926 Y52.336 E20.81473
G1 X47.307 Y52.186 E20.84206
G1 X48.465 Y51.796 E20.92372
G1 X49.450 Y51.489 E20.99266
G1 X49.847 Y51.387 E21.01999
G1 X50.807 Y51.192 E21.08546
G1 X52.061 Y50.965 E21.17058
G1 X52.467 Y50.914 E21.19792
G1 X53.496 Y50.836 E21.26686
G1 X54.716 Y50.772 E21.34850
G1 X55.126 Y50.772 E21.37586
G1 X56.398 Y50.840 E21.46097
G1 X57.375 Y50.914 E21.52643
G1 X57.781 Y50.965 E21.55377
G1 X58.985 Y51.182 E21.63547
G1 X59.995 Y51.387 E21.70436
G1 X60.391 Y51.489 E21.73169
G1 X61.607 Y51.871 E21.81683
G1 X62.535 Y52.186 E21.88229
G1 X62.916 Y52.336 E21.90963
G1 X64.074 Y52.868 E21.99475
G1 X64.955 Y53.296 E22.06022
G1 X65.314 Y53.493 E22.08754
G1 X66.396 Y54.165 E22.17266
G1 X67.217 Y54.701 E22.23813
G1 X67.548 Y54.941 E22.26548
G1 X68.351 Y55.589 E22.33438
G1 X69.285 Y56.378 E22.41606
G1 X69.583 Y56.658 E22.44342
G1 X70.263 Y57.364 E22.50889
G1 X71.126 Y58.301 E22.59399
G1 X71.387 Y58.617 E22.62134
G1 X71.973 Y59.402 E22.68681
G1 X72.712 Y60.440 E22.77194
G1 X72.931 Y60.786 E22.79926
G1 X73.556 Y61.896 E22.88438
G1 X74.017 Y62.761 E22.94985
G1 X74.191 Y63.131 E22.97719
G1 X74.583 Y64.086 E23.04611
G1 X75.021 Y65.227 E23.12777
G1 X75.147 Y65.616 E23.15512
G1 X75.403 Y66.562 E23.22059
G1 X75.708 Y67.799 E23.30569
G1 X75.784 Y68.201 E23.33304
G1 X75.919 Y69.172 E23.39851
G1 X76.067 Y70.437 E23.48363
G1 X76.093 Y70.846 E23.51096
G1 X76.105 Y71.826 E23.57643
G1 X76.093 Y73.100 E23.66155
G1 X76.067 Y73.508 E23.68889
G1 X75.950 Y74.533 E23.75779
G1 X75.784 Y75.744 E23.83948
G1 X75.708 Y76.147 E23.86683
G1 X75.476 Y77.099 E23.93229
G1 X75.147 Y78.329 E24.01739
G1 X75.021 Y78.719 E24.04475
G1 X74.671 Y79.635 E24.11022
G1 X74.191 Y80.815 E24.19533
G1 X74.017 Y81.185 E24.22267
G1 X73.531 Y82.096 E24.29164
G1 X72.931 Y83.160 E24.37326
G1 X72.712 Y83.505 E24.40058
G1 X72.146 Y84.305 E24.46605
G1 X71.387 Y85.329 E24.55118
G1 X71.126 Y85.644 E24.57852
G1 X70.464 Y86.367 E24.64399
G1 X69.583 Y87.287 E24.72910
G1 X69.285 Y87.568 E24.75646
G1 X68.351 Y88.357 E24.83814
G1 X67.548 Y89.004 E24.90704
G1 X67.217 Y89.245 E24.93438
G1 X66.396 Y89.780 E24.99985
G1 X65.314 Y90.453 E25.08497
G1 X64.955 Y90.650 E25.11230
G1 X64.074 Y91.078 E25.17777
G1 X62.916 Y91.609 E25.26289
G1 X62.535 Y91.760 E25.29022
G1 X61.377 Y92.150 E25.37189
G1 X60.391 Y92.457 E25.44083
G1 X59.995 Y92.558 E25.46816
G1 X59.035 Y92.754 E25.53362
G1 X57.781 Y92.981 E25.61874
G1 X57.375 Y93.032 E25.64608
G1 X56.346 Y93.109 E25.71502
G1 X55.126 Y93.174 E25.79666
G1 X54.716 Y93.174 E25.82402
G1 X53.444 Y93.106 E25.90913
G1 X52.467 Y93.032 E25.97460
G1 X52.061 Y92.981 E26.00194
G1 X50.857 Y92.764 E26.08364
G1 X49.847 Y92.558 E26.15253
G1 X49.450 Y92.457 E26.17986
G1 X48.235 Y92.075 E26.26499
G1 X47.307 Y91.760 E26.33046
G1 X46.926 Y91.609 E26.35779
G1 X45.768 Y91.078 E26.44291
G1 X44.887 Y90.650 E26.50838
G1 X44.528 Y90.453 E26.53571
G1 X43.446 Y89.780 E26.62083
G1 X42.625 Y89.245 E26.68630
G1 X42.294 Y89.004 E26.71364
G1 X41.491 Y88.357 E26.78254
G1 X40.557 Y87.568 E26.86422
G1 X40.259 Y87.287 E26.89158
G1 X39.579 Y86.581 E26.95705
G1 X38.716 Y85.644 E27.04216
G1 X38.455 Y85.329 E27.06951
G1 X37.869 Y84.543 E27.13498
G1 X37.130 Y83.505 E27.22010
G1 X36.911 Y83.160 E27.24742
G1 X36.286 Y82.049 E27.33254
G1 X35.825 Y81.185 E27.39801
G1 X35.651 Y80.815 E27.42535
G1 X35.259 Y79.860 E27.49427
G1 X34.821 Y78.719 E27.57593
G1 X34.695 Y78.330 E27.60329
G1 X34.439 Y77.383 E27.66875
G1 X34.134 Y76.147 E27.75386
G1 X34.057 Y75.745 E27.78120
G1 X33.922 Y74.774 E27.84667
G1 X33.775 Y73.508 E27.93179
G1 X33.749 Y73.100 E27.95913
G1 X33.737 Y72.120 E28.02459
G1 X33.749 Y70.846 E28.10972
G1 X33.775 Y70.437 E28.13705
G1 X33.892 Y69.413 E28.20596
G1 X34.057 Y68.201 E28.28764
G1 X34.134 Y67.799 E28.31499
G1 X34.366 Y66.847 E28.38046
G1 X34.695 Y65.616 E28.46556
G1 X34.821 Y65.227 E28.49291
G1 X35.170 Y64.311 E28.55838
G1 X35.651 Y63.131 E28.64349
G1 X35.825 Y62.761 E28.67083
G1 X36.311 Y61.850 E28.73980
G1 X36.911 Y60.786 E28.82142
G1 X37.130 Y60.440 E28.84875
G1 X37.696 Y59.640 E28.91422
G1 X38.455 Y58.617 E28.99934
G1 X38.716 Y58.301 E29.02669
G1 X39.378 Y57.579 E29.09216
G1 X40.259 Y56.658 E29.17726
G1 X40.557 Y56.378 E29.20462
G1 X42.247 Y54.979 E29.35118
G1 X42.630 Y55.358 F30000.000
G1 F2100
G1 X42.918 Y55.149 E29.37493
G1 X43.739 Y54.614 E29.44040
G1 X44.809 Y53.949 E29.52462
G1 X45.121 Y53.778 E29.54836
G1 X46.002 Y53.349 E29.61383
G1 X47.148 Y52.824 E29.69805
G1 X47.478 Y52.693 E29.72178
G1 X48.631 Y52.305 E29.80300
G1 X49.610 Y52.001 E29.87149
G1 X49.954 Y51.912 E29.89522
G1 X50.914 Y51.716 E29.96068
G1 X52.154 Y51.492 E30.04491
G1 X52.507 Y51.448 E30.06865
G1 X53.529 Y51.371 E30.13713
G1 X54.743 Y51.307 E30.21833
G1 X55.099 Y51.307 E30.24209
G1 X56.358 Y51.374 E30.32631
G1 X57.335 Y51.448 E30.39177
G1 X57.687 Y51.492 E30.41552
G1 X58.884 Y51.708 E30.49677
G1 X59.888 Y51.912 E30.56521
G1 X60.232 Y52.001 E30.58894
G1 X61.435 Y52.378 E30.67317
G1 X62.363 Y52.693 E30.73864
G1 X62.694 Y52.824 E30.76238
G1 X63.840 Y53.349 E30.84660
G1 X64.721 Y53.778 E30.91207
G1 X65.032 Y53.949 E30.93580
G1 X66.103 Y54.614 E31.02002
G1 X66.924 Y55.149 E31.08549
G1 X67.212 Y55.358 E31.10924
G1 X68.009 Y56.002 E31.17769
G1 X68.938 Y56.786 E31.25893
G1 X69.197 Y57.030 E31.28268
G1 X69.877 Y57.736 E31.34815
G1 X70.731 Y58.663 E31.43236
G1 X70.958 Y58.937 E31.45611
G1 X71.543 Y59.723 E31.52158
G1 X72.274 Y60.750 E31.60581
G1 X72.465 Y61.050 E31.62954
G1 X73.083 Y62.148 E31.71376
G1 X73.544 Y63.013 E31.77923
G1 X73.696 Y63.335 E31.80297
G1 X74.084 Y64.283 E31.87144
G1 X74.520 Y65.418 E31.95265
G1 X74.630 Y65.756 E31.97641
G1 X74.886 Y66.702 E32.04188
G1 X75.187 Y67.926 E32.12608
G1 X75.254 Y68.275 E32.14983
G1 X75.389 Y69.246 E32.21530
G1 X75.535 Y70.498 E32.29952
G1 X75.557 Y70.853 E32.32326
G1 X75.569 Y71.832 E32.38873
G1 X75.557 Y73.093 E32.47295
G1 X75.535 Y73.448 E32.49669
G1 X75.419 Y74.466 E32.56514
G1 X75.254 Y75.671 E32.64638
G1 X75.187 Y76.020 E32.67013
G1 X74.956 Y76.972 E32.73560
G1 X74.630 Y78.190 E32.81981
G1 X74.520 Y78.528 E32.84356
G1 X74.171 Y79.444 E32.90903
G1 X73.696 Y80.611 E32.99325
G1 X73.544 Y80.933 E33.01698
G1 X73.061 Y81.837 E33.08550
G1 X72.465 Y82.896 E33.16668
G1 X72.274 Y83.196 E33.19041
G1 X71.708 Y83.996 E33.25588
G1 X70.958 Y85.009 E33.34010
G1 X70.731 Y85.283 E33.36385
G1 X70.069 Y86.005 E33.42932
G1 X69.197 Y86.916 E33.51353
G1 X68.938 Y87.159 E33.53729
G1 X68.009 Y87.944 E33.61852
G1 X67.212 Y88.587 E33.68697
G1 X66.924 Y88.796 E33.71072
G1 X66.103 Y89.332 E33.77619
