; generated by Slic3r 1.3.0 on 2020-09-28 at 13:30:09

; external perimeters extrusion width = 0.44mm (2.78mm^3/s)
; perimeters extrusion width = 0.40mm (7.14mm^3/s)
; infill extrusion width = 0.50mm (10.97mm^3/s)
; solid infill extrusion width = 0.60mm (6.68mm^3/s)
; top infill extrusion width = 0.40mm (2.14mm^3/s)

M107
M190 S80 ; set bed temperature and wait for it to be reached
M104 S200 ; set temperature
G28 ; home all axes
G1 Z5 F5000 ; lift nozzle

; Filament gcode

M109 S200 ; set temperature and wait for it to be reached
G21 ; set units to millimeters
G90 ; use absolute coordinates
M82 ; use absolute distances for extrusion
G92 E0
G1 Z0.300 F30000.000
G1 E-2.00000 F2400.00000
G92 E0
G1 X25.266 Y37.119 F30000.000
G1 E2.00000 F2400.00000
G1 F2100
G1 X26.201 Y36.564 E2.07264
G1 X27.417 Y36.047 E2.16089
G1 X28.467 Y35.759 E2.23364
G1 X29.781 Y35.582 E2.32222
G1 X30.324 Y35.546 E2.35854
G1 X108.183 Y35.546 E7.55997
G1 X108.699 Y35.579 E7.59448
G1 X109.441 Y35.673 E7.64448
G1 X110.439 Y35.932 E7.71339
G1 X111.132 Y36.210 E7.76320
G1 X112.023 Y36.704 E7.83127
G1 X112.624 Y37.144 E7.88109
G1 X113.379 Y37.861 E7.95061
G1 X113.849 Y38.440 E8.00038
G1 X114.389 Y39.308 E8.06874
G1 X114.700 Y39.985 E8.11847
G1 X115.007 Y40.964 E8.18705
G1 X115.139 Y41.698 E8.23684
G1 X115.191 Y42.729 E8.30582
G1 X115.134 Y43.475 E8.35582
G1 X115.063 Y43.980 E8.38984
G1 X112.885 Y54.620 E9.11543
G1 X112.588 Y55.519 E9.17868
G1 X112.436 Y55.848 E9.20288
G1 X111.889 Y56.717 E9.27150
G1 X111.657 Y56.999 E9.29591
G1 X111.239 Y57.437 E9.33628
G1 X89.275 Y77.252 E11.31251
G1 X88.408 Y77.841 E11.38251
G1 X87.676 Y78.211 E11.43733
G1 X86.690 Y78.559 E11.50713
G1 X85.889 Y78.730 E11.56188
G1 X84.852 Y78.816 E11.63138
G1 X84.033 Y78.778 E11.68616
G1 X83.008 Y78.598 E11.75570
G1 X82.221 Y78.353 E11.81075
G1 X81.730 Y78.164 E11.84593
G1 X26.404 Y52.693 E15.91484
G1 X25.819 Y52.363 E15.95974
G1 X24.724 Y51.619 E16.04817
G1 X23.908 Y50.886 E16.12147
G1 X23.053 Y49.878 E16.20977
G1 X22.470 Y48.971 E16.28179
G1 X21.910 Y47.775 E16.37002
G1 X21.584 Y46.737 E16.44272
G1 X21.360 Y45.434 E16.53102
G1 X21.321 Y44.342 E16.60400
G1 X21.452 Y43.028 E16.69225
G1 X21.699 Y41.980 E16.76420
G1 X22.171 Y40.744 E16.85253
G1 X22.695 Y39.783 E16.92570
G1 X23.477 Y38.720 E17.01386
G1 X24.229 Y37.940 E17.08620
G1 X25.219 Y37.156 E17.17060
G1 X25.599 Y37.539 F30000.000
G1 F2100
G1 X26.411 Y37.057 E17.23369
G1 X27.626 Y36.540 E17.32193
G1 X28.538 Y36.290 E17.38512
G1 X29.852 Y36.113 E17.47369
G1 X30.324 Y36.081 E17.50523
G1 X108.183 Y36.081 E22.70666
G1 X108.631 Y36.110 E22.73663
G1 X109.373 Y36.205 E22.78664
G1 X110.240 Y36.430 E22.84648
G1 X110.932 Y36.707 E22.89629
G1 X111.706 Y37.136 E22.95540
G1 X112.308 Y37.577 E23.00522
G1 X112.963 Y38.199 E23.06560
G1 X113.433 Y38.777 E23.11537
G1 X113.902 Y39.532 E23.17474
G1 X114.213 Y40.208 E23.22446
G1 X114.480 Y41.059 E23.28402
G1 X114.612 Y41.793 E23.33381
G1 X114.657 Y42.688 E23.39371
G1 X114.600 Y43.434 E23.44372
G1 X114.539 Y43.872 E23.47326
G1 X112.360 Y54.513 E24.19884
G1 X112.103 Y55.294 E24.25377
G1 X111.950 Y55.622 E24.27798
G1 X111.475 Y56.377 E24.33757
G1 X111.243 Y56.659 E24.36197
G1 X110.880 Y57.039 E24.39704
G1 X88.919 Y76.851 E26.37297
G1 X88.167 Y77.363 E26.43376
G1 X87.434 Y77.733 E26.48858
G1 X86.579 Y78.035 E26.54920
G1 X85.777 Y78.206 E26.60395
G1 X84.877 Y78.281 E26.66431
G1 X84.058 Y78.243 E26.71908
G1 X83.167 Y78.087 E26.77947
G1 X82.380 Y77.842 E26.83453
G1 X81.954 Y77.678 E26.86507
G1 X26.628 Y52.207 E30.93399
G1 X26.120 Y51.920 E30.97298
G1 X25.025 Y51.176 E31.06142
G1 X24.316 Y50.539 E31.12507
G1 X23.461 Y49.532 E31.21337
G1 X22.955 Y48.744 E31.27591
G1 X22.395 Y47.548 E31.36414
G1 X22.112 Y46.646 E31.42727
G1 X21.888 Y45.344 E31.51557
G1 X21.854 Y44.395 E31.57895
G1 X21.985 Y43.081 E31.66721
G1 X22.200 Y42.171 E31.72969
G1 X22.671 Y40.935 E31.81802
G1 X23.126 Y40.100 E31.88156
G1 X23.908 Y39.037 E31.96973
G1 X24.561 Y38.360 E32.03255
G1 X25.552 Y37.576 E32.11695
G1 E30.11695 F2400.00000
G92 E0
G1 X96.440 Y44.334 F30000.000
G1 E2.00000 F2400.00000
G1 F2100
G1 X90.537 Y73.010 E4.19099
G1 X90.184 Y74.040 E4.27246
G1 X90.026 Y74.359 E4.29910
G1 X89.375 Y75.335 E4.38690
G1 X89.143 Y75.601 E4.41328
G1 X88.264 Y76.381 E4.50125
G1 X87.970 Y76.581 E4.52784
G1 X86.921 Y77.111 E4.61580
G1 X86.587 Y77.229 E4.64231
G1 X85.440 Y77.474 E4.73009
G1 X85.089 Y77.503 E4.75649
G1 X83.917 Y77.450 E4.84426
G1 X83.570 Y77.389 E4.87067
G1 X82.363 Y77.001 E4.96550
G1 X26.854 Y51.445 E9.53865
G1 X26.656 Y51.333 E9.55566
G1 X25.313 Y50.421 E9.67716
G1 X25.036 Y50.172 E9.70501
G1 X23.942 Y48.883 E9.83153
G1 X23.745 Y48.576 E9.85889
G1 X23.028 Y47.047 E9.98521
G1 X22.918 Y46.695 E10.01284
G1 X22.632 Y45.028 E10.13943
G1 X22.618 Y44.658 E10.16716
G1 X22.785 Y42.977 E10.29355
G1 X22.869 Y42.621 E10.32088
G1 X23.472 Y41.042 E10.44740
G1 X23.650 Y40.716 E10.47520
G1 X24.651 Y39.355 E10.60161
G1 X24.906 Y39.091 E10.62909
G1 X26.232 Y38.041 E10.75567
G1 X26.549 Y37.852 E10.78327
G1 X28.104 Y37.191 E10.90974
G1 X28.460 Y37.093 E10.93739
G1 X30.048 Y36.880 E11.05731
G1 X108.445 Y36.879 E16.92411
G1 X109.447 Y37.007 E16.99975
G1 X109.786 Y37.095 E17.02591
G1 X110.800 Y37.501 E17.10773
G1 X111.102 Y37.669 E17.13357
G1 X111.986 Y38.315 E17.21551
G1 X112.242 Y38.558 E17.24191
G1 X112.932 Y39.408 E17.32385
G1 X113.115 Y39.702 E17.34981
G1 X113.571 Y40.695 E17.43151
G1 X113.675 Y41.027 E17.45756
G1 X113.869 Y42.104 E17.53945
G1 X113.887 Y42.453 E17.56565
G1 X113.785 Y43.630 E17.65406
G1 X111.566 Y54.482 E18.48297
G1 X111.461 Y54.807 E18.50852
G1 X111.163 Y55.449 E18.56145
G1 X110.978 Y55.743 E18.58751
G1 X110.525 Y56.294 E18.64085
G1 X110.273 Y56.532 E18.66682
G1 X109.697 Y56.953 E18.72016
G1 X109.390 Y57.122 E18.74645
G1 X108.730 Y57.382 E18.79953
G1 X108.400 Y57.467 E18.82500
G1 X107.701 Y57.557 E18.87778
G1 X107.356 Y57.558 E18.90361
G1 X106.650 Y57.472 E18.95681
G1 X106.312 Y57.386 E18.98290
G1 X105.651 Y57.125 E19.03606
G1 X105.348 Y56.959 E19.06191
G1 X104.774 Y56.543 E19.11500
G1 X104.520 Y56.305 E19.14106
G1 X104.068 Y55.760 E19.19403
G1 X103.886 Y55.474 E19.21944
G1 X103.580 Y54.832 E19.27265
G1 X103.470 Y54.495 E19.29919
G1 X103.338 Y53.797 E19.35235
G1 X103.316 Y53.459 E19.37766
G1 X103.357 Y52.754 E19.43053
G1 X103.422 Y52.410 E19.45676
G1 X103.642 Y51.731 E19.51010
G1 X103.790 Y51.417 E19.53612
G1 X104.170 Y50.818 E19.58922
G1 X104.389 Y50.553 E19.61492
G1 X104.905 Y50.067 E19.66794
G1 X105.185 Y49.864 E19.69383
G1 X105.317 Y49.791 E19.70511
G1 X105.398 Y49.680 E19.71545
G1 X106.089 Y46.318 E19.97231
G1 X105.945 Y46.100 E19.99183
G1 X96.658 Y44.190 E20.70142
G1 X96.490 Y44.301 E20.71646
G1 X95.973 Y43.625 F30000.000
G1 F2100
G1 X89.963 Y72.834 E22.94807
G1 X89.629 Y73.809 E23.02520
G1 X89.506 Y74.058 E23.04603
G1 X88.897 Y74.970 E23.12805
G1 X88.716 Y75.178 E23.14867
G1 X87.895 Y75.907 E23.23086
G1 X87.665 Y76.063 E23.25165
G1 X86.685 Y76.558 E23.33381
G1 X86.424 Y76.650 E23.35454
G1 X85.353 Y76.879 E23.43655
G1 X85.078 Y76.902 E23.45718
G1 X83.983 Y76.852 E23.53919
G1 X83.711 Y76.804 E23.55984
G1 X82.597 Y76.448 E23.64743
G1 X27.127 Y50.911 E28.21727
G1 X26.973 Y50.823 E28.23057
G1 X25.684 Y49.948 E28.34717
G1 X25.467 Y49.753 E28.36895
G1 X24.425 Y48.526 E28.48944
G1 X24.271 Y48.285 E28.51083
G1 X23.589 Y46.829 E28.63115
G1 X23.502 Y46.554 E28.65275
G1 X23.230 Y44.966 E28.77330
G1 X23.219 Y44.677 E28.79498
G1 X23.379 Y43.076 E28.91536
G1 X23.444 Y42.798 E28.93673
G1 X24.018 Y41.293 E29.05723
G1 X24.157 Y41.039 E29.07897
G1 X25.110 Y39.743 E29.19934
G1 X25.310 Y39.536 E29.22083
G1 X26.572 Y38.536 E29.34139
G1 X26.820 Y38.389 E29.36297
G1 X28.302 Y37.759 E29.48341
G1 X28.580 Y37.683 E29.50503
G1 X30.108 Y37.477 E29.62043
G1 X108.251 Y37.468 E35.46827
G1 X109.333 Y37.597 E35.54982
G1 X109.598 Y37.666 E35.57028
G1 X110.542 Y38.044 E35.64642
G1 X110.778 Y38.175 E35.66662
G1 X111.600 Y38.777 E35.74285
G1 X111.800 Y38.967 E35.76350
G1 X112.443 Y39.757 E35.83972
G1 X112.586 Y39.987 E35.86001
G1 X113.010 Y40.911 E35.93604
G1 X113.092 Y41.170 E35.95641
G1 X113.272 Y42.172 E36.03260
G1 X113.285 Y42.446 E36.05308
G1 X113.194 Y43.529 E36.13442
G1 X110.983 Y54.334 E36.95980
G1 X110.902 Y54.588 E36.97978
G1 X110.635 Y55.161 E37.02707
G1 X110.490 Y55.392 E37.04744
G1 X110.086 Y55.884 E37.09511
G1 X109.889 Y56.070 E37.11541
G1 X109.375 Y56.446 E37.16305
G1 X109.134 Y56.578 E37.18360
G1 X108.544 Y56.811 E37.23104
G1 X108.287 Y56.877 E37.25095
G1 X107.661 Y56.958 E37.29814
G1 X107.392 Y56.958 E37.31833
G1 X106.761 Y56.881 E37.36587
G1 X106.497 Y56.814 E37.38626
G1 X105.906 Y56.581 E37.43376
G1 X105.670 Y56.451 E37.45396
G1 X105.156 Y56.080 E37.50139
G1 X104.958 Y55.893 E37.52176
G1 X104.554 Y55.406 E37.56911
G1 X104.411 Y55.182 E37.58898
G1 X104.138 Y54.609 E37.63652
G1 X104.052 Y54.345 E37.65727
G1 X103.934 Y53.721 E37.70477
G1 X103.917 Y53.458 E37.72456
G1 X103.954 Y52.827 E37.77180
G1 X104.005 Y52.558 E37.79231
G1 X104.201 Y51.953 E37.83995
G1 X104.317 Y51.707 E37.86029
G1 X104.657 Y51.171 E37.90775
G1 X104.828 Y50.964 E37.92784
G1 X105.289 Y50.530 E37.97523
G1 X105.507 Y50.371 E37.99547
G1 X105.849 Y50.183 E38.02463
G1 X105.931 Y50.071 E38.03498
G1 X106.797 Y45.851 E38.35743
G1 X106.654 Y45.633 E38.37695
G1 X96.191 Y43.482 E39.17635
G1 X96.023 Y43.592 E39.19139
G1 X95.506 Y42.917 F30000.000
G1 F2100
G1 X89.390 Y72.657 E41.46360
G1 X89.074 Y73.578 E41.53641
G1 X88.985 Y73.758 E41.55142
G1 X88.420 Y74.605 E41.62765
G1 X88.289 Y74.755 E41.64252
G1 X87.526 Y75.432 E41.71893
G1 X87.360 Y75.545 E41.73391
G1 X86.449 Y76.005 E41.81029
G1 X86.261 Y76.072 E41.82523
G1 X85.265 Y76.285 E41.90146
G1 X85.067 Y76.301 E41.91634
G1 X84.049 Y76.255 E41.99258
G1 X83.853 Y76.220 E42.00746
G1 X82.830 Y75.895 E42.08782
G1 X27.401 Y50.376 E46.65435
G1 X26.055 Y49.474 E46.77561
G1 X25.898 Y49.334 E46.79131
G1 X24.909 Y48.168 E46.90578
G1 X24.797 Y47.994 E46.92120
G1 X24.149 Y46.611 E47.03552
G1 X24.087 Y46.413 E47.05109
G1 X23.828 Y44.905 E47.16560
G1 X23.820 Y44.696 E47.18122
G1 X23.972 Y43.175 E47.29560
G1 X24.019 Y42.975 E47.31100
G1 X24.564 Y41.545 E47.42549
G1 X24.664 Y41.361 E47.44116
G1 X25.570 Y40.131 E47.55550
G1 X25.713 Y39.982 E47.57099
G1 X26.913 Y39.031 E47.68555
G1 X27.092 Y38.925 E47.70110
G1 X28.499 Y38.327 E47.81552
G1 X28.700 Y38.272 E47.83109
G1 X30.168 Y38.075 E47.94198
G1 X108.330 Y38.074 E53.79125
G1 X109.219 Y38.187 E53.85832
G1 X109.410 Y38.237 E53.87307
G1 X110.284 Y38.587 E53.94353
G1 X110.454 Y38.681 E53.95810
G1 X111.215 Y39.238 E54.02863
G1 X111.359 Y39.375 E54.04351
G1 X111.953 Y40.106 E54.11401
G1 X112.057 Y40.272 E54.12864
G1 X112.449 Y41.126 E54.19900
G1 X112.508 Y41.314 E54.21368
G1 X112.674 Y42.241 E54.28417
G1 X112.684 Y42.438 E54.29893
G1 X112.602 Y43.427 E54.37320
G1 X110.401 Y54.186 E55.19506
G1 X110.342 Y54.369 E55.20946
G1 X110.107 Y54.874 E55.25112
G1 X110.003 Y55.040 E55.26580
G1 X109.646 Y55.474 E55.30780
G1 X109.504 Y55.608 E55.32243
G1 X109.052 Y55.938 E55.36437
G1 X108.878 Y56.034 E55.37918
G1 X108.359 Y56.239 E55.42097
G1 X108.173 Y56.287 E55.43533
G1 X107.622 Y56.358 E55.47691
G1 X107.427 Y56.358 E55.49147
G1 X106.872 Y56.290 E55.53334
G1 X106.682 Y56.242 E55.54804
G1 X106.162 Y56.036 E55.58988
G1 X105.991 Y55.943 E55.60444
G1 X105.539 Y55.616 E55.64620
G1 X105.396 Y55.482 E55.66089
G1 X105.040 Y55.052 E55.70262
G1 X104.937 Y54.891 E55.71694
G1 X104.696 Y54.386 E55.75882
G1 X104.634 Y54.196 E55.77378
G1 X104.530 Y53.646 E55.81562
G1 X104.518 Y53.456 E55.82989
G1 X104.551 Y52.901 E55.87150
G1 X104.587 Y52.707 E55.88628
G1 X104.760 Y52.174 E55.92822
G1 X104.843 Y51.996 E55.94288
G1 X105.143 Y51.525 E55.98470
G1 X105.266 Y51.375 E55.99918
G1 X105.673 Y50.993 E56.04095
G1 X105.830 Y50.878 E56.05553
G1 X106.381 Y50.575 E56.10257
G1 X106.463 Y50.463 E56.11292
G1 X107.506 Y45.384 E56.50097
G1 X107.362 Y45.166 E56.52050
G1 X95.724 Y42.773 E57.40969
G1 X95.556 Y42.884 E57.42474
G1 X95.039 Y42.208 F30000.000
G1 F2100
G1 X88.816 Y72.481 E59.73757
G1 X88.519 Y73.346 E59.80604
G1 X88.465 Y73.457 E59.81524
G1 X87.942 Y74.240 E59.88568
G1 X87.862 Y74.331 E59.89479
G1 X87.156 Y74.958 E59.96542
G1 X87.055 Y75.027 E59.97460
G1 X86.213 Y75.452 E60.04518
G1 X86.098 Y75.493 E60.05434
G1 X85.177 Y75.690 E60.12480
G1 X85.056 Y75.700 E60.13392
G1 X84.115 Y75.657 E60.20439
G1 X83.995 Y75.636 E60.21351
G1 X83.063 Y75.341 E60.28663
G1 X27.674 Y49.841 E64.84986
G1 X26.425 Y49.001 E64.96252
G1 X26.330 Y48.915 E64.97214
G1 X25.392 Y47.810 E65.08059
G1 X25.324 Y47.704 E65.09003
G1 X24.710 Y46.393 E65.19836
G1 X24.671 Y46.271 E65.20790
G1 X24.426 Y44.843 E65.31637
G1 X24.422 Y44.715 E65.32594
G1 X24.565 Y43.274 E65.43431
G1 X24.594 Y43.151 E65.44375
G1 X25.110 Y41.797 E65.55222
G1 X25.172 Y41.684 E65.56182
G1 X26.029 Y40.518 E65.67013
G1 X26.117 Y40.427 E65.67962
G1 X27.254 Y39.527 E65.78817
G1 X27.364 Y39.462 E65.79770
G1 X28.697 Y38.895 E65.90608
G1 X28.820 Y38.861 E65.91563
G1 X30.229 Y38.672 E66.02200
G1 X108.273 Y38.671 E71.86250
G1 X109.106 Y38.778 E71.92529
G1 X109.222 Y38.808 E71.93433
G1 X110.026 Y39.130 E71.99912
G1 X110.130 Y39.188 E72.00804
G1 X110.829 Y39.699 E72.07287
G1 X110.918 Y39.783 E72.08199
G1 X111.464 Y40.455 E72.14678
G1 X111.527 Y40.557 E72.15574
G1 X111.888 Y41.342 E72.22043
G1 X111.924 Y41.457 E72.22942
G1 X112.077 Y42.309 E72.29421
G1 X112.083 Y42.430 E72.30326
G1 X112.011 Y43.325 E72.37046
G1 X109.818 Y54.038 E73.18878
G1 X109.579 Y54.587 E73.23358
G1 X109.207 Y55.063 E73.27884
G1 X108.729 Y55.431 E73.32399
G1 X108.173 Y55.667 E73.36915
G1 X107.582 Y55.758 E73.41388
G1 X107.463 Y55.758 E73.42280
G1 X106.866 Y55.669 E73.46796
G1 X106.312 Y55.435 E73.51300
G1 X105.834 Y55.070 E73.55804
G1 X105.463 Y54.599 E73.60287
G1 X105.255 Y54.162 E73.63908
G1 X105.217 Y54.046 E73.64824
G1 X105.127 Y53.571 E73.68443
G1 X105.148 Y52.974 E73.72911
G1 X105.170 Y52.855 E73.73817
G1 X105.319 Y52.395 E73.77440
G1 X105.629 Y51.878 E73.81950
G1 X106.057 Y51.456 E73.86446
G1 X106.153 Y51.385 E73.87340
G1 X106.577 Y51.152 E73.90959
G1 X106.854 Y51.064 E73.93136
G1 X106.979 Y50.934 E73.94486
G1 X108.214 Y44.917 E74.40454
G1 X108.071 Y44.699 E74.42407
G1 X95.257 Y42.065 E75.40306
G1 X95.089 Y42.175 E75.41810
G1 E73.41810 F2400.00000
G92 E0
G1 X107.011 Y45.554 F30000.000
G1 X108.611 Y44.307 F30000.000
G1 E2.00000 F2400.00000
G1 F2100
G1 X108.466 Y44.202 E2.01343
G1 X108.246 Y44.122 E2.03089
G1 X95.326 Y41.466 E3.01801
G1 X95.135 Y41.452 E3.03230
G1 X94.954 Y41.481 E3.04603
G1 X94.755 Y41.578 E3.06265
G1 X94.620 Y41.702 E3.07630
G1 X94.523 Y41.854 E3.08978
G1 X94.461 Y42.037 E3.10424
G1 X88.242 Y72.305 E5.41667
G1 X87.944 Y73.156 E5.48416
G1 X87.464 Y73.874 E5.54883
G1 X86.787 Y74.484 E5.61700
G1 X85.977 Y74.899 E5.68514
G1 X85.044 Y75.099 E5.75650
G1 X84.136 Y75.052 E5.82454
G1 X83.296 Y74.788 E5.89042
G1 X27.948 Y49.307 E10.45034
G1 X26.761 Y48.496 E10.55792
G1 X25.850 Y47.413 E10.66378
G1 X25.256 Y46.130 E10.76959
G1 X25.023 Y44.734 E10.87551
G1 X25.169 Y43.328 E10.98131
G1 X25.656 Y42.049 E11.08377
G1 X26.521 Y40.873 E11.19301
G1 X27.595 Y40.022 E11.29555
G1 X28.894 Y39.463 E11.40138
G1 X30.312 Y39.268 E11.50846
G1 X108.216 Y39.269 E17.33845
G1 X109.035 Y39.379 E17.40026
G1 X109.768 Y39.673 E17.45937
G1 X110.476 Y40.192 E17.52509
G1 X110.974 Y40.804 E17.58417
G1 X111.327 Y41.558 E17.64645
G1 X111.482 Y42.422 E17.71213
G1 X111.419 Y43.223 E17.77226
G1 X109.235 Y53.890 E18.58705
G1 X109.027 Y54.337 E18.62395
G1 X108.735 Y54.683 E18.65787
G1 X108.367 Y54.946 E18.69173
G1 X107.988 Y55.095 E18.72222
G1 X107.543 Y55.158 E18.75583
G1 X107.051 Y55.097 E18.79292
G1 X106.633 Y54.927 E18.82669
G1 X106.272 Y54.658 E18.86041
G1 X105.989 Y54.308 E18.89412
G1 X105.813 Y53.939 E18.92465
G1 X105.723 Y53.496 E18.95853
G1 X105.744 Y53.048 E18.99209
G1 X105.897 Y52.576 E19.02921
G1 X106.116 Y52.231 E19.05974
G1 X106.440 Y51.918 E19.09349
G1 X106.874 Y51.679 E19.13056
G1 X107.367 Y51.552 E19.16862
G1 X107.491 Y51.421 E19.18212
G1 X108.813 Y44.983 E19.67398
G1 X108.829 Y44.794 E19.68818
G1 X108.800 Y44.614 E19.70179
G1 X108.725 Y44.447 E19.71552
G1 X108.650 Y44.352 E19.72454
G1 E17.72454 F2400.00000
G92 E0
G1 X107.990 Y52.221 F30000.000
