; generated by Slic3r 1.3.0 on 2021-11-26 at 22:23:49

; external perimeters extrusion width = 0.44mm (2.78mm^3/s)
; perimeters extrusion width = 0.40mm (7.14mm^3/s)
; infill extrusion width = 0.50mm (10.97mm^3/s)
; solid infill extrusion width = 0.60mm (6.68mm^3/s)
; top infill extrusion width = 0.40mm (2.14mm^3/s)

M107
M190 S80 ; set bed temperature and wait for it to be reached
M104 S210 ; set temperature
G28 ; home all axes
G1 Z5 F5000 ; lift nozzle

; Filament gcode

M109 S210 ; set temperature and wait for it to be reached
G21 ; set units to millimeters
G90 ; use absolute coordinates
M82 ; use absolute distances for extrusion
G92 E0
G1 Z0.300 F30000.000
G1 E-2.00000 F2400.00000
G92 E0
G1 X41.240 Y39.910 F30000.000
G1 E2.00000 F2400.00000
G1 F2100
G1 X43.086 Y38.283 E2.16434
G1 X44.572 Y37.130 E2.29003
G1 X46.363 Y35.902 E2.43506
G1 X48.226 Y34.789 E2.58007
G1 X50.156 Y33.796 E2.72509
G1 X52.414 Y32.819 E2.88944
G1 X54.184 Y32.181 E3.01513
G1 X56.266 Y31.567 E3.16016
G1 X58.667 Y31.030 E3.32450
G1 X60.526 Y30.736 E3.45020
G1 X62.686 Y30.523 E3.59521
G1 X65.145 Y30.445 E3.75956
G1 X67.314 Y30.523 E3.90458
G1 X69.187 Y30.700 E4.03028
G1 X71.333 Y31.030 E4.17529
G1 X73.453 Y31.495 E4.32031
G1 X75.816 Y32.181 E4.48466
G1 X77.855 Y32.925 E4.62967
G1 X79.582 Y33.672 E4.75537
G1 X81.774 Y34.789 E4.91972
G1 X83.393 Y35.747 E5.04542
G1 X85.194 Y36.960 E5.19043
G1 X87.137 Y38.467 E5.35477
G1 X88.549 Y39.712 E5.48046
G1 X90.090 Y41.240 E5.62549
G1 X91.717 Y43.086 E5.78983
G1 X92.870 Y44.572 E5.91552
G1 X94.098 Y46.363 E6.06056
G1 X95.211 Y48.226 E6.20557
G1 X96.204 Y50.156 E6.35059
G1 X97.181 Y52.414 E6.51493
G1 X97.819 Y54.184 E6.64063
G1 X98.433 Y56.266 E6.78565
G1 X98.970 Y58.667 E6.95000
G1 X99.264 Y60.526 E7.07569
G1 X99.477 Y62.686 E7.22070
G1 X99.555 Y65.145 E7.38505
G1 X99.477 Y67.314 E7.53008
G1 X99.300 Y69.187 E7.65578
G1 X98.915 Y71.617 E7.82010
G1 X98.505 Y73.453 E7.94580
G1 X97.908 Y75.540 E8.09083
G1 X97.181 Y77.586 E8.23584
G1 X96.439 Y79.324 E8.36208
G1 X96.204 Y79.844 E8.40020
G1 X95.211 Y81.774 E8.54522
G1 X94.253 Y83.393 E8.67092
G1 X93.040 Y85.194 E8.81593
G1 X91.533 Y87.137 E8.98027
G1 X90.090 Y88.760 E9.12529
G1 X88.760 Y90.090 E9.25099
G1 X87.137 Y91.533 E9.39602
G1 X85.428 Y92.870 E9.54102
G1 X83.393 Y94.253 E9.70536
G1 X81.774 Y95.211 E9.83107
G1 X79.844 Y96.204 E9.97609
G1 X77.586 Y97.181 E10.14043
G1 X75.816 Y97.819 E10.26613
G1 X73.734 Y98.433 E10.41115
G1 X71.333 Y98.970 E10.57549
G1 X69.187 Y99.300 E10.72050
G1 X67.314 Y99.477 E10.84620
G1 X64.855 Y99.555 E11.01055
G1 X62.975 Y99.495 E11.13624
G1 X60.813 Y99.300 E11.28127
G1 X58.667 Y98.970 E11.42628
G1 X56.547 Y98.505 E11.57130
G1 X54.184 Y97.819 E11.73565
G1 X52.414 Y97.181 E11.86134
G1 X50.418 Y96.328 E12.00637
G1 X48.226 Y95.211 E12.17071
G1 X46.607 Y94.253 E12.29641
G1 X44.806 Y93.040 E12.44142
G1 X42.863 Y91.533 E12.60576
G1 X41.451 Y90.288 E12.73145
G1 X39.910 Y88.760 E12.87649
G1 X38.283 Y86.914 E13.04082
G1 X36.960 Y85.194 E13.18585
G1 X35.902 Y83.637 E13.31155
G1 X34.650 Y81.520 E13.47588
G1 X33.796 Y79.844 E13.60158
G1 X32.925 Y77.855 E13.74661
G1 X32.092 Y75.540 E13.91094
G1 X31.567 Y73.734 E14.03664
G1 X31.085 Y71.617 E14.18166
G1 X30.736 Y69.474 E14.32668
G1 X30.523 Y67.314 E14.47169
G1 X30.445 Y64.855 E14.63604
G1 X30.505 Y62.975 E14.76174
G1 X30.700 Y60.813 E14.90676
G1 X31.085 Y58.383 E15.07110
G1 X31.495 Y56.547 E15.19679
G1 X32.092 Y54.460 E15.34182
G1 X32.925 Y52.145 E15.50616
G1 X33.672 Y50.418 E15.63186
G1 X34.650 Y48.480 E15.77688
G1 X35.902 Y46.363 E15.94121
G1 X37.130 Y44.572 E16.08625
G1 X38.283 Y43.086 E16.21194
G1 X39.712 Y41.451 E16.35695
G1 X41.198 Y39.952 E16.49797
G1 X41.619 Y40.289 F30000.000
G1 F2100
G1 X43.414 Y38.706 E16.65781
G1 X44.900 Y37.553 E16.78351
G1 X46.664 Y36.345 E16.92629
G1 X48.499 Y35.250 E17.06905
G1 X50.400 Y34.273 E17.21183
G1 X52.596 Y33.323 E17.37168
G1 X54.366 Y32.685 E17.49737
G1 X56.416 Y32.081 E17.64015
G1 X58.751 Y31.559 E17.80000
G1 X60.609 Y31.265 E17.92570
G1 X62.736 Y31.056 E18.06846
G1 X65.128 Y30.981 E18.22832
G1 X67.008 Y31.040 E18.35401
G1 X69.137 Y31.233 E18.49679
G1 X71.249 Y31.559 E18.63956
G1 X73.336 Y32.018 E18.78233
G1 X75.634 Y32.685 E18.94218
G1 X77.404 Y33.323 E19.06788
G1 X79.369 Y34.164 E19.21065
G1 X81.501 Y35.250 E19.37050
G1 X83.120 Y36.208 E19.49620
G1 X84.892 Y37.403 E19.63896
G1 X86.783 Y38.869 E19.79881
G1 X88.381 Y40.289 E19.94159
G1 X89.711 Y41.619 E20.06729
G1 X91.294 Y43.414 E20.22713
G1 X92.447 Y44.900 E20.35283
G1 X93.655 Y46.664 E20.49561
G1 X94.873 Y48.723 E20.65546
G1 X95.727 Y50.400 E20.78115
G1 X96.583 Y52.358 E20.92393
G1 X97.394 Y54.609 E21.08377
G1 X97.919 Y56.416 E21.20947
G1 X98.393 Y58.500 E21.35225
G1 X98.735 Y60.609 E21.49502
G1 X98.944 Y62.736 E21.63778
G1 X99.019 Y65.128 E21.79764
G1 X98.960 Y67.008 E21.92333
G1 X98.767 Y69.137 E22.06612
G1 X98.393 Y71.500 E22.22595
G1 X97.982 Y73.336 E22.35165
G1 X97.394 Y75.391 E22.49443
G1 X96.677 Y77.404 E22.63720
G1 X95.948 Y79.111 E22.76119
G1 X95.727 Y79.600 E22.79706
G1 X94.750 Y81.501 E22.93983
G1 X93.792 Y83.121 E23.06553
G1 X92.597 Y84.892 E23.20829
G1 X91.131 Y86.783 E23.36814
G1 X89.887 Y88.194 E23.49383
G1 X88.381 Y89.711 E23.63662
G1 X86.586 Y91.294 E23.79646
G1 X84.892 Y92.597 E23.93924
G1 X83.336 Y93.655 E24.06494
G1 X81.277 Y94.873 E24.22478
G1 X79.369 Y95.836 E24.36755
G1 X77.642 Y96.583 E24.49325
G1 X75.391 Y97.394 E24.65310
G1 X73.584 Y97.919 E24.77879
G1 X71.500 Y98.393 E24.92157
G1 X69.391 Y98.735 E25.06434
G1 X67.264 Y98.944 E25.20711
G1 X64.872 Y99.019 E25.36696
G1 X62.992 Y98.960 E25.49266
G1 X60.863 Y98.767 E25.63544
G1 X58.751 Y98.441 E25.77820
G1 X56.664 Y97.982 E25.92097
G1 X54.366 Y97.315 E26.08083
G1 X52.358 Y96.583 E26.22360
G1 X50.631 Y95.836 E26.34930
G1 X48.499 Y94.750 E26.50915
G1 X46.880 Y93.792 E26.63485
G1 X45.108 Y92.597 E26.77761
G1 X43.217 Y91.131 E26.93746
G1 X41.619 Y89.711 E27.08024
G1 X40.289 Y88.381 E27.20594
G1 X38.706 Y86.586 E27.36578
G1 X37.403 Y84.892 E27.50856
G1 X36.345 Y83.336 E27.63426
G1 X35.250 Y81.501 E27.77702
G1 X34.273 Y79.600 E27.91980
G1 X33.323 Y77.404 E28.07965
G1 X32.685 Y75.634 E28.20534
G1 X32.081 Y73.584 E28.34812
G1 X31.559 Y71.249 E28.50797
G1 X31.265 Y69.391 E28.63366
G1 X31.056 Y67.264 E28.77643
G1 X30.981 Y64.872 E28.93628
G1 X31.040 Y62.992 E29.06198
G1 X31.233 Y60.863 E29.20476
G1 X31.607 Y58.500 E29.36460
G1 X32.018 Y56.664 E29.49029
G1 X32.606 Y54.609 E29.63307
G1 X33.417 Y52.358 E29.79292
G1 X34.164 Y50.631 E29.91861
G1 X35.127 Y48.723 E30.06139
G1 X36.345 Y46.664 E30.22123
G1 X37.403 Y45.108 E30.34693
G1 X38.706 Y43.414 E30.48971
G1 X40.113 Y41.806 E30.63247
G1 X41.577 Y40.331 E30.77125
G1 X41.998 Y40.667 F30000.000
G1 F2100
G1 X43.742 Y39.129 E30.92660
G1 X45.229 Y37.976 E31.05229
G1 X46.965 Y36.788 E31.19283
G1 X48.772 Y35.711 E31.33335
G1 X50.643 Y34.750 E31.47387
G1 X52.777 Y33.827 E31.62923
G1 X54.547 Y33.189 E31.75492
G1 X56.565 Y32.596 E31.89545
G1 X58.835 Y32.088 E32.05081
G1 X60.913 Y31.766 E32.19133
G1 X62.787 Y31.589 E32.31703
G1 X65.111 Y31.516 E32.47239
G1 X66.992 Y31.575 E32.59808
G1 X69.087 Y31.766 E32.73861
G1 X71.165 Y32.088 E32.87913
G1 X73.219 Y32.540 E33.01966
G1 X75.453 Y33.189 E33.17502
G1 X77.429 Y33.908 E33.31554
G1 X79.156 Y34.656 E33.44124
G1 X81.228 Y35.711 E33.59660
G1 X82.848 Y36.669 E33.72229
G1 X84.591 Y37.846 E33.86281
G1 X86.429 Y39.271 E34.01817
G1 X87.840 Y40.515 E34.14386
G1 X89.333 Y41.998 E34.28440
G1 X90.871 Y43.742 E34.43975
G1 X92.154 Y45.409 E34.58028
G1 X93.212 Y46.965 E34.70598
G1 X94.396 Y48.966 E34.86133
G1 X95.250 Y50.643 E34.98702
G1 X96.092 Y52.571 E35.12755
G1 X96.879 Y54.759 E35.28290
G1 X97.460 Y56.781 E35.42343
G1 X97.870 Y58.617 E35.54913
G1 X98.206 Y60.693 E35.68965
G1 X98.411 Y62.787 E35.83017
G1 X98.484 Y65.111 E35.98553
G1 X98.425 Y66.992 E36.11123
G1 X98.234 Y69.087 E36.25176
G1 X97.870 Y71.383 E36.40711
G1 X97.460 Y73.219 E36.53280
G1 X96.879 Y75.241 E36.67333
G1 X96.173 Y77.223 E36.81386
G1 X95.456 Y78.898 E36.93560
G1 X95.250 Y79.357 E36.96922
G1 X94.289 Y81.228 E37.10975
G1 X93.331 Y82.848 E37.23545
G1 X92.154 Y84.591 E37.37596
G1 X90.729 Y86.429 E37.53132
G1 X89.333 Y88.002 E37.67185
G1 X88.002 Y89.333 E37.79755
G1 X86.258 Y90.871 E37.95290
G1 X84.591 Y92.154 E38.09343
G1 X83.035 Y93.212 E38.21913
G1 X81.034 Y94.396 E38.37448
G1 X79.357 Y95.250 E38.50017
G1 X77.429 Y96.092 E38.64070
G1 X75.241 Y96.879 E38.79606
G1 X73.219 Y97.460 E38.93658
G1 X71.383 Y97.870 E39.06228
G1 X69.307 Y98.206 E39.20281
G1 X67.213 Y98.411 E39.34333
G1 X64.889 Y98.484 E39.49869
G1 X63.008 Y98.425 E39.62438
G1 X60.913 Y98.234 E39.76491
G1 X58.835 Y97.912 E39.90543
G1 X56.781 Y97.460 E40.04596
G1 X54.547 Y96.811 E40.20132
G1 X52.777 Y96.173 E40.32701
G1 X50.844 Y95.344 E40.46754
G1 X48.772 Y94.289 E40.62290
G1 X47.152 Y93.331 E40.74859
G1 X45.409 Y92.154 E40.88911
G1 X43.571 Y90.729 E41.04447
G1 X42.160 Y89.485 E41.17016
G1 X40.667 Y88.002 E41.31070
G1 X39.129 Y86.258 E41.46605
G1 X37.846 Y84.591 E41.60658
G1 X36.788 Y83.035 E41.73228
G1 X35.604 Y81.034 E41.88763
G1 X34.656 Y79.156 E42.02815
G1 X33.908 Y77.429 E42.15385
G1 X33.121 Y75.241 E42.30920
G1 X32.596 Y73.435 E42.43490
G1 X32.130 Y71.383 E42.57543
G1 X31.794 Y69.307 E42.71595
G1 X31.589 Y67.213 E42.85647
G1 X31.516 Y64.889 E43.01183
G1 X31.575 Y63.008 E43.13753
G1 X31.766 Y60.913 E43.27806
G1 X32.130 Y58.617 E43.43341
G1 X32.540 Y56.780 E43.55910
G1 X33.121 Y54.759 E43.69963
G1 X33.908 Y52.571 E43.85499
G1 X34.656 Y50.844 E43.98068
G1 X35.604 Y48.966 E44.12121
G1 X36.788 Y46.965 E44.27656
G1 X37.846 Y45.409 E44.40226
G1 X39.129 Y43.742 E44.54279
G1 X40.515 Y42.160 E44.68331
G1 X41.955 Y40.710 E44.81983
G1 X42.554 Y41.223 F30000.000
G1 F2100
G1 X44.190 Y39.777 E44.98325
G1 X45.745 Y38.571 E45.13051
G1 X47.442 Y37.414 E45.28425
G1 X49.285 Y36.325 E45.44443
G1 X51.038 Y35.431 E45.59170
G1 X52.922 Y34.613 E45.74543
G1 X54.936 Y33.888 E45.90562
G1 X56.826 Y33.339 E46.05289
G1 X58.830 Y32.888 E46.20662
G1 X60.859 Y32.564 E46.36034
G1 X62.904 Y32.368 E46.51407
G1 X65.043 Y32.301 E46.67426
G1 X67.010 Y32.362 E46.82153
G1 X69.056 Y32.553 E46.97526
G1 X71.085 Y32.872 E47.12898
G1 X73.090 Y33.317 E47.28271
G1 X75.146 Y33.914 E47.44290
G1 X77.078 Y34.613 E47.59663
G1 X78.884 Y35.394 E47.74390
G1 X80.791 Y36.366 E47.90409
G1 X82.485 Y37.368 E48.05136
G1 X84.185 Y38.520 E48.20508
G1 X85.877 Y39.832 E48.36527
G1 X87.416 Y41.193 E48.51900
G1 X88.807 Y42.584 E48.66627
G1 X90.223 Y44.190 E48.82646
G1 X91.429 Y45.745 E48.97372
G1 X92.586 Y47.442 E49.12746
G1 X93.675 Y49.285 E49.28764
G1 X94.569 Y51.038 E49.43491
G1 X95.387 Y52.922 E49.58864
G1 X96.112 Y54.936 E49.74883
G1 X96.683 Y56.910 E49.90256
G1 X97.112 Y58.830 E50.04983
G1 X97.436 Y60.859 E50.20355
G1 X97.632 Y62.904 E50.35728
G1 X97.699 Y65.043 E50.51747
G1 X97.638 Y67.010 E50.66474
G1 X97.447 Y69.056 E50.81847
G1 X97.128 Y71.085 E50.97219
G1 X96.683 Y73.090 E51.12592
G1 X96.086 Y75.146 E51.28612
G1 X95.419 Y76.997 E51.43338
G1 X94.606 Y78.884 E51.58711
G1 X93.634 Y80.791 E51.74730
G1 X92.632 Y82.485 E51.89457
G1 X91.480 Y84.185 E52.04830
G1 X90.168 Y85.877 E52.20848
G1 X88.807 Y87.416 E52.36221
G1 X87.416 Y88.807 E52.50949
G1 X85.810 Y90.223 E52.66967
G1 X84.255 Y91.429 E52.81693
G1 X82.558 Y92.586 E52.97067
G1 X80.715 Y93.675 E53.13086
G1 X78.962 Y94.569 E53.27812
G1 X77.078 Y95.387 E53.43185
G1 X75.064 Y96.112 E53.59204
G1 X73.090 Y96.683 E53.74577
G1 X71.170 Y97.112 E53.89304
G1 X69.141 Y97.436 E54.04677
G1 X67.096 Y97.632 E54.20049
G1 X64.957 Y97.699 E54.36068
G1 X62.990 Y97.638 E54.50795
G1 X60.944 Y97.447 E54.66168
G1 X58.915 Y97.128 E54.81541
G1 X56.910 Y96.683 E54.96913
G1 X54.854 Y96.086 E55.12933
G1 X53.003 Y95.419 E55.27659
G1 X51.116 Y94.606 E55.43032
G1 X49.209 Y93.634 E55.59051
G1 X47.515 Y92.632 E55.73778
G1 X45.815 Y91.480 E55.89151
G1 X44.123 Y90.168 E56.05169
G1 X42.647 Y88.866 E56.19896
G1 X41.193 Y87.416 E56.35270
G1 X39.777 Y85.810 E56.51288
G1 X38.520 Y84.185 E56.66661
G1 X37.414 Y82.558 E56.81388
G1 X36.325 Y80.715 E56.97407
G1 X35.431 Y78.962 E57.12133
G1 X34.613 Y77.078 E57.27507
G1 X33.888 Y75.064 E57.43525
G1 X33.339 Y73.174 E57.58252
G1 X32.888 Y71.170 E57.73625
G1 X32.564 Y69.141 E57.88998
G1 X32.368 Y67.096 E58.04370
G1 X32.301 Y64.957 E58.20389
G1 X32.368 Y62.904 E58.35763
G1 X32.553 Y60.945 E58.50489
G1 X32.888 Y58.830 E58.66508
G1 X33.317 Y56.910 E58.81235
G1 X33.888 Y54.936 E58.96608
G1 X34.613 Y52.922 E59.12626
G1 X35.431 Y51.038 E59.28000
G1 X36.325 Y49.285 E59.42726
G1 X37.414 Y47.442 E59.58745
G1 X38.571 Y45.745 E59.74118
G1 X39.777 Y44.190 E59.88845
G1 X41.134 Y42.647 E60.04217
G1 X42.511 Y41.266 E60.18818
G1 X42.978 Y41.648 F30000.000
G1 F2100
G1 X44.565 Y40.246 E60.34666
G1 X46.105 Y39.051 E60.49251
G1 X47.772 Y37.916 E60.64343
G1 X49.566 Y36.855 E60.79938
G1 X51.363 Y35.941 E60.95029
G1 X53.152 Y35.167 E61.09615
G1 X55.113 Y34.461 E61.25211
G1 X56.985 Y33.917 E61.39796
G1 X58.952 Y33.476 E61.54887
G1 X60.943 Y33.158 E61.69978
G1 X62.951 Y32.966 E61.85069
G1 X65.034 Y32.901 E62.00665
G1 X66.982 Y32.962 E62.15250
G1 X68.990 Y33.150 E62.30341
G1 X70.982 Y33.463 E62.45432
G1 X72.950 Y33.901 E62.60522
G1 X74.951 Y34.482 E62.76119
G1 X76.848 Y35.167 E62.91209
G1 X78.637 Y35.941 E63.05795
G1 X80.494 Y36.887 E63.21391
G1 X82.171 Y37.880 E63.35977
G1 X83.840 Y39.011 E63.51067
G1 X85.487 Y40.289 E63.66663
G1 X86.998 Y41.624 E63.81753
G1 X88.376 Y43.002 E63.96340
G1 X89.754 Y44.565 E64.11935
G1 X90.949 Y46.105 E64.26521
G1 X92.084 Y47.772 E64.41612
G1 X93.145 Y49.566 E64.57208
G1 X94.030 Y51.302 E64.71793
G1 X94.833 Y53.152 E64.86884
G1 X95.539 Y55.113 E65.02480
G1 X96.083 Y56.985 E65.17066
G1 X96.524 Y58.952 E65.32157
G1 X96.842 Y60.943 E65.47247
G1 X97.034 Y62.951 E65.62338
G1 X97.099 Y65.034 E65.77934
G1 X97.034 Y67.049 E65.93025
G1 X96.850 Y68.990 E66.07611
G1 X96.537 Y70.982 E66.22701
G1 X96.099 Y72.950 E66.37792
G1 X95.518 Y74.951 E66.53388
G1 X94.858 Y76.785 E66.67973
G1 X94.059 Y78.637 E66.83064
G1 X93.113 Y80.494 E66.98660
G1 X92.120 Y82.171 E67.13246
G1 X90.989 Y83.840 E67.28336
G1 X89.711 Y85.487 E67.43932
G1 X88.376 Y86.998 E67.59023
G1 X86.998 Y88.376 E67.73609
G1 X85.435 Y89.755 E67.89205
G1 X83.840 Y90.989 E68.04295
G1 X82.228 Y92.084 E68.18881
G1 X80.434 Y93.145 E68.34477
G1 X78.698 Y94.030 E68.49062
G1 X76.848 Y94.833 E68.64154
G1 X74.887 Y95.539 E68.79749
G1 X73.015 Y96.083 E68.94335
G1 X71.048 Y96.524 E69.09426
G1 X69.057 Y96.842 E69.24516
G1 X67.049 Y97.034 E69.39607
G1 X64.966 Y97.099 E69.55203
G1 X63.018 Y97.038 E69.69789
G1 X61.010 Y96.850 E69.84880
G1 X59.018 Y96.537 E69.99970
G1 X57.050 Y96.099 E70.15061
G1 X55.049 Y95.518 E70.30657
G1 X53.215 Y94.858 E70.45242
G1 X51.363 Y94.059 E70.60333
G1 X49.506 Y93.113 E70.75929
G1 X47.772 Y92.084 E70.91020
G1 X46.160 Y90.989 E71.05606
G1 X44.513 Y89.711 E71.21201
G1 X43.051 Y88.423 E71.35787
G1 X41.624 Y86.998 E71.50878
G1 X40.246 Y85.435 E71.66474
G1 X39.051 Y83.895 E71.81059
G1 X37.916 Y82.228 E71.96150
G1 X36.855 Y80.434 E72.11746
G1 X35.970 Y78.698 E72.26332
G1 X35.167 Y76.848 E72.41423
G1 X34.461 Y74.887 E72.57018
G1 X33.917 Y73.015 E72.71604
G1 X33.476 Y71.048 E72.86695
G1 X33.158 Y69.057 E73.01786
G1 X32.966 Y67.049 E73.16876
G1 X32.901 Y64.966 E73.32472
G1 X32.962 Y63.018 E73.47058
G1 X33.150 Y61.010 E73.62149
G1 X33.476 Y58.952 E73.77744
G1 X33.901 Y57.050 E73.92330
G1 X34.461 Y55.113 E74.07421
G1 X35.167 Y53.152 E74.23017
G1 X35.941 Y51.363 E74.37603
G1 X36.855 Y49.566 E74.52693
G1 X37.916 Y47.772 E74.68289
G1 X39.011 Y46.160 E74.82875
G1 X40.246 Y44.565 E74.97965
G1 X41.577 Y43.051 E75.13056
G1 X42.936 Y41.690 E75.27446
G1 X43.402 Y42.072 F30000.000
G1 F2100
G1 X44.940 Y40.714 E75.42800
G1 X46.465 Y39.531 E75.57244
G1 X48.101 Y38.417 E75.72053
G1 X49.846 Y37.385 E75.87226
G1 X51.566 Y36.509 E76.01670
G1 X53.382 Y35.722 E76.16480
G1 X55.289 Y35.035 E76.31652
G1 X57.143 Y34.496 E76.46097
G1 X59.074 Y34.063 E76.60905
G1 X61.028 Y33.752 E76.75714
G1 X62.998 Y33.564 E76.90523
G1 X65.024 Y33.501 E77.05696
G1 X66.954 Y33.561 E77.20140
G1 X68.924 Y33.746 E77.34949
G1 X70.878 Y34.054 E77.49757
G1 X72.810 Y34.484 E77.64566
G1 X74.757 Y35.050 E77.79739
