; generated by Slic3r 1.3.0 on 2023-11-04 at 00:50:44

; external perimeters extrusion width = 0.44mm (2.78mm^3/s)
; perimeters extrusion width = 0.40mm (7.14mm^3/s)
; infill extrusion width = 0.50mm (10.97mm^3/s)
; solid infill extrusion width = 0.60mm (6.68mm^3/s)
; top infill extrusion width = 0.40mm (2.14mm^3/s)

M107
M190 S80 ; set bed temperature and wait for it to be reached
M104 S210 ; set temperature
G28 ; home all axes
G1 Z5 F5000 ; lift nozzle

; Filament gcode

M109 S210 ; set temperature and wait for it to be reached
G21 ; set units to millimeters
G90 ; use absolute coordinates
M82 ; use absolute distances for extrusion
G92 E0
G1 Z0.300 F30000.000
G1 E-2.00000 F2400.00000
G92 E0
G1 X71.803 Y71.605 F30000.000
G1 E2.00000 F2400.00000
G1 F2100
G1 X72.137 Y71.291 E2.03062
G1 X72.698 Y70.815 E2.07982
G1 X73.521 Y70.218 E2.14773
G1 X74.148 Y69.830 E2.19697
G1 X74.549 Y69.610 E2.22754
G1 X75.469 Y69.177 E2.29545
G1 X76.157 Y68.914 E2.34469
G1 X76.592 Y68.772 E2.37527
G1 X77.577 Y68.519 E2.44317
G1 X78.303 Y68.390 E2.49241
G1 X78.757 Y68.332 E2.52299
G1 X79.491 Y68.277 E2.57221
G1 X80.229 Y68.269 E2.62147
G1 X81.243 Y68.332 E2.68938
G1 X81.697 Y68.390 E2.71996
G1 X82.423 Y68.519 E2.76920
G1 X83.408 Y68.772 E2.83711
G1 X83.845 Y68.914 E2.86786
G1 X84.531 Y69.176 E2.91687
G1 X85.451 Y69.610 E2.98483
G1 X85.852 Y69.830 E3.01540
G1 X86.479 Y70.217 E3.06461
G1 X87.302 Y70.815 E3.13256
G1 X87.864 Y71.292 E3.18180
G1 X88.395 Y71.803 E3.23104
G1 X88.892 Y72.344 E3.28011
G1 X89.185 Y72.698 E3.31086
G1 X89.783 Y73.522 E3.37885
G1 X90.170 Y74.148 E3.42801
G1 X90.517 Y74.798 E3.47725
G1 X90.712 Y75.212 E3.50783
G1 X90.992 Y75.894 E3.55707
G1 X91.306 Y76.861 E3.62498
G1 X91.420 Y77.304 E3.65555
G1 X91.566 Y78.027 E3.70479
G1 X91.694 Y79.038 E3.77289
G1 X91.731 Y79.771 E3.82194
G1 X91.731 Y80.229 E3.85252
G1 X91.667 Y81.245 E3.92054
G1 X91.566 Y81.975 E3.96976
G1 X91.420 Y82.696 E4.01891
G1 X91.306 Y83.139 E4.04949
G1 X91.086 Y83.843 E4.09873
G1 X90.712 Y84.788 E4.16664
G1 X90.390 Y85.451 E4.21588
G1 X90.170 Y85.852 E4.24645
G1 X89.625 Y86.711 E4.31438
G1 X89.185 Y87.302 E4.36360
G1 X88.893 Y87.654 E4.39418
G1 X88.197 Y88.395 E4.46208
G1 X87.863 Y88.710 E4.49277
G1 X87.302 Y89.185 E4.54190
G1 X86.479 Y89.782 E4.60981
G1 X85.852 Y90.170 E4.65905
G1 X85.451 Y90.390 E4.68963
G1 X84.788 Y90.712 E4.73887
G1 X84.107 Y90.991 E4.78801
G1 X83.139 Y91.306 E4.85602
G1 X82.696 Y91.420 E4.88659
G1 X81.973 Y91.566 E4.93583
G1 X80.965 Y91.694 E5.00374
G1 X80.229 Y91.731 E5.05298
G1 X79.771 Y91.731 E5.08357
G1 X79.038 Y91.694 E5.13261
G1 X78.304 Y91.610 E5.18199
G1 X77.304 Y91.420 E5.24995
G1 X76.862 Y91.306 E5.28042
G1 X76.157 Y91.086 E5.32977
G1 X75.212 Y90.712 E5.39768
G1 X74.798 Y90.517 E5.42825
G1 X74.148 Y90.170 E5.47750
G1 X73.290 Y89.625 E5.54540
G1 X72.921 Y89.357 E5.57588
G1 X72.346 Y88.893 E5.62522
G1 X71.605 Y88.197 E5.69313
G1 X71.292 Y87.864 E5.72370
G1 X70.815 Y87.302 E5.77294
G1 X70.217 Y86.479 E5.84089
G1 X69.830 Y85.852 E5.89009
G1 X69.610 Y85.451 E5.92067
G1 X69.176 Y84.531 E5.98863
G1 X68.913 Y83.841 E6.03793
G1 X68.695 Y83.142 E6.08688
G1 X68.580 Y82.696 E6.11764
G1 X68.434 Y81.973 E6.16688
G1 X68.306 Y80.965 E6.23479
G1 X68.277 Y80.508 E6.26536
G1 X68.269 Y79.771 E6.31460
G1 X68.332 Y78.757 E6.38251
G1 X68.390 Y78.303 E6.41308
G1 X68.519 Y77.577 E6.46233
G1 X68.772 Y76.592 E6.53023
G1 X68.914 Y76.157 E6.56081
G1 X69.177 Y75.469 E6.61005
G1 X69.610 Y74.549 E6.67796
G1 X69.830 Y74.148 E6.70853
G1 X70.218 Y73.521 E6.75777
G1 X70.815 Y72.698 E6.82568
G1 X71.293 Y72.135 E6.87506
G1 X71.760 Y71.647 E6.92016
G1 X72.181 Y71.984 F30000.000
G1 F2100
G1 X72.491 Y71.693 E6.94854
G1 X73.027 Y71.238 E6.99548
G1 X73.822 Y70.661 E7.06114
G1 X74.421 Y70.291 E7.10814
G1 X74.792 Y70.087 E7.13646
G1 X75.681 Y69.668 E7.20212
G1 X76.339 Y69.418 E7.24912
G1 X76.742 Y69.286 E7.27744
G1 X77.694 Y69.042 E7.34310
G1 X78.386 Y68.919 E7.39010
G1 X78.807 Y68.866 E7.41843
G1 X79.508 Y68.813 E7.46540
G1 X80.212 Y68.804 E7.51241
G1 X81.193 Y68.866 E7.57807
G1 X81.614 Y68.919 E7.60640
G1 X82.306 Y69.042 E7.65340
G1 X83.258 Y69.286 E7.71906
G1 X83.924 Y69.512 E7.76605
G1 X84.321 Y69.669 E7.79455
G1 X84.959 Y69.960 E7.84137
G1 X85.579 Y70.291 E7.88836
G1 X86.409 Y70.818 E7.95403
G1 X86.752 Y71.067 E7.98235
G1 X87.300 Y71.508 E8.02935
G1 X88.016 Y72.181 E8.09501
G1 X88.490 Y72.698 E8.14183
G1 X88.762 Y73.027 E8.17033
G1 X89.340 Y73.823 E8.23607
G1 X89.709 Y74.421 E8.28298
G1 X90.040 Y75.041 E8.32998
G1 X90.221 Y75.425 E8.35831
G1 X90.488 Y76.076 E8.40530
G1 X90.792 Y77.010 E8.47096
G1 X90.897 Y77.421 E8.49929
G1 X91.037 Y78.110 E8.54628
G1 X91.161 Y79.088 E8.61212
G1 X91.196 Y79.788 E8.65893
G1 X91.196 Y80.212 E8.68727
G1 X91.134 Y81.195 E8.75303
G1 X91.038 Y81.887 E8.79974
G1 X90.958 Y82.306 E8.82824
G1 X90.713 Y83.258 E8.89391
G1 X90.489 Y83.922 E8.94072
G1 X90.332 Y84.319 E8.96922
G1 X89.913 Y85.208 E9.03488
G1 X89.567 Y85.820 E9.08188
G1 X89.184 Y86.407 E9.12869
G1 X88.933 Y86.752 E9.15720
G1 X88.492 Y87.300 E9.20419
G1 X87.819 Y88.016 E9.26985
G1 X87.508 Y88.308 E9.29830
G1 X86.973 Y88.762 E9.34517
G1 X86.178 Y89.339 E9.41084
G1 X85.820 Y89.567 E9.43916
G1 X85.208 Y89.913 E9.48616
G1 X84.575 Y90.221 E9.53315
G1 X83.926 Y90.487 E9.58005
G1 X82.990 Y90.792 E9.64581
G1 X82.579 Y90.897 E9.67413
G1 X81.890 Y91.037 E9.72113
G1 X80.915 Y91.161 E9.78679
G1 X80.212 Y91.196 E9.83378
G1 X79.788 Y91.196 E9.86211
G1 X79.088 Y91.161 E9.90893
G1 X78.387 Y91.081 E9.95604
G1 X77.421 Y90.897 E10.02176
G1 X76.742 Y90.714 E10.06875
G1 X76.339 Y90.582 E10.09708
G1 X75.425 Y90.221 E10.16274
G1 X75.041 Y90.040 E10.19107
G1 X74.421 Y89.709 E10.23806
G1 X73.591 Y89.182 E10.30372
G1 X73.249 Y88.934 E10.33195
G1 X72.700 Y88.492 E10.37904
G1 X71.984 Y87.819 E10.44470
G1 X71.693 Y87.510 E10.47303
G1 X71.238 Y86.973 E10.52002
G1 X70.660 Y86.178 E10.58571
G1 X70.291 Y85.579 E10.63268
G1 X70.087 Y85.208 E10.66100
G1 X69.668 Y84.318 E10.72671
G1 X69.417 Y83.660 E10.77376
G1 X69.209 Y82.991 E10.82058
G1 X69.103 Y82.579 E10.84898
G1 X68.963 Y81.890 E10.89597
G1 X68.839 Y80.915 E10.96164
G1 X68.813 Y80.491 E10.98996
G1 X68.804 Y79.788 E11.03696
G1 X68.866 Y78.807 E11.10261
G1 X68.919 Y78.386 E11.13094
G1 X69.042 Y77.694 E11.17793
G1 X69.286 Y76.742 E11.24359
G1 X69.418 Y76.339 E11.27192
G1 X69.668 Y75.681 E11.31891
G1 X70.087 Y74.792 E11.38457
G1 X70.291 Y74.421 E11.41290
G1 X70.661 Y73.822 E11.45989
G1 X71.238 Y73.027 E11.52556
G1 X71.695 Y72.489 E11.57268
G1 X72.139 Y72.026 E11.61554
G1 X72.560 Y72.362 F30000.000
G1 F2100
G1 X73.355 Y71.661 E11.68634
G1 X74.123 Y71.104 E11.74976
G1 X75.035 Y70.564 E11.82056
G1 X75.894 Y70.160 E11.88397
G1 X76.891 Y69.801 E11.95478
G1 X77.811 Y69.565 E12.01819
G1 X78.858 Y69.399 E12.08900
G1 X79.525 Y69.348 E12.13372
G1 X80.195 Y69.339 E12.17849
G1 X81.142 Y69.399 E12.24190
G1 X82.189 Y69.565 E12.31271
G1 X83.109 Y69.801 E12.37612
G1 X84.108 Y70.161 E12.44705
G1 X84.716 Y70.437 E12.49167
G1 X85.307 Y70.752 E12.53642
G1 X86.108 Y71.261 E12.59983
G1 X86.946 Y71.910 E12.67064
G1 X87.638 Y72.560 E12.73405
G1 X88.339 Y73.355 E12.80485
G1 X88.897 Y74.124 E12.86834
G1 X89.248 Y74.693 E12.91301
G1 X89.563 Y75.284 E12.95776
G1 X89.984 Y76.257 E13.02856
G1 X90.277 Y77.160 E13.09198
G1 X90.508 Y78.194 E13.16278
G1 X90.628 Y79.138 E13.22636
G1 X90.661 Y80.195 E13.29700
G1 X90.601 Y81.144 E13.36051
G1 X90.435 Y82.189 E13.43121
G1 X90.199 Y83.109 E13.49463
G1 X89.840 Y84.106 E13.56543
G1 X89.436 Y84.965 E13.62884
G1 X89.106 Y85.547 E13.67359
G1 X88.741 Y86.106 E13.71816
G1 X88.090 Y86.946 E13.78915
G1 X87.440 Y87.638 E13.85256
G1 X86.645 Y88.339 E13.92336
G1 X85.877 Y88.896 E13.98677
G1 X84.965 Y89.436 E14.05758
G1 X84.362 Y89.729 E14.10233
G1 X83.744 Y89.983 E14.14698
G1 X82.840 Y90.277 E14.21049
G1 X81.806 Y90.508 E14.28129
G1 X80.864 Y90.627 E14.34470
G1 X79.805 Y90.661 E14.41551
G1 X79.138 Y90.628 E14.46009
G1 X78.471 Y90.552 E14.50495
G1 X77.538 Y90.374 E14.56841
G1 X76.520 Y90.079 E14.63922
G1 X75.638 Y89.729 E14.70263
G1 X74.693 Y89.248 E14.77344
G1 X73.892 Y88.739 E14.83685
G1 X73.054 Y88.090 E14.90765
G1 X72.362 Y87.440 E14.97107
G1 X71.661 Y86.645 E15.04187
G1 X71.103 Y85.877 E15.10531
G1 X70.564 Y84.965 E15.17609
G1 X70.160 Y84.105 E15.23955
G1 X69.921 Y83.479 E15.28434
G1 X69.724 Y82.843 E15.32881
G1 X69.492 Y81.806 E15.39980
G1 X69.373 Y80.864 E15.46321
G1 X69.339 Y79.805 E15.53402
G1 X69.399 Y78.858 E15.59743
G1 X69.565 Y77.811 E15.66823
G1 X69.801 Y76.891 E15.73164
G1 X70.160 Y75.894 E15.80245
G1 X70.564 Y75.035 E15.86586
G1 X71.104 Y74.123 E15.93666
G1 X71.661 Y73.355 E16.00008
G1 X72.096 Y72.843 E16.04494
G1 X72.518 Y72.405 E16.08557
G1 X72.939 Y72.741 F30000.000
G1 F2100
G1 X73.683 Y72.085 E16.15188
G1 X74.424 Y71.547 E16.21304
G1 X75.278 Y71.041 E16.27935
G1 X76.107 Y70.651 E16.34052
G1 X77.041 Y70.315 E16.40683
G1 X77.928 Y70.087 E16.46799
G1 X78.908 Y69.932 E16.53431
G1 X79.542 Y69.884 E16.57679
G1 X80.178 Y69.875 E16.61930
G1 X81.092 Y69.932 E16.68047
G1 X82.072 Y70.087 E16.74678
G1 X82.959 Y70.315 E16.80794
G1 X83.896 Y70.652 E16.87443
G1 X84.473 Y70.914 E16.91676
G1 X85.034 Y71.213 E16.95925
G1 X85.807 Y71.704 E17.02042
G1 X86.592 Y72.312 E17.08673
G1 X87.259 Y72.939 E17.14789
G1 X87.915 Y73.683 E17.21421
G1 X88.454 Y74.425 E17.27543
G1 X88.787 Y74.966 E17.31787
G1 X89.086 Y75.527 E17.36037
G1 X89.480 Y76.438 E17.42668
G1 X89.763 Y77.309 E17.48785
G1 X89.979 Y78.278 E17.55415
G1 X90.094 Y79.188 E17.61547
G1 X90.125 Y80.178 E17.68163
G1 X90.068 Y81.093 E17.74289
G1 X89.979 Y81.723 E17.78537
G1 X89.852 Y82.345 E17.82779
G1 X89.575 Y83.299 E17.89411
G1 X89.238 Y84.150 E17.95527
G1 X88.787 Y85.034 E18.02158
G1 X88.296 Y85.807 E18.08276
G1 X87.688 Y86.592 E18.14906
G1 X87.061 Y87.259 E18.21022
G1 X86.317 Y87.915 E18.27653
G1 X85.576 Y88.453 E18.33770
G1 X84.722 Y88.959 E18.40401
G1 X84.150 Y89.238 E18.44651
G1 X83.563 Y89.479 E18.48893
G1 X82.691 Y89.763 E18.55017
G1 X81.722 Y89.979 E18.61648
G1 X80.814 Y90.094 E18.67765
G1 X79.822 Y90.125 E18.74396
G1 X79.188 Y90.094 E18.78631
G1 X78.555 Y90.023 E18.82891
G1 X77.655 Y89.852 E18.89012
G1 X76.701 Y89.575 E18.95644
G1 X75.850 Y89.238 E19.01760
G1 X74.966 Y88.787 E19.08391
G1 X74.193 Y88.296 E19.14507
G1 X73.408 Y87.688 E19.21139
G1 X72.741 Y87.061 E19.27255
G1 X72.085 Y86.317 E19.33886
G1 X71.546 Y85.576 E19.40005
G1 X71.041 Y84.722 E19.46634
G1 X70.651 Y83.893 E19.52754
G1 X70.425 Y83.297 E19.57009
G1 X70.238 Y82.693 E19.61232
G1 X70.021 Y81.722 E19.67881
G1 X69.906 Y80.814 E19.73998
G1 X69.875 Y79.822 E19.80629
G1 X69.932 Y78.908 E19.86745
G1 X70.087 Y77.928 E19.93376
G1 X70.315 Y77.041 E19.99492
G1 X70.651 Y76.107 E20.06124
G1 X71.041 Y75.278 E20.12240
G1 X71.547 Y74.424 E20.18871
G1 X72.085 Y73.683 E20.24988
G1 X72.498 Y73.198 E20.29248
G1 X72.896 Y72.784 E20.33087
G1 X73.318 Y73.120 F30000.000
G1 F2100
G1 X74.012 Y72.508 E20.39269
G1 X74.725 Y71.990 E20.45160
G1 X75.522 Y71.518 E20.51342
G1 X76.320 Y71.143 E20.57234
G1 X77.190 Y70.830 E20.63415
G1 X78.044 Y70.610 E20.69307
G1 X78.958 Y70.465 E20.75489
G1 X79.559 Y70.419 E20.79512
G1 X80.162 Y70.410 E20.83539
G1 X81.042 Y70.465 E20.89431
G1 X81.956 Y70.610 E20.95613
G1 X82.540 Y70.751 E20.99630
G1 X83.116 Y70.929 E21.03655
G1 X83.937 Y71.254 E21.09555
G1 X84.761 Y71.674 E21.15736
G1 X85.506 Y72.147 E21.21628
G1 X86.237 Y72.714 E21.27810
G1 X86.880 Y73.317 E21.33701
G1 X87.492 Y74.012 E21.39883
G1 X88.011 Y74.726 E21.45781
G1 X88.326 Y75.238 E21.49800
G1 X88.608 Y75.771 E21.53825
G1 X88.976 Y76.620 E21.60007
G1 X89.248 Y77.459 E21.65899
G1 X89.450 Y78.362 E21.72080
G1 X89.561 Y79.239 E21.77986
G1 X89.590 Y80.162 E21.84154
G1 X89.534 Y81.043 E21.90054
G1 X89.450 Y81.639 E21.94077
G1 X89.329 Y82.228 E21.98096
G1 X89.071 Y83.117 E22.04278
G1 X88.746 Y83.937 E22.10169
G1 X88.326 Y84.762 E22.16351
G1 X87.853 Y85.506 E22.22244
G1 X87.286 Y86.237 E22.28425
G1 X86.682 Y86.880 E22.34316
G1 X85.988 Y87.492 E22.40498
G1 X85.275 Y88.010 E22.46390
G1 X84.478 Y88.482 E22.52571
G1 X83.937 Y88.746 E22.56597
G1 X83.381 Y88.976 E22.60614
G1 X82.541 Y89.248 E22.66513
G1 X81.638 Y89.450 E22.72695
G1 X80.763 Y89.561 E22.78587
G1 X79.838 Y89.590 E22.84769
G1 X79.239 Y89.561 E22.88780
G1 X78.638 Y89.494 E22.92815
G1 X77.772 Y89.329 E22.98711
G1 X76.883 Y89.071 E23.04893
G1 X76.063 Y88.746 E23.10784
G1 X75.238 Y88.326 E23.16966
G1 X74.494 Y87.853 E23.22857
G1 X73.763 Y87.286 E23.29039
G1 X73.120 Y86.682 E23.34931
G1 X72.508 Y85.988 E23.41113
G1 X71.989 Y85.275 E23.47007
G1 X71.518 Y84.478 E23.53186
G1 X71.143 Y83.680 E23.59082
G1 X70.929 Y83.116 E23.63111
G1 X70.752 Y82.544 E23.67110
G1 X70.550 Y81.638 E23.73310
G1 X70.439 Y80.763 E23.79202
G1 X70.410 Y79.838 E23.85383
G1 X70.465 Y78.958 E23.91275
G1 X70.610 Y78.044 E23.97457
G1 X70.830 Y77.190 E24.03348
G1 X71.143 Y76.320 E24.09530
G1 X71.518 Y75.522 E24.15421
G1 X71.990 Y74.725 E24.21603
G1 X72.508 Y74.012 E24.27495
G1 X72.900 Y73.552 E24.31530
G1 X73.275 Y73.162 E24.35145
G1 X73.696 Y73.499 F30000.000
G1 F2100
G1 X74.340 Y72.931 E24.40877
G1 X74.795 Y72.590 E24.44678
G1 X75.270 Y72.278 E24.48473
G1 X76.014 Y71.869 E24.54145
G1 X76.801 Y71.528 E24.59877
G1 X77.608 Y71.266 E24.65544
G1 X78.445 Y71.079 E24.71277
G1 X79.287 Y70.972 E24.76943
G1 X80.145 Y70.945 E24.82676
G1 X80.991 Y70.999 E24.88342
G1 X81.839 Y71.133 E24.94075
G1 X82.660 Y71.344 E24.99742
G1 X83.470 Y71.636 E25.05492
G1 X83.986 Y71.869 E25.09275
G1 X84.489 Y72.135 E25.13075
G1 X85.205 Y72.590 E25.18742
G1 X85.883 Y73.116 E25.24474
G1 X86.501 Y73.696 E25.30141
G1 X87.069 Y74.340 E25.35874
G1 X87.568 Y75.027 E25.41546
G1 X87.865 Y75.511 E25.45341
G1 X88.131 Y76.014 E25.49141
G1 X88.472 Y76.801 E25.54874
G1 X88.734 Y77.608 E25.60541
G1 X88.921 Y78.445 E25.66273
G1 X89.028 Y79.289 E25.71952
G1 X89.055 Y80.145 E25.77673
G1 X89.001 Y80.992 E25.83347
G1 X88.867 Y81.839 E25.89071
G1 X88.656 Y82.660 E25.94739
G1 X88.365 Y83.468 E26.00471
G1 X88.004 Y84.235 E26.06137
G1 X87.723 Y84.730 E26.09938
G1 X87.412 Y85.203 E26.13721
G1 X86.884 Y85.883 E26.19471
G1 X86.304 Y86.501 E26.25138
G1 X85.660 Y87.069 E26.30870
G1 X84.974 Y87.567 E26.36537
G1 X84.235 Y88.004 E26.42270
G1 X83.724 Y88.254 E26.46070
G1 X83.200 Y88.472 E26.49864
G1 X82.392 Y88.734 E26.55537
G1 X81.555 Y88.921 E26.61270
G1 X80.713 Y89.028 E26.66936
G1 X79.855 Y89.055 E26.72669
G1 X79.289 Y89.028 E26.76457
G1 X78.722 Y88.965 E26.80266
G1 X77.888 Y88.806 E26.85937
G1 X77.064 Y88.567 E26.91669
G1 X76.276 Y88.254 E26.97336
G1 X75.511 Y87.865 E27.03068
G1 X74.795 Y87.410 E27.08735
G1 X74.117 Y86.884 E27.14468
G1 X73.499 Y86.304 E27.20134
G1 X72.931 Y85.660 E27.25867
G1 X72.432 Y84.974 E27.31536
G1 X71.996 Y84.235 E27.37266
G1 X71.634 Y83.467 E27.42936
G1 X71.433 Y82.935 E27.46740
G1 X71.267 Y82.395 E27.50516
G1 X71.079 Y81.555 E27.56266
G1 X70.972 Y80.713 E27.61933
G1 X70.945 Y79.855 E27.67666
G1 X70.999 Y79.009 E27.73332
G1 X71.133 Y78.161 E27.79065
G1 X71.344 Y77.340 E27.84731
G1 X71.635 Y76.532 E27.90464
G1 X71.996 Y75.765 E27.96131
G1 X72.433 Y75.026 E28.01863
G1 X72.931 Y74.340 E28.07530
G1 X73.301 Y73.906 E28.11339
G1 X73.654 Y73.541 E28.14730
G1 X74.075 Y73.877 F30000.000
G1 F2100
G1 X74.668 Y73.354 E28.20013
G1 X75.327 Y72.876 E28.25455
G1 X76.008 Y72.473 E28.30738
G1 X76.745 Y72.126 E28.36180
G1 X77.489 Y71.858 E28.41463
G1 X78.278 Y71.656 E28.46905
G1 X79.059 Y71.532 E28.52189
G1 X79.593 Y71.490 E28.55763
G1 X80.128 Y71.481 E28.59340
G1 X80.941 Y71.532 E28.64782
G1 X81.722 Y71.656 E28.70065
G1 X82.511 Y71.858 E28.75507
G1 X83.257 Y72.127 E28.80805
G1 X83.743 Y72.346 E28.84366
G1 X84.216 Y72.596 E28.87941
G1 X84.904 Y73.033 E28.93383
G1 X85.529 Y73.517 E28.98667
G1 X86.123 Y74.075 E29.04109
G1 X86.646 Y74.668 E29.09392
G1 X87.125 Y75.328 E29.14838
G1 X87.527 Y76.008 E29.20117
G1 X87.874 Y76.745 E29.25559
G1 X88.142 Y77.489 E29.30842
G1 X88.283 Y78.005 E29.34418
G1 X88.392 Y78.529 E29.37993
G1 X88.495 Y79.339 E29.43446
G1 X88.519 Y80.128 E29.48719
G1 X88.468 Y80.942 E29.54167
G1 X88.392 Y81.471 E29.57741
G1 X88.283 Y81.995 E29.61312
G1 X88.063 Y82.754 E29.66595
G1 X87.763 Y83.512 E29.72037
G1 X87.404 Y84.216 E29.77320
G1 X86.967 Y84.904 E29.82763
G1 X86.483 Y85.529 E29.88045
