; generated by Slic3r 1.3.0 on 2021-11-26 at 23:13:11

; external perimeters extrusion width = 0.44mm (2.78mm^3/s)
; perimeters extrusion width = 0.40mm (7.14mm^3/s)
; infill extrusion width = 0.50mm (10.97mm^3/s)
; solid infill extrusion width = 0.60mm (6.68mm^3/s)
; top infill extrusion width = 0.40mm (2.14mm^3/s)

M107
M190 S80 ; set bed temperature and wait for it to be reached
M104 S210 ; set temperature
G28 ; home all axes
G1 Z5 F5000 ; lift nozzle

; Filament gcode

M109 S210 ; set temperature and wait for it to be reached
G21 ; set units to millimeters
G90 ; use absolute coordinates
M82 ; use absolute distances for extrusion
G92 E0
G1 Z0.300 F30000.000
G1 E-2.00000 F2400.00000
G92 E0
G1 X49.076 Y48.279 F30000.000
G1 E2.00000 F2400.00000
G1 F2100
G1 X50.406 Y47.106 E2.11847
G1 X51.297 Y46.415 E2.19380
G1 X52.491 Y45.591 E2.29071
G1 X54.018 Y44.688 E2.40918
G1 X55.315 Y44.039 E2.50609
G1 X56.350 Y43.591 E2.58143
G1 X57.711 Y43.090 E2.67835
G1 X59.101 Y42.676 E2.77524
G1 X60.832 Y42.289 E2.89372
G1 X61.946 Y42.112 E2.96905
G1 X63.389 Y41.966 E3.06596
G1 X65.161 Y41.910 E3.18443
G1 X66.611 Y41.966 E3.28133
G1 X67.734 Y42.072 E3.35667
G1 X69.485 Y42.349 E3.47515
G1 X70.586 Y42.595 E3.55049
G1 X71.982 Y42.990 E3.64739
G1 X73.650 Y43.591 E3.76586
G1 X74.685 Y44.039 E3.84120
G1 X75.982 Y44.688 E3.93811
G1 X77.509 Y45.591 E4.05658
G1 X78.441 Y46.225 E4.13191
G1 X79.594 Y47.106 E4.22882
G1 X80.688 Y48.058 E4.32572
G1 X81.721 Y49.076 E4.42263
G1 X82.894 Y50.406 E4.54110
G1 X83.585 Y51.297 E4.61643
G1 X84.409 Y52.491 E4.71334
G1 X85.312 Y54.018 E4.83181
G1 X85.824 Y55.023 E4.90714
G1 X86.409 Y56.350 E5.00406
G1 X86.910 Y57.711 E5.10098
G1 X87.324 Y59.101 E5.19787
G1 X87.711 Y60.832 E5.31635
G1 X87.888 Y61.946 E5.39168
G1 X88.034 Y63.389 E5.48859
G1 X88.090 Y65.161 E5.60706
G1 X88.055 Y66.289 E5.68239
G1 X87.928 Y67.734 E5.77930
G1 X87.651 Y69.485 E5.89778
G1 X87.405 Y70.586 E5.97312
G1 X87.010 Y71.982 E6.07002
G1 X86.409 Y73.650 E6.18849
G1 X85.961 Y74.685 E6.26384
G1 X85.312 Y75.982 E6.36074
G1 X84.409 Y77.509 E6.47921
G1 X83.585 Y78.703 E6.57612
G1 X82.894 Y79.594 E6.65146
G1 X81.942 Y80.688 E6.74836
G1 X80.924 Y81.721 E6.84526
G1 X79.594 Y82.894 E6.96372
G1 X78.703 Y83.585 E7.03906
G1 X77.509 Y84.409 E7.13597
G1 X75.982 Y85.312 E7.25443
G1 X74.685 Y85.961 E7.35134
G1 X73.650 Y86.409 E7.42669
G1 X72.289 Y86.910 E7.52360
G1 X70.899 Y87.324 E7.62050
G1 X69.168 Y87.711 E7.73897
G1 X68.054 Y87.888 E7.81431
G1 X66.611 Y88.034 E7.91122
G1 X64.839 Y88.090 E8.02969
G1 X63.711 Y88.055 E8.10502
G1 X62.266 Y87.928 E8.20193
G1 X60.515 Y87.651 E8.32041
G1 X59.101 Y87.324 E8.41732
G1 X58.018 Y87.010 E8.49265
G1 X56.650 Y86.528 E8.58954
G1 X56.196 Y86.342 E8.62236
G1 X55.023 Y85.824 E8.70805
G1 X53.735 Y85.156 E8.80494
G1 X52.764 Y84.582 E8.88027
G1 X51.559 Y83.775 E8.97719
G1 X50.157 Y82.688 E9.09566
G1 X49.312 Y81.942 E9.17099
G1 X48.279 Y80.924 E9.26790
G1 X47.106 Y79.594 E9.38637
G1 X46.415 Y78.703 E9.46170
G1 X45.591 Y77.509 E9.55861
G1 X44.688 Y75.982 E9.67708
G1 X44.176 Y74.977 E9.75241
G1 X43.591 Y73.650 E9.84933
G1 X43.090 Y72.289 E9.94625
G1 X42.676 Y70.899 E10.04313
G1 X42.289 Y69.168 E10.16161
G1 X42.112 Y68.054 E10.23695
G1 X41.966 Y66.611 E10.33386
G1 X41.910 Y64.839 E10.45232
G1 X41.945 Y63.711 E10.52766
G1 X42.072 Y62.266 E10.62457
G1 X42.349 Y60.515 E10.74305
G1 X42.676 Y59.101 E10.83996
G1 X42.990 Y58.018 E10.91529
G1 X43.591 Y56.350 E11.03376
G1 X44.039 Y55.315 E11.10910
G1 X44.688 Y54.018 E11.20601
G1 X45.591 Y52.491 E11.32448
G1 X46.225 Y51.559 E11.39981
G1 X47.106 Y50.406 E11.49672
G1 X48.058 Y49.312 E11.59362
G1 X49.034 Y48.321 E11.68652
G1 X49.455 Y48.658 F30000.000
G1 F2100
G1 X50.735 Y47.529 E11.80049
G1 X51.626 Y46.838 E11.87583
G1 X52.792 Y46.034 E11.97049
G1 X54.261 Y45.166 E12.08447
G1 X55.528 Y44.530 E12.17913
G1 X56.563 Y44.083 E12.25447
G1 X57.893 Y43.594 E12.34914
G1 X59.251 Y43.190 E12.44378
G1 X60.916 Y42.818 E12.55777
G1 X62.030 Y42.641 E12.63310
G1 X63.439 Y42.499 E12.72776
G1 X65.145 Y42.445 E12.84174
G1 X66.272 Y42.481 E12.91707
G1 X67.683 Y42.605 E13.01173
G1 X69.369 Y42.872 E13.12572
G1 X70.469 Y43.118 E13.20106
G1 X71.832 Y43.505 E13.29571
G1 X73.437 Y44.083 E13.40969
G1 X74.472 Y44.530 E13.48503
G1 X75.739 Y45.166 E13.57969
G1 X77.208 Y46.034 E13.69367
G1 X78.374 Y46.838 E13.78833
G1 X79.265 Y47.529 E13.86366
G1 X80.334 Y48.459 E13.95832
G1 X81.342 Y49.455 E14.05298
G1 X82.471 Y50.735 E14.16695
G1 X83.162 Y51.626 E14.24228
G1 X83.966 Y52.792 E14.33694
G1 X84.834 Y54.261 E14.45092
G1 X85.470 Y55.528 E14.54559
G1 X85.917 Y56.563 E14.62092
G1 X86.406 Y57.893 E14.71560
G1 X86.810 Y59.251 E14.81024
G1 X87.182 Y60.916 E14.92422
G1 X87.359 Y62.030 E14.99955
G1 X87.501 Y63.439 E15.09422
G1 X87.555 Y65.145 E15.20819
G1 X87.519 Y66.272 E15.28353
G1 X87.395 Y67.683 E15.37818
G1 X87.128 Y69.369 E15.49218
G1 X86.882 Y70.469 E15.56751
G1 X86.495 Y71.832 E15.66217
G1 X85.917 Y73.437 E15.77615
G1 X85.470 Y74.473 E15.85149
G1 X84.834 Y75.739 E15.94615
G1 X83.966 Y77.208 E16.06012
G1 X83.162 Y78.374 E16.15478
G1 X82.471 Y79.265 E16.23012
G1 X81.541 Y80.334 E16.32477
G1 X80.545 Y81.342 E16.41943
G1 X79.265 Y82.471 E16.53340
G1 X78.374 Y83.162 E16.60874
G1 X77.208 Y83.966 E16.70340
G1 X75.739 Y84.834 E16.81737
G1 X74.473 Y85.470 E16.91203
G1 X73.437 Y85.917 E16.98738
G1 X72.107 Y86.406 E17.08205
G1 X70.749 Y86.810 E17.17669
G1 X69.084 Y87.182 E17.29067
G1 X67.970 Y87.359 E17.36601
G1 X66.561 Y87.501 E17.46068
G1 X64.855 Y87.555 E17.57465
G1 X63.728 Y87.519 E17.64998
G1 X62.317 Y87.395 E17.74464
G1 X60.632 Y87.128 E17.85863
G1 X59.531 Y86.882 E17.93397
G1 X58.168 Y86.495 E18.02863
G1 X56.563 Y85.917 E18.14260
G1 X55.528 Y85.470 E18.21794
G1 X54.261 Y84.834 E18.31260
G1 X52.792 Y83.966 E18.42658
G1 X51.860 Y83.332 E18.50191
G1 X50.735 Y82.471 E18.59657
G1 X49.666 Y81.541 E18.69123
G1 X48.658 Y80.545 E18.78589
G1 X47.529 Y79.265 E18.89986
G1 X46.838 Y78.374 E18.97519
G1 X46.034 Y77.208 E19.06986
G1 X45.166 Y75.739 E19.18383
G1 X44.654 Y74.734 E19.25917
G1 X44.083 Y73.437 E19.35383
G1 X43.594 Y72.107 E19.44850
G1 X43.190 Y70.749 E19.54315
G1 X42.818 Y69.084 E19.65713
G1 X42.605 Y67.683 E19.75180
G1 X42.499 Y66.561 E19.82713
G1 X42.445 Y64.855 E19.94110
G1 X42.481 Y63.728 E20.01644
G1 X42.605 Y62.317 E20.11110
G1 X42.872 Y60.631 E20.22509
G1 X43.118 Y59.531 E20.30042
G1 X43.505 Y58.168 E20.39508
G1 X44.083 Y56.563 E20.50906
G1 X44.530 Y55.528 E20.58439
G1 X45.166 Y54.261 E20.67906
G1 X46.034 Y52.792 E20.79304
G1 X46.668 Y51.860 E20.86837
G1 X47.529 Y50.735 E20.96303
G1 X48.459 Y49.666 E21.05768
G1 X49.412 Y48.700 E21.14833
G1 X49.834 Y49.036 F30000.000
G1 F2100
G1 X51.063 Y47.952 E21.25781
G1 X51.954 Y47.261 E21.33315
G1 X53.093 Y46.477 E21.42556
G1 X54.504 Y45.643 E21.53505
G1 X55.740 Y45.022 E21.62746
G1 X56.775 Y44.574 E21.70280
G1 X58.074 Y44.098 E21.79522
G1 X59.400 Y43.704 E21.88762
G1 X61.000 Y43.347 E21.99711
G1 X62.113 Y43.170 E22.07244
G1 X63.490 Y43.032 E22.16486
G1 X65.128 Y42.981 E22.27434
G1 X66.510 Y43.032 E22.36675
G1 X67.633 Y43.138 E22.44209
G1 X69.252 Y43.395 E22.55158
G1 X70.352 Y43.641 E22.62692
G1 X71.683 Y44.019 E22.71933
G1 X73.225 Y44.574 E22.82881
G1 X74.260 Y45.022 E22.90415
G1 X75.496 Y45.643 E22.99656
G1 X76.906 Y46.477 E23.10605
G1 X77.839 Y47.111 E23.18138
G1 X78.937 Y47.952 E23.27380
G1 X79.980 Y48.861 E23.36620
G1 X80.964 Y49.834 E23.45861
G1 X82.048 Y51.063 E23.56810
G1 X82.739 Y51.954 E23.64343
G1 X83.523 Y53.093 E23.73584
G1 X84.357 Y54.504 E23.84533
G1 X84.978 Y55.740 E23.93775
G1 X85.426 Y56.775 E24.01308
G1 X85.902 Y58.074 E24.10550
G1 X86.296 Y59.400 E24.19790
G1 X86.653 Y61.000 E24.30739
G1 X86.830 Y62.113 E24.38272
G1 X86.968 Y63.490 E24.47514
G1 X87.019 Y65.128 E24.58462
G1 X86.984 Y66.255 E24.65995
G1 X86.862 Y67.633 E24.75237
G1 X86.605 Y69.252 E24.86186
G1 X86.359 Y70.352 E24.93720
G1 X85.981 Y71.683 E25.02961
G1 X85.426 Y73.225 E25.13909
G1 X84.978 Y74.260 E25.21444
G1 X84.357 Y75.496 E25.30685
G1 X83.523 Y76.906 E25.41633
G1 X82.739 Y78.046 E25.50874
G1 X82.047 Y78.937 E25.58408
G1 X81.139 Y79.980 E25.67649
G1 X80.166 Y80.964 E25.76890
G1 X78.937 Y82.047 E25.87838
G1 X78.046 Y82.739 E25.95371
G1 X76.906 Y83.523 E26.04612
G1 X75.496 Y84.357 E26.15560
G1 X74.260 Y84.978 E26.24802
G1 X73.225 Y85.426 E26.32336
G1 X71.926 Y85.902 E26.41578
G1 X70.600 Y86.296 E26.50818
G1 X69.000 Y86.653 E26.61767
G1 X67.887 Y86.830 E26.69301
G1 X66.510 Y86.968 E26.78542
G1 X64.872 Y87.019 E26.89490
G1 X63.490 Y86.968 E26.98732
G1 X62.367 Y86.862 E27.06265
G1 X60.748 Y86.605 E27.17214
G1 X59.648 Y86.359 E27.24748
G1 X58.317 Y85.981 E27.33989
G1 X57.013 Y85.520 E27.43229
G1 X56.621 Y85.359 E27.46061
G1 X55.509 Y84.869 E27.54180
G1 X54.280 Y84.234 E27.63420
G1 X53.310 Y83.660 E27.70954
G1 X52.161 Y82.889 E27.80195
G1 X50.866 Y81.885 E27.91144
G1 X50.020 Y81.139 E27.98677
G1 X49.036 Y80.166 E28.07918
G1 X47.952 Y78.937 E28.18867
G1 X47.261 Y78.046 E28.26400
G1 X46.477 Y76.906 E28.35641
G1 X45.643 Y75.496 E28.46590
G1 X45.131 Y74.491 E28.54123
G1 X44.574 Y73.225 E28.63365
G1 X44.098 Y71.926 E28.72607
G1 X43.704 Y70.600 E28.81847
G1 X43.347 Y69.000 E28.92796
G1 X43.138 Y67.633 E29.02038
G1 X43.032 Y66.510 E29.09571
G1 X42.981 Y64.872 E29.20519
G1 X43.016 Y63.745 E29.28053
G1 X43.138 Y62.367 E29.37294
G1 X43.395 Y60.748 E29.48243
G1 X43.704 Y59.400 E29.57485
G1 X44.019 Y58.317 E29.65018
G1 X44.574 Y56.775 E29.75966
G1 X45.022 Y55.740 E29.83500
G1 X45.643 Y54.504 E29.92742
G1 X46.477 Y53.093 E30.03690
G1 X47.261 Y51.954 E30.12931
G1 X47.952 Y51.063 E30.20465
G1 X48.861 Y50.020 E30.29705
G1 X49.791 Y49.079 E30.38546
G1 X50.212 Y49.415 F30000.000
G1 F2100
G1 X51.391 Y48.376 E30.49045
G1 X52.462 Y47.554 E30.58061
G1 X53.395 Y46.920 E30.65594
G1 X54.747 Y46.120 E30.76094
G1 X55.953 Y45.514 E30.85111
G1 X56.988 Y45.066 E30.92644
G1 X58.256 Y44.602 E31.01661
G1 X59.550 Y44.219 E31.10677
G1 X61.083 Y43.876 E31.21177
G1 X62.197 Y43.699 E31.28710
G1 X63.540 Y43.565 E31.37727
G1 X65.111 Y43.516 E31.48225
G1 X66.238 Y43.552 E31.55759
G1 X67.582 Y43.672 E31.64775
G1 X69.135 Y43.917 E31.75276
G1 X70.235 Y44.163 E31.82809
G1 X71.533 Y44.533 E31.91825
G1 X73.012 Y45.066 E32.02325
G1 X74.047 Y45.514 E32.09858
G1 X75.253 Y46.120 E32.18875
G1 X76.605 Y46.920 E32.29374
G1 X77.538 Y47.554 E32.36907
G1 X78.609 Y48.376 E32.45924
G1 X79.626 Y49.263 E32.54940
G1 X80.585 Y50.212 E32.63956
G1 X81.624 Y51.391 E32.74455
G1 X82.315 Y52.282 E32.81989
G1 X83.080 Y53.395 E32.91005
G1 X83.880 Y54.747 E33.01504
G1 X84.392 Y55.752 E33.09038
G1 X84.934 Y56.988 E33.18055
G1 X85.398 Y58.256 E33.27072
G1 X85.781 Y59.550 E33.36088
G1 X86.124 Y61.083 E33.46587
G1 X86.301 Y62.197 E33.54120
G1 X86.435 Y63.540 E33.63138
G1 X86.484 Y65.111 E33.73636
G1 X86.448 Y66.238 E33.81170
G1 X86.328 Y67.582 E33.90186
G1 X86.083 Y69.135 E34.00686
G1 X85.837 Y70.235 E34.08220
G1 X85.467 Y71.533 E34.17236
G1 X84.934 Y73.012 E34.27735
G1 X84.486 Y74.047 E34.35270
G1 X83.880 Y75.253 E34.44286
G1 X83.080 Y76.605 E34.54785
G1 X82.446 Y77.538 E34.62318
G1 X81.624 Y78.609 E34.71335
G1 X80.737 Y79.626 E34.80351
G1 X79.788 Y80.585 E34.89367
G1 X78.609 Y81.624 E34.99866
G1 X77.718 Y82.315 E35.07399
G1 X76.605 Y83.080 E35.16416
G1 X75.253 Y83.880 E35.26915
G1 X74.047 Y84.486 E35.35931
G1 X73.012 Y84.934 E35.43466
G1 X71.744 Y85.398 E35.52483
G1 X70.450 Y85.781 E35.61498
G1 X68.917 Y86.124 E35.71998
G1 X67.803 Y86.301 E35.79531
G1 X66.460 Y86.435 E35.88548
G1 X64.889 Y86.484 E35.99047
G1 X63.762 Y86.448 E36.06580
G1 X62.418 Y86.328 E36.15597
G1 X60.865 Y86.083 E36.26097
G1 X59.550 Y85.781 E36.35113
G1 X58.467 Y85.467 E36.42647
G1 X57.195 Y85.016 E36.51662
G1 X56.834 Y84.868 E36.54269
G1 X55.752 Y84.392 E36.62164
G1 X54.553 Y83.773 E36.71179
G1 X53.582 Y83.199 E36.78713
G1 X52.462 Y82.446 E36.87730
G1 X51.220 Y81.483 E36.98229
G1 X50.374 Y80.737 E37.05762
G1 X49.415 Y79.788 E37.14779
G1 X48.376 Y78.609 E37.25277
G1 X47.685 Y77.718 E37.32811
G1 X46.920 Y76.605 E37.41827
G1 X46.120 Y75.253 E37.52327
G1 X45.608 Y74.248 E37.59860
G1 X45.066 Y73.012 E37.68877
G1 X44.602 Y71.744 E37.77894
G1 X44.219 Y70.450 E37.86910
G1 X43.876 Y68.917 E37.97409
G1 X43.672 Y67.582 E38.06426
G1 X43.565 Y66.460 E38.13960
G1 X43.516 Y64.889 E38.24458
G1 X43.552 Y63.762 E38.31992
G1 X43.672 Y62.418 E38.41008
G1 X43.917 Y60.865 E38.51508
G1 X44.163 Y59.765 E38.59042
G1 X44.533 Y58.467 E38.68058
G1 X45.066 Y56.988 E38.78557
G1 X45.514 Y55.953 E38.86091
G1 X46.120 Y54.747 E38.95108
G1 X46.920 Y53.395 E39.05607
G1 X47.554 Y52.462 E39.13140
G1 X48.376 Y51.391 E39.22157
G1 X49.263 Y50.374 E39.31173
G1 X50.170 Y49.457 E39.39789
G1 X50.768 Y49.971 F30000.000
G1 F2100
G1 X51.839 Y49.023 E39.50488
G1 X52.798 Y48.279 E39.59573
G1 X53.872 Y47.546 E39.69305
G1 X55.066 Y46.840 E39.79682
G1 X56.148 Y46.289 E39.88767
G1 X57.340 Y45.770 E39.98499
G1 X58.563 Y45.327 E40.08231
G1 X59.810 Y44.962 E40.17961
G1 X61.164 Y44.659 E40.28339
G1 X62.363 Y44.469 E40.37424
G1 X63.657 Y44.344 E40.47156
G1 X65.043 Y44.301 E40.57533
G1 X66.343 Y44.344 E40.67264
G1 X67.551 Y44.458 E40.76349
G1 X68.921 Y44.675 E40.86728
G1 X70.106 Y44.940 E40.95813
G1 X71.355 Y45.300 E41.05544
G1 X72.660 Y45.770 E41.15921
G1 X73.774 Y46.252 E41.25007
G1 X74.934 Y46.840 E41.34738
G1 X76.128 Y47.546 E41.45115
G1 X77.202 Y48.279 E41.54847
G1 X78.228 Y49.078 E41.64578
G1 X79.138 Y49.881 E41.73663
G1 X80.060 Y50.799 E41.83394
G1 X80.977 Y51.839 E41.93771
G1 X81.721 Y52.798 E42.02857
G1 X82.454 Y53.872 E42.12588
G1 X83.160 Y55.066 E42.22965
G1 X83.748 Y56.226 E42.32697
G1 X84.230 Y57.340 E42.41782
G1 X84.700 Y58.645 E42.52160
G1 X85.060 Y59.894 E42.61891
G1 X85.325 Y61.079 E42.70976
G1 X85.542 Y62.449 E42.81354
G1 X85.661 Y63.743 E42.91085
G1 X85.699 Y65.043 E43.00816
G1 X85.656 Y66.343 E43.10547
G1 X85.542 Y67.551 E43.19633
G1 X85.341 Y68.836 E43.29365
G1 X85.038 Y70.190 E43.39742
G1 X84.700 Y71.355 E43.48827
G1 X84.376 Y72.262 E43.56028
G1 X84.382 Y72.309 E43.56386
G1 X83.711 Y73.853 E43.68980
G1 X83.118 Y75.010 E43.78711
G1 X82.454 Y76.128 E43.88442
G1 X81.771 Y77.132 E43.97527
G1 X80.977 Y78.161 E44.07259
G1 X80.119 Y79.138 E44.16990
G1 X79.201 Y80.060 E44.26721
G1 X78.228 Y80.922 E44.36452
G1 X77.202 Y81.721 E44.46183
G1 X76.055 Y82.500 E44.56561
G1 X75.010 Y83.118 E44.65646
G1 X73.853 Y83.711 E44.75377
G1 X72.309 Y84.382 E44.87971
G1 X72.262 Y84.376 E44.88329
G1 X71.355 Y84.700 E44.95530
G1 X70.190 Y85.038 E45.04615
G1 X68.836 Y85.341 E45.14992
G1 X67.637 Y85.531 E45.24078
G1 X66.343 Y85.656 E45.33809
G1 X64.957 Y85.699 E45.44186
G1 X63.743 Y85.661 E45.53271
G1 X62.449 Y85.542 E45.63003
G1 X61.079 Y85.325 E45.73381
G1 X59.894 Y85.060 E45.82466
G1 X58.645 Y84.700 E45.92197
G1 X57.420 Y84.262 E46.01928
G1 X57.146 Y84.146 E46.04155
G1 X56.147 Y83.711 E46.12306
G1 X54.990 Y83.118 E46.22037
G1 X53.945 Y82.500 E46.31122
G1 X52.868 Y81.771 E46.40854
G1 X51.772 Y80.922 E46.51231
G1 X50.862 Y80.119 E46.60316
G1 X49.940 Y79.201 E46.70048
G1 X49.023 Y78.161 E46.80425
G1 X48.279 Y77.202 E46.89510
G1 X47.546 Y76.128 E46.99242
G1 X46.840 Y74.934 E47.09619
G1 X46.289 Y73.852 E47.18704
G1 X45.770 Y72.660 E47.28436
G1 X45.327 Y71.437 E47.38167
G1 X44.962 Y70.190 E47.47898
G1 X44.659 Y68.836 E47.58276
G1 X44.469 Y67.637 E47.67361
G1 X44.344 Y66.343 E47.77093
G1 X44.301 Y64.957 E47.87470
G1 X44.339 Y63.743 E47.96555
G1 X44.458 Y62.449 E48.06286
G1 X44.675 Y61.079 E48.16664
G1 X44.940 Y59.894 E48.25749
G1 X45.300 Y58.645 E48.35480
G1 X45.770 Y57.340 E48.45858
G1 X46.289 Y56.148 E48.55590
G1 X46.840 Y55.066 E48.64675
G1 X47.546 Y53.872 E48.75052
G1 X48.279 Y52.798 E48.84783
G1 X49.023 Y51.839 E48.93869
G1 X49.881 Y50.862 E49.03600
G1 X50.726 Y50.013 E49.12559
G1 X51.193 Y50.395 F30000.000
G1 F2100
G1 X52.214 Y49.492 E49.22765
G1 X53.159 Y48.759 E49.31709
G1 X54.202 Y48.048 E49.41158
G1 X55.347 Y47.371 E49.51113
G1 X56.412 Y46.828 E49.60057
G1 X57.570 Y46.324 E49.69507
G1 X58.757 Y45.895 E49.78956
G1 X59.969 Y45.541 E49.88405
G1 X61.267 Y45.250 E49.98359
G1 X62.447 Y45.063 E50.07303
G1 X63.704 Y44.942 E50.16753
G1 X65.034 Y44.901 E50.26707
G1 X66.228 Y44.938 E50.35651
G1 X67.486 Y45.055 E50.45100
G1 X68.799 Y45.263 E50.55055
