; generated by Slic3r 1.3.0 on 2021-12-08 at 16:51:59

; external perimeters extrusion width = 0.44mm (2.78mm^3/s)
; perimeters extrusion width = 0.40mm (7.14mm^3/s)
; infill extrusion width = 0.50mm (10.97mm^3/s)
; solid infill extrusion width = 0.60mm (6.68mm^3/s)
; top infill extrusion width = 0.40mm (2.14mm^3/s)

M107
M190 S80 ; set bed temperature and wait for it to be reached
M104 S210 ; set temperature
G28 ; home all axes
G1 Z5 F5000 ; lift nozzle

; Filament gcode

M109 S210 ; set temperature and wait for it to be reached
G21 ; set units to millimeters
G90 ; use absolute coordinates
M82 ; use absolute distances for extrusion
G92 E0
G1 Z0.300 F30000.000
G1 E-2.00000 F2400.00000
G92 E0
G1 X57.451 Y57.320 F30000.000
G1 E2.00000 F2400.00000
G1 F2100
G1 X57.809 Y56.983 E2.03283
G1 X58.326 Y56.548 E2.07802
G1 X59.024 Y56.041 E2.13561
G1 X59.598 Y55.684 E2.18078
G1 X60.028 Y55.447 E2.21361
G1 X60.808 Y55.080 E2.27119
G1 X61.439 Y54.836 E2.31638
G1 X61.907 Y54.684 E2.34920
G1 X62.741 Y54.470 E2.40678
G1 X63.407 Y54.349 E2.45197
G1 X64.079 Y54.270 E2.49716
G1 X64.569 Y54.239 E2.52998
G1 X65.246 Y54.233 E2.57519
G1 X66.106 Y54.287 E2.63277
G1 X66.776 Y54.378 E2.67795
G1 X67.440 Y54.510 E2.72314
G1 X67.915 Y54.633 E2.75597
G1 X68.561 Y54.836 E2.80117
G1 X69.362 Y55.153 E2.85874
G1 X69.972 Y55.447 E2.90394
G1 X70.402 Y55.683 E2.93677
G1 X71.130 Y56.145 E2.99432
G1 X71.527 Y56.434 E3.02716
G1 X72.052 Y56.861 E3.07234
G1 X72.680 Y57.451 E3.12992
G1 X73.017 Y57.809 E3.16275
G1 X73.452 Y58.326 E3.20793
G1 X73.959 Y59.024 E3.26552
G1 X74.317 Y59.598 E3.31070
G1 X74.637 Y60.194 E3.35591
G1 X74.847 Y60.638 E3.38873
G1 X75.101 Y61.265 E3.43392
G1 X75.367 Y62.085 E3.49149
G1 X75.490 Y62.560 E3.52432
G1 X75.622 Y63.224 E3.56952
G1 X75.730 Y64.079 E3.62707
G1 X75.761 Y64.569 E3.65991
G1 X75.767 Y65.246 E3.70511
G1 X75.713 Y66.106 E3.76268
G1 X75.622 Y66.776 E3.80786
G1 X75.490 Y67.439 E3.85306
G1 X75.367 Y67.916 E3.88589
G1 X75.164 Y68.561 E3.93109
G1 X74.847 Y69.362 E3.98865
G1 X74.637 Y69.807 E4.02148
G1 X74.317 Y70.402 E4.06668
G1 X73.855 Y71.130 E4.12423
G1 X73.566 Y71.527 E4.15708
G1 X73.139 Y72.052 E4.20226
G1 X72.549 Y72.680 E4.25984
G1 X72.191 Y73.017 E4.29267
G1 X71.674 Y73.452 E4.33784
G1 X70.976 Y73.959 E4.39544
G1 X70.402 Y74.317 E4.44061
G1 X69.972 Y74.553 E4.47344
G1 X69.192 Y74.920 E4.53102
G1 X68.561 Y75.164 E4.57621
G1 X68.094 Y75.316 E4.60903
G1 X67.259 Y75.530 E4.66661
G1 X66.593 Y75.651 E4.71181
G1 X65.921 Y75.730 E4.75699
G1 X65.431 Y75.761 E4.78982
G1 X64.754 Y75.767 E4.83501
G1 X63.894 Y75.713 E4.89260
G1 X63.224 Y75.622 E4.93778
G1 X62.741 Y75.530 E4.97060
G1 X61.907 Y75.316 E5.02818
G1 X61.439 Y75.164 E5.06100
G1 X60.808 Y74.920 E5.10619
G1 X60.028 Y74.553 E5.16376
G1 X59.438 Y74.222 E5.20897
G1 X58.870 Y73.855 E5.25415
G1 X58.473 Y73.566 E5.28699
G1 X57.948 Y73.139 E5.33217
G1 X57.320 Y72.549 E5.38975
G1 X56.983 Y72.191 E5.42258
G1 X56.548 Y71.674 E5.46776
G1 X56.041 Y70.976 E5.52535
G1 X55.683 Y70.402 E5.57053
G1 X55.363 Y69.807 E5.61574
G1 X55.153 Y69.362 E5.64856
G1 X54.899 Y68.735 E5.69375
G1 X54.633 Y67.915 E5.75133
G1 X54.510 Y67.440 E5.78416
G1 X54.378 Y66.776 E5.82935
G1 X54.270 Y65.921 E5.88691
G1 X54.233 Y65.246 E5.93211
G1 X54.233 Y64.754 E5.96493
G1 X54.287 Y63.894 E6.02251
G1 X54.378 Y63.224 E6.06770
G1 X54.470 Y62.741 E6.10051
G1 X54.684 Y61.907 E6.15809
G1 X54.836 Y61.439 E6.19092
G1 X55.080 Y60.808 E6.23611
G1 X55.447 Y60.028 E6.29368
G1 X55.684 Y59.598 E6.32652
G1 X56.041 Y59.024 E6.37169
G1 X56.548 Y58.326 E6.42928
G1 X56.983 Y57.809 E6.47446
G1 X57.408 Y57.362 E6.51566
G1 X57.829 Y57.698 F30000.000
G1 F2100
G1 X58.163 Y57.385 E6.54624
G1 X58.655 Y56.971 E6.58918
G1 X59.325 Y56.484 E6.64452
G1 X59.870 Y56.145 E6.68744
G1 X60.272 Y55.924 E6.71803
G1 X61.021 Y55.571 E6.77336
G1 X61.621 Y55.340 E6.81630
G1 X62.056 Y55.199 E6.84688
G1 X62.858 Y54.993 E6.90221
G1 X63.491 Y54.878 E6.94515
G1 X64.129 Y54.803 E6.98809
G1 X64.586 Y54.774 E7.01867
G1 X65.229 Y54.769 E7.06163
G1 X66.055 Y54.821 E7.11695
G1 X66.692 Y54.907 E7.15989
G1 X67.323 Y55.033 E7.20284
G1 X67.766 Y55.147 E7.23342
G1 X68.379 Y55.340 E7.27637
G1 X69.149 Y55.645 E7.33169
G1 X69.728 Y55.924 E7.37464
G1 X70.130 Y56.145 E7.40522
G1 X70.829 Y56.588 E7.46052
G1 X71.199 Y56.857 E7.49112
G1 X71.698 Y57.262 E7.53405
G1 X72.302 Y57.829 E7.58938
G1 X72.615 Y58.163 E7.61996
G1 X73.029 Y58.655 E7.66290
G1 X73.516 Y59.325 E7.71824
G1 X73.855 Y59.870 E7.76117
G1 X74.076 Y60.272 E7.79175
G1 X74.355 Y60.851 E7.83470
G1 X74.597 Y61.446 E7.87765
G1 X74.853 Y62.234 E7.93297
G1 X74.967 Y62.677 E7.96355
G1 X75.093 Y63.308 E8.00650
G1 X75.197 Y64.129 E8.06181
G1 X75.226 Y64.586 E8.09240
G1 X75.231 Y65.229 E8.13535
G1 X75.179 Y66.055 E8.19067
G1 X75.093 Y66.692 E8.23361
G1 X74.967 Y67.323 E8.27655
G1 X74.853 Y67.766 E8.30714
G1 X74.660 Y68.379 E8.35009
G1 X74.355 Y69.149 E8.40541
G1 X74.160 Y69.563 E8.43599
G1 X73.855 Y70.130 E8.47894
G1 X73.412 Y70.829 E8.53424
G1 X73.143 Y71.199 E8.56484
G1 X72.738 Y71.698 E8.60777
G1 X72.171 Y72.302 E8.66310
G1 X71.837 Y72.615 E8.69368
G1 X71.345 Y73.029 E8.73662
G1 X70.675 Y73.516 E8.79196
G1 X70.130 Y73.855 E8.83489
G1 X69.729 Y74.076 E8.86547
G1 X68.979 Y74.429 E8.92080
G1 X68.379 Y74.660 E8.96374
G1 X67.944 Y74.801 E8.99431
G1 X67.142 Y75.007 E9.04965
G1 X66.509 Y75.122 E9.09259
G1 X65.871 Y75.197 E9.13553
G1 X65.414 Y75.226 E9.16611
G1 X64.771 Y75.231 E9.20906
G1 X63.945 Y75.179 E9.26439
G1 X63.308 Y75.093 E9.30733
G1 X62.858 Y75.007 E9.33790
G1 X62.056 Y74.801 E9.39323
G1 X61.621 Y74.660 E9.42380
G1 X61.021 Y74.429 E9.46675
G1 X60.272 Y74.076 E9.52207
G1 X59.711 Y73.761 E9.56503
G1 X59.171 Y73.412 E9.60796
G1 X58.801 Y73.143 E9.63856
G1 X58.302 Y72.738 E9.68149
G1 X57.698 Y72.171 E9.73682
G1 X57.385 Y71.837 E9.76740
G1 X56.971 Y71.345 E9.81034
G1 X56.484 Y70.675 E9.86568
G1 X56.145 Y70.130 E9.90861
G1 X55.840 Y69.563 E9.95157
G1 X55.645 Y69.149 E9.98214
G1 X55.403 Y68.554 E10.02508
G1 X55.147 Y67.766 E10.08041
G1 X55.033 Y67.323 E10.11099
G1 X54.907 Y66.692 E10.15394
G1 X54.803 Y65.871 E10.20925
G1 X54.769 Y65.229 E10.25220
G1 X54.769 Y64.771 E10.28278
G1 X54.821 Y63.945 E10.33811
G1 X54.907 Y63.308 E10.38105
G1 X54.993 Y62.858 E10.41162
G1 X55.199 Y62.056 E10.46695
G1 X55.340 Y61.621 E10.49752
G1 X55.571 Y61.021 E10.54047
G1 X55.924 Y60.272 E10.59579
G1 X56.145 Y59.870 E10.62638
G1 X56.484 Y59.325 E10.66930
G1 X56.971 Y58.655 E10.72465
G1 X57.385 Y58.163 E10.76758
G1 X57.787 Y57.741 E10.80653
G1 X58.208 Y58.077 F30000.000
G1 F2100
G1 X58.517 Y57.787 E10.83487
G1 X58.983 Y57.394 E10.87556
G1 X59.626 Y56.927 E10.92865
G1 X60.143 Y56.606 E10.96933
G1 X60.515 Y56.401 E10.99767
G1 X61.234 Y56.063 E11.05074
G1 X61.802 Y55.844 E11.09144
G1 X62.205 Y55.713 E11.11977
G1 X62.975 Y55.515 E11.17285
G1 X63.575 Y55.407 E11.21355
G1 X64.179 Y55.336 E11.25424
G1 X64.788 Y55.304 E11.29495
G1 X65.212 Y55.304 E11.32328
G1 X66.005 Y55.354 E11.37636
G1 X66.609 Y55.436 E11.41704
G1 X67.206 Y55.556 E11.45774
G1 X67.617 Y55.661 E11.48608
G1 X68.198 Y55.844 E11.52678
G1 X68.937 Y56.137 E11.57985
G1 X69.485 Y56.401 E11.62055
G1 X69.857 Y56.606 E11.64889
G1 X70.527 Y57.031 E11.70194
G1 X70.871 Y57.280 E11.73029
G1 X71.344 Y57.664 E11.77097
G1 X71.923 Y58.208 E11.82406
G1 X72.213 Y58.517 E11.85239
G1 X72.606 Y58.983 E11.89308
G1 X73.073 Y59.626 E11.94617
G1 X73.394 Y60.143 E11.98685
G1 X73.683 Y60.680 E12.02757
G1 X73.863 Y61.064 E12.05589
G1 X74.093 Y61.628 E12.09659
G1 X74.339 Y62.383 E12.14967
G1 X74.444 Y62.794 E12.17799
G1 X74.564 Y63.391 E12.21870
G1 X74.664 Y64.180 E12.27176
G1 X74.690 Y64.603 E12.30010
G1 X74.696 Y65.212 E12.34080
G1 X74.646 Y66.005 E12.39388
G1 X74.564 Y66.609 E12.43457
G1 X74.444 Y67.206 E12.47527
G1 X74.339 Y67.617 E12.50360
G1 X74.156 Y68.198 E12.54431
G1 X73.863 Y68.936 E12.59737
G1 X73.683 Y69.320 E12.62571
G1 X73.394 Y69.857 E12.66641
G1 X72.969 Y70.528 E12.71947
G1 X72.720 Y70.871 E12.74781
G1 X72.336 Y71.344 E12.78850
G1 X71.792 Y71.923 E12.84158
G1 X71.483 Y72.213 E12.86991
G1 X71.017 Y72.606 E12.91060
G1 X70.374 Y73.073 E12.96370
G1 X69.857 Y73.394 E13.00438
G1 X69.485 Y73.599 E13.03271
G1 X68.766 Y73.937 E13.08579
G1 X68.198 Y74.156 E13.12648
G1 X67.795 Y74.287 E13.15481
G1 X67.025 Y74.485 E13.20790
G1 X66.425 Y74.593 E13.24860
G1 X65.821 Y74.664 E13.28928
G1 X65.397 Y74.690 E13.31761
G1 X64.788 Y74.696 E13.35831
G1 X63.995 Y74.646 E13.41140
G1 X63.391 Y74.564 E13.45209
G1 X62.975 Y74.485 E13.48042
G1 X62.205 Y74.287 E13.53349
G1 X61.802 Y74.156 E13.56182
G1 X61.234 Y73.937 E13.60252
G1 X60.515 Y73.599 E13.65560
G1 X59.984 Y73.300 E13.69631
G1 X59.472 Y72.969 E13.73699
G1 X59.129 Y72.720 E13.76533
G1 X58.656 Y72.336 E13.80602
G1 X58.077 Y71.792 E13.85910
G1 X57.787 Y71.483 E13.88744
G1 X57.394 Y71.017 E13.92813
G1 X56.927 Y70.374 E13.98122
G1 X56.606 Y69.857 E14.02190
G1 X56.317 Y69.320 E14.06261
G1 X56.137 Y68.937 E14.09094
G1 X55.907 Y68.372 E14.13163
G1 X55.661 Y67.617 E14.18471
G1 X55.556 Y67.206 E14.21305
G1 X55.436 Y66.609 E14.25375
G1 X55.336 Y65.821 E14.30681
G1 X55.304 Y65.212 E14.34751
G1 X55.304 Y64.788 E14.37584
G1 X55.354 Y63.995 E14.42892
G1 X55.436 Y63.391 E14.46962
G1 X55.515 Y62.975 E14.49794
G1 X55.713 Y62.205 E14.55102
G1 X55.844 Y61.802 E14.57935
G1 X56.063 Y61.234 E14.62004
G1 X56.401 Y60.515 E14.67312
G1 X56.606 Y60.143 E14.70146
G1 X56.927 Y59.626 E14.74213
G1 X57.394 Y58.983 E14.79523
G1 X57.787 Y58.517 E14.83592
G1 X58.166 Y58.120 E14.87262
G1 X58.587 Y58.456 F30000.000
G1 F2100
G1 X59.311 Y57.817 E14.93713
G1 X59.927 Y57.370 E14.98797
G1 X60.416 Y57.067 E15.02640
G1 X60.923 Y56.794 E15.06487
G1 X61.809 Y56.411 E15.12938
G1 X62.533 Y56.176 E15.18020
G1 X63.475 Y55.965 E15.24472
G1 X64.230 Y55.870 E15.29553
G1 X65.195 Y55.839 E15.36006
G1 X65.955 Y55.887 E15.41089
G1 X66.525 Y55.965 E15.44933
G1 X67.089 Y56.079 E15.48778
G1 X68.016 Y56.348 E15.55230
G1 X68.724 Y56.628 E15.60312
G1 X69.584 Y57.067 E15.66764
G1 X70.226 Y57.474 E15.71845
G1 X70.990 Y58.066 E15.78296
G1 X71.544 Y58.587 E15.83380
G1 X72.183 Y59.311 E15.89830
G1 X72.630 Y59.927 E15.94914
G1 X73.122 Y60.758 E16.01365
G1 X73.372 Y61.276 E16.05210
G1 X73.589 Y61.809 E16.09055
G1 X73.824 Y62.533 E16.14138
G1 X74.035 Y63.475 E16.20590
G1 X74.130 Y64.230 E16.25671
G1 X74.161 Y65.195 E16.32123
G1 X74.113 Y65.955 E16.37206
G1 X74.035 Y66.525 E16.41050
G1 X73.921 Y67.089 E16.44895
G1 X73.652 Y68.016 E16.51348
G1 X73.372 Y68.724 E16.56430
G1 X72.933 Y69.584 E16.62882
G1 X72.526 Y70.226 E16.67963
G1 X71.934 Y70.990 E16.74414
G1 X71.413 Y71.544 E16.79497
G1 X70.689 Y72.183 E16.85948
G1 X70.073 Y72.630 E16.91032
G1 X69.242 Y73.122 E16.97482
G1 X68.554 Y73.445 E17.02565
G1 X67.645 Y73.773 E17.09016
G1 X66.908 Y73.962 E17.14099
G1 X66.342 Y74.064 E17.17944
G1 X65.770 Y74.130 E17.21788
G1 X64.805 Y74.161 E17.28240
G1 X64.045 Y74.113 E17.33324
G1 X63.092 Y73.962 E17.39774
G1 X62.355 Y73.773 E17.44856
G1 X61.446 Y73.446 E17.51307
G1 X60.758 Y73.122 E17.56390
G1 X60.256 Y72.839 E17.60237
G1 X59.774 Y72.526 E17.64080
G1 X59.010 Y71.934 E17.70532
G1 X58.456 Y71.413 E17.75615
G1 X57.817 Y70.689 E17.82065
G1 X57.370 Y70.073 E17.87150
G1 X57.067 Y69.584 E17.90993
G1 X56.794 Y69.077 E17.94839
G1 X56.411 Y68.191 E18.01290
G1 X56.176 Y67.467 E18.06373
G1 X55.965 Y66.525 E18.12825
G1 X55.870 Y65.770 E18.17906
G1 X55.839 Y64.805 E18.24358
G1 X55.887 Y64.045 E18.29441
G1 X56.038 Y63.092 E18.35891
G1 X56.227 Y62.355 E18.40974
G1 X56.554 Y61.446 E18.47425
G1 X56.878 Y60.758 E18.52508
G1 X57.370 Y59.927 E18.58958
G1 X57.817 Y59.311 E18.64042
G1 X58.189 Y58.871 E18.67886
G1 X58.544 Y58.498 E18.71332
G1 X58.966 Y58.835 F30000.000
G1 F2100
G1 X59.639 Y58.240 E18.77333
G1 X60.228 Y57.813 E18.82193
G1 X61.001 Y57.356 E18.88193
G1 X61.659 Y57.046 E18.93051
G1 X62.504 Y56.742 E18.99053
G1 X63.209 Y56.561 E19.03911
G1 X63.742 Y56.465 E19.07531
G1 X64.280 Y56.403 E19.11151
G1 X65.178 Y56.375 E19.17154
G1 X65.904 Y56.420 E19.22012
G1 X66.441 Y56.494 E19.25631
G1 X66.972 Y56.601 E19.29252
G1 X67.835 Y56.852 E19.35255
G1 X68.511 Y57.120 E19.40112
G1 X69.312 Y57.528 E19.46114
G1 X69.925 Y57.917 E19.50971
G1 X70.635 Y58.468 E19.56973
G1 X71.165 Y58.966 E19.61831
G1 X71.760 Y59.639 E19.67832
G1 X72.187 Y60.228 E19.72692
G1 X72.644 Y61.001 E19.78693
G1 X72.954 Y61.659 E19.83551
G1 X73.258 Y62.504 E19.89552
G1 X73.439 Y63.209 E19.94410
G1 X73.535 Y63.742 E19.98031
G1 X73.597 Y64.280 E20.01651
G1 X73.625 Y65.178 E20.07653
G1 X73.580 Y65.904 E20.12511
G1 X73.506 Y66.441 E20.16131
G1 X73.399 Y66.972 E20.19751
G1 X73.148 Y67.835 E20.25754
G1 X72.880 Y68.511 E20.30611
G1 X72.472 Y69.312 E20.36614
G1 X72.083 Y69.925 E20.41470
G1 X71.532 Y70.635 E20.47472
G1 X71.034 Y71.165 E20.52331
G1 X70.361 Y71.760 E20.58332
G1 X69.772 Y72.187 E20.63191
G1 X68.999 Y72.644 E20.69192
G1 X68.341 Y72.954 E20.74050
G1 X67.496 Y73.258 E20.80051
G1 X66.791 Y73.439 E20.84910
G1 X66.258 Y73.535 E20.88531
G1 X65.720 Y73.597 E20.92150
G1 X64.822 Y73.625 E20.98152
G1 X64.096 Y73.580 E21.03011
G1 X63.209 Y73.439 E21.09012
G1 X62.504 Y73.258 E21.13870
G1 X61.659 Y72.954 E21.19871
G1 X61.001 Y72.644 E21.24729
G1 X60.529 Y72.378 E21.28351
G1 X60.075 Y72.083 E21.31970
G1 X59.365 Y71.532 E21.37972
G1 X58.835 Y71.034 E21.42830
G1 X58.240 Y70.361 E21.48831
G1 X57.813 Y69.772 E21.53691
G1 X57.528 Y69.312 E21.57310
G1 X57.272 Y68.834 E21.60931
G1 X56.915 Y68.009 E21.66932
G1 X56.690 Y67.318 E21.71791
G1 X56.494 Y66.441 E21.77793
G1 X56.403 Y65.720 E21.82650
G1 X56.375 Y64.822 E21.88652
G1 X56.420 Y64.096 E21.93510
G1 X56.561 Y63.209 E21.99511
G1 X56.742 Y62.504 E22.04369
G1 X57.046 Y61.659 E22.10371
G1 X57.356 Y61.001 E22.15229
G1 X57.813 Y60.228 E22.21229
G1 X58.240 Y59.639 E22.26089
G1 X58.590 Y59.226 E22.29708
G1 X58.923 Y58.877 E22.32929
G1 X59.344 Y59.213 F30000.000
G1 F2100
G1 X59.968 Y58.664 E22.38481
G1 X60.529 Y58.256 E22.43116
G1 X61.244 Y57.833 E22.48667
G1 X61.872 Y57.538 E22.53300
G1 X62.654 Y57.256 E22.58852
G1 X63.326 Y57.084 E22.63486
G1 X63.826 Y56.994 E22.66881
G1 X64.331 Y56.936 E22.70276
G1 X65.162 Y56.910 E22.75830
G1 X65.854 Y56.954 E22.80463
G1 X66.357 Y57.023 E22.83858
G1 X66.855 Y57.124 E22.87254
G1 X67.654 Y57.356 E22.92807
G1 X68.298 Y57.611 E22.97440
G1 X69.039 Y57.989 E23.02992
G1 X69.624 Y58.360 E23.07624
G1 X70.281 Y58.870 E23.13177
G1 X70.787 Y59.344 E23.17810
G1 X71.336 Y59.968 E23.23362
G1 X71.744 Y60.529 E23.27996
G1 X72.167 Y61.244 E23.33548
G1 X72.389 Y61.702 E23.36944
G1 X72.581 Y62.172 E23.40340
G1 X72.796 Y62.832 E23.44973
G1 X72.977 Y63.643 E23.50526
G1 X73.064 Y64.331 E23.55158
G1 X73.090 Y65.162 E23.60711
G1 X73.046 Y65.854 E23.65344
G1 X72.977 Y66.357 E23.68739
G1 X72.876 Y66.855 E23.72135
G1 X72.644 Y67.654 E23.77688
G1 X72.389 Y68.298 E23.82321
G1 X72.011 Y69.039 E23.87874
G1 X71.640 Y69.624 E23.92505
G1 X71.130 Y70.281 E23.98058
G1 X70.656 Y70.787 E24.02692
G1 X70.032 Y71.336 E24.08243
G1 X69.471 Y71.744 E24.12878
G1 X68.756 Y72.167 E24.18429
G1 X68.128 Y72.462 E24.23063
G1 X67.346 Y72.744 E24.28615
G1 X66.674 Y72.916 E24.33249
G1 X66.174 Y73.006 E24.36644
G1 X65.669 Y73.064 E24.40039
G1 X64.839 Y73.090 E24.45592
G1 X64.146 Y73.046 E24.50226
G1 X63.325 Y72.916 E24.55777
G1 X62.654 Y72.744 E24.60410
G1 X61.872 Y72.462 E24.65962
G1 X61.244 Y72.167 E24.70596
G1 X60.802 Y71.917 E24.73992
G1 X60.376 Y71.640 E24.77387
G1 X59.719 Y71.130 E24.82939
G1 X59.213 Y70.656 E24.87573
G1 X58.664 Y70.032 E24.93125
G1 X58.256 Y69.471 E24.97759
G1 X57.989 Y69.039 E25.01154
G1 X57.749 Y68.591 E25.04550
G1 X57.419 Y67.828 E25.10102
G1 X57.204 Y67.168 E25.14736
G1 X57.023 Y66.357 E25.20288
G1 X56.936 Y65.669 E25.24920
G1 X56.910 Y64.838 E25.30473
G1 X56.954 Y64.146 E25.35107
G1 X57.084 Y63.326 E25.40658
G1 X57.256 Y62.654 E25.45292
G1 X57.538 Y61.872 E25.50844
G1 X57.833 Y61.244 E25.55477
G1 X58.256 Y60.529 E25.61028
G1 X58.664 Y59.968 E25.65663
G1 X58.992 Y59.580 E25.69058
G1 X59.302 Y59.256 E25.72053
G1 X59.723 Y59.592 F30000.000
G1 F2100
G1 X60.296 Y59.087 E25.77156
G1 X60.830 Y58.699 E25.81566
G1 X61.487 Y58.310 E25.86668
G1 X62.084 Y58.029 E25.91077
G1 X62.803 Y57.770 E25.96179
G1 X63.442 Y57.606 E26.00588
G1 X63.910 Y57.523 E26.03759
