; generated by Slic3r 1.3.0 on 2020-12-18 at 09:50:37

; external perimeters extrusion width = 0.44mm (2.78mm^3/s)
; perimeters extrusion width = 0.40mm (7.14mm^3/s)
; infill extrusion width = 0.50mm (10.97mm^3/s)
; solid infill extrusion width = 0.60mm (6.68mm^3/s)
; top infill extrusion width = 0.40mm (2.14mm^3/s)

M107
M190 S80 ; set bed temperature and wait for it to be reached
M104 S210 ; set temperature
G28 ; home all axes
G1 Z5 F5000 ; lift nozzle

; Filament gcode

M109 S210 ; set temperature and wait for it to be reached
G21 ; set units to millimeters
G90 ; use absolute coordinates
M82 ; use absolute distances for extrusion
G92 E0
G1 Z0.300 F30000.000
G1 E-2.00000 F2400.00000
G92 E0
G1 X58.804 Y70.150 F30000.000
G1 E2.00000 F2400.00000
G1 F2100
G1 X59.205 Y69.822 E2.03466
G1 X60.664 Y68.736 E2.15617
G1 X61.100 Y68.442 E2.19124
G1 X61.627 Y68.129 E2.23226
G1 X62.018 Y67.912 E2.26212
G1 X62.490 Y67.682 E2.29720
G1 X64.160 Y66.961 E2.41871
G1 X64.726 Y66.752 E2.45897
G1 X65.674 Y66.470 E2.52509
G1 X66.180 Y66.356 E2.55974
G1 X67.972 Y66.041 E2.68125
G1 X68.486 Y65.974 E2.71593
G1 X69.537 Y65.912 E2.78621
G1 X70.077 Y65.918 E2.82228
G1 X71.892 Y66.024 E2.94379
G1 X72.409 Y66.078 E2.97846
G1 X72.861 Y66.150 E3.00911
G1 X73.466 Y66.264 E3.05018
G1 X73.969 Y66.390 E3.08483
G1 X75.711 Y66.912 E3.20634
G1 X76.201 Y67.083 E3.24102
G1 X77.168 Y67.499 E3.31131
G1 X77.647 Y67.747 E3.34737
G1 X79.222 Y68.656 E3.46888
G1 X79.676 Y68.948 E3.50489
G1 X80.520 Y69.577 E3.57523
G1 X80.914 Y69.915 E3.60991
G1 X82.237 Y71.163 E3.73142
G1 X82.597 Y71.536 E3.76608
G1 X82.898 Y71.883 E3.79674
G1 X83.287 Y72.358 E3.83778
G1 X83.592 Y72.779 E3.87245
G1 X84.591 Y74.298 E3.99396
G1 X84.857 Y74.744 E4.02864
G1 X85.329 Y75.685 E4.09896
G1 X85.538 Y76.182 E4.13499
G1 X86.160 Y77.892 E4.25650
G1 X86.320 Y78.406 E4.29252
G1 X86.562 Y79.431 E4.36287
G1 X86.646 Y79.943 E4.39753
G1 X86.857 Y81.750 E4.51904
G1 X86.894 Y82.267 E4.55369
G1 X86.901 Y82.726 E4.58437
G1 X86.894 Y83.341 E4.62542
G1 X86.857 Y83.858 E4.66008
G1 X86.646 Y85.665 E4.78159
G1 X86.558 Y86.196 E4.81759
G1 X86.315 Y87.221 E4.88793
G1 X86.160 Y87.716 E4.92262
G1 X85.538 Y89.426 E5.04413
G1 X85.338 Y89.904 E5.07877
G1 X84.896 Y90.789 E5.14487
G1 X84.591 Y91.310 E5.18515
G1 X83.592 Y92.829 E5.30666
G1 X83.287 Y93.250 E5.34133
G1 X82.998 Y93.605 E5.37199
G1 X82.597 Y94.072 E5.41303
G1 X82.237 Y94.445 E5.44770
G1 X80.914 Y95.693 E5.56921
G1 X80.520 Y96.031 E5.60387
G1 X79.676 Y96.660 E5.67421
G1 X79.222 Y96.952 E5.71024
G1 X77.647 Y97.861 E5.83175
G1 X77.186 Y98.100 E5.86645
G1 X76.625 Y98.350 E5.90750
G1 X76.201 Y98.525 E5.93810
G1 X75.711 Y98.697 E5.97279
G1 X73.969 Y99.218 E6.09430
G1 X73.446 Y99.348 E6.13031
G1 X72.409 Y99.530 E6.20065
G1 X71.892 Y99.584 E6.23533
G1 X70.077 Y99.690 E6.35684
G1 X69.558 Y99.697 E6.39150
G1 X68.570 Y99.641 E6.45757
G1 X67.972 Y99.567 E6.49786
G1 X66.180 Y99.252 E6.61937
G1 X65.593 Y99.116 E6.65963
G1 X64.646 Y98.830 E6.72574
G1 X64.160 Y98.647 E6.76040
G1 X62.490 Y97.926 E6.88191
G1 X62.024 Y97.699 E6.91658
G1 X61.623 Y97.476 E6.94723
G1 X61.094 Y97.163 E6.98828
G1 X60.664 Y96.872 E7.02294
G1 X59.205 Y95.786 E7.14445
G1 X58.804 Y95.457 E7.17913
G1 X58.038 Y94.735 E7.24946
G1 X57.672 Y94.339 E7.28548
G1 X56.503 Y92.946 E7.40699
G1 X56.176 Y92.517 E7.44302
G1 X55.598 Y91.637 E7.51336
G1 X55.344 Y91.184 E7.54802
G1 X54.528 Y89.559 E7.66953
G1 X54.316 Y89.085 E7.70423
G1 X54.153 Y88.656 E7.73485
G1 X53.949 Y88.076 E7.77590
G1 X53.806 Y87.577 E7.81064
G1 X53.387 Y85.807 E7.93211
G1 X53.289 Y85.284 E7.96764
G1 X53.168 Y84.245 E8.03754
G1 X53.143 Y83.714 E8.07307
G1 X53.142 Y81.896 E8.19454
G1 X53.166 Y81.376 E8.22928
G1 X53.212 Y80.920 E8.25993
G1 X53.291 Y80.311 E8.30096
G1 X53.387 Y79.800 E8.33565
G1 X53.807 Y78.031 E8.45716
G1 X53.949 Y77.532 E8.49182
G1 X54.309 Y76.543 E8.56213
G1 X54.528 Y76.049 E8.59819
G1 X55.344 Y74.424 E8.71970
G1 X55.609 Y73.954 E8.75572
G1 X56.188 Y73.074 E8.82607
G1 X56.503 Y72.662 E8.86073
G1 X57.672 Y71.269 E8.98224
G1 X58.037 Y70.873 E9.01824
G1 X58.759 Y70.191 E9.08460
G1 X59.162 Y70.549 F30000.000
G1 F2100
G1 X59.525 Y70.252 E9.11600
G1 X60.984 Y69.165 E9.23750
G1 X61.378 Y68.899 E9.26927
G1 X61.888 Y68.596 E9.30890
G1 X62.703 Y68.173 E9.37019
G1 X64.373 Y67.453 E9.49170
G1 X64.812 Y67.287 E9.52310
G1 X65.244 Y67.150 E9.55335
G1 X65.815 Y66.987 E9.59303
G1 X66.273 Y66.884 E9.62441
G1 X68.065 Y66.568 E9.74592
G1 X68.531 Y66.508 E9.77733
G1 X69.554 Y66.448 E9.84583
G1 X70.045 Y66.453 E9.87863
G1 X71.861 Y66.558 E10.00014
G1 X72.329 Y66.607 E10.03154
G1 X72.776 Y66.679 E10.06179
G1 X73.359 Y66.789 E10.10147
G1 X73.815 Y66.903 E10.13285
G1 X75.558 Y67.425 E10.25436
G1 X76.001 Y67.580 E10.28577
G1 X76.943 Y67.986 E10.35428
G1 X77.379 Y68.211 E10.38707
G1 X78.955 Y69.120 E10.50857
G1 X79.367 Y69.385 E10.54132
G1 X80.190 Y69.998 E10.60988
G1 X80.546 Y70.305 E10.64128
G1 X81.869 Y71.553 E10.76279
G1 X82.196 Y71.891 E10.79418
G1 X82.492 Y72.233 E10.82444
G1 X82.868 Y72.692 E10.86410
G1 X83.144 Y73.073 E10.89550
G1 X84.144 Y74.593 E11.01701
G1 X84.384 Y74.997 E11.04842
G1 X84.845 Y75.913 E11.11696
G1 X85.034 Y76.366 E11.14972
G1 X85.657 Y78.075 E11.27123
G1 X85.802 Y78.543 E11.30398
G1 X86.038 Y79.542 E11.37254
G1 X86.114 Y80.005 E11.40393
G1 X86.325 Y81.812 E11.52544
G1 X86.358 Y82.281 E11.55683
G1 X86.365 Y82.875 E11.59653
G1 X86.358 Y83.327 E11.62677
G1 X86.325 Y83.796 E11.65816
G1 X86.114 Y85.603 E11.77966
G1 X86.034 Y86.086 E11.81239
G1 X85.797 Y87.085 E11.88096
G1 X85.657 Y87.533 E11.91237
G1 X85.034 Y89.242 E12.03388
G1 X84.854 Y89.676 E12.06525
G1 X84.593 Y90.210 E12.10497
G1 X84.384 Y90.611 E12.13519
G1 X84.144 Y91.016 E12.16659
G1 X83.144 Y92.535 E12.28810
G1 X82.820 Y92.976 E12.32469
G1 X82.210 Y93.702 E12.38802
G1 X81.869 Y94.055 E12.42080
G1 X80.546 Y95.303 E12.54231
G1 X80.190 Y95.610 E12.57371
G1 X79.367 Y96.223 E12.64225
G1 X78.955 Y96.488 E12.67502
G1 X77.379 Y97.398 E12.79653
G1 X76.962 Y97.614 E12.82795
G1 X76.549 Y97.799 E12.85818
G1 X76.001 Y98.028 E12.89782
G1 X75.558 Y98.183 E12.92924
G1 X73.815 Y98.705 E13.05075
G1 X73.339 Y98.823 E13.08349
G1 X72.329 Y99.001 E13.15205
G1 X71.861 Y99.050 E13.18346
G1 X70.045 Y99.155 E13.30496
G1 X69.555 Y99.161 E13.33771
G1 X68.609 Y99.107 E13.40105
G1 X68.065 Y99.040 E13.43767
G1 X66.273 Y98.724 E13.55917
G1 X65.740 Y98.601 E13.59576
G1 X64.832 Y98.328 E13.65911
G1 X64.373 Y98.155 E13.69188
G1 X62.703 Y97.435 E13.81338
G1 X62.280 Y97.229 E13.84479
G1 X61.884 Y97.008 E13.87504
G1 X61.374 Y96.706 E13.91470
G1 X60.984 Y96.443 E13.94610
G1 X59.525 Y95.356 E14.06761
G1 X59.161 Y95.059 E14.09901
G1 X58.415 Y94.355 E14.16755
G1 X58.082 Y93.995 E14.20031
G1 X56.913 Y92.602 E14.32182
G1 X56.616 Y92.211 E14.35458
G1 X56.053 Y91.354 E14.42313
G1 X55.823 Y90.944 E14.45453
G1 X55.006 Y89.318 E14.57604
G1 X54.815 Y88.889 E14.60746
G1 X54.654 Y88.466 E14.63769
G1 X54.457 Y87.906 E14.67735
G1 X54.328 Y87.453 E14.70881
G1 X53.909 Y85.684 E14.83028
G1 X53.820 Y85.210 E14.86246
G1 X53.706 Y84.245 E14.92741
G1 X53.678 Y83.714 E14.96293
G1 X53.678 Y81.896 E15.08440
G1 X53.699 Y81.425 E15.11586
G1 X53.745 Y80.975 E15.14612
G1 X53.821 Y80.386 E15.18577
G1 X53.908 Y79.924 E15.21718
G1 X54.328 Y78.154 E15.33869
G1 X54.457 Y77.702 E15.37008
G1 X54.807 Y76.738 E15.43861
G1 X55.006 Y76.290 E15.47139
G1 X55.823 Y74.664 E15.59290
G1 X56.063 Y74.237 E15.62566
G1 X56.628 Y73.380 E15.69422
G1 X56.913 Y73.007 E15.72561
G1 X58.082 Y71.613 E15.84712
G1 X58.415 Y71.253 E15.87985
G1 X59.117 Y70.589 E15.94443
G1 X59.519 Y70.948 F30000.000
G1 F2100
G1 X59.845 Y70.681 E15.97255
G1 X61.304 Y69.595 E16.09406
G1 X61.657 Y69.357 E16.12251
G1 X62.149 Y69.064 E16.16077
G1 X62.915 Y68.665 E16.21842
G1 X64.585 Y67.945 E16.33993
G1 X65.405 Y67.661 E16.39789
G1 X65.956 Y67.503 E16.43619
G1 X66.366 Y67.411 E16.46430
G1 X68.158 Y67.096 E16.58581
G1 X68.575 Y67.041 E16.61394
G1 X69.572 Y66.983 E16.68066
G1 X70.014 Y66.987 E16.71019
G1 X71.830 Y67.093 E16.83170
G1 X72.249 Y67.137 E16.85983
G1 X72.815 Y67.230 E16.89813
G1 X73.662 Y67.416 E16.95607
G1 X75.404 Y67.938 E17.07757
G1 X75.802 Y68.077 E17.10571
G1 X76.719 Y68.472 E17.17244
G1 X77.112 Y68.674 E17.20196
G1 X78.687 Y69.584 E17.32346
G1 X79.058 Y69.822 E17.35294
G1 X79.859 Y70.420 E17.41971
G1 X80.179 Y70.694 E17.44785
G1 X81.502 Y71.943 E17.56936
G1 X82.087 Y72.583 E17.62731
G1 X82.450 Y73.026 E17.66559
G1 X82.697 Y73.367 E17.69372
G1 X83.696 Y74.887 E17.81523
G1 X83.912 Y75.249 E17.84337
G1 X84.360 Y76.142 E17.91012
G1 X84.531 Y76.549 E17.93961
G1 X85.153 Y78.258 E18.06112
G1 X85.284 Y78.679 E18.09060
G1 X85.514 Y79.652 E18.15738
G1 X85.582 Y80.068 E18.18550
G1 X85.793 Y81.874 E18.30701
G1 X85.823 Y82.294 E18.33513
G1 X85.830 Y82.868 E18.37345
G1 X85.793 Y83.734 E18.43138
G1 X85.582 Y85.540 E18.55289
G1 X85.510 Y85.976 E18.58235
G1 X85.279 Y86.948 E18.64913
G1 X85.153 Y87.350 E18.67727
G1 X84.531 Y89.059 E18.79878
G1 X84.369 Y89.448 E18.82688
G1 X84.118 Y89.963 E18.86521
G1 X83.696 Y90.721 E18.92314
G1 X82.697 Y92.241 E19.04465
G1 X82.405 Y92.638 E19.07757
G1 X81.808 Y93.347 E19.13952
G1 X81.502 Y93.666 E19.16903
G1 X80.179 Y94.914 E19.29054
G1 X79.859 Y95.188 E19.31866
G1 X79.058 Y95.785 E19.38542
G1 X78.687 Y96.024 E19.41492
G1 X77.112 Y96.934 E19.53643
G1 X76.330 Y97.310 E19.59439
G1 X75.802 Y97.531 E19.63265
G1 X75.404 Y97.670 E19.66080
G1 X73.662 Y98.192 E19.78230
G1 X73.233 Y98.298 E19.81178
G1 X72.249 Y98.471 E19.87855
G1 X71.830 Y98.515 E19.90669
G1 X70.014 Y98.621 E20.02820
G1 X69.593 Y98.626 E20.05632
G1 X69.020 Y98.599 E20.09463
G1 X68.158 Y98.512 E20.15256
G1 X66.366 Y98.197 E20.27407
G1 X65.956 Y98.105 E20.30220
G1 X64.998 Y97.819 E20.36895
G1 X64.585 Y97.663 E20.39845
G1 X62.915 Y96.943 E20.51996
G1 X62.146 Y96.541 E20.57792
G1 X61.653 Y96.249 E20.61620
G1 X61.304 Y96.013 E20.64433
G1 X59.845 Y94.927 E20.76584
G1 X59.519 Y94.660 E20.79397
G1 X58.792 Y93.975 E20.86073
G1 X58.492 Y93.651 E20.89022
G1 X57.323 Y92.257 E21.01173
G1 X57.056 Y91.906 E21.04121
G1 X56.507 Y91.071 E21.10798
G1 X56.301 Y90.703 E21.13611
G1 X55.485 Y89.078 E21.25762
G1 X55.154 Y88.276 E21.31557
G1 X54.965 Y87.735 E21.35386
G1 X54.849 Y87.330 E21.38204
G1 X54.430 Y85.560 E21.50351
G1 X54.350 Y85.136 E21.53234
G1 X54.239 Y84.195 E21.59567
G1 X54.214 Y83.714 E21.62785
G1 X54.214 Y81.895 E21.74932
G1 X54.278 Y81.029 E21.80733
G1 X54.351 Y80.461 E21.84560
G1 X54.429 Y80.047 E21.87374
G1 X54.849 Y78.278 E21.99525
G1 X54.965 Y77.873 E22.02337
G1 X55.306 Y76.934 E22.09011
G1 X55.485 Y76.530 E22.11963
G1 X56.301 Y74.905 E22.24114
G1 X56.518 Y74.520 E22.27062
G1 X57.068 Y73.685 E22.33740
G1 X57.323 Y73.351 E22.36552
G1 X58.492 Y71.957 E22.48703
G1 X58.792 Y71.634 E22.51650
G1 X59.475 Y70.988 E22.57928
G1 X59.877 Y71.346 F30000.000
G1 F2100
G1 X60.165 Y71.111 E22.60414
G1 X61.624 Y70.025 E22.72565
G1 X61.936 Y69.814 E22.75079
G1 X62.410 Y69.532 E22.78767
G1 X63.127 Y69.157 E22.84169
G1 X64.797 Y68.437 E22.96320
G1 X65.565 Y68.172 E23.01749
G1 X66.096 Y68.020 E23.05440
G1 X66.459 Y67.939 E23.07924
G1 X68.251 Y67.623 E23.20075
G1 X68.620 Y67.575 E23.22561
G1 X69.545 Y67.520 E23.28753
G1 X69.983 Y67.522 E23.31681
G1 X71.799 Y67.628 E23.43831
G1 X72.604 Y67.737 E23.49260
G1 X73.147 Y67.839 E23.52951
G1 X73.508 Y67.929 E23.55436
G1 X75.250 Y68.451 E23.67587
G1 X75.602 Y68.574 E23.70073
G1 X76.453 Y68.940 E23.76264
G1 X76.844 Y69.138 E23.79192
G1 X78.419 Y70.048 E23.91343
G1 X78.786 Y70.286 E23.94267
G1 X79.529 Y70.841 E24.00462
G1 X79.811 Y71.084 E24.02948
G1 X81.134 Y72.332 E24.15099
G1 X81.681 Y72.933 E24.20528
G1 X82.031 Y73.360 E24.24218
G1 X82.249 Y73.662 E24.26704
G1 X83.249 Y75.181 E24.38854
G1 X83.439 Y75.501 E24.41341
G1 X83.856 Y76.329 E24.47532
G1 X84.028 Y76.732 E24.50460
G1 X84.650 Y78.441 E24.62611
G1 X84.778 Y78.860 E24.65535
G1 X84.990 Y79.763 E24.71731
G1 X85.050 Y80.130 E24.74216
G1 X85.261 Y81.936 E24.86367
G1 X85.287 Y82.307 E24.88852
G1 X85.294 Y82.860 E24.92545
G1 X85.261 Y83.672 E24.97972
G1 X85.050 Y85.478 E25.10122
G1 X84.976 Y85.910 E25.13047
G1 X84.761 Y86.812 E25.19241
G1 X84.650 Y87.167 E25.21728
G1 X84.028 Y88.876 E25.33879
G1 X83.885 Y89.219 E25.36363
G1 X83.642 Y89.716 E25.40057
G1 X83.249 Y90.427 E25.45483
G1 X82.249 Y91.947 E25.57634
G1 X81.990 Y92.299 E25.60558
G1 X81.406 Y92.993 E25.66616
G1 X81.134 Y93.276 E25.69239
G1 X79.811 Y94.524 E25.81390
G1 X79.529 Y94.767 E25.83876
G1 X78.786 Y95.321 E25.90068
G1 X78.419 Y95.560 E25.92996
G1 X76.844 Y96.470 E26.05147
G1 X76.111 Y96.822 E26.10575
G1 X75.602 Y97.034 E26.14264
G1 X75.250 Y97.157 E26.16751
G1 X73.508 Y97.679 E26.28902
G1 X73.082 Y97.782 E26.31826
G1 X72.169 Y97.942 E26.38021
G1 X71.799 Y97.980 E26.40507
G1 X69.983 Y98.086 E26.52658
G1 X69.611 Y98.091 E26.55144
G1 X69.059 Y98.065 E26.58836
G1 X68.251 Y97.985 E26.64262
G1 X66.459 Y97.669 E26.76413
G1 X66.096 Y97.588 E26.78899
G1 X65.208 Y97.323 E26.85091
G1 X64.797 Y97.171 E26.88019
G1 X63.127 Y96.451 E27.00170
G1 X62.407 Y96.073 E27.05599
G1 X61.932 Y95.792 E27.09288
G1 X61.624 Y95.583 E27.11774
G1 X60.165 Y94.497 E27.23925
G1 X59.877 Y94.262 E27.26411
G1 X59.202 Y93.627 E27.32603
G1 X58.903 Y93.306 E27.35530
G1 X57.734 Y91.913 E27.47681
G1 X57.470 Y91.563 E27.50606
G1 X56.962 Y90.788 E27.56801
G1 X56.780 Y90.463 E27.59287
G1 X55.964 Y88.838 E27.71438
G1 X55.655 Y88.086 E27.76866
G1 X55.472 Y87.565 E27.80556
G1 X55.370 Y87.206 E27.83047
G1 X54.951 Y85.437 E27.95194
G1 X54.881 Y85.062 E27.97741
G1 X54.772 Y84.144 E28.03914
G1 X54.750 Y83.714 E28.06797
G1 X54.749 Y81.895 E28.18944
G1 X54.811 Y81.084 E28.24378
G1 X54.881 Y80.537 E28.28066
G1 X54.951 Y80.171 E28.30553
G1 X55.370 Y78.401 E28.42704
G1 X55.472 Y78.043 E28.45189
G1 X55.788 Y77.172 E28.51381
G1 X55.964 Y76.770 E28.54309
G1 X56.780 Y75.145 E28.66460
G1 X56.997 Y74.765 E28.69385
G1 X57.508 Y73.991 E28.75581
G1 X57.734 Y73.695 E28.78066
G1 X58.903 Y72.302 E28.90216
G1 X59.169 Y72.014 E28.92836
G1 X59.833 Y71.387 E28.98936
G1 X60.235 Y71.745 F30000.000
G1 F2100
G1 X60.485 Y71.540 E29.01095
G1 X61.944 Y70.454 E29.13246
G1 X62.295 Y70.223 E29.16056
G1 X62.934 Y69.853 E29.20990
G1 X63.339 Y69.649 E29.24018
G1 X65.009 Y68.928 E29.36168
G1 X65.726 Y68.683 E29.41231
G1 X66.552 Y68.466 E29.46938
G1 X68.344 Y68.151 E29.59089
G1 X68.664 Y68.109 E29.61249
G1 X69.569 Y68.055 E29.67302
G1 X69.952 Y68.057 E29.69862
G1 X71.768 Y68.163 E29.82013
G1 X72.518 Y68.265 E29.87075
G1 X73.354 Y68.442 E29.92783
G1 X75.097 Y68.964 E30.04934
G1 X75.402 Y69.071 E30.07093
G1 X76.234 Y69.428 E30.13146
G1 X76.576 Y69.602 E30.15707
G1 X78.151 Y70.512 E30.27858
G1 X78.472 Y70.720 E30.30415
G1 X79.182 Y71.250 E30.36334
G1 X79.443 Y71.474 E30.38631
G1 X80.766 Y72.722 E30.50782
G1 X81.275 Y73.283 E30.55844
G1 X81.802 Y73.956 E30.61551
G1 X82.801 Y75.476 E30.73702
G1 X82.967 Y75.753 E30.75862
G1 X83.374 Y76.563 E30.81914
G1 X83.524 Y76.915 E30.84475
G1 X84.147 Y78.624 E30.96626
G1 X84.258 Y78.991 E30.99184
G1 X84.466 Y79.873 E31.05241
G1 X84.518 Y80.192 E31.07399
G1 X84.729 Y81.999 E31.19550
G1 X84.758 Y82.756 E31.24612
G1 X84.729 Y83.610 E31.30320
G1 X84.518 Y85.416 E31.42471
G1 X84.453 Y85.793 E31.45028
G1 X84.243 Y86.675 E31.51084
G1 X84.147 Y86.984 E31.53244
G1 X83.524 Y88.693 E31.65395
G1 X83.167 Y89.469 E31.71105
G1 X82.801 Y90.133 E31.76164
G1 X81.802 Y91.652 E31.88315
G1 X81.575 Y91.960 E31.90873
G1 X81.005 Y92.639 E31.96792
G1 X80.766 Y92.886 E31.99088
G1 X79.443 Y94.134 E32.11239
G1 X79.199 Y94.345 E32.13398
G1 X78.472 Y94.887 E32.19452
G1 X78.151 Y95.097 E32.22012
G1 X76.576 Y96.006 E32.34163
G1 X75.892 Y96.333 E32.39225
G1 X75.097 Y96.644 E32.44933
G1 X73.354 Y97.166 E32.57084
G1 X72.982 Y97.256 E32.59641
G1 X72.089 Y97.412 E32.65697
G1 X71.768 Y97.445 E32.67857
G1 X69.952 Y97.551 E32.80008
G1 X69.097 Y97.531 E32.85718
G1 X68.344 Y97.458 E32.90777
G1 X66.552 Y97.142 E33.02928
G1 X66.218 Y97.066 E33.05222
G1 X65.369 Y96.812 E33.11141
G1 X65.009 Y96.680 E33.13701
G1 X63.339 Y95.959 E33.25852
G1 X62.669 Y95.606 E33.30914
G1 X61.944 Y95.154 E33.36622
G1 X60.485 Y94.068 E33.48773
G1 X60.235 Y93.863 E33.50932
G1 X59.575 Y93.242 E33.56985
G1 X59.313 Y92.962 E33.59546
G1 X58.144 Y91.569 E33.71697
