; generated by Slic3r 1.3.0 on 2021-11-27 at 20:24:31

; external perimeters extrusion width = 0.44mm (2.78mm^3/s)
; perimeters extrusion width = 0.40mm (7.14mm^3/s)
; infill extrusion width = 0.50mm (10.97mm^3/s)
; solid infill extrusion width = 0.60mm (6.68mm^3/s)
; top infill extrusion width = 0.40mm (2.14mm^3/s)

M107
M190 S80 ; set bed temperature and wait for it to be reached
M104 S210 ; set temperature
G28 ; home all axes
G1 Z5 F5000 ; lift nozzle

; Filament gcode

M109 S210 ; set temperature and wait for it to be reached
G21 ; set units to millimeters
G90 ; use absolute coordinates
M82 ; use absolute distances for extrusion
G92 E0
G1 Z0.300 F30000.000
G1 E-2.00000 F2400.00000
G92 E0
G1 X51.276 Y51.909 F30000.000
G1 E2.00000 F2400.00000
G1 F2100
G1 X51.978 Y51.306 E2.06182
G1 X52.859 Y50.636 E2.13574
G1 X53.781 Y50.023 E2.20971
G1 X54.428 Y49.641 E2.25989
G1 X55.730 Y48.977 E2.35756
G1 X56.752 Y48.547 E2.43161
G1 X57.459 Y48.293 E2.48181
G1 X58.865 Y47.884 E2.57964
G1 X59.947 Y47.654 E2.65354
G1 X60.689 Y47.536 E2.70371
G1 X62.146 Y47.398 E2.80152
G1 X63.253 Y47.375 E2.87549
G1 X64.004 Y47.398 E2.92567
G1 X65.466 Y47.537 E3.02375
G1 X66.553 Y47.720 E3.09740
G1 X67.631 Y47.973 E3.17139
G1 X68.692 Y48.293 E3.24538
G1 X69.398 Y48.547 E3.29554
G1 X70.740 Y49.128 E3.39325
G1 X71.410 Y49.469 E3.44344
G1 X72.369 Y50.023 E3.51746
G1 X73.579 Y50.846 E3.61521
G1 X74.447 Y51.533 E3.68917
G1 X75.011 Y52.030 E3.73935
G1 X76.046 Y53.065 E3.83713
G1 X76.542 Y53.628 E3.88728
G1 X77.230 Y54.496 E3.96126
G1 X77.861 Y55.405 E4.03525
G1 X78.434 Y56.352 E4.10919
G1 X79.099 Y57.657 E4.20699
G1 X79.528 Y58.677 E4.28095
G1 X79.783 Y59.384 E4.33111
G1 X80.191 Y60.790 E4.42894
G1 X80.355 Y61.523 E4.47909
G1 X80.539 Y62.614 E4.55300
G1 X80.677 Y64.071 E4.65082
G1 X80.701 Y65.179 E4.72481
G1 X80.677 Y65.930 E4.77501
G1 X80.539 Y67.386 E4.87277
G1 X80.421 Y68.129 E4.92298
G1 X80.191 Y69.211 E4.99691
G1 X79.783 Y70.616 E5.09467
G1 X79.528 Y71.324 E5.14490
G1 X79.099 Y72.344 E5.21884
G1 X78.434 Y73.648 E5.31659
G1 X78.052 Y74.294 E5.36677
G1 X77.439 Y75.217 E5.44077
G1 X76.769 Y76.098 E5.51470
G1 X76.046 Y76.935 E5.58864
G1 X75.011 Y77.970 E5.68640
G1 X74.173 Y78.694 E5.76037
G1 X73.579 Y79.154 E5.81056
G1 X72.369 Y79.977 E5.90832
G1 X71.410 Y80.531 E5.98233
G1 X70.741 Y80.872 E6.03249
G1 X69.399 Y81.453 E6.13016
G1 X68.349 Y81.819 E6.20447
G1 X67.285 Y82.116 E6.27823
G1 X66.553 Y82.280 E6.32838
G1 X65.107 Y82.509 E6.42613
G1 X64.005 Y82.602 E6.50006
G1 X63.254 Y82.625 E6.55026
G1 X61.791 Y82.579 E6.64804
G1 X60.689 Y82.464 E6.72203
G1 X59.947 Y82.346 E6.77222
G1 X58.519 Y82.027 E6.86996
G1 X57.798 Y81.818 E6.92011
G1 X56.753 Y81.453 E6.99412
G1 X55.410 Y80.872 E7.09183
G1 X54.428 Y80.359 E7.16587
G1 X53.781 Y79.977 E7.21604
G1 X52.571 Y79.154 E7.31380
G1 X51.978 Y78.694 E7.36395
G1 X51.276 Y78.091 E7.42577
G1 X49.975 Y76.415 E7.56752
G1 X49.353 Y73.832 E7.74503
G1 X49.353 Y56.168 E8.92501
G1 X49.750 Y54.084 E9.06677
G1 X51.242 Y51.958 E9.24026
G1 X51.631 Y52.311 F30000.000
G1 F2100
G1 X52.306 Y51.729 E9.29983
G1 X53.160 Y51.079 E9.37151
G1 X54.054 Y50.484 E9.44324
G1 X54.700 Y50.102 E9.49341
G1 X55.943 Y49.469 E9.58660
G1 X56.933 Y49.051 E9.65839
G1 X57.640 Y48.797 E9.70859
G1 X58.982 Y48.407 E9.80192
G1 X60.031 Y48.183 E9.87358
G1 X60.773 Y48.065 E9.92375
G1 X62.163 Y47.934 E10.01707
G1 X63.236 Y47.910 E10.08878
G1 X63.987 Y47.934 E10.13896
G1 X65.377 Y48.065 E10.23225
G1 X66.436 Y48.243 E10.30395
G1 X67.482 Y48.487 E10.37569
G1 X68.510 Y48.796 E10.44744
G1 X69.216 Y49.051 E10.49760
G1 X70.497 Y49.605 E10.59082
G1 X71.167 Y49.946 E10.64101
G1 X72.096 Y50.484 E10.71278
G1 X73.251 Y51.269 E10.80604
G1 X74.093 Y51.935 E10.87775
G1 X74.656 Y52.431 E10.92793
G1 X75.644 Y53.419 E11.02122
G1 X76.346 Y54.231 E11.09295
G1 X76.806 Y54.824 E11.14310
G1 X77.418 Y55.707 E11.21484
G1 X77.973 Y56.625 E11.28653
G1 X78.607 Y57.870 E11.37984
G1 X79.024 Y58.859 E11.45155
G1 X79.279 Y59.565 E11.50171
G1 X79.668 Y60.907 E11.59504
G1 X79.893 Y61.956 E11.66671
G1 X80.010 Y62.697 E11.71687
G1 X80.142 Y64.088 E11.81018
G1 X80.165 Y65.162 E11.88193
G1 X80.142 Y65.913 E11.93212
G1 X80.010 Y67.303 E12.02539
G1 X79.892 Y68.045 E12.07559
G1 X79.668 Y69.094 E12.14728
G1 X79.279 Y70.435 E12.24055
G1 X79.024 Y71.142 E12.29077
G1 X78.607 Y72.131 E12.36247
G1 X77.973 Y73.375 E12.45573
G1 X77.591 Y74.021 E12.50591
G1 X76.996 Y74.915 E12.57766
G1 X76.346 Y75.769 E12.64934
G1 X75.644 Y76.581 E12.72105
G1 X74.657 Y77.568 E12.81431
G1 X73.845 Y78.271 E12.88603
G1 X73.251 Y78.731 E12.93622
G1 X72.096 Y79.516 E13.02949
G1 X71.167 Y80.054 E13.10125
G1 X70.498 Y80.395 E13.15141
G1 X69.217 Y80.949 E13.24460
G1 X68.203 Y81.303 E13.31638
G1 X67.482 Y81.513 E13.36657
G1 X66.436 Y81.757 E13.43831
G1 X65.057 Y81.975 E13.53157
G1 X63.988 Y82.066 E13.60325
G1 X63.237 Y82.090 E13.65345
G1 X61.841 Y82.046 E13.74673
G1 X60.773 Y81.935 E13.81848
G1 X60.031 Y81.817 E13.86867
G1 X58.669 Y81.513 E13.96192
G1 X57.948 Y81.303 E14.01207
G1 X56.934 Y80.949 E14.08382
G1 X55.653 Y80.395 E14.17705
G1 X54.700 Y79.898 E14.24884
G1 X54.054 Y79.516 E14.29900
G1 X52.899 Y78.731 E14.39227
G1 X52.306 Y78.271 E14.44242
G1 X51.631 Y77.689 E14.50199
G1 X50.408 Y76.083 E14.63683
G1 X49.889 Y73.832 E14.79119
G1 X49.889 Y56.168 E15.97118
G1 X50.285 Y54.189 E16.10602
G1 X51.596 Y52.360 E16.25636
G1 X51.985 Y52.713 F30000.000
G1 F2100
G1 X52.634 Y52.152 E16.31369
G1 X53.461 Y51.522 E16.38312
G1 X54.326 Y50.945 E16.45260
G1 X54.973 Y50.563 E16.50278
G1 X56.156 Y49.960 E16.59148
G1 X57.115 Y49.555 E16.66102
G1 X57.822 Y49.300 E16.71121
G1 X59.099 Y48.929 E16.80005
G1 X60.115 Y48.712 E16.86946
G1 X60.856 Y48.594 E16.91963
G1 X62.180 Y48.469 E17.00845
G1 X63.220 Y48.445 E17.07792
G1 X63.970 Y48.469 E17.12810
G1 X65.294 Y48.594 E17.21689
G1 X66.319 Y48.766 E17.28635
G1 X67.332 Y49.001 E17.35584
G1 X68.329 Y49.300 E17.42534
G1 X69.035 Y49.555 E17.47550
G1 X70.254 Y50.082 E17.56424
G1 X70.923 Y50.423 E17.61442
G1 X71.824 Y50.945 E17.68393
G1 X72.923 Y51.692 E17.77271
G1 X73.739 Y52.337 E17.84217
G1 X74.302 Y52.833 E17.89235
G1 X75.242 Y53.773 E17.98114
G1 X75.923 Y54.559 E18.05063
G1 X76.383 Y55.152 E18.10078
G1 X76.975 Y56.008 E18.17027
G1 X77.512 Y56.898 E18.23972
G1 X78.116 Y58.082 E18.32853
G1 X78.414 Y58.771 E18.37869
G1 X78.775 Y59.747 E18.44815
G1 X79.146 Y61.023 E18.53699
G1 X79.364 Y62.040 E18.60642
G1 X79.481 Y62.781 E18.65657
G1 X79.606 Y64.105 E18.74539
G1 X79.630 Y65.145 E18.81489
G1 X79.606 Y65.896 E18.86508
G1 X79.481 Y67.219 E18.95386
G1 X79.363 Y67.961 E19.00405
G1 X79.146 Y68.977 E19.07350
G1 X78.775 Y70.253 E19.16228
G1 X78.520 Y70.961 E19.21249
G1 X78.116 Y71.918 E19.28194
G1 X77.512 Y73.102 E19.37071
G1 X77.130 Y73.749 E19.42089
G1 X76.553 Y74.614 E19.49039
G1 X75.923 Y75.441 E19.55983
G1 X75.242 Y76.227 E19.62929
G1 X74.302 Y77.167 E19.71806
G1 X73.516 Y77.848 E19.78754
G1 X72.923 Y78.308 E19.83772
G1 X71.824 Y79.055 E19.92650
G1 X70.924 Y79.577 E19.99601
G1 X70.255 Y79.917 E20.04617
G1 X69.036 Y80.445 E20.13487
G1 X68.050 Y80.790 E20.20467
G1 X67.052 Y81.071 E20.27393
G1 X66.319 Y81.234 E20.32408
G1 X65.007 Y81.442 E20.41285
G1 X63.971 Y81.531 E20.48229
G1 X63.220 Y81.555 E20.53248
G1 X61.892 Y81.513 E20.62127
G1 X60.857 Y81.406 E20.69077
G1 X60.115 Y81.288 E20.74095
G1 X58.818 Y80.999 E20.82972
G1 X58.097 Y80.789 E20.87987
G1 X57.115 Y80.445 E20.94937
G1 X55.896 Y79.918 E21.03811
G1 X54.973 Y79.437 E21.10765
G1 X54.327 Y79.055 E21.15781
G1 X53.228 Y78.308 E21.24659
G1 X52.634 Y77.848 E21.29674
G1 X51.985 Y77.287 E21.35406
G1 X50.845 Y75.755 E21.48162
G1 X50.425 Y73.832 E21.61316
G1 X50.425 Y56.168 E22.79315
G1 X50.820 Y54.301 E22.92070
G1 X51.949 Y52.761 E23.04824
G1 X52.339 Y53.115 F30000.000
G1 F2100
G1 X52.963 Y52.575 E23.10332
G1 X53.762 Y51.965 E23.17051
G1 X54.599 Y51.406 E23.23774
G1 X55.246 Y51.024 E23.28791
G1 X56.369 Y50.452 E23.37214
G1 X57.296 Y50.059 E23.43942
G1 X58.003 Y49.804 E23.48961
G1 X59.216 Y49.452 E23.57395
G1 X60.199 Y49.241 E23.64112
G1 X60.940 Y49.123 E23.69129
G1 X62.197 Y49.004 E23.77561
G1 X63.203 Y48.981 E23.84284
G1 X63.954 Y49.004 E23.89301
G1 X65.210 Y49.123 E23.97731
G1 X66.202 Y49.288 E24.04453
G1 X67.183 Y49.516 E24.11177
G1 X68.147 Y49.804 E24.17901
G1 X68.854 Y50.059 E24.22917
G1 X70.011 Y50.560 E24.31343
G1 X70.680 Y50.901 E24.36360
G1 X71.551 Y51.406 E24.43087
G1 X72.594 Y52.115 E24.51515
G1 X73.385 Y52.738 E24.58237
G1 X73.948 Y53.235 E24.63254
G1 X74.840 Y54.127 E24.71684
G1 X75.500 Y54.888 E24.78408
G1 X75.960 Y55.481 E24.83423
G1 X76.532 Y56.309 E24.90147
G1 X77.051 Y57.170 E24.96868
G1 X77.624 Y58.295 E25.05300
G1 X77.922 Y58.984 E25.10315
G1 X78.271 Y59.928 E25.17037
G1 X78.623 Y61.140 E25.25471
G1 X78.787 Y61.873 E25.30486
G1 X78.952 Y62.865 E25.37205
G1 X79.071 Y64.122 E25.45638
G1 X79.094 Y65.128 E25.52362
G1 X79.071 Y65.879 E25.57381
G1 X78.952 Y67.135 E25.65810
G1 X78.834 Y67.877 E25.70829
G1 X78.623 Y68.860 E25.77549
G1 X78.271 Y70.072 E25.85978
G1 X78.016 Y70.779 E25.90999
G1 X77.624 Y71.705 E25.97719
G1 X77.051 Y72.830 E26.06147
G1 X76.669 Y73.476 E26.11165
G1 X76.110 Y74.313 E26.17890
G1 X75.500 Y75.113 E26.24610
G1 X74.840 Y75.873 E26.31331
G1 X73.948 Y76.765 E26.39759
G1 X73.188 Y77.424 E26.46482
G1 X72.595 Y77.885 E26.51500
G1 X71.551 Y78.594 E26.59929
G1 X70.680 Y79.099 E26.66654
G1 X70.011 Y79.440 E26.71670
G1 X68.854 Y79.941 E26.80093
G1 X67.904 Y80.275 E26.86820
G1 X67.183 Y80.484 E26.91838
G1 X66.202 Y80.712 E26.98563
G1 X64.956 Y80.909 E27.06991
G1 X63.954 Y80.996 E27.13711
G1 X63.203 Y81.019 E27.18729
G1 X61.942 Y80.980 E27.27159
G1 X60.941 Y80.877 E27.33884
G1 X60.199 Y80.759 E27.38902
G1 X58.968 Y80.484 E27.47329
G1 X58.247 Y80.275 E27.52345
G1 X57.297 Y79.941 E27.59070
G1 X56.139 Y79.440 E27.67495
G1 X55.246 Y78.976 E27.74223
G1 X54.599 Y78.594 E27.79239
G1 X53.556 Y77.885 E27.87668
G1 X52.963 Y77.425 E27.92683
G1 X52.339 Y76.885 E27.98191
G1 X51.288 Y75.432 E28.10173
G1 X50.960 Y73.832 E28.21087
G1 X50.960 Y56.168 E29.39086
G1 X51.355 Y54.419 E29.51068
G1 X52.303 Y53.163 E29.61582
G1 X52.693 Y53.516 F30000.000
G1 F2100
G1 X53.291 Y52.999 E29.66864
G1 X54.064 Y52.408 E29.73360
G1 X54.872 Y51.867 E29.79858
G1 X55.518 Y51.485 E29.84875
G1 X56.582 Y50.943 E29.92849
G1 X57.478 Y50.563 E29.99352
G1 X58.185 Y50.308 E30.04370
G1 X59.332 Y49.975 E30.12354
G1 X60.282 Y49.770 E30.18848
G1 X61.024 Y49.652 E30.23864
G1 X62.214 Y49.540 E30.31847
G1 X63.186 Y49.516 E30.38345
G1 X63.937 Y49.540 E30.43362
G1 X65.130 Y49.653 E30.51372
G1 X66.086 Y49.811 E30.57840
G1 X67.033 Y50.030 E30.64339
G1 X67.966 Y50.308 E30.70839
G1 X68.672 Y50.563 E30.75855
G1 X69.768 Y51.037 E30.83831
G1 X70.437 Y51.378 E30.88849
G1 X71.278 Y51.867 E30.95350
G1 X72.266 Y52.539 E31.03329
G1 X73.030 Y53.140 E31.09827
G1 X73.594 Y53.637 E31.14844
G1 X74.438 Y54.482 E31.22825
G1 X74.935 Y55.045 E31.27840
G1 X75.537 Y55.809 E31.34339
G1 X76.089 Y56.610 E31.40838
G1 X76.590 Y57.443 E31.47334
G1 X77.133 Y58.508 E31.55317
G1 X77.431 Y59.197 E31.60332
G1 X77.767 Y60.109 E31.66829
G1 X78.100 Y61.257 E31.74813
G1 X78.306 Y62.207 E31.81308
G1 X78.423 Y62.949 E31.86323
G1 X78.535 Y64.139 E31.94306
G1 X78.559 Y65.111 E32.00806
G1 X78.535 Y65.862 E32.05824
G1 X78.423 Y67.051 E32.13804
G1 X78.305 Y67.793 E32.18822
G1 X78.100 Y68.743 E32.25318
G1 X77.767 Y69.891 E32.33298
G1 X77.512 Y70.598 E32.38318
G1 X77.132 Y71.493 E32.44814
G1 X76.590 Y72.557 E32.52793
G1 X76.208 Y73.203 E32.57810
G1 X75.667 Y74.012 E32.64311
G1 X75.076 Y74.784 E32.70806
G1 X74.438 Y75.518 E32.77303
G1 X73.594 Y76.363 E32.85282
G1 X72.860 Y77.001 E32.91780
G1 X72.266 Y77.461 E32.96798
G1 X71.278 Y78.133 E33.04777
G1 X70.437 Y78.622 E33.11278
G1 X69.768 Y78.963 E33.16294
G1 X68.673 Y79.437 E33.24268
G1 X67.750 Y79.762 E33.30800
G1 X66.818 Y80.025 E33.37272
G1 X66.085 Y80.189 E33.42287
G1 X64.906 Y80.376 E33.50267
G1 X63.937 Y80.460 E33.56762
G1 X63.186 Y80.484 E33.61780
G1 X61.992 Y80.446 E33.69761
G1 X61.024 Y80.348 E33.76261
G1 X60.283 Y80.230 E33.81278
G1 X59.117 Y79.970 E33.89257
G1 X58.396 Y79.760 E33.94272
G1 X57.478 Y79.437 E34.00772
G1 X56.383 Y78.963 E34.08749
G1 X55.518 Y78.515 E34.15252
G1 X54.872 Y78.133 E34.20268
G1 X53.884 Y77.461 E34.28247
G1 X53.291 Y77.001 E34.33263
G1 X52.693 Y76.484 E34.38545
G1 X51.737 Y75.115 E34.49701
G1 X51.496 Y73.832 E34.58424
G1 X51.496 Y56.168 E35.76422
G1 X51.890 Y54.546 E35.87578
G1 X52.656 Y53.564 E35.95900
G1 X51.949 Y55.220 F30000.000
G1 F2100
G1 X53.672 Y53.701 E36.13087
G1 X54.470 Y53.083 E36.20642
G1 X55.235 Y52.566 E36.27553
G1 X55.956 Y52.140 E36.33818
G1 X56.777 Y51.718 E36.40729
G1 X57.704 Y51.317 E36.48283
G1 X58.492 Y51.033 E36.54551
G1 X59.378 Y50.773 E36.61462
G1 X60.363 Y50.553 E36.69016
G1 X61.275 Y50.411 E36.75924
G1 X62.109 Y50.332 E36.82194
G1 X63.118 Y50.301 E36.89749
G1 X63.955 Y50.327 E36.96015
G1 X64.875 Y50.411 E37.02924
G1 X65.872 Y50.569 E37.10481
G1 X66.689 Y50.752 E37.16745
G1 X67.576 Y51.007 E37.23656
G1 X68.526 Y51.349 E37.31212
G1 X69.373 Y51.718 E37.38122
G1 X70.119 Y52.098 E37.44388
G1 X70.915 Y52.566 E37.51299
G1 X71.680 Y53.083 E37.58209
G1 X72.478 Y53.701 E37.65765
G1 X73.106 Y54.255 E37.72031
G1 X73.761 Y54.906 E37.78941
G1 X74.429 Y55.664 E37.86497
G1 X74.993 Y56.395 E37.93408
G1 X75.463 Y57.087 E37.99672
G1 X75.977 Y57.956 E38.07230
G1 X76.357 Y58.702 E38.13496
G1 X76.726 Y59.549 E38.20404
G1 X77.068 Y60.499 E38.27961
G1 X77.324 Y61.386 E38.34872
G1 X77.522 Y62.288 E38.41780
G1 X77.664 Y63.200 E38.48692
G1 X77.743 Y64.034 E38.54956
G1 X77.775 Y65.043 E38.62512
G1 X77.748 Y65.880 E38.68781
G1 X77.664 Y66.800 E38.75693
G1 X77.506 Y67.797 E38.83246
G1 X77.323 Y68.614 E38.89512
G1 X77.068 Y69.501 E38.96422
G1 X76.758 Y70.372 E39.03335
G1 X76.413 Y71.176 E39.09889
G1 X75.936 Y72.119 E39.17799
G1 X75.509 Y72.840 E39.24064
G1 X74.992 Y73.605 E39.30976
G1 X74.374 Y74.403 E39.38530
G1 X73.761 Y75.094 E39.45440
G1 X73.169 Y75.686 E39.51704
G1 X72.412 Y76.353 E39.59260
G1 X71.680 Y76.917 E39.66172
G1 X70.988 Y77.388 E39.72437
G1 X70.119 Y77.902 E39.79993
G1 X69.295 Y78.319 E39.86900
G1 X68.527 Y78.651 E39.93167
G1 X67.531 Y79.006 E40.01077
G1 X66.689 Y79.248 E40.07637
G1 X65.787 Y79.447 E40.14546
G1 X64.875 Y79.589 E40.21455
G1 X64.041 Y79.668 E40.27720
G1 X63.031 Y79.699 E40.35284
G1 X62.195 Y79.673 E40.41542
G1 X61.276 Y79.589 E40.48451
G1 X60.279 Y79.431 E40.56006
G1 X59.461 Y79.248 E40.62273
G1 X58.574 Y78.993 E40.69184
G1 X57.624 Y78.651 E40.76743
G1 X56.778 Y78.282 E40.83649
G1 X55.956 Y77.860 E40.90562
G1 X55.235 Y77.434 E40.96828
G1 X54.470 Y76.917 E41.03737
G1 X53.672 Y76.299 E41.11292
G1 X51.949 Y74.780 E41.28481
G1 X52.787 Y71.516 E41.53698
G1 X54.637 Y71.102 E41.67880
G1 X55.389 Y70.859 E41.73800
G1 X55.753 Y70.702 E41.76761
G1 X56.114 Y70.518 E41.79797
G1 X56.455 Y70.316 E41.82758
G1 X57.229 Y69.789 E41.89769
G1 X58.921 Y69.789 E42.02428
G1 X59.704 Y70.321 E42.09512
G1 X60.398 Y70.702 E42.15432
G1 X61.133 Y70.992 E42.21352
G1 X61.513 Y71.102 E42.24313
G1 X62.281 Y71.249 E42.30159
G1 X63.070 Y71.299 E42.36079
G1 X63.860 Y71.250 E42.41999
G1 X64.251 Y71.188 E42.44960
G1 X64.647 Y71.100 E42.47996
G1 X65.399 Y70.855 E42.53915
G1 X66.106 Y70.522 E42.59762
G1 X66.446 Y70.321 E42.62723
G1 X66.774 Y70.099 E42.65684
G1 X67.094 Y69.850 E42.68720
G1 X67.391 Y69.588 E42.71681
G1 X67.926 Y69.019 E42.77527
G1 X68.168 Y68.707 E42.80488
G1 X68.396 Y68.371 E42.83524
G1 X68.598 Y68.030 E42.86485
G1 X68.930 Y67.323 E42.92331
G1 X69.065 Y66.951 E42.95293
G1 X69.178 Y66.562 E42.98328
G1 X69.324 Y65.794 E43.04174
G1 X69.362 Y65.400 E43.07135
G1 X69.374 Y65.005 E43.10097
G1 X69.362 Y64.600 E43.13132
G1 X69.262 Y63.815 E43.19052
G1 X69.065 Y63.049 E43.24972
G1 X68.773 Y62.313 E43.30892
G1 X68.391 Y61.621 E43.36811
G1 X67.926 Y60.981 E43.42731
G1 X67.384 Y60.405 E43.48651
G1 X66.774 Y59.901 E43.54571
G1 X66.106 Y59.478 E43.60491
G1 X65.399 Y59.145 E43.66337
G1 X65.026 Y59.011 E43.69298
G1 X64.260 Y58.813 E43.75218
G1 X63.476 Y58.714 E43.81138
G1 X63.070 Y58.701 E43.84174
G1 X62.675 Y58.714 E43.87135
G1 X62.281 Y58.751 E43.90096
G1 X61.513 Y58.898 E43.95942
G1 X61.133 Y59.008 E43.98904
G1 X60.752 Y59.145 E44.01939
