; generated by Slic3r 1.3.0 on 2021-11-27 at 21:45:32

; external perimeters extrusion width = 0.44mm (2.78mm^3/s)
; perimeters extrusion width = 0.40mm (7.14mm^3/s)
; infill extrusion width = 0.50mm (10.97mm^3/s)
; solid infill extrusion width = 0.60mm (6.68mm^3/s)
; top infill extrusion width = 0.40mm (2.14mm^3/s)

M107
M190 S80 ; set bed temperature and wait for it to be reached
M104 S210 ; set temperature
G28 ; home all axes
G1 Z5 F5000 ; lift nozzle

; Filament gcode

M109 S210 ; set temperature and wait for it to be reached
G21 ; set units to millimeters
G90 ; use absolute coordinates
M82 ; use absolute distances for extrusion
G92 E0
G1 Z0.300 F30000.000
G1 E-2.00000 F2400.00000
G92 E0
G1 X34.811 Y51.522 F30000.000
G1 E2.00000 F2400.00000
G1 F2100
G1 X35.675 Y50.946 E2.06932
G1 X36.575 Y50.424 E2.13887
G1 X37.506 Y49.960 E2.20837
G1 X38.196 Y49.661 E2.25858
G1 X39.171 Y49.300 E2.32804
G1 X40.168 Y49.001 E2.39754
G1 X41.464 Y48.712 E2.48631
G1 X42.492 Y48.558 E2.55574
G1 X43.530 Y48.469 E2.62529
G1 X44.425 Y48.443 E2.68512
G1 X89.569 Y48.445 E5.70101
G1 X90.320 Y48.469 E5.75119
G1 X91.356 Y48.558 E5.82064
G1 X92.668 Y48.766 E5.90940
G1 X93.401 Y48.929 E5.95959
G1 X94.403 Y49.211 E6.02908
G1 X95.385 Y49.555 E6.09858
G1 X96.342 Y49.959 E6.16805
G1 X97.526 Y50.562 E6.25678
G1 X98.416 Y51.099 E6.32622
G1 X99.272 Y51.692 E6.39581
G1 X99.866 Y52.152 E6.44596
G1 X100.515 Y52.713 E6.50328
G1 X101.655 Y54.245 E6.63083
G1 X102.075 Y56.168 E6.76238
G1 X102.075 Y73.832 E7.94237
G1 X101.680 Y75.699 E8.06992
G1 X100.515 Y77.287 E8.20147
G1 X100.089 Y77.663 E8.23946
G1 X99.038 Y78.478 E8.32827
G1 X98.173 Y79.055 E8.39772
G1 X97.273 Y79.577 E8.46723
G1 X96.343 Y80.040 E8.53662
G1 X95.653 Y80.339 E8.58685
G1 X94.400 Y80.790 E8.67587
G1 X93.401 Y81.071 E8.74515
G1 X92.385 Y81.288 E8.81458
G1 X91.356 Y81.442 E8.88406
G1 X90.608 Y81.513 E8.93426
G1 X89.425 Y81.557 E9.01338
G1 X44.280 Y81.555 E12.02930
G1 X43.530 Y81.531 E12.07946
G1 X42.494 Y81.442 E12.14891
G1 X41.186 Y81.235 E12.23737
G1 X40.168 Y80.999 E12.30720
G1 X39.447 Y80.789 E12.35735
G1 X38.465 Y80.445 E12.42685
G1 X37.507 Y80.041 E12.49632
G1 X36.576 Y79.577 E12.56579
G1 X35.433 Y78.901 E12.65451
G1 X34.579 Y78.309 E12.72394
G1 X33.761 Y77.663 E12.79355
G1 X32.987 Y76.969 E12.86305
G1 X32.258 Y76.227 E12.93249
G1 X31.577 Y75.441 E13.00201
G1 X30.947 Y74.613 E13.07148
G1 X30.525 Y73.992 E13.12163
G1 X29.988 Y73.102 E13.19108
G1 X29.507 Y72.179 E13.26061
G1 X29.087 Y71.230 E13.32997
G1 X28.725 Y70.253 E13.39952
G1 X28.426 Y69.257 E13.46904
G1 X28.191 Y68.244 E13.53852
G1 X28.019 Y67.219 E13.60796
G1 X27.912 Y66.180 E13.67774
G1 X27.870 Y65.143 E13.74705
G1 X27.894 Y64.105 E13.81642
G1 X27.983 Y63.069 E13.88588
G1 X28.136 Y62.040 E13.95540
G1 X28.426 Y60.743 E14.04417
G1 X28.725 Y59.747 E14.11367
G1 X29.086 Y58.771 E14.18313
G1 X29.507 Y57.821 E14.25260
G1 X29.988 Y56.898 E14.32211
G1 X30.371 Y56.250 E14.37235
G1 X30.947 Y55.387 E14.44171
G1 X31.577 Y54.559 E14.51118
G1 X32.258 Y53.773 E14.58070
G1 X32.987 Y53.031 E14.65016
G1 X33.761 Y52.337 E14.71964
G1 X34.763 Y51.557 E14.80444
G1 X35.112 Y51.965 F30000.000
G1 F2100
G1 X35.948 Y51.407 E14.87154
G1 X36.821 Y50.900 E14.93898
G1 X37.718 Y50.452 E15.00600
G1 X38.409 Y50.153 E15.05628
G1 X39.353 Y49.804 E15.12350
G1 X40.317 Y49.516 E15.19075
G1 X41.548 Y49.241 E15.27503
G1 X42.543 Y49.091 E15.34222
G1 X43.546 Y49.004 E15.40951
G1 X44.425 Y48.979 E15.46821
G1 X89.552 Y48.981 E18.48298
G1 X90.303 Y49.004 E18.53316
G1 X91.305 Y49.091 E18.60037
G1 X92.301 Y49.241 E18.66764
G1 X93.532 Y49.516 E18.75191
G1 X94.497 Y49.804 E18.81916
G1 X95.444 Y50.154 E18.88666
G1 X96.361 Y50.560 E18.95360
G1 X97.030 Y50.901 E19.00375
G1 X97.901 Y51.406 E19.07102
G1 X98.737 Y51.965 E19.13822
G1 X99.537 Y52.575 E19.20546
G1 X100.161 Y53.115 E19.26054
G1 X101.212 Y54.568 E19.38036
G1 X101.540 Y56.168 E19.48950
G1 X101.540 Y73.832 E20.66949
G1 X101.145 Y75.581 E20.78931
G1 X100.161 Y76.885 E20.89845
G1 X99.734 Y77.262 E20.93645
G1 X98.737 Y78.035 E21.02076
G1 X97.901 Y78.594 E21.08797
G1 X97.030 Y79.099 E21.15522
G1 X96.131 Y79.549 E21.22238
G1 X95.441 Y79.847 E21.27260
G1 X94.250 Y80.276 E21.35714
G1 X93.284 Y80.548 E21.42416
G1 X92.301 Y80.759 E21.49135
G1 X91.306 Y80.909 E21.55858
G1 X90.558 Y80.980 E21.60877
G1 X89.425 Y81.021 E21.68453
G1 X44.425 Y81.021 E24.69077
G1 X43.291 Y80.980 E24.76653
G1 X42.290 Y80.877 E24.83380
G1 X41.548 Y80.759 E24.88396
G1 X40.318 Y80.484 E24.96816
G1 X39.353 Y80.196 E25.03548
G1 X38.410 Y79.848 E25.10263
G1 X37.720 Y79.549 E25.15285
G1 X36.820 Y79.099 E25.22008
G1 X35.949 Y78.594 E25.28733
G1 X35.112 Y78.035 E25.35454
G1 X34.312 Y77.425 E25.42177
G1 X33.552 Y76.765 E25.48901
G1 X32.833 Y76.057 E25.55640
G1 X32.000 Y75.112 E25.64057
G1 X31.390 Y74.312 E25.70779
G1 X30.968 Y73.691 E25.75794
G1 X30.449 Y72.830 E25.82515
G1 X29.984 Y71.936 E25.89243
G1 X29.578 Y71.017 E25.95954
G1 X29.229 Y70.072 E26.02685
G1 X28.941 Y69.107 E26.09411
G1 X28.713 Y68.127 E26.16134
G1 X28.548 Y67.135 E26.22854
G1 X28.445 Y66.130 E26.29604
G1 X28.406 Y65.126 E26.36312
G1 X28.429 Y64.122 E26.43026
G1 X28.516 Y63.119 E26.49747
G1 X28.665 Y62.124 E26.56475
G1 X28.941 Y60.892 E26.64902
G1 X29.229 Y59.928 E26.71627
G1 X29.578 Y58.984 E26.78349
G1 X29.985 Y58.064 E26.85071
G1 X30.449 Y57.170 E26.91797
G1 X30.832 Y56.523 E26.96820
G1 X31.390 Y55.688 E27.03533
G1 X32.000 Y54.888 E27.10255
G1 X32.660 Y54.127 E27.16982
G1 X33.366 Y53.410 E27.23703
G1 X34.115 Y52.738 E27.30427
G1 X35.064 Y52.000 E27.38457
G1 X35.414 Y52.408 F30000.000
G1 F2100
G1 X36.220 Y51.868 E27.44944
G1 X37.063 Y51.378 E27.51456
G1 X37.931 Y50.943 E27.57941
G1 X38.622 Y50.644 E27.62967
G1 X39.534 Y50.308 E27.69465
G1 X40.467 Y50.030 E27.75964
G1 X41.632 Y49.770 E27.83943
G1 X42.593 Y49.624 E27.90438
G1 X43.563 Y49.540 E27.96942
G1 X44.425 Y49.514 E28.02700
G1 X89.425 Y49.514 E31.03324
G1 X90.508 Y49.554 E31.10563
G1 X91.476 Y49.652 E31.17063
G1 X92.217 Y49.770 E31.22080
G1 X93.383 Y50.030 E31.30059
G1 X94.315 Y50.308 E31.36558
G1 X95.232 Y50.646 E31.43083
G1 X96.118 Y51.037 E31.49553
G1 X96.787 Y51.378 E31.54568
G1 X97.628 Y51.867 E31.61070
G1 X98.436 Y52.408 E31.67566
G1 X99.209 Y52.999 E31.74065
G1 X99.807 Y53.516 E31.79348
G1 X100.763 Y54.885 E31.90503
G1 X101.004 Y56.168 E31.99226
G1 X101.004 Y73.832 E33.17225
G1 X100.610 Y75.454 E33.28380
G1 X99.807 Y76.484 E33.37103
G1 X99.209 Y77.001 E33.42386
G1 X98.436 Y77.592 E33.48885
G1 X97.628 Y78.133 E33.55381
G1 X96.787 Y78.622 E33.61882
G1 X96.118 Y78.963 E33.66897
G1 X95.022 Y79.437 E33.74873
G1 X94.104 Y79.760 E33.81372
G1 X93.383 Y79.970 E33.86392
G1 X92.217 Y80.230 E33.94370
G1 X91.255 Y80.376 E34.00869
G1 X90.508 Y80.446 E34.05887
G1 X89.425 Y80.486 E34.13126
G1 X44.425 Y80.486 E37.13751
G1 X43.342 Y80.446 E37.20990
G1 X42.594 Y80.376 E37.26005
G1 X41.632 Y80.230 E37.32507
G1 X40.467 Y79.970 E37.40479
G1 X39.534 Y79.692 E37.46986
G1 X38.622 Y79.356 E37.53477
G1 X37.933 Y79.057 E37.58498
G1 X37.063 Y78.622 E37.64996
G1 X36.222 Y78.133 E37.71496
G1 X35.414 Y77.592 E37.77993
G1 X34.641 Y77.001 E37.84491
G1 X33.906 Y76.363 E37.90990
G1 X33.212 Y75.679 E37.97502
G1 X32.423 Y74.784 E38.05472
G1 X31.833 Y74.011 E38.11970
G1 X31.292 Y73.203 E38.18466
G1 X30.910 Y72.557 E38.23481
G1 X30.462 Y71.693 E38.29983
G1 X30.070 Y70.804 E38.36471
G1 X29.733 Y69.891 E38.42977
G1 X29.455 Y68.958 E38.49478
G1 X29.236 Y68.010 E38.55976
G1 X29.077 Y67.051 E38.62472
G1 X28.978 Y66.080 E38.68993
G1 X28.941 Y65.110 E38.75479
G1 X28.965 Y64.139 E38.81969
G1 X29.049 Y63.170 E38.88466
G1 X29.194 Y62.207 E38.94968
G1 X29.455 Y61.042 E39.02946
G1 X29.733 Y60.109 E39.09447
G1 X30.069 Y59.197 E39.15944
G1 X30.462 Y58.307 E39.22441
G1 X30.910 Y57.443 E39.28942
G1 X31.292 Y56.796 E39.33964
G1 X31.833 Y55.989 E39.40454
G1 X32.423 Y55.216 E39.46951
G1 X33.062 Y54.481 E39.53453
G1 X33.744 Y53.789 E39.59950
G1 X34.469 Y53.140 E39.66448
G1 X35.365 Y52.443 E39.74030
G1 E37.74030 F2400.00000
G92 E0
G1 X99.713 Y58.484 F30000.000
G1 E2.00000 F2400.00000
G1 F2100
G1 X97.863 Y58.898 E2.14183
G1 X97.111 Y59.141 E2.20102
G1 X96.747 Y59.298 E2.23064
G1 X96.386 Y59.482 E2.26099
G1 X96.045 Y59.684 E2.29061
G1 X95.271 Y60.211 E2.36071
G1 X93.579 Y60.211 E2.48730
G1 X92.796 Y59.679 E2.55814
G1 X92.102 Y59.298 E2.61734
G1 X91.367 Y59.008 E2.67654
G1 X90.600 Y58.812 E2.73574
G1 X89.825 Y58.714 E2.79420
G1 X89.034 Y58.713 E2.85340
G1 X88.630 Y58.751 E2.88375
G1 X87.853 Y58.900 E2.94295
G1 X87.101 Y59.145 E3.00215
G1 X86.394 Y59.478 E3.06061
G1 X86.045 Y59.684 E3.09096
G1 X85.406 Y60.150 E3.15016
G1 X84.829 Y60.692 E3.20936
G1 X84.326 Y61.301 E3.26856
G1 X83.902 Y61.970 E3.32776
G1 X83.570 Y62.677 E3.38622
G1 X83.432 Y63.058 E3.41657
G1 X83.238 Y63.815 E3.47503
G1 X83.175 Y64.215 E3.50539
G1 X83.126 Y64.995 E3.56384
G1 X83.138 Y65.400 E3.59420
G1 X83.236 Y66.175 E3.65266
G1 X83.325 Y66.571 E3.68301
G1 X83.566 Y67.314 E3.74147
G1 X83.723 Y67.678 E3.77108
G1 X83.907 Y68.039 E3.80144
G1 X84.326 Y68.699 E3.85990
G1 X84.574 Y69.019 E3.89025
G1 X85.109 Y69.588 E3.94871
G1 X85.413 Y69.857 E3.97906
G1 X86.045 Y70.316 E4.03753
G1 X86.394 Y70.522 E4.06788
G1 X87.101 Y70.855 E4.12634
G1 X87.474 Y70.989 E4.15595
G1 X88.240 Y71.187 E4.21515
G1 X88.630 Y71.249 E4.24477
G1 X89.034 Y71.287 E4.27512
G1 X89.825 Y71.286 E4.33432
G1 X90.219 Y71.249 E4.36393
G1 X90.986 Y71.102 E4.42239
G1 X91.367 Y70.992 E4.45201
G1 X91.748 Y70.855 E4.48236
G1 X92.464 Y70.518 E4.54156
G1 X92.804 Y70.316 E4.57117
G1 X93.579 Y69.789 E4.64127
G1 X95.271 Y69.789 E4.76787
G1 X96.045 Y70.316 E4.83797
G1 X96.386 Y70.518 E4.86758
G1 X96.738 Y70.698 E4.89720
G1 X97.111 Y70.859 E4.92755
G1 X97.863 Y71.102 E4.98675
G1 X99.713 Y71.516 E5.12858
G1 X100.551 Y74.780 E5.38074
G1 X98.828 Y76.299 E5.55262
G1 X98.100 Y76.867 E5.62173
G1 X97.337 Y77.388 E5.69085
G1 X96.468 Y77.902 E5.76640
G1 X95.645 Y78.319 E5.83547
G1 X94.876 Y78.651 E5.89814
G1 X93.926 Y78.993 E5.97369
G1 X93.122 Y79.227 E6.03637
G1 X92.221 Y79.431 E6.10548
G1 X91.224 Y79.589 E6.18102
G1 X90.391 Y79.668 E6.24369
G1 X89.468 Y79.699 E6.31280
G1 X88.545 Y79.673 E6.38190
G1 X87.540 Y79.578 E6.45745
G1 X86.628 Y79.431 E6.52657
G1 X85.811 Y79.248 E6.58920
G1 X84.923 Y78.993 E6.65831
G1 X84.053 Y78.683 E6.72744
G1 X83.127 Y78.282 E6.80296
G1 X82.381 Y77.902 E6.86562
G1 X82.071 Y77.722 E6.89247
G1 X81.989 Y77.699 E6.89880
G1 X51.860 Y77.699 E9.15354
G1 X51.778 Y77.722 E9.15988
G1 X51.469 Y77.902 E9.18668
G1 X50.722 Y78.282 E9.24938
G1 X49.797 Y78.683 E9.32484
G1 X48.926 Y78.993 E9.39401
G1 X48.122 Y79.227 E9.45670
G1 X47.136 Y79.447 E9.53233
G1 X46.225 Y79.589 E9.60131
G1 X45.390 Y79.668 E9.66402
G1 X44.381 Y79.699 E9.73963
G1 X43.544 Y79.673 E9.80224
G1 X42.625 Y79.589 E9.87131
G1 X41.630 Y79.431 E9.94671
G1 X40.685 Y79.215 E10.01926
G1 X39.841 Y78.967 E10.08510
G1 X39.054 Y78.683 E10.14772
G1 X38.127 Y78.282 E10.22328
G1 X37.305 Y77.860 E10.29243
G1 X36.512 Y77.388 E10.36147
G1 X35.820 Y76.918 E10.42412
G1 X35.088 Y76.353 E10.49327
G1 X34.331 Y75.686 E10.56883
G1 X33.680 Y75.031 E10.63795
G1 X33.071 Y74.336 E10.70704
G1 X32.507 Y73.605 E10.77613
G1 X32.037 Y72.913 E10.83873
G1 X31.523 Y72.044 E10.91435
G1 X31.106 Y71.220 E10.98346
G1 X30.773 Y70.451 E11.04616
G1 X30.458 Y69.584 E11.11519
G1 X30.198 Y68.697 E11.18433
G1 X29.978 Y67.712 E11.25984
G1 X29.836 Y66.799 E11.32899
G1 X29.757 Y65.964 E11.39177
G1 X29.725 Y65.042 E11.46080
G1 X29.752 Y64.121 E11.52977
G1 X29.836 Y63.202 E11.59887
G1 X29.994 Y62.204 E11.67447
G1 X30.198 Y61.303 E11.74359
G1 X30.431 Y60.499 E11.80621
G1 X30.774 Y59.549 E11.88183
G1 X31.106 Y58.780 E11.94453
G1 X31.523 Y57.956 E12.01357
G1 X32.037 Y57.087 E12.08916
G1 X32.507 Y56.395 E12.15178
G1 X33.070 Y55.664 E12.22081
G1 X33.739 Y54.907 E12.29642
G1 X34.394 Y54.255 E12.36563
G1 X35.088 Y53.647 E12.43463
G1 X35.750 Y53.133 E12.49734
G1 X36.512 Y52.612 E12.56641
G1 X37.381 Y52.098 E12.64196
G1 X38.204 Y51.682 E12.71103
G1 X38.974 Y51.349 E12.77377
G1 X39.923 Y51.007 E12.84929
G1 X40.728 Y50.773 E12.91198
G1 X41.628 Y50.569 E12.98107
G1 X42.625 Y50.411 E13.05659
G1 X43.546 Y50.327 E13.12580
G1 X44.466 Y50.301 E13.19467
G1 X45.304 Y50.327 E13.25744
G1 X46.224 Y50.411 E13.32659
G1 X47.222 Y50.569 E13.40223
G1 X48.121 Y50.773 E13.47117
G1 X48.926 Y51.007 E13.53391
G1 X49.795 Y51.317 E13.60299
G1 X50.722 Y51.718 E13.67852
G1 X51.468 Y52.098 E13.74123
G1 X51.778 Y52.278 E13.76807
G1 X51.860 Y52.301 E13.77440
G1 X81.989 Y52.301 E16.02914
G1 X82.071 Y52.278 E16.03547
G1 X82.381 Y52.098 E16.06230
G1 X83.127 Y51.718 E16.12496
G1 X84.053 Y51.317 E16.20049
G1 X84.924 Y51.007 E16.26964
G1 X85.811 Y50.752 E16.33871
G1 X86.628 Y50.569 E16.40139
G1 X87.625 Y50.411 E16.47690
G1 X88.459 Y50.332 E16.53960
G1 X89.381 Y50.301 E16.60869
G1 X90.305 Y50.327 E16.67781
G1 X91.310 Y50.422 E16.75337
G1 X92.221 Y50.569 E16.82245
G1 X93.038 Y50.752 E16.88512
G1 X93.926 Y51.007 E16.95422
G1 X94.876 Y51.349 E17.02978
G1 X95.644 Y51.681 E17.09244
G1 X96.468 Y52.098 E17.16152
G1 X97.337 Y52.612 E17.23706
G1 X98.100 Y53.133 E17.30623
G1 X98.828 Y53.702 E17.37533
G1 X100.551 Y55.220 E17.54720
G1 X99.727 Y58.426 E17.79487
G1 X99.223 Y57.979 F30000.000
G1 F2100
G1 X97.704 Y58.319 E17.91134
G1 X97.297 Y58.437 E17.94303
G1 X96.890 Y58.583 E17.97547
G1 X96.492 Y58.755 E18.00791
G1 X96.097 Y58.956 E18.04108
G1 X95.724 Y59.177 E18.07352
G1 X95.086 Y59.611 E18.13121
G1 X93.764 Y59.611 E18.23018
G1 X93.117 Y59.172 E18.28862
G1 X92.744 Y58.952 E18.32106
G1 X92.358 Y58.755 E18.35349
G1 X91.960 Y58.583 E18.38593
G1 X91.552 Y58.437 E18.41837
G1 X91.136 Y58.316 E18.45080
G1 X90.713 Y58.222 E18.48324
G1 X90.294 Y58.156 E18.51493
G1 X89.863 Y58.114 E18.54737
G1 X89.430 Y58.101 E18.57981
G1 X88.996 Y58.114 E18.61224
G1 X88.555 Y58.156 E18.64542
G1 X88.127 Y58.224 E18.67786
G1 X87.704 Y58.319 E18.71029
G1 X87.288 Y58.440 E18.74273
G1 X86.890 Y58.583 E18.77442
G1 X86.492 Y58.755 E18.80686
G1 X86.105 Y58.952 E18.83929
G1 X85.732 Y59.172 E18.87173
G1 X85.373 Y59.415 E18.90417
G1 X85.031 Y59.681 E18.93660
G1 X84.705 Y59.967 E18.96904
G1 X84.399 Y60.273 E19.00148
G1 X84.112 Y60.598 E19.03391
G1 X83.840 Y60.949 E19.06709
G1 X83.597 Y61.307 E19.09952
G1 X83.376 Y61.681 E19.13196
G1 X83.180 Y62.067 E19.16440
G1 X83.008 Y62.465 E19.19683
G1 X82.865 Y62.863 E19.22853
G1 X82.743 Y63.279 E19.26096
G1 X82.648 Y63.702 E19.29340
G1 X82.579 Y64.140 E19.32658
G1 X82.539 Y64.562 E19.35827
G1 X82.525 Y64.995 E19.39071
G1 X82.539 Y65.428 E19.42315
G1 X82.580 Y65.870 E19.45632
G1 X82.648 Y66.298 E19.48876
G1 X82.741 Y66.711 E19.52045
G1 X82.865 Y67.137 E19.55363
G1 X83.012 Y67.544 E19.58606
G1 X83.180 Y67.933 E19.61776
G1 X83.381 Y68.328 E19.65094
G1 X83.602 Y68.701 E19.68337
G1 X83.840 Y69.051 E19.71507
G1 X84.105 Y69.394 E19.74750
G1 X84.399 Y69.727 E19.78068
G1 X84.698 Y70.026 E19.81238
G1 X85.023 Y70.313 E19.84481
G1 X85.373 Y70.585 E19.87799
G1 X85.732 Y70.828 E19.91043
G1 X86.097 Y71.044 E19.94212
G1 X86.483 Y71.241 E19.97456
G1 X86.880 Y71.413 E20.00699
G1 X87.288 Y71.560 E20.03943
G1 X87.714 Y71.684 E20.07260
G1 X88.127 Y71.776 E20.10430
G1 X88.555 Y71.844 E20.13674
G1 X88.987 Y71.886 E20.16917
G1 X89.430 Y71.899 E20.20235
G1 X89.863 Y71.885 E20.23479
G1 X90.294 Y71.844 E20.26722
G1 X90.713 Y71.778 E20.29892
G1 X91.136 Y71.684 E20.33135
G1 X91.552 Y71.563 E20.36379
G1 X91.960 Y71.417 E20.39623
G1 X92.358 Y71.245 E20.42866
G1 X92.753 Y71.044 E20.46184
G1 X93.126 Y70.823 E20.49427
G1 X93.764 Y70.389 E20.55198
G1 X95.086 Y70.389 E20.65094
G1 X95.724 Y70.823 E20.70864
G1 X96.097 Y71.044 E20.74108
G1 X96.483 Y71.241 E20.77351
G1 X96.890 Y71.417 E20.80669
G1 X97.288 Y71.560 E20.83839
G1 X97.704 Y71.681 E20.87082
G1 X99.223 Y72.021 E20.98728
G1 X99.878 Y74.573 E21.18442
G1 X98.438 Y75.842 E21.32808
G1 X97.739 Y76.387 E21.39436
G1 X97.008 Y76.886 E21.46066
G1 X96.247 Y77.339 E21.52692
G1 X95.398 Y77.772 E21.59824
G1 X94.584 Y78.122 E21.66453
G1 X93.713 Y78.430 E21.73366
G1 X92.898 Y78.665 E21.79714
G1 X92.100 Y78.843 E21.85836
G1 X91.226 Y78.984 E21.92462
G1 X90.344 Y79.069 E21.99093
G1 X89.390 Y79.099 E22.06231
G1 X88.573 Y79.074 E22.12350
G1 X87.691 Y78.992 E22.18977
G1 X86.750 Y78.843 E22.26112
