; generated by Slic3r 1.3.0 on 2023-03-22 at 20:29:08

; external perimeters extrusion width = 0.44mm (2.78mm^3/s)
; perimeters extrusion width = 0.40mm (7.14mm^3/s)
; infill extrusion width = 0.50mm (10.97mm^3/s)
; solid infill extrusion width = 0.60mm (6.68mm^3/s)
; top infill extrusion width = 0.40mm (2.14mm^3/s)

M107
M190 S80 ; set bed temperature and wait for it to be reached
M104 S210 ; set temperature
G28 ; home all axes
G1 Z5 F5000 ; lift nozzle

; Filament gcode

M109 S210 ; set temperature and wait for it to be reached
G21 ; set units to millimeters
G90 ; use absolute coordinates
M82 ; use absolute distances for extrusion
G92 E0
G1 Z0.300 F30000.000
G1 E-2.00000 F2400.00000
G92 E0
G1 X49.256 Y49.181 F30000.000
G1 E2.00000 F2400.00000
G1 F2100
G1 X51.148 Y47.512 E2.16854
G1 X52.684 Y46.321 E2.29843
G1 X54.527 Y45.058 E2.44765
G1 X56.698 Y43.774 E2.61619
G1 X58.693 Y42.768 E2.76541
G1 X60.477 Y41.995 E2.89530
G1 X62.851 Y41.141 E3.06384
G1 X64.718 Y40.598 E3.19373
G1 X66.896 Y40.102 E3.34295
G1 X69.387 Y39.708 E3.51149
G1 X71.612 Y39.507 E3.66070
G1 X73.845 Y39.445 E3.80992
G1 X76.077 Y39.525 E3.95914
G1 X78.013 Y39.708 E4.08903
G1 X80.504 Y40.102 E4.25757
G1 X82.402 Y40.526 E4.38746
G1 X84.549 Y41.141 E4.53668
G1 X86.923 Y41.995 E4.70522
G1 X88.707 Y42.768 E4.83511
G1 X90.702 Y43.774 E4.98433
G1 X92.873 Y45.058 E5.15287
G1 X94.715 Y46.321 E5.30209
G1 X96.252 Y47.513 E5.43198
G1 X97.933 Y48.983 E5.58120
G1 X99.519 Y50.556 E5.73041
G1 X101.003 Y52.225 E5.87963
G1 X102.549 Y54.219 E6.04817
G1 X103.797 Y56.071 E6.19739
G1 X104.787 Y57.745 E6.32728
G1 X105.809 Y59.731 E6.47650
G1 X106.711 Y61.792 E6.62680
G1 X111.497 Y72.979 E7.43969
G1 X111.635 Y73.404 E7.46954
G1 X111.778 Y74.045 E7.51340
G1 X111.834 Y74.488 E7.54324
G1 X111.855 Y75.145 E7.58712
G1 X111.827 Y75.590 E7.61694
G1 X111.724 Y76.239 E7.66083
G1 X111.613 Y76.672 E7.69069
G1 X111.397 Y77.275 E7.73348
G1 X105.932 Y90.007 E8.65911
G1 X104.926 Y92.002 E8.80832
G1 X103.797 Y93.929 E8.95754
G1 X102.379 Y96.016 E9.12608
G1 X101.003 Y97.775 E9.27530
G1 X99.717 Y99.233 E9.40519
G1 X98.144 Y100.819 E9.55441
G1 X96.252 Y102.488 E9.72295
G1 X94.716 Y103.679 E9.85284
G1 X92.873 Y104.942 E10.00206
G1 X90.702 Y106.226 E10.17060
G1 X88.707 Y107.232 E10.31981
G1 X86.654 Y108.111 E10.46903
G1 X84.549 Y108.859 E10.61825
G1 X82.682 Y109.402 E10.74814
G1 X80.220 Y109.952 E10.91668
G1 X78.300 Y110.256 E11.04657
G1 X76.077 Y110.475 E11.19579
G1 X73.555 Y110.555 E11.36433
G1 X71.612 Y110.493 E11.49422
G1 X69.387 Y110.292 E11.64344
G1 X66.896 Y109.898 E11.81198
G1 X64.718 Y109.402 E11.96119
G1 X62.851 Y108.859 E12.09109
G1 X60.746 Y108.111 E12.24030
G1 X60.311 Y107.933 E12.27172
G1 X58.431 Y107.109 E12.40885
G1 X56.445 Y106.087 E12.55807
G1 X54.771 Y105.097 E12.68796
G1 X52.919 Y103.849 E12.83718
G1 X50.925 Y102.303 E13.00572
G1 X49.467 Y101.017 E13.13561
G1 X47.881 Y99.444 E13.28483
G1 X46.213 Y97.552 E13.45337
G1 X45.021 Y96.015 E13.58326
G1 X43.758 Y94.173 E13.73248
G1 X42.474 Y92.002 E13.90102
G1 X41.591 Y90.269 E14.03091
G1 X40.695 Y88.223 E14.18013
G1 X39.841 Y85.849 E14.34867
G1 X39.298 Y83.982 E14.47856
G1 X38.802 Y81.804 E14.62777
G1 X38.444 Y79.600 E14.77699
G1 X38.225 Y77.377 E14.92621
G1 X38.145 Y74.855 E15.09475
G1 X38.207 Y72.912 E15.22464
G1 X38.408 Y70.687 E15.37386
G1 X38.802 Y68.196 E15.54240
G1 X39.226 Y66.298 E15.67229
G1 X39.841 Y64.151 E15.82151
G1 X40.695 Y61.777 E15.99005
G1 X41.468 Y59.993 E16.11994
G1 X42.474 Y57.998 E16.26916
G1 X43.758 Y55.827 E16.43770
G1 X45.021 Y53.984 E16.58691
G1 X46.213 Y52.448 E16.71681
G1 X47.683 Y50.767 E16.86602
G1 X49.213 Y49.223 E17.01123
G1 X49.634 Y49.560 F30000.000
G1 F2100
G1 X51.476 Y47.936 E17.17528
G1 X53.013 Y46.744 E17.30517
G1 X54.828 Y45.501 E17.45214
G1 X56.941 Y44.251 E17.61619
G1 X58.674 Y43.368 E17.74608
G1 X60.690 Y42.487 E17.89305
G1 X63.000 Y41.655 E18.05710
G1 X64.867 Y41.113 E18.18699
G1 X67.012 Y40.625 E18.33396
G1 X69.438 Y40.241 E18.49800
G1 X71.629 Y40.042 E18.64497
G1 X73.828 Y39.981 E18.79194
G1 X75.771 Y40.042 E18.92184
G1 X77.962 Y40.241 E19.06881
G1 X80.388 Y40.625 E19.23285
G1 X82.285 Y41.049 E19.36275
G1 X84.400 Y41.655 E19.50972
G1 X86.710 Y42.487 E19.67376
G1 X88.726 Y43.368 E19.82073
G1 X90.459 Y44.251 E19.95062
G1 X92.572 Y45.501 E20.11467
G1 X94.180 Y46.594 E20.24456
G1 X95.924 Y47.936 E20.39153
G1 X97.579 Y49.385 E20.53850
G1 X99.140 Y50.934 E20.68547
G1 X100.601 Y52.579 E20.83244
G1 X102.106 Y54.520 E20.99649
G1 X103.336 Y56.344 E21.14346
G1 X104.326 Y58.017 E21.27335
G1 X105.332 Y59.974 E21.42032
G1 X106.219 Y62.003 E21.56825
G1 X110.904 Y72.936 E22.36290
G1 X111.120 Y73.554 E22.40661
G1 X111.249 Y74.129 E22.44597
G1 X111.301 Y74.538 E22.47357
G1 X111.319 Y75.128 E22.51296
G1 X111.293 Y75.540 E22.54053
G1 X111.201 Y76.122 E22.57993
G1 X111.098 Y76.522 E22.60753
G1 X110.904 Y77.064 E22.64596
G1 X105.441 Y89.795 E23.57146
G1 X104.449 Y91.759 E23.71843
G1 X103.336 Y93.656 E23.86540
G1 X101.956 Y95.687 E24.02944
G1 X100.601 Y97.421 E24.17642
G1 X99.315 Y98.879 E24.30631
G1 X97.766 Y100.440 E24.45328
G1 X95.924 Y102.064 E24.61732
G1 X94.180 Y103.406 E24.76429
G1 X92.572 Y104.499 E24.89419
G1 X90.459 Y105.749 E25.05823
G1 X88.726 Y106.632 E25.18812
G1 X86.710 Y107.513 E25.33509
G1 X84.400 Y108.345 E25.49914
G1 X82.533 Y108.887 E25.62903
G1 X80.388 Y109.375 E25.77600
G1 X77.962 Y109.759 E25.94005
G1 X75.771 Y109.958 E26.08702
G1 X73.572 Y110.019 E26.23399
G1 X71.629 Y109.958 E26.36388
G1 X69.438 Y109.759 E26.51085
G1 X67.012 Y109.375 E26.67490
G1 X64.867 Y108.887 E26.82187
G1 X63.000 Y108.345 E26.95176
G1 X60.927 Y107.607 E27.09873
G1 X60.524 Y107.441 E27.12791
G1 X58.674 Y106.632 E27.26278
G1 X56.717 Y105.626 E27.40975
G1 X55.044 Y104.636 E27.53964
G1 X53.220 Y103.406 E27.68661
G1 X51.279 Y101.901 E27.85066
G1 X49.821 Y100.615 E27.98055
G1 X48.260 Y99.066 E28.12752
G1 X46.636 Y97.224 E28.29157
G1 X45.444 Y95.687 E28.42146
G1 X44.201 Y93.872 E28.56843
G1 X42.951 Y91.759 E28.73248
G1 X42.068 Y90.026 E28.86237
G1 X41.187 Y88.010 E29.00934
G1 X40.355 Y85.700 E29.17339
G1 X39.813 Y83.833 E29.30328
G1 X39.325 Y81.688 E29.45025
G1 X38.973 Y79.516 E29.59722
G1 X38.758 Y77.327 E29.74419
G1 X38.681 Y74.872 E29.90824
G1 X38.742 Y72.929 E30.03813
G1 X38.941 Y70.738 E30.18510
G1 X39.325 Y68.312 E30.34915
G1 X39.749 Y66.415 E30.47904
G1 X40.355 Y64.300 E30.62601
G1 X41.187 Y61.990 E30.79005
G1 X41.959 Y60.205 E30.91995
G1 X42.951 Y58.241 E31.06692
G1 X44.201 Y56.128 E31.23096
G1 X45.444 Y54.313 E31.37793
G1 X46.636 Y52.776 E31.50782
G1 X48.085 Y51.121 E31.65479
G1 X49.592 Y49.602 E31.79776
G1 X50.013 Y49.938 F30000.000
G1 F2100
G1 X51.805 Y48.359 E31.95731
G1 X53.341 Y47.167 E32.08720
G1 X55.129 Y45.944 E32.23192
G1 X57.185 Y44.728 E32.39148
G1 X58.917 Y43.845 E32.52137
G1 X60.902 Y42.979 E32.66609
G1 X63.150 Y42.170 E32.82564
G1 X65.017 Y41.627 E32.95554
G1 X67.129 Y41.148 E33.10026
G1 X69.488 Y40.774 E33.25981
G1 X71.646 Y40.577 E33.40454
G1 X73.811 Y40.516 E33.54926
G1 X75.754 Y40.577 E33.67915
G1 X77.912 Y40.774 E33.82387
G1 X80.271 Y41.148 E33.98343
G1 X82.168 Y41.572 E34.11332
G1 X84.250 Y42.170 E34.25804
G1 X86.498 Y42.979 E34.41760
G1 X88.282 Y43.751 E34.54749
G1 X90.215 Y44.728 E34.69221
G1 X92.271 Y45.944 E34.85176
G1 X94.059 Y47.167 E34.99649
G1 X95.595 Y48.359 E35.12638
G1 X97.225 Y49.786 E35.27110
G1 X98.762 Y51.313 E35.41582
G1 X100.199 Y52.934 E35.56055
G1 X101.663 Y54.821 E35.72010
G1 X102.875 Y56.616 E35.86482
G1 X103.865 Y58.290 E35.99472
G1 X104.855 Y60.217 E36.13944
G1 X110.412 Y73.147 E37.07964
G1 X110.606 Y73.703 E37.11898
G1 X110.720 Y74.213 E37.15386
G1 X110.767 Y74.589 E37.17920
G1 X110.784 Y75.111 E37.21410
G1 X110.760 Y75.489 E37.23942
G1 X110.678 Y76.005 E37.27433
G1 X110.584 Y76.373 E37.29968
G1 X110.412 Y76.853 E37.33374
G1 X104.949 Y89.582 E38.25911
G1 X103.972 Y91.515 E38.40384
G1 X102.875 Y93.384 E38.54856
G1 X101.533 Y95.359 E38.70811
G1 X100.199 Y97.066 E38.85284
G1 X98.762 Y98.687 E38.99756
G1 X97.387 Y100.062 E39.12745
G1 X95.595 Y101.641 E39.28700
G1 X94.059 Y102.833 E39.41690
G1 X92.271 Y104.056 E39.56162
G1 X90.215 Y105.272 E39.72117
G1 X88.282 Y106.249 E39.86589
G1 X86.498 Y107.021 E39.99579
G1 X84.250 Y107.830 E40.15534
G1 X82.168 Y108.428 E40.30006
G1 X80.271 Y108.852 E40.42995
G1 X77.912 Y109.226 E40.58951
G1 X75.754 Y109.423 E40.73423
G1 X73.589 Y109.484 E40.87895
G1 X71.646 Y109.423 E41.00885
G1 X69.488 Y109.226 E41.15357
G1 X67.129 Y108.852 E41.31312
G1 X65.017 Y108.373 E41.45784
G1 X63.150 Y107.830 E41.58774
G1 X61.109 Y107.103 E41.73246
G1 X60.736 Y106.950 E41.75939
G1 X58.917 Y106.155 E41.89202
G1 X56.990 Y105.165 E42.03674
G1 X55.316 Y104.175 E42.16663
G1 X53.521 Y102.963 E42.31136
G1 X51.634 Y101.499 E42.47091
G1 X50.175 Y100.214 E42.60080
G1 X48.638 Y98.687 E42.74552
G1 X47.059 Y96.895 E42.90508
G1 X45.867 Y95.359 E43.03497
G1 X44.644 Y93.571 E43.17969
G1 X43.428 Y91.515 E43.33925
G1 X42.545 Y89.783 E43.46914
G1 X41.679 Y87.798 E43.61386
G1 X40.870 Y85.550 E43.77341
G1 X40.327 Y83.683 E43.90331
G1 X39.848 Y81.571 E44.04803
G1 X39.502 Y79.432 E44.19275
G1 X39.291 Y77.276 E44.33747
G1 X39.216 Y74.889 E44.49703
G1 X39.277 Y72.946 E44.62692
G1 X39.474 Y70.788 E44.77164
G1 X39.848 Y68.429 E44.93120
G1 X40.272 Y66.532 E45.06109
G1 X40.870 Y64.450 E45.20581
G1 X41.679 Y62.202 E45.36536
G1 X42.451 Y60.418 E45.49526
G1 X43.428 Y58.485 E45.63998
G1 X44.644 Y56.429 E45.79953
G1 X45.867 Y54.641 E45.94425
G1 X47.059 Y53.105 E46.07415
G1 X48.486 Y51.475 E46.21887
G1 X49.971 Y49.981 E46.35958
G1 E44.35958 F2400.00000
G92 E0
G1 X105.344 Y75.005 F30000.000
G1 E2.00000 F2400.00000
G1 F2100
G1 X105.404 Y75.275 E2.01850
G1 X105.551 Y75.478 E2.03524
G1 X105.759 Y75.609 E2.05165
G1 X106.007 Y75.657 E2.06854
G1 X105.980 Y75.948 E2.08805
G1 X104.020 Y75.951 E2.21896
G1 X104.050 Y75.000 E2.28252
G1 X104.020 Y74.049 E2.34609
G1 X105.986 Y74.052 E2.47741
G1 X106.018 Y74.338 E2.49658
G1 X105.724 Y74.404 E2.51669
G1 X105.522 Y74.551 E2.53338
G1 X105.391 Y74.759 E2.54980
G1 X105.355 Y74.946 E2.56252
G1 X105.107 Y75.148 F30000.000
G1 X106.757 Y74.749 F30000.000
G1 F2100
G1 X106.800 Y75.000 E2.58899
G1 X106.752 Y75.262 E2.61676
G1 E0.61676 F2400.00000
G92 E0
G1 X104.161 Y76.251 F30000.000
G1 E2.00000 F2400.00000
G1 F2100
G1 X104.140 Y76.915 E2.06923
G1 X103.959 Y78.823 E2.26881
G1 X103.660 Y80.715 E2.46839
G1 X103.242 Y82.585 E2.66796
G1 X102.707 Y84.425 E2.86754
G1 X102.063 Y86.214 E3.06565
G1 X101.297 Y87.986 E3.26670
G1 X100.427 Y89.693 E3.46627
G1 X99.544 Y91.188 E3.64712
G1 X98.374 Y92.928 E3.86552
G1 X97.201 Y94.441 E4.06497
G1 X95.943 Y95.868 E4.26308
G1 X94.579 Y97.233 E4.46413
G1 X93.130 Y98.509 E4.66517
G1 X91.627 Y99.675 E4.86328
G1 X90.043 Y100.752 E5.06286
G1 X88.381 Y101.734 E5.26390
G1 X86.686 Y102.597 E5.46201
G1 X84.928 Y103.358 E5.66159
G1 X83.125 Y104.007 E5.86117
G1 X81.299 Y104.538 E6.05927
G1 X79.415 Y104.960 E6.26032
G1 X77.523 Y105.259 E6.45990
G1 X75.629 Y105.438 E6.65800
G1 X73.700 Y105.500 E6.85905
G1 X71.771 Y105.438 E7.06010
G1 X69.877 Y105.259 E7.25820
G1 X67.986 Y104.960 E7.45766
G1 X66.103 Y104.533 E7.65880
G1 X64.289 Y104.011 E7.85543
G1 X62.459 Y103.353 E8.05795
G1 X60.714 Y102.597 E8.25606
G1 X59.019 Y101.734 E8.45417
G1 X57.346 Y100.744 E8.65668
G1 X55.773 Y99.675 E8.85479
G1 X54.259 Y98.501 E9.05436
G1 X52.821 Y97.233 E9.25394
G1 X51.476 Y95.889 E9.45205
G1 X50.212 Y94.449 E9.65162
G1 X49.034 Y92.939 E9.85117
G1 X47.948 Y91.343 E10.05222
G1 X46.973 Y89.693 E10.25179
G1 X46.109 Y87.999 E10.44990
G1 X45.352 Y86.239 E10.64948
G1 X44.689 Y84.411 E10.85196
G1 X44.158 Y82.585 E11.05007
G1 X43.740 Y80.715 E11.24965
G1 X43.441 Y78.823 E11.44922
G1 X43.277 Y77.094 E11.63007
G1 X43.200 Y74.999 E11.84847
G1 X43.260 Y73.085 E12.04792
G1 X43.439 Y71.191 E12.24603
G1 X43.740 Y69.285 E12.44708
G1 X44.158 Y67.415 E12.64665
G1 X44.643 Y65.748 E12.82750
G1 X45.342 Y63.771 E13.04590
G1 X46.103 Y62.014 E13.24535
G1 X46.966 Y60.319 E13.44346
G1 X47.948 Y58.657 E13.64451
G1 X49.021 Y57.087 E13.84261
G1 X50.191 Y55.570 E14.04216
G1 X51.476 Y54.111 E14.24468
G1 X52.821 Y52.767 E14.44278
G1 X54.248 Y51.509 E14.64089
G1 X55.784 Y50.317 E14.84341
G1 X57.357 Y49.248 E15.04151
G1 X59.007 Y48.273 E15.24109
G1 X60.714 Y47.403 E15.44067
G1 X62.459 Y46.647 E15.63877
G1 X64.448 Y45.943 E15.85851
G1 X66.115 Y45.458 E16.03936
G1 X67.985 Y45.040 E16.23894
G1 X69.877 Y44.741 E16.43852
G1 X71.771 Y44.562 E16.63663
G1 X73.686 Y44.506 E16.83620
G1 X75.629 Y44.562 E17.03869
G1 X77.523 Y44.741 E17.23679
G1 X79.414 Y45.040 E17.43624
G1 X81.458 Y45.508 E17.65464
G1 X83.125 Y45.993 E17.83549
G1 X84.928 Y46.642 E18.03507
G1 X86.699 Y47.409 E18.23612
G1 X88.393 Y48.273 E18.43422
G1 X90.042 Y49.247 E18.63368
G1 X91.770 Y50.435 E18.85207
G1 X93.141 Y51.499 E19.03292
G1 X94.579 Y52.767 E19.23250
G1 X95.933 Y54.121 E19.43208
G1 X97.191 Y55.548 E19.63018
G1 X98.375 Y57.073 E19.83123
G1 X99.459 Y58.669 E20.03228
G1 X100.427 Y60.307 E20.23038
G1 X101.297 Y62.014 E20.42996
G1 X102.063 Y63.786 E20.63101
G1 X102.707 Y65.575 E20.82912
G1 X103.242 Y67.415 E21.02869
G1 X103.660 Y69.285 E21.22827
G1 X103.959 Y71.177 E21.42785
G1 X104.140 Y73.085 E21.62743
G1 X104.161 Y73.749 E21.69666
G1 X104.862 Y74.529 F30000.000
G1 F2100
G1 X104.523 Y74.868 E21.73506
G1 X104.943 Y75.357 F30000.000
G1 F2100
G1 X104.829 Y75.471 E21.74794
G1 Z0.500 F30000.000
G1 X103.970 Y75.000 F30000.000
G1 F2100
G1 X103.910 Y76.901 E21.81072
G1 X103.731 Y78.794 E21.87351
G1 X103.434 Y80.672 E21.93630
G1 X103.019 Y82.528 E21.99908
G1 X102.489 Y84.354 E22.06187
G1 X101.844 Y86.143 E22.12465
G1 X101.089 Y87.888 E22.18744
G1 X100.226 Y89.583 E22.25023
G1 X99.258 Y91.220 E22.31301
G1 X98.189 Y92.792 E22.37580
G1 X97.024 Y94.295 E22.43859
G1 X95.766 Y95.721 E22.50137
G1 X94.421 Y97.066 E22.56416
G1 X92.995 Y98.324 E22.62694
G1 X91.492 Y99.489 E22.68973
G1 X89.920 Y100.558 E22.75252
G1 X88.283 Y101.526 E22.81530
G1 X86.588 Y102.389 E22.87809
G1 X84.843 Y103.144 E22.94088
G1 X83.054 Y103.789 E23.00366
G1 X82.123 Y104.059 E23.03567
G1 X81.228 Y104.319 E23.06645
G1 X79.372 Y104.734 E23.12923
G1 X77.494 Y105.031 E23.19202
G1 X76.528 Y105.123 E23.22406
G1 X75.601 Y105.210 E23.25481
G1 X73.700 Y105.270 E23.31759
G1 X71.799 Y105.210 E23.38038
G1 X69.906 Y105.031 E23.44317
G1 X68.028 Y104.734 E23.50595
G1 X66.172 Y104.319 E23.56874
G1 X64.346 Y103.789 E23.63152
G1 X62.557 Y103.144 E23.69431
G1 X60.812 Y102.389 E23.75710
G1 X59.117 Y101.526 E23.81988
G1 X57.480 Y100.558 E23.88267
G1 X55.908 Y99.489 E23.94546
G1 X54.405 Y98.324 E24.00824
G1 X52.979 Y97.066 E24.07103
G1 X51.634 Y95.721 E24.13381
G1 X50.376 Y94.295 E24.19660
G1 X49.211 Y92.792 E24.25939
G1 X48.142 Y91.220 E24.32217
G1 X47.174 Y89.583 E24.38496
G1 X46.751 Y88.752 E24.41573
G1 X46.311 Y87.888 E24.44775
G1 X45.556 Y86.143 E24.51053
G1 X44.911 Y84.354 E24.57332
G1 X44.381 Y82.528 E24.63610
G1 X43.966 Y80.672 E24.69889
G1 X43.669 Y78.794 E24.76168
G1 X43.581 Y77.866 E24.79245
G1 X43.490 Y76.901 E24.82446
G1 X43.430 Y75.000 E24.88725
G1 X43.490 Y73.099 E24.95003
G1 X43.669 Y71.206 E25.01282
G1 X43.966 Y69.328 E25.07561
G1 X44.381 Y67.472 E25.13839
G1 X44.911 Y65.646 E25.20118
G1 X45.556 Y63.857 E25.26397
G1 X46.311 Y62.112 E25.32675
G1 X46.734 Y61.282 E25.35750
G1 X47.174 Y60.417 E25.38954
G1 X48.142 Y58.780 E25.45232
G1 X49.211 Y57.208 E25.51511
G1 X50.376 Y55.705 E25.57790
G1 X51.634 Y54.279 E25.64068
G1 X52.979 Y52.934 E25.70347
G1 X54.405 Y51.676 E25.76626
G1 X55.908 Y50.511 E25.82904
G1 X57.480 Y49.442 E25.89183
G1 X59.117 Y48.474 E25.95461
G1 X60.812 Y47.611 E26.01740
G1 X62.557 Y46.856 E26.08019
G1 X64.346 Y46.211 E26.14297
G1 X66.172 Y45.681 E26.20576
G1 X68.028 Y45.266 E26.26855
G1 X69.906 Y44.969 E26.33133
G1 X71.799 Y44.790 E26.39412
G1 X73.700 Y44.730 E26.45690
G1 X75.601 Y44.790 E26.51969
G1 X77.494 Y44.969 E26.58248
G1 X79.372 Y45.266 E26.64526
G1 X81.228 Y45.681 E26.70805
G1 X83.054 Y46.211 E26.77084
G1 X84.843 Y46.856 E26.83362
G1 X86.588 Y47.611 E26.89641
G1 X87.452 Y48.051 E26.92842
G1 X88.283 Y48.474 E26.95920
G1 X89.920 Y49.442 E27.02198
G1 X91.492 Y50.511 E27.08477
G1 X92.995 Y51.676 E27.14755
G1 X94.421 Y52.934 E27.21034
