; generated by Slic3r 1.3.0 on 2021-10-11 at 22:49:17

; external perimeters extrusion width = 0.44mm (2.78mm^3/s)
; perimeters extrusion width = 0.40mm (7.14mm^3/s)
; infill extrusion width = 0.50mm (10.97mm^3/s)
; solid infill extrusion width = 0.60mm (6.68mm^3/s)
; top infill extrusion width = 0.40mm (2.14mm^3/s)

M107
M190 S80 ; set bed temperature and wait for it to be reached
M104 S210 ; set temperature
G28 ; home all axes
G1 Z5 F5000 ; lift nozzle

; Filament gcode

M109 S210 ; set temperature and wait for it to be reached
G21 ; set units to millimeters
G90 ; use absolute coordinates
M82 ; use absolute distances for extrusion
G92 E0
G1 Z0.300 F30000.000
G1 E-2.00000 F2400.00000
G92 E0
G1 X20.121 Y40.630 F30000.000
G1 E2.00000 F2400.00000
G1 F2100
G1 X20.725 Y40.374 E2.04381
G1 X21.413 Y40.210 E2.09107
G1 X21.949 Y40.167 E2.12696
G1 X27.138 Y40.108 E2.47362
G1 X44.716 Y40.041 E3.64794
G1 X48.374 Y40.143 E3.89245
G1 X60.972 Y41.141 E4.73669
G1 X71.489 Y42.140 E5.44240
G1 X80.017 Y43.496 E6.01931
G1 X83.358 Y44.104 E6.24617
G1 X94.423 Y46.775 E7.00659
G1 X98.358 Y48.024 E7.28242
G1 X106.215 Y50.703 E7.83700
G1 X107.980 Y51.345 E7.96245
G1 X108.678 Y51.677 E8.01409
G1 X109.011 Y51.875 E8.03999
G1 X109.385 Y52.129 E8.07014
G1 X110.388 Y52.929 E8.15589
G1 X110.635 Y53.160 E8.17846
G1 X110.921 Y53.469 E8.20660
G1 X111.182 Y53.802 E8.23481
G1 X111.410 Y54.144 E8.26228
G1 X111.631 Y54.542 E8.29273
G1 X111.767 Y54.837 E8.31440
G1 X111.971 Y55.428 E8.35621
G1 X112.036 Y55.698 E8.37473
G1 X112.116 Y56.225 E8.41039
G1 X112.756 Y66.336 E9.08718
G1 X112.470 Y68.107 E9.20700
G1 X111.008 Y69.937 E9.36346
G1 X108.681 Y71.531 E9.55193
G1 X108.282 Y71.736 E9.58186
G1 X107.939 Y71.872 E9.60652
G1 X107.472 Y72.007 E9.63905
G1 X29.327 Y89.308 E14.98597
G1 X28.769 Y89.394 E15.02367
G1 X22.345 Y89.952 E15.45443
G1 X21.703 Y89.946 E15.49729
G1 X21.365 Y89.905 E15.52004
G1 X20.871 Y89.793 E15.55393
G1 X19.301 Y88.925 E15.67375
G1 X18.256 Y87.467 E15.79358
G1 X17.938 Y86.007 E15.89340
G1 X17.232 Y62.728 E17.44928
G1 X17.243 Y59.908 E17.63769
G1 X17.411 Y46.431 E18.53804
G1 X17.561 Y44.071 E18.69604
G1 X17.630 Y43.665 E18.72354
G1 X17.813 Y43.038 E18.76721
G1 X17.996 Y42.621 E18.79766
G1 X18.292 Y42.124 E18.83629
G1 X18.730 Y41.592 E18.88232
G1 X19.301 Y41.105 E18.93243
G1 X19.727 Y40.841 E18.96590
G1 X20.068 Y40.658 E18.99179
G1 X20.370 Y41.104 F30000.000
G1 F2100
G1 X20.894 Y40.882 E19.02985
G1 X21.492 Y40.740 E19.07089
G1 X21.957 Y40.702 E19.10205
G1 X27.141 Y40.644 E19.44840
G1 X44.702 Y40.577 E20.62158
G1 X48.332 Y40.677 E20.86419
G1 X60.929 Y41.675 E21.70840
G1 X71.421 Y42.672 E22.41245
G1 X79.929 Y44.024 E22.98795
G1 X83.239 Y44.626 E23.21273
G1 X94.272 Y47.289 E23.97097
G1 X98.185 Y48.531 E24.24523
G1 X106.042 Y51.210 E24.79977
G1 X107.776 Y51.840 E24.92305
G1 X108.416 Y52.145 E24.97037
G1 X109.074 Y52.565 E25.02251
G1 X110.038 Y53.334 E25.10492
G1 X110.512 Y53.815 E25.15004
G1 X110.747 Y54.114 E25.17544
G1 X110.953 Y54.422 E25.20019
G1 X111.151 Y54.780 E25.22750
G1 X111.272 Y55.043 E25.24687
G1 X111.455 Y55.570 E25.28414
G1 X111.549 Y56.013 E25.31438
G1 X111.590 Y56.351 E25.33710
G1 X112.221 Y66.369 E26.00773
G1 X111.928 Y68.013 E26.11928
G1 X110.704 Y69.496 E26.24777
G1 X108.412 Y71.068 E26.43341
G1 X108.064 Y71.247 E26.45953
G1 X107.764 Y71.366 E26.48109
G1 X107.352 Y71.485 E26.50976
G1 X29.211 Y88.785 E31.85642
G1 X28.722 Y88.860 E31.88944
G1 X22.312 Y89.417 E32.31931
G1 X21.746 Y89.412 E32.35711
G1 X21.451 Y89.376 E32.37698
G1 X21.020 Y89.279 E32.40648
G1 X19.572 Y88.447 E32.51804
G1 X18.667 Y87.043 E32.62959
G1 X18.473 Y85.991 E32.70110
G1 X17.767 Y62.723 E34.25625
G1 X17.778 Y59.914 E34.44385
G1 X17.946 Y46.438 E35.34421
G1 X18.088 Y44.178 E35.49551
G1 X18.154 Y43.776 E35.52272
G1 X18.306 Y43.250 E35.55927
G1 X18.475 Y42.861 E35.58762
G1 X18.733 Y42.428 E35.62127
G1 X19.114 Y41.966 E35.66133
G1 X19.610 Y41.543 E35.70485
G1 X19.980 Y41.313 E35.73398
G1 X20.317 Y41.133 E35.75947
G1 E33.75947 F2400.00000
G92 E0
G1 X66.621 Y74.864 F30000.000
G1 E2.00000 F2400.00000
G1 F2100
G1 X66.441 Y75.032 E2.01841
G1 X66.361 Y75.726 E2.07064
G1 X66.294 Y76.015 E2.09290
G1 X66.189 Y76.329 E2.11766
G1 X65.668 Y77.400 E2.20676
G1 X63.923 Y78.216 E2.35097
G1 X62.902 Y77.970 E2.42954
G1 X62.648 Y77.887 E2.44953
G1 X62.543 Y77.885 E2.45737
G1 X62.077 Y78.008 E2.49347
G1 X61.574 Y78.065 E2.53136
G1 X61.161 Y78.063 E2.56224
G1 X60.741 Y78.013 E2.59393
G1 X60.293 Y77.991 E2.62743
G1 X60.216 Y78.003 E2.63327
G1 X59.812 Y78.162 E2.66581
G1 X59.368 Y78.297 E2.70052
G1 X58.967 Y78.381 E2.73115
G1 X58.501 Y78.441 E2.76632
G1 X57.966 Y78.471 E2.80639
G1 X57.530 Y78.471 E2.83908
G1 X57.114 Y78.436 E2.87028
G1 X56.742 Y78.365 E2.89861
G1 X56.627 Y78.383 E2.90736
G1 X56.012 Y78.733 E2.96029
G1 X55.613 Y78.698 E2.99029
G1 X55.539 Y78.710 E2.99591
G1 X55.032 Y78.877 E3.03584
G1 X54.340 Y79.032 E3.08893
G1 X54.261 Y79.072 E3.09548
G1 X53.861 Y79.396 E3.13406
G1 X52.977 Y79.950 E3.21208
G1 X52.805 Y79.950 E3.22495
G1 X52.071 Y80.169 E3.28229
G1 X51.387 Y80.626 E3.34387
G1 X51.049 Y80.510 E3.37062
G1 X50.968 Y80.504 E3.37674
G1 X50.521 Y80.569 E3.41049
G1 X49.824 Y80.572 E3.46270
G1 X49.688 Y80.597 E3.47302
G1 X49.176 Y80.932 E3.51883
G1 X48.546 Y81.221 E3.57070
G1 X48.130 Y81.487 E3.60769
G1 X47.721 Y81.670 E3.64117
G1 X47.457 Y81.750 E3.66184
G1 X47.064 Y81.821 E3.69171
G1 X46.634 Y82.022 E3.72721
G1 X46.228 Y82.154 E3.75916
G1 X45.835 Y82.227 E3.78907
G1 X45.367 Y82.266 E3.82424
G1 X45.126 Y82.340 E3.84308
G1 X45.044 Y82.395 E3.85046
G1 X44.747 Y82.729 E3.88395
G1 X44.426 Y82.998 E3.91523
G1 X44.024 Y83.244 E3.95055
G1 X43.638 Y83.411 E3.98204
G1 X43.226 Y83.529 E4.01408
G1 X42.790 Y83.602 E4.04715
G1 X42.364 Y83.632 E4.07917
G1 X41.803 Y83.634 E4.12115
G1 X41.445 Y83.755 E4.14940
G1 X40.981 Y84.046 E4.19039
G1 X40.678 Y84.185 E4.21536
G1 X39.924 Y84.407 E4.27419
G1 X39.333 Y84.487 E4.31880
G1 X38.838 Y84.679 E4.35855
G1 X38.391 Y84.925 E4.39673
G1 X37.906 Y85.098 E4.43522
G1 X37.436 Y85.197 E4.47121
G1 X36.715 Y85.292 E4.52561
G1 X36.180 Y85.570 E4.57077
G1 X35.806 Y85.701 E4.60041
G1 X35.447 Y85.785 E4.62800
G1 X35.062 Y85.997 E4.66088
G1 X34.677 Y85.845 E4.69187
G1 X34.554 Y85.847 E4.70107
G1 X34.340 Y85.946 E4.71869
G1 X33.941 Y86.307 E4.75900
G1 X33.550 Y86.609 E4.79589
G1 X33.250 Y86.795 E4.82231
G1 X32.880 Y86.970 E4.85298
G1 X32.541 Y87.081 E4.87969
G1 X32.133 Y87.159 E4.91072
G1 X31.664 Y87.177 E4.94589
G1 X31.078 Y87.102 E4.99011
G1 X30.699 Y87.148 E5.01864
G1 X30.598 Y87.190 E5.02682
G1 X30.272 Y87.467 E5.05885
G1 X29.909 Y87.698 E5.09104
G1 X29.540 Y87.868 E5.12144
G1 X29.047 Y88.016 E5.15998
G1 X28.712 Y88.072 E5.18533
G1 X28.373 Y88.089 E5.21076
G1 X28.098 Y88.073 E5.23135
G1 X27.787 Y88.028 E5.25489
G1 X27.242 Y88.048 E5.29573
G1 X26.783 Y88.032 E5.33008
G1 X26.437 Y88.051 E5.35598
G1 X26.180 Y88.041 E5.37528
G1 X25.644 Y88.173 E5.41654
G1 X25.140 Y88.210 E5.45437
G1 X24.659 Y88.160 E5.49059
G1 X24.255 Y88.053 E5.52181
G1 X24.124 Y88.069 E5.53174
G1 X23.604 Y88.335 E5.57547
G1 X23.106 Y88.505 E5.61482
G1 X22.652 Y88.594 E5.64949
G1 X22.116 Y88.638 E5.68969
G1 X21.754 Y88.624 E5.71682
G1 X21.493 Y88.586 E5.73658
G1 X20.298 Y88.250 E5.82943
G1 X19.187 Y86.635 E5.97616
G1 X19.274 Y85.568 E6.05627
G1 X19.336 Y85.216 E6.08304
G1 X19.375 Y84.212 E6.15821
G1 X19.387 Y83.334 E6.22393
G1 X19.327 Y83.205 E6.23453
G1 X19.281 Y83.167 E6.23898
G1 X19.273 Y81.800 E6.34132
G1 X19.338 Y81.034 E6.39885
G1 X19.334 Y80.256 E6.45704
G1 X19.300 Y79.637 E6.50346
G1 X19.267 Y79.550 E6.51041
G1 X18.875 Y79.046 E6.55819
G1 X19.105 Y78.090 E6.63179
G1 X19.096 Y77.695 E6.66135
G1 X19.138 Y77.297 E6.69134
G1 X19.148 Y76.870 E6.72326
G1 X19.127 Y75.650 E6.81461
G1 X19.097 Y75.067 E6.85829
G1 X19.016 Y74.583 E6.89502
G1 X18.950 Y73.430 E6.98144
G1 X18.977 Y73.322 E6.98976
G1 X18.899 Y72.815 E7.02814
G1 X18.899 Y72.447 E7.05566
G1 X18.944 Y72.050 E7.08557
G1 X18.877 Y71.052 E7.16043
G1 X18.809 Y67.837 E7.40107
G1 X18.767 Y66.685 E7.48736
G1 X18.694 Y66.192 E7.52464
G1 X18.668 Y65.600 E7.56898
G1 X18.643 Y65.514 E7.57565
G1 X18.337 Y65.032 E7.61843
G1 X18.729 Y64.000 E7.70107
G1 X18.717 Y63.687 E7.72450
G1 X18.603 Y63.233 E7.75950
G1 X18.555 Y62.785 E7.79327
G1 X18.561 Y62.444 E7.81879
G1 X18.608 Y62.063 E7.84752
G1 X18.626 Y61.689 E7.87554
G1 X18.625 Y60.698 E7.94964
G1 X18.553 Y60.047 E7.99866
G1 X18.080 Y59.040 E8.08192
G1 X18.687 Y58.327 E8.15208
G1 X18.726 Y58.227 E8.16005
G1 X18.778 Y57.494 E8.21508
G1 X18.904 Y56.750 E8.27151
G1 X18.949 Y56.305 E8.30500
G1 X19.084 Y53.385 E8.52376
G1 X19.022 Y52.727 E8.57319
G1 X19.000 Y51.765 E8.64523
G1 X18.942 Y51.640 E8.65553
G1 X18.750 Y51.475 E8.67452
G1 X18.742 Y48.903 E8.86702
G1 X18.826 Y47.804 E8.94950
G1 X18.793 Y47.488 E8.97329
G1 X18.563 Y46.757 E9.03063
G1 X18.700 Y46.573 E9.04775
G1 X18.732 Y46.479 E9.05519
G1 X18.846 Y44.516 E9.20239
G1 X18.910 Y44.002 E9.24115
G1 X18.987 Y43.690 E9.26515
G1 X19.078 Y43.431 E9.28572
G1 X19.318 Y42.964 E9.32504
G1 X19.591 Y42.603 E9.35888
G1 X19.766 Y42.423 E9.37766
G1 X20.172 Y42.108 E9.41612
G1 X20.832 Y41.750 E9.47232
G1 X21.036 Y41.663 E9.48891
G1 X21.488 Y41.535 E9.52407
G1 X21.723 Y41.500 E9.54185
G1 X22.185 Y41.492 E9.57645
G1 X22.488 Y41.524 E9.59919
G1 X23.556 Y41.468 E9.67923
G1 X26.359 Y41.435 E9.88900
G1 X33.799 Y41.420 E10.44581
G1 X35.888 Y41.436 E10.60212
G1 X36.905 Y41.493 E10.67834
G1 X40.337 Y41.547 E10.93525
G1 X42.484 Y41.535 E11.09593
G1 X43.169 Y41.555 E11.14720
G1 X43.693 Y41.509 E11.18657
G1 X44.099 Y41.408 E11.21787
G1 X44.380 Y41.371 E11.23906
G1 X45.828 Y41.320 E11.34754
G1 X45.898 Y41.401 E11.35552
G1 X46.019 Y41.458 E11.36548
G1 X47.496 Y41.493 E11.47608
G1 X47.823 Y41.456 E11.50069
G1 X48.208 Y41.456 E11.52953
G1 X48.653 Y41.512 E11.56307
G1 X49.246 Y41.668 E11.60897
G1 X50.157 Y41.677 E11.67711
G1 X50.569 Y41.731 E11.70824
G1 X51.046 Y41.841 E11.74487
G1 X51.378 Y41.841 E11.76969
G1 X52.798 Y41.914 E11.87609
G1 X52.898 Y41.993 E11.88565
G1 X53.452 Y42.169 E11.92912
G1 X57.278 Y42.264 E12.21558
G1 X58.392 Y42.323 E12.29899
G1 X59.011 Y42.405 E12.34573
G1 X60.777 Y42.452 E12.47793
G1 X61.313 Y42.514 E12.51832
G1 X61.885 Y42.662 E12.56258
G1 X62.200 Y42.698 E12.58629
G1 X64.623 Y42.887 E12.76818
G1 X66.765 Y43.020 E12.92875
G1 X67.456 Y43.097 E12.98079
G1 X68.331 Y43.224 E13.04697
G1 X69.105 Y43.283 E13.10508
G1 X69.497 Y43.341 E13.13472
G1 X69.595 Y43.386 E13.14277
G1 X70.662 Y43.402 E13.22262
G1 X71.392 Y43.460 E13.27742
G1 X71.807 Y43.536 E13.30896
G1 X72.367 Y43.702 E13.35268
G1 X75.330 Y44.116 E13.57658
G1 X76.447 Y44.318 E13.66157
G1 X77.820 Y44.611 E13.76663
G1 X78.555 Y44.705 E13.82206
G1 X79.212 Y44.730 E13.87123
G1 X79.657 Y44.777 E13.90473
G1 X80.154 Y44.872 E13.94257
G1 X80.618 Y45.009 E13.97882
G1 X80.920 Y45.074 E14.00195
G1 X82.237 Y45.246 E14.10136
G1 X82.925 Y45.363 E14.15358
G1 X83.406 Y45.479 E14.19061
G1 X83.929 Y45.666 E14.23215
G1 X84.332 Y45.772 E14.26331
G1 X86.128 Y46.143 E14.40057
G1 X86.537 Y46.271 E14.43265
G1 X87.074 Y46.490 E14.47604
G1 X87.230 Y46.532 E14.48811
G1 X88.701 Y46.819 E14.60029
G1 X89.354 Y46.969 E14.65043
G1 X89.751 Y47.088 E14.68143
G1 X90.186 Y47.261 E14.71651
G1 X90.548 Y47.363 E14.74462
G1 X91.092 Y47.476 E14.78624
G1 X92.205 Y47.666 E14.87071
G1 X92.859 Y47.825 E14.92107
G1 X93.566 Y47.922 E14.97444
G1 X94.064 Y48.047 E15.01289
G1 X94.581 Y48.232 E15.05401
G1 X95.203 Y48.530 E15.10564
G1 X95.524 Y48.655 E15.13141
G1 X96.353 Y48.862 E15.19534
G1 X96.906 Y49.044 E15.23887
G1 X97.451 Y49.137 E15.28030
G1 X97.906 Y49.267 E15.31570
G1 X99.966 Y50.067 E15.48104
G1 X100.900 Y50.313 E15.55334
G1 X101.749 Y50.604 E15.62055
G1 X102.595 Y50.946 E15.68882
G1 X103.040 Y51.077 E15.72351
G1 X103.560 Y51.281 E15.76533
G1 X104.123 Y51.424 E15.80879
G1 X105.610 Y51.894 E15.92554
G1 X107.594 Y52.616 E16.08347
G1 X108.012 Y52.819 E16.11827
G1 X108.507 Y53.127 E16.16188
G1 X108.974 Y53.477 E16.20558
G1 X109.580 Y53.979 E16.26443
G1 X109.830 Y54.230 E16.29098
G1 X110.098 Y54.559 E16.32272
G1 X110.328 Y54.909 E16.35407
G1 X110.518 Y55.278 E16.38513
G1 X110.633 Y55.571 E16.40868
G1 X110.728 Y55.900 E16.43430
G1 X110.820 Y56.557 E16.48394
G1 X110.885 Y57.685 E16.56849
G1 X110.988 Y60.435 E16.77442
G1 X111.005 Y60.677 E16.79259
G1 X111.093 Y61.198 E16.83213
G1 X111.134 Y61.745 E16.87322
G1 X111.210 Y64.385 E17.07085
G1 X111.343 Y65.428 E17.14956
G1 X111.547 Y67.534 E17.30789
G1 X109.910 Y69.338 E17.49015
G1 X109.152 Y69.338 E17.54684
G1 X109.014 Y69.412 E17.55860
G1 X108.728 Y69.803 E17.59484
G1 X108.413 Y70.113 E17.62792
G1 X108.096 Y70.342 E17.65720
G1 X107.811 Y70.499 E17.68153
G1 X107.448 Y70.643 E17.71074
G1 X107.127 Y70.730 E17.73569
G1 X106.556 Y70.815 E17.77889
G1 X106.096 Y70.929 E17.81434
G1 X105.020 Y71.103 E17.89588
G1 X104.395 Y71.106 E17.94267
G1 X104.074 Y71.072 E17.96681
G1 X103.709 Y70.999 E17.99471
G1 X103.303 Y70.999 E18.02505
G1 X103.082 Y70.786 E18.04803
G1 X102.933 Y70.743 E18.05964
G1 X102.630 Y70.804 E18.08279
G1 X102.162 Y70.835 E18.11783
G1 X101.951 Y70.823 E18.13371
G1 X101.600 Y70.769 E18.16023
G1 X101.189 Y70.650 E18.19228
G1 X101.006 Y70.698 E18.20647
G1 X100.919 Y70.795 E18.21623
G1 X100.621 Y70.872 E18.23926
G1 X100.373 Y71.070 E18.26298
G1 X100.270 Y71.113 E18.27129
G1 X99.401 Y71.184 E18.33657
G1 X99.164 Y71.181 E18.35435
G1 X98.679 Y71.110 E18.39099
G1 X98.357 Y71.013 E18.41614
G1 X97.912 Y70.808 E18.45280
G1 X97.447 Y70.492 E18.49493
G1 X96.918 Y70.297 E18.53711
G1 X96.809 Y70.282 E18.54537
G1 X96.303 Y70.285 E18.58317
G1 X94.609 Y70.938 E18.71905
G1 X94.529 Y70.883 E18.72632
G1 X94.399 Y70.858 E18.73622
G1 X93.594 Y71.044 E18.79803
G1 X93.045 Y71.407 E18.84731
G1 X92.748 Y71.549 E18.87199
G1 X92.477 Y71.647 E18.89350
G1 X92.117 Y71.736 E18.92124
G1 X91.697 Y71.791 E18.95295
G1 X91.294 Y71.977 E18.98616
G1 X91.026 Y72.072 E19.00744
G1 X90.758 Y72.140 E19.02817
G1 X90.397 Y72.191 E19.05545
G1 X90.297 Y72.238 E19.06368
G1 X89.939 Y72.596 E19.10158
G1 X89.010 Y72.439 E19.17206
G1 X88.307 Y72.599 E19.22600
G1 X88.238 Y72.575 E19.23150
G1 X87.912 Y72.686 E19.25725
G1 X87.606 Y72.757 E19.28079
G1 X87.237 Y72.800 E19.30862
G1 X86.618 Y72.822 E19.35498
G1 X86.284 Y72.798 E19.38002
G1 X85.967 Y72.735 E19.40420
G1 X85.676 Y72.644 E19.42703
G1 X85.482 Y72.558 E19.44292
G1 X85.335 Y72.564 E19.45395
G1 X84.993 Y72.732 E19.48242
G1 X84.610 Y72.863 E19.51271
G1 X84.239 Y72.941 E19.54109
G1 X83.842 Y72.984 E19.57097
G1 X83.513 Y72.981 E19.59558
G1 X83.172 Y72.938 E19.62134
G1 X82.888 Y72.871 E19.64317
G1 X82.505 Y72.729 E19.67376
G1 X82.404 Y72.722 E19.68131
G1 X81.795 Y72.878 E19.72836
G1 X81.410 Y72.943 E19.75759
G1 X80.822 Y72.980 E19.80166
G1 X79.335 Y73.002 E19.91295
G1 X78.858 Y73.109 E19.94953
G1 X78.427 Y73.163 E19.98204
G1 X78.110 Y73.169 E20.00578
G1 X77.828 Y73.149 E20.02694
G1 X77.150 Y73.022 E20.07855
G1 X76.469 Y73.152 E20.13041
G1 X75.572 Y73.268 E20.19816
G1 X74.585 Y73.621 E20.27657
G1 X74.200 Y73.703 E20.30601
G1 X73.770 Y73.760 E20.33848
G1 X73.430 Y73.872 E20.36528
G1 X73.041 Y73.952 E20.39499
G1 X72.769 Y73.975 E20.41542
G1 X72.496 Y73.972 E20.43587
G1 X72.021 Y73.904 E20.47175
G1 X71.660 Y73.797 E20.49993
G1 X71.346 Y73.814 E20.52343
G1 X70.819 Y74.082 E20.56768
G1 X70.441 Y74.237 E20.59829
G1 X70.069 Y74.346 E20.62732
G1 X69.665 Y74.413 E20.65793
G1 X69.166 Y74.635 E20.69884
G1 X68.764 Y74.747 E20.73006
G1 X68.561 Y74.780 E20.74544
G1 X68.182 Y74.803 E20.77382
G1 X67.664 Y74.754 E20.81275
G1 X67.174 Y74.841 E20.85004
G1 X66.681 Y74.864 E20.88697
G1 X66.651 Y74.259 F30000.000
G1 F2100
G1 X66.452 Y74.239 E20.90196
G1 X66.327 Y74.278 E20.91169
G1 X65.929 Y74.580 E20.94908
G1 X65.854 Y74.713 E20.96056
G1 X65.805 Y75.400 E21.01205
G1 X65.716 Y75.853 E21.04663
G1 X65.586 Y76.213 E21.07527
G1 X65.223 Y76.946 E21.13644
G1 X63.859 Y77.584 E21.24917
G1 X63.059 Y77.391 E21.31075
G1 X62.670 Y77.245 E21.34186
G1 X62.539 Y77.242 E21.35166
G1 X62.086 Y77.393 E21.38739
G1 X61.593 Y77.463 E21.42465
G1 X61.195 Y77.464 E21.45446
G1 X60.758 Y77.409 E21.48739
G1 X60.480 Y77.405 E21.50818
G1 X60.211 Y77.376 E21.52846
G1 X60.124 Y77.388 E21.53500
G1 X59.635 Y77.588 E21.57456
