; generated by Slic3r 1.3.0 on 2021-10-11 at 23:14:24

; external perimeters extrusion width = 0.44mm (2.78mm^3/s)
; perimeters extrusion width = 0.40mm (7.14mm^3/s)
; infill extrusion width = 0.50mm (10.97mm^3/s)
; solid infill extrusion width = 0.60mm (6.68mm^3/s)
; top infill extrusion width = 0.40mm (2.14mm^3/s)

M107
M190 S80 ; set bed temperature and wait for it to be reached
M104 S210 ; set temperature
G28 ; home all axes
G1 Z5 F5000 ; lift nozzle

; Filament gcode

M109 S210 ; set temperature and wait for it to be reached
G21 ; set units to millimeters
G90 ; use absolute coordinates
M82 ; use absolute distances for extrusion
G92 E0
G1 Z0.300 F30000.000
G1 E-2.00000 F2400.00000
G92 E0
G1 X20.121 Y40.630 F30000.000
G1 E2.00000 F2400.00000
G1 F2100
G1 X20.723 Y40.374 E2.04373
G1 X21.426 Y40.208 E2.09201
G1 X21.949 Y40.167 E2.12702
G1 X27.138 Y40.108 E2.47368
G1 X44.716 Y40.041 E3.64800
G1 X48.374 Y40.143 E3.89251
G1 X60.972 Y41.141 E4.73674
G1 X71.488 Y42.140 E5.44246
G1 X80.017 Y43.496 E6.01936
G1 X83.358 Y44.104 E6.24622
G1 X94.422 Y46.774 E7.00661
G1 X98.358 Y48.024 E7.28248
G1 X106.215 Y50.703 E7.83707
G1 X107.980 Y51.345 E7.96251
G1 X108.678 Y51.677 E8.01415
G1 X109.011 Y51.875 E8.04006
G1 X109.385 Y52.129 E8.07022
G1 X110.389 Y52.930 E8.15599
G1 X110.640 Y53.164 E8.17894
G1 X110.921 Y53.470 E8.20670
G1 X111.181 Y53.801 E8.23485
G1 X111.410 Y54.143 E8.26232
G1 X111.631 Y54.542 E8.29278
G1 X111.767 Y54.837 E8.31450
G1 X111.971 Y55.428 E8.35627
G1 X112.036 Y55.699 E8.37489
G1 X112.116 Y56.225 E8.41045
G1 X112.756 Y66.336 E9.08724
G1 X112.470 Y68.107 E9.20706
G1 X111.008 Y69.937 E9.36353
G1 X108.681 Y71.531 E9.55199
G1 X108.283 Y71.736 E9.58192
G1 X107.940 Y71.872 E9.60657
G1 X107.471 Y72.007 E9.63913
G1 X29.327 Y89.308 E14.98603
G1 X28.769 Y89.394 E15.02373
G1 X22.341 Y89.952 E15.45473
G1 X21.703 Y89.946 E15.49736
G1 X21.366 Y89.905 E15.52009
G1 X20.871 Y89.793 E15.55399
G1 X19.301 Y88.925 E15.67381
G1 X18.257 Y87.467 E15.79364
G1 X17.938 Y86.007 E15.89346
G1 X17.232 Y62.728 E17.44931
G1 X17.243 Y59.908 E17.63775
G1 X17.411 Y46.432 E18.53811
G1 X17.561 Y44.071 E18.69611
G1 X17.630 Y43.667 E18.72349
G1 X17.811 Y43.044 E18.76682
G1 X17.996 Y42.621 E18.79772
G1 X18.292 Y42.124 E18.83633
G1 X18.731 Y41.592 E18.88243
G1 X19.301 Y41.105 E18.93249
G1 X19.727 Y40.841 E18.96597
G1 X20.068 Y40.658 E18.99179
G1 X20.369 Y41.105 F30000.000
G1 F2100
G1 X20.892 Y40.883 E19.02977
G1 X21.503 Y40.738 E19.07170
G1 X21.957 Y40.702 E19.10211
G1 X27.141 Y40.644 E19.44846
G1 X44.702 Y40.577 E20.62163
G1 X48.332 Y40.677 E20.86425
G1 X60.929 Y41.675 E21.70845
G1 X71.421 Y42.672 E22.41250
G1 X79.929 Y44.024 E22.98799
G1 X83.239 Y44.626 E23.21277
G1 X94.272 Y47.289 E23.97099
G1 X98.185 Y48.531 E24.24529
G1 X106.042 Y51.210 E24.79982
G1 X107.776 Y51.840 E24.92310
G1 X108.416 Y52.145 E24.97043
G1 X109.074 Y52.565 E25.02258
G1 X110.038 Y53.335 E25.10499
G1 X110.512 Y53.816 E25.15013
G1 X110.747 Y54.114 E25.17547
G1 X110.952 Y54.422 E25.20023
G1 X111.151 Y54.779 E25.22755
G1 X111.273 Y55.043 E25.24695
G1 X111.455 Y55.570 E25.28419
G1 X111.549 Y56.013 E25.31445
G1 X111.590 Y56.351 E25.33716
G1 X112.221 Y66.369 E26.00778
G1 X111.928 Y68.013 E26.11934
G1 X110.704 Y69.496 E26.24782
G1 X108.412 Y71.068 E26.43346
G1 X108.064 Y71.247 E26.45957
G1 X107.764 Y71.366 E26.48114
G1 X107.352 Y71.485 E26.50982
G1 X29.211 Y88.785 E31.85647
G1 X28.722 Y88.860 E31.88950
G1 X22.310 Y89.417 E32.31952
G1 X21.746 Y89.412 E32.35717
G1 X21.451 Y89.376 E32.37703
G1 X21.020 Y89.279 E32.40653
G1 X19.572 Y88.447 E32.51809
G1 X18.667 Y87.043 E32.62964
G1 X18.473 Y85.991 E32.70115
G1 X17.767 Y62.723 E34.25628
G1 X17.778 Y59.914 E34.44391
G1 X17.946 Y46.438 E35.34426
G1 X18.088 Y44.178 E35.49556
G1 X18.154 Y43.778 E35.52267
G1 X18.306 Y43.250 E35.55934
G1 X18.475 Y42.861 E35.58768
G1 X18.733 Y42.429 E35.62131
G1 X19.115 Y41.965 E35.66142
G1 X19.610 Y41.543 E35.70490
G1 X19.980 Y41.313 E35.73404
G1 X20.316 Y41.133 E35.75947
G1 E33.75947 F2400.00000
G92 E0
G1 X66.621 Y74.865 F30000.000
G1 E2.00000 F2400.00000
G1 F2100
G1 X66.441 Y75.032 E2.01840
G1 X66.361 Y75.725 E2.07059
G1 X66.294 Y76.015 E2.09284
G1 X66.186 Y76.335 E2.11809
G1 X65.668 Y77.400 E2.20671
G1 X63.923 Y78.216 E2.35093
G1 X62.902 Y77.970 E2.42952
G1 X62.648 Y77.887 E2.44952
G1 X62.543 Y77.885 E2.45736
G1 X62.076 Y78.008 E2.49351
G1 X61.572 Y78.065 E2.53146
G1 X61.164 Y78.063 E2.56198
G1 X60.741 Y78.013 E2.59391
G1 X60.293 Y77.991 E2.62742
G1 X60.216 Y78.003 E2.63326
G1 X59.726 Y78.191 E2.67253
G1 X59.368 Y78.297 E2.70051
G1 X58.968 Y78.381 E2.73111
G1 X58.501 Y78.441 E2.76629
G1 X57.966 Y78.471 E2.80638
G1 X57.530 Y78.471 E2.83900
G1 X57.114 Y78.436 E2.87028
G1 X56.742 Y78.365 E2.89858
G1 X56.627 Y78.383 E2.90733
G1 X56.012 Y78.733 E2.96028
G1 X55.613 Y78.698 E2.99027
G1 X55.538 Y78.710 E2.99590
G1 X55.032 Y78.877 E3.03581
G1 X54.340 Y79.032 E3.08891
G1 X54.261 Y79.072 E3.09546
G1 X53.861 Y79.396 E3.13405
G1 X52.977 Y79.950 E3.21207
G1 X52.805 Y79.950 E3.22493
G1 X52.074 Y80.168 E3.28207
G1 X51.392 Y80.627 E3.34359
G1 X51.050 Y80.509 E3.37060
G1 X50.969 Y80.503 E3.37671
G1 X50.522 Y80.569 E3.41052
G1 X49.824 Y80.572 E3.46276
G1 X49.688 Y80.597 E3.47307
G1 X49.177 Y80.932 E3.51880
G1 X48.546 Y81.221 E3.57075
G1 X48.129 Y81.487 E3.60777
G1 X47.721 Y81.670 E3.64121
G1 X47.457 Y81.750 E3.66189
G1 X47.064 Y81.821 E3.69176
G1 X46.636 Y82.021 E3.72713
G1 X46.228 Y82.154 E3.75922
G1 X45.834 Y82.228 E3.78924
G1 X45.413 Y82.258 E3.82082
G1 X45.126 Y82.340 E3.84313
G1 X45.044 Y82.395 E3.85051
G1 X44.747 Y82.729 E3.88402
G1 X44.427 Y82.997 E3.91523
G1 X44.024 Y83.244 E3.95062
G1 X43.638 Y83.411 E3.98210
G1 X43.227 Y83.529 E4.01408
G1 X42.789 Y83.602 E4.04726
G1 X42.365 Y83.632 E4.07907
G1 X41.803 Y83.634 E4.12120
G1 X41.445 Y83.755 E4.14949
G1 X40.981 Y84.046 E4.19044
G1 X40.678 Y84.185 E4.21538
G1 X39.924 Y84.407 E4.27425
G1 X39.333 Y84.487 E4.31885
G1 X38.838 Y84.679 E4.35860
G1 X38.391 Y84.925 E4.39676
G1 X37.907 Y85.097 E4.43519
G1 X37.435 Y85.197 E4.47130
G1 X36.715 Y85.292 E4.52566
G1 X36.290 Y85.520 E4.56177
G1 X36.070 Y85.614 E4.57963
G1 X35.806 Y85.701 E4.60049
G1 X35.455 Y85.784 E4.62748
G1 X35.070 Y85.997 E4.66044
G1 X34.679 Y85.844 E4.69186
G1 X34.556 Y85.846 E4.70104
G1 X34.340 Y85.947 E4.71885
G1 X33.941 Y86.307 E4.75914
G1 X33.550 Y86.609 E4.79604
G1 X33.252 Y86.794 E4.82232
G1 X32.880 Y86.970 E4.85312
G1 X32.541 Y87.081 E4.87985
G1 X32.134 Y87.159 E4.91083
G1 X31.664 Y87.177 E4.94603
G1 X31.078 Y87.102 E4.99025
G1 X30.699 Y87.148 E5.01878
G1 X30.598 Y87.190 E5.02696
G1 X30.271 Y87.467 E5.05900
G1 X29.909 Y87.698 E5.09118
G1 X29.540 Y87.868 E5.12158
G1 X29.046 Y88.017 E5.16018
G1 X28.716 Y88.072 E5.18524
G1 X28.373 Y88.089 E5.21092
G1 X28.099 Y88.073 E5.23147
G1 X27.787 Y88.028 E5.25504
G1 X27.242 Y88.048 E5.29587
G1 X26.783 Y88.032 E5.33022
G1 X26.437 Y88.051 E5.35618
G1 X26.180 Y88.041 E5.37542
G1 X25.645 Y88.173 E5.41667
G1 X25.140 Y88.210 E5.45453
G1 X24.659 Y88.160 E5.49071
G1 X24.255 Y88.053 E5.52196
G1 X24.124 Y88.069 E5.53189
G1 X23.603 Y88.336 E5.57565
G1 X23.105 Y88.505 E5.61502
G1 X22.651 Y88.594 E5.64965
G1 X22.121 Y88.638 E5.68948
G1 X21.753 Y88.624 E5.71701
G1 X21.493 Y88.586 E5.73672
G1 X20.298 Y88.250 E5.82957
G1 X19.187 Y86.635 E5.97629
G1 X19.274 Y85.568 E6.05640
G1 X19.336 Y85.215 E6.08319
G1 X19.375 Y84.212 E6.15835
G1 X19.387 Y83.334 E6.22406
G1 X19.327 Y83.205 E6.23466
G1 X19.281 Y83.167 E6.23911
G1 X19.273 Y81.795 E6.34179
G1 X19.338 Y81.033 E6.39900
G1 X19.334 Y80.256 E6.45719
G1 X19.300 Y79.637 E6.50360
G1 X19.267 Y79.550 E6.51056
G1 X18.875 Y79.046 E6.55834
G1 X19.105 Y78.083 E6.63243
G1 X19.096 Y77.694 E6.66155
G1 X19.138 Y77.296 E6.69152
G1 X19.148 Y76.870 E6.72339
G1 X19.127 Y75.650 E6.81475
G1 X19.097 Y75.067 E6.85843
G1 X19.016 Y74.582 E6.89523
G1 X18.951 Y73.425 E6.98190
G1 X18.976 Y73.320 E6.99001
G1 X18.897 Y72.786 E7.03040
G1 X18.899 Y72.447 E7.05578
G1 X18.944 Y72.050 E7.08569
G1 X18.877 Y71.052 E7.16055
G1 X18.809 Y67.837 E7.40121
G1 X18.767 Y66.685 E7.48748
G1 X18.694 Y66.191 E7.52479
G1 X18.668 Y65.600 E7.56911
G1 X18.643 Y65.514 E7.57578
G1 X18.337 Y65.032 E7.61856
G1 X18.729 Y64.000 E7.70120
G1 X18.717 Y63.687 E7.72462
G1 X18.603 Y63.233 E7.75965
G1 X18.555 Y62.794 E7.79266
G1 X18.559 Y62.477 E7.81643
G1 X18.608 Y62.062 E7.84764
G1 X18.626 Y61.689 E7.87566
G1 X18.625 Y60.699 E7.94975
G1 X18.553 Y60.047 E7.99878
G1 X18.080 Y59.040 E8.08204
G1 X18.687 Y58.327 E8.15220
G1 X18.726 Y58.227 E8.16017
G1 X18.778 Y57.494 E8.21520
G1 X18.904 Y56.750 E8.27164
G1 X18.949 Y56.305 E8.30514
G1 X19.084 Y53.385 E8.52389
G1 X19.022 Y52.727 E8.57333
G1 X19.000 Y51.765 E8.64536
G1 X18.942 Y51.640 E8.65565
G1 X18.750 Y51.475 E8.67465
G1 X18.742 Y48.903 E8.86713
G1 X18.826 Y47.803 E8.94963
G1 X18.793 Y47.488 E8.97341
G1 X18.563 Y46.756 E9.03075
G1 X18.700 Y46.573 E9.04788
G1 X18.732 Y46.479 E9.05531
G1 X18.846 Y44.515 E9.20253
G1 X18.910 Y44.002 E9.24128
G1 X18.987 Y43.689 E9.26539
G1 X19.076 Y43.434 E9.28558
G1 X19.318 Y42.964 E9.32515
G1 X19.591 Y42.603 E9.35902
G1 X19.766 Y42.423 E9.37780
G1 X20.172 Y42.108 E9.41624
G1 X20.831 Y41.750 E9.47238
G1 X21.035 Y41.664 E9.48893
G1 X21.494 Y41.534 E9.52466
G1 X21.730 Y41.500 E9.54247
G1 X22.186 Y41.492 E9.57659
G1 X22.488 Y41.524 E9.59932
G1 X23.556 Y41.468 E9.67935
G1 X26.358 Y41.435 E9.88911
G1 X33.799 Y41.420 E10.44593
G1 X35.888 Y41.436 E10.60223
G1 X36.904 Y41.493 E10.67841
G1 X40.338 Y41.547 E10.93542
G1 X42.484 Y41.535 E11.09605
G1 X43.169 Y41.555 E11.14732
G1 X43.693 Y41.509 E11.18669
G1 X44.099 Y41.408 E11.21797
G1 X44.380 Y41.371 E11.23921
G1 X45.827 Y41.320 E11.34757
G1 X45.898 Y41.401 E11.35562
G1 X46.018 Y41.458 E11.36558
G1 X47.496 Y41.493 E11.47623
G1 X47.822 Y41.456 E11.50078
G1 X48.219 Y41.456 E11.53045
G1 X48.653 Y41.512 E11.56324
G1 X49.246 Y41.668 E11.60912
G1 X50.158 Y41.677 E11.67736
G1 X50.569 Y41.731 E11.70838
G1 X51.046 Y41.841 E11.74502
G1 X51.379 Y41.841 E11.76994
G1 X52.798 Y41.914 E11.87623
G1 X52.898 Y41.993 E11.88580
G1 X53.452 Y42.169 E11.92926
G1 X57.279 Y42.264 E12.21573
G1 X58.391 Y42.323 E12.29913
G1 X59.011 Y42.405 E12.34587
G1 X60.776 Y42.452 E12.47806
G1 X61.312 Y42.514 E12.51843
G1 X61.886 Y42.662 E12.56274
G1 X62.200 Y42.698 E12.58641
G1 X64.623 Y42.887 E12.76833
G1 X66.766 Y43.020 E12.92899
G1 X67.456 Y43.097 E12.98094
G1 X68.331 Y43.224 E13.04708
G1 X69.106 Y43.283 E13.10525
G1 X69.615 Y43.386 E13.14412
G1 X70.662 Y43.402 E13.22248
G1 X71.393 Y43.461 E13.27738
G1 X71.807 Y43.536 E13.30883
G1 X72.367 Y43.702 E13.35256
G1 X75.330 Y44.116 E13.57644
G1 X76.447 Y44.318 E13.66144
G1 X77.821 Y44.611 E13.76652
G1 X78.555 Y44.705 E13.82193
G1 X79.212 Y44.730 E13.87112
G1 X79.635 Y44.774 E13.90294
G1 X80.089 Y44.857 E13.93748
G1 X80.630 Y45.012 E13.97961
G1 X80.955 Y45.080 E14.00446
G1 X82.556 Y45.278 E14.12517
G1 X82.602 Y45.303 E14.12915
G1 X83.407 Y45.479 E14.19081
G1 X83.929 Y45.666 E14.23227
G1 X84.332 Y45.772 E14.26344
G1 X86.128 Y46.143 E14.40073
G1 X86.537 Y46.271 E14.43280
G1 X87.074 Y46.490 E14.47618
G1 X87.230 Y46.532 E14.48825
G1 X88.701 Y46.819 E14.60042
G1 X89.354 Y46.969 E14.65056
G1 X89.749 Y47.088 E14.68143
G1 X90.186 Y47.261 E14.71664
G1 X90.548 Y47.363 E14.74475
G1 X91.092 Y47.476 E14.78637
G1 X92.204 Y47.666 E14.87073
G1 X92.859 Y47.825 E14.92120
G1 X93.551 Y47.919 E14.97343
G1 X94.063 Y48.047 E15.01295
G1 X94.581 Y48.232 E15.05415
G1 X95.203 Y48.530 E15.10576
G1 X95.524 Y48.655 E15.13155
G1 X96.353 Y48.862 E15.19547
G1 X96.905 Y49.044 E15.23899
G1 X97.450 Y49.137 E15.28036
G1 X97.906 Y49.267 E15.31585
G1 X99.966 Y50.067 E15.48118
G1 X100.898 Y50.312 E15.55332
G1 X101.749 Y50.604 E15.62067
G1 X102.595 Y50.946 E15.68895
G1 X103.040 Y51.077 E15.72368
G1 X103.560 Y51.281 E15.76547
G1 X104.122 Y51.423 E15.80881
G1 X105.611 Y51.894 E15.92569
G1 X107.594 Y52.616 E16.08360
G1 X108.011 Y52.819 E16.11838
G1 X108.507 Y53.127 E16.16200
G1 X108.974 Y53.477 E16.20567
G1 X109.579 Y53.979 E16.26456
G1 X109.830 Y54.230 E16.29106
G1 X110.098 Y54.558 E16.32281
G1 X110.328 Y54.910 E16.35429
G1 X110.519 Y55.281 E16.38550
G1 X110.633 Y55.571 E16.40883
G1 X110.728 Y55.901 E16.43450
G1 X110.820 Y56.557 E16.48412
G1 X110.885 Y57.676 E16.56797
G1 X110.988 Y60.433 E16.77447
G1 X111.005 Y60.677 E16.79272
G1 X111.093 Y61.197 E16.83220
G1 X111.134 Y61.745 E16.87334
G1 X111.210 Y64.385 E17.07098
G1 X111.343 Y65.429 E17.14973
G1 X111.547 Y67.534 E17.30802
G1 X109.910 Y69.338 E17.49028
G1 X109.152 Y69.338 E17.54697
G1 X109.014 Y69.412 E17.55873
G1 X108.728 Y69.803 E17.59501
G1 X108.412 Y70.113 E17.62808
G1 X108.096 Y70.342 E17.65734
G1 X107.811 Y70.499 E17.68166
G1 X107.449 Y70.643 E17.71084
G1 X107.126 Y70.730 E17.73584
G1 X106.556 Y70.815 E17.77902
G1 X106.178 Y70.914 E17.80823
G1 X105.750 Y70.974 E17.84055
G1 X105.381 Y71.056 E17.86887
G1 X105.019 Y71.103 E17.89621
G1 X104.444 Y71.108 E17.93924
G1 X103.963 Y71.053 E17.97541
G1 X103.516 Y70.932 E18.01006
G1 X103.084 Y70.739 E18.04549
G1 X102.963 Y70.729 E18.05459
G1 X102.629 Y70.804 E18.08015
G1 X102.162 Y70.835 E18.11517
G1 X101.951 Y70.823 E18.13105
G1 X101.599 Y70.769 E18.15763
G1 X101.189 Y70.650 E18.18960
G1 X101.006 Y70.698 E18.20378
G1 X100.920 Y70.795 E18.21347
G1 X100.621 Y70.872 E18.23657
G1 X100.269 Y71.114 E18.26852
G1 X99.400 Y71.184 E18.33380
G1 X99.164 Y71.181 E18.35143
G1 X98.679 Y71.110 E18.38813
G1 X98.357 Y71.013 E18.41325
G1 X97.912 Y70.808 E18.44995
G1 X97.447 Y70.492 E18.49204
G1 X96.918 Y70.297 E18.53421
G1 X96.809 Y70.282 E18.54248
G1 X96.303 Y70.285 E18.58029
G1 X95.575 Y70.555 E18.63843
G1 X94.993 Y70.721 E18.68374
G1 X94.372 Y70.844 E18.73107
G1 X93.763 Y70.909 E18.77696
G1 X93.666 Y70.951 E18.78484
G1 X93.366 Y71.203 E18.81417
G1 X93.193 Y71.320 E18.82979
G1 X92.879 Y71.491 E18.85658
G1 X92.593 Y71.608 E18.87970
G1 X92.117 Y71.736 E18.91652
G1 X91.697 Y71.791 E18.94824
G1 X91.296 Y71.976 E18.98133
G1 X91.024 Y72.073 E19.00289
G1 X90.757 Y72.140 E19.02352
G1 X90.397 Y72.191 E19.05075
G1 X90.297 Y72.238 E19.05898
G1 X89.939 Y72.596 E19.09688
G1 X89.009 Y72.439 E19.16742
G1 X88.307 Y72.599 E19.22133
G1 X88.238 Y72.575 E19.22678
G1 X87.913 Y72.685 E19.25252
G1 X87.606 Y72.757 E19.27608
G1 X87.236 Y72.800 E19.30394
G1 X86.617 Y72.822 E19.35035
G1 X86.284 Y72.798 E19.37532
G1 X85.967 Y72.736 E19.39947
G1 X85.676 Y72.644 E19.42230
G1 X85.482 Y72.558 E19.43822
G1 X85.335 Y72.564 E19.44925
G1 X84.993 Y72.732 E19.47772
G1 X84.609 Y72.863 E19.50808
G1 X84.239 Y72.941 E19.53641
G1 X83.841 Y72.984 E19.56635
G1 X83.513 Y72.981 E19.59089
G1 X83.172 Y72.938 E19.61664
G1 X82.888 Y72.871 E19.63846
G1 X82.504 Y72.728 E19.66908
G1 X82.404 Y72.722 E19.67663
G1 X81.796 Y72.878 E19.72361
G1 X81.410 Y72.943 E19.75285
G1 X80.822 Y72.980 E19.79696
G1 X79.335 Y73.002 E19.90825
G1 X78.858 Y73.109 E19.94483
G1 X78.426 Y73.163 E19.97739
G1 X78.110 Y73.169 E20.00108
G1 X77.829 Y73.149 E20.02212
G1 X77.150 Y73.022 E20.07384
G1 X76.470 Y73.152 E20.12569
G1 X75.572 Y73.268 E20.19346
G1 X74.873 Y73.533 E20.24934
G1 X74.585 Y73.620 E20.27188
G1 X74.199 Y73.703 E20.30143
G1 X73.771 Y73.759 E20.33371
G1 X73.430 Y73.872 E20.36062
G1 X73.041 Y73.952 E20.39034
G1 X72.769 Y73.975 E20.41076
G1 X72.496 Y73.972 E20.43121
G1 X72.021 Y73.904 E20.46709
G1 X71.660 Y73.797 E20.49526
G1 X71.346 Y73.814 E20.51876
G1 X70.578 Y74.186 E20.58263
G1 X70.461 Y74.295 E20.59461
G1 X69.665 Y74.413 E20.65483
G1 X69.166 Y74.635 E20.69574
G1 X68.764 Y74.747 E20.72696
G1 X68.561 Y74.780 E20.74235
G1 X68.182 Y74.803 E20.77073
G1 X67.598 Y74.758 E20.81462
G1 X67.174 Y74.841 E20.84693
G1 X66.681 Y74.864 E20.88388
G1 X66.650 Y74.259 F30000.000
G1 F2100
G1 X66.452 Y74.239 E20.89883
G1 X66.327 Y74.278 E20.90857
G1 X65.929 Y74.580 E20.94595
G1 X65.854 Y74.713 E20.95743
G1 X65.805 Y75.398 E21.00879
G1 X65.716 Y75.853 E21.04347
G1 X65.585 Y76.214 E21.07223
G1 X65.224 Y76.945 E21.13328
G1 X63.859 Y77.584 E21.24603
G1 X63.059 Y77.391 E21.30762
G1 X62.670 Y77.245 E21.33873
G1 X62.539 Y77.242 E21.34853
G1 X62.087 Y77.393 E21.38417
G1 X61.594 Y77.463 E21.42147
G1 X61.197 Y77.464 E21.45114
G1 X60.758 Y77.409 E21.48424
G1 X60.482 Y77.405 E21.50489
G1 X60.211 Y77.376 E21.52533
