; generated by Slic3r 1.3.0 on 2020-08-21 at 21:54:59

; external perimeters extrusion width = 0.44mm (2.78mm^3/s)
; perimeters extrusion width = 0.40mm (7.14mm^3/s)
; infill extrusion width = 0.50mm (10.97mm^3/s)
; solid infill extrusion width = 0.60mm (6.68mm^3/s)
; top infill extrusion width = 0.40mm (2.14mm^3/s)

M107
M190 S80 ; set bed temperature and wait for it to be reached
M104 S200 ; set temperature
G28 ; home all axes
G1 Z5 F5000 ; lift nozzle

; Filament gcode

M109 S200 ; set temperature and wait for it to be reached
G21 ; set units to millimeters
G90 ; use absolute coordinates
M82 ; use absolute distances for extrusion
G92 E0
G1 Z0.300 F30000.000
G1 E-2.00000 F2400.00000
G92 E0
G1 X24.466 Y25.176 F30000.000
G1 E2.00000 F2400.00000
G1 F2100
G1 X25.665 Y24.026 E2.11105
G1 X27.003 Y22.824 E2.23121
G1 X28.487 Y21.581 E2.36052
G1 X29.906 Y20.474 E2.48072
G1 X31.361 Y19.416 E2.60088
G1 X32.736 Y18.483 E2.71194
G1 X34.373 Y17.450 E2.84127
G1 X35.927 Y16.544 E2.96144
G1 X37.390 Y15.753 E3.07249
G1 X39.122 Y14.890 E3.20181
G1 X40.760 Y14.145 E3.32198
G1 X42.294 Y13.506 E3.43304
G1 X44.105 Y12.822 E3.56235
G1 X45.809 Y12.245 E3.68252
G1 X47.400 Y11.763 E3.79357
G1 X49.270 Y11.265 E3.92288
G1 X50.890 Y10.891 E4.03395
G1 X52.655 Y10.544 E4.15411
G1 X54.566 Y10.236 E4.28343
G1 X56.351 Y10.012 E4.40361
G1 X58.006 Y9.859 E4.51467
G1 X59.939 Y9.745 E4.64397
G1 X62.003 Y9.704 E4.78192
G1 X63.536 Y9.719 E4.88433
G1 X65.197 Y9.789 E4.99537
G1 X67.127 Y9.935 E5.12469
G1 X68.915 Y10.134 E5.24487
G1 X70.560 Y10.370 E5.35592
G1 X72.466 Y10.710 E5.48522
G1 X74.225 Y11.087 E5.60542
G1 X75.838 Y11.488 E5.71647
G1 X77.700 Y12.018 E5.84577
G1 X79.282 Y12.526 E5.95682
G1 X80.977 Y13.131 E6.07701
G1 X82.776 Y13.846 E6.20632
G1 X84.299 Y14.511 E6.31737
G1 X85.924 Y15.283 E6.43755
G1 X87.642 Y16.175 E6.56686
G1 X89.090 Y16.990 E6.67791
G1 X90.629 Y17.922 E6.79809
G1 X92.136 Y18.906 E6.91828
G1 X93.718 Y20.020 E7.04759
G1 X95.045 Y21.021 E7.15863
G1 X96.445 Y22.151 E7.27882
G1 X97.908 Y23.419 E7.40814
G1 X99.225 Y24.644 E7.52832
G1 X100.406 Y25.814 E7.63937
G1 X101.734 Y27.223 E7.76867
G1 X102.833 Y28.470 E7.87972
G1 X103.978 Y29.857 E7.99990
G1 X105.157 Y31.392 E8.12922
G1 X106.125 Y32.743 E8.24027
G1 X107.125 Y34.239 E8.36044
G1 X108.144 Y35.885 E8.48977
G1 X109.037 Y37.446 E8.60994
G1 X109.816 Y38.915 E8.72099
G1 X110.664 Y40.655 E8.85030
G1 X111.342 Y42.173 E8.96135
G1 X112.022 Y43.838 E9.08153
G1 X112.690 Y45.655 E9.21085
G1 X113.212 Y47.233 E9.32190
G1 X113.721 Y48.958 E9.44208
G1 X114.172 Y50.700 E9.56226
G1 X114.591 Y52.590 E9.69158
G1 X114.897 Y54.224 E9.80262
G1 X115.170 Y56.002 E9.92281
G1 X115.397 Y57.924 E10.05211
G1 X115.546 Y59.717 E10.17229
G1 X115.630 Y61.377 E10.28335
G1 X115.662 Y63.312 E10.41266
G1 X115.634 Y64.974 E10.52370
G1 X115.546 Y66.771 E10.64389
G1 X115.383 Y68.700 E10.77321
G1 X115.188 Y70.351 E10.88425
G1 X114.920 Y72.130 E11.00443
G1 X114.564 Y74.032 E11.13375
G1 X114.172 Y75.788 E11.25393
G1 X113.721 Y77.530 E11.37411
G1 X113.253 Y79.125 E11.48517
G1 X112.645 Y80.963 E11.61447
G1 X112.022 Y82.650 E11.73465
G1 X111.395 Y84.190 E11.84571
G1 X110.606 Y85.957 E11.97500
G1 X109.878 Y87.451 E12.08606
G1 X109.037 Y89.042 E12.20625
G1 X108.074 Y90.721 E12.33556
G1 X107.125 Y92.250 E12.45575
G1 X106.203 Y93.633 E12.56680
G1 X105.076 Y95.206 E12.69611
G1 X103.978 Y96.631 E12.81629
G1 X102.921 Y97.914 E12.92734
G1 X101.642 Y99.367 E13.05665
G1 X100.501 Y100.576 E13.16769
G1 X99.225 Y101.844 E13.28788
G1 X97.806 Y103.161 E13.41720
G1 X96.550 Y104.249 E13.52824
G1 X95.153 Y105.383 E13.64842
G1 X93.608 Y106.549 E13.77774
G1 X92.249 Y107.506 E13.88878
G1 X90.745 Y108.493 E14.00896
G1 X89.091 Y109.498 E14.13827
G1 X87.521 Y110.378 E14.25847
G1 X85.924 Y111.205 E14.37864
G1 X84.423 Y111.921 E14.48969
G1 X82.649 Y112.695 E14.61902
G1 X81.104 Y113.309 E14.73006
G1 X79.412 Y113.918 E14.85022
G1 X77.569 Y114.510 E14.97955
G1 X75.970 Y114.965 E15.09060
G1 X74.225 Y115.401 E15.21077
G1 X72.332 Y115.805 E15.34009
G1 X70.695 Y116.096 E15.45115
G1 X68.915 Y116.355 E15.57132
G1 X66.991 Y116.565 E15.70062
G1 X65.334 Y116.691 E15.81167
G1 X63.536 Y116.769 E15.93187
G1 X61.600 Y116.785 E16.06118
G1 X59.938 Y116.743 E16.17224
G1 X58.143 Y116.640 E16.29240
G1 X56.215 Y116.461 E16.42172
G1 X54.431 Y116.233 E16.54190
G1 X52.790 Y115.969 E16.65295
G1 X51.024 Y115.626 E16.77314
G1 X49.138 Y115.190 E16.90245
G1 X47.531 Y114.762 E17.01350
G1 X45.809 Y114.243 E17.13368
G1 X43.976 Y113.620 E17.26299
G1 X42.421 Y113.033 E17.37404
G1 X40.760 Y112.343 E17.49421
G1 X39.122 Y111.598 E17.61440
G1 X37.390 Y110.735 E17.74372
G1 X35.808 Y109.878 E17.86389
G1 X34.373 Y109.038 E17.97495
G1 X32.736 Y108.006 E18.10426
G1 X31.249 Y106.993 E18.22443
G1 X29.906 Y106.014 E18.33549
G1 X28.381 Y104.822 E18.46480
G1 X27.003 Y103.665 E18.58499
G1 X25.765 Y102.555 E18.69604
G1 X24.368 Y101.216 E18.82534
G1 X23.114 Y99.926 E18.94554
G1 X21.994 Y98.698 E19.05658
G1 X20.739 Y97.224 E19.18589
G1 X19.704 Y95.923 E19.29693
G1 X18.630 Y94.480 E19.41712
G1 X17.530 Y92.888 E19.54644
G1 X16.631 Y91.489 E19.65748
G1 X15.708 Y89.945 E19.77765
G1 X14.773 Y88.250 E19.90698
G1 X13.960 Y86.646 E20.02716
G1 X13.256 Y85.139 E20.13822
G1 X12.497 Y83.359 E20.26752
G1 X11.849 Y81.681 E20.38770
G1 X11.301 Y80.111 E20.49876
G1 X10.725 Y78.264 E20.62806
G1 X10.283 Y76.661 E20.73910
G1 X9.862 Y74.912 E20.85929
G1 X9.474 Y73.016 E20.98861
G1 X9.176 Y71.242 E21.10879
G1 X8.953 Y69.594 E21.21984
G1 X8.758 Y67.668 E21.34915
G1 X8.646 Y66.010 E21.46021
G1 X8.584 Y64.222 E21.57974
G1 X8.582 Y62.404 E21.70116
G1 X8.646 Y60.479 E21.82987
G1 X8.770 Y58.684 E21.95007
G1 X8.937 Y57.030 E22.06111
G1 X9.196 Y55.112 E22.19042
G1 X9.499 Y53.338 E22.31060
G1 X9.832 Y51.710 E22.42164
G1 X10.283 Y49.827 E22.55097
G1 X10.842 Y47.840 E22.68891
G1 X11.301 Y46.377 E22.79131
G1 X11.849 Y44.808 E22.90236
G1 X12.548 Y43.003 E23.03168
G1 X13.201 Y41.474 E23.14273
G1 X13.959 Y39.843 E23.26290
G1 X14.837 Y38.117 E23.39223
G1 X15.708 Y36.543 E23.51240
G1 X16.559 Y35.115 E23.62346
G1 X17.605 Y33.487 E23.75276
G1 X18.630 Y32.008 E23.87295
G1 X19.621 Y30.673 E23.98400
G1 X20.826 Y29.159 E24.11331
G1 X21.904 Y27.893 E24.22436
G1 X23.114 Y26.562 E24.34453
G1 X24.423 Y25.218 E24.46986
G1 X24.836 Y25.563 F30000.000
G1 F2100
G1 X26.036 Y24.412 E24.58090
G1 X27.361 Y23.222 E24.69987
G1 X28.817 Y22.003 E24.82677
G1 X30.127 Y20.979 E24.93782
G1 X31.565 Y19.928 E25.05681
G1 X33.136 Y18.861 E25.18372
G1 X34.644 Y17.912 E25.30271
G1 X36.182 Y17.015 E25.42168
G1 X37.644 Y16.224 E25.53273
G1 X39.345 Y15.378 E25.65964
G1 X40.966 Y14.640 E25.77862
G1 X42.500 Y14.000 E25.88968
G1 X44.277 Y13.329 E26.01658
G1 X45.964 Y12.758 E26.13555
G1 X47.555 Y12.276 E26.24660
G1 X49.391 Y11.787 E26.37351
G1 X51.011 Y11.413 E26.48457
G1 X52.758 Y11.069 E26.60353
G1 X54.633 Y10.767 E26.73045
G1 X56.401 Y10.545 E26.84943
G1 X58.056 Y10.392 E26.96048
G1 X59.952 Y10.280 E27.08738
G1 X61.999 Y10.240 E27.22413
G1 X63.513 Y10.254 E27.32533
G1 X65.174 Y10.324 E27.43638
G1 X67.069 Y10.468 E27.56329
G1 X68.839 Y10.664 E27.68227
G1 X70.484 Y10.900 E27.79332
G1 X72.354 Y11.234 E27.92022
G1 X74.096 Y11.607 E28.03921
G1 X75.709 Y12.008 E28.15027
G1 X77.536 Y12.528 E28.27716
G1 X79.119 Y13.036 E28.38821
G1 X80.796 Y13.636 E28.50720
G1 X82.561 Y14.337 E28.63410
G1 X84.193 Y15.051 E28.75309
G1 X85.799 Y15.820 E28.87206
G1 X87.275 Y16.586 E28.98311
G1 X88.930 Y17.517 E29.11003
G1 X90.451 Y18.444 E29.22900
G1 X91.842 Y19.354 E29.34005
G1 X93.396 Y20.447 E29.46696
G1 X94.816 Y21.522 E29.58594
G1 X96.108 Y22.568 E29.69699
G1 X97.544 Y23.812 E29.82390
G1 X98.848 Y25.024 E29.94288
G1 X100.029 Y26.195 E30.05393
G1 X101.332 Y27.577 E30.18083
G1 X102.431 Y28.824 E30.29188
G1 X103.564 Y30.197 E30.41086
G1 X104.722 Y31.704 E30.53777
G1 X105.690 Y33.055 E30.64882
G1 X106.680 Y34.536 E30.76779
G1 X107.680 Y36.151 E30.89472
G1 X108.564 Y37.697 E31.01368
G1 X109.342 Y39.166 E31.12473
G1 X110.175 Y40.873 E31.25164
G1 X110.852 Y42.391 E31.36269
G1 X111.526 Y44.040 E31.48167
G1 X112.182 Y45.823 E31.60859
G1 X112.704 Y47.401 E31.71963
G1 X113.207 Y49.109 E31.83861
G1 X113.653 Y50.834 E31.95759
G1 X114.065 Y52.688 E32.08450
G1 X114.370 Y54.322 E32.19555
G1 X114.640 Y56.082 E32.31453
G1 X114.863 Y57.969 E32.44143
G1 X115.011 Y59.744 E32.56041
G1 X115.095 Y61.404 E32.67146
G1 X115.126 Y63.303 E32.79837
G1 X115.099 Y64.965 E32.90942
G1 X115.011 Y66.744 E33.02840
G1 X114.851 Y68.637 E33.15531
G1 X114.640 Y70.406 E33.27429
G1 X114.390 Y72.049 E33.38534
G1 X114.041 Y73.916 E33.51225
G1 X113.653 Y75.655 E33.63123
G1 X113.207 Y77.379 E33.75021
G1 X112.739 Y78.974 E33.86126
G1 X112.143 Y80.778 E33.98817
G1 X111.526 Y82.448 E34.10714
G1 X110.899 Y83.988 E34.21820
G1 X110.125 Y85.722 E34.34509
G1 X109.396 Y87.217 E34.45615
G1 X108.564 Y88.791 E34.57513
G1 X107.619 Y90.439 E34.70204
G1 X106.680 Y91.952 E34.82102
G1 X105.757 Y93.336 E34.93208
G1 X104.651 Y94.880 E35.05898
G1 X103.564 Y96.291 E35.17796
G1 X102.508 Y97.574 E35.28901
G1 X101.252 Y98.999 E35.41591
G1 X100.112 Y100.209 E35.52696
G1 X98.848 Y101.464 E35.64594
G1 X97.455 Y102.756 E35.77286
G1 X96.199 Y103.844 E35.88390
G1 X94.816 Y104.966 E36.00288
G1 X93.300 Y106.111 E36.12979
G1 X91.940 Y107.068 E36.24084
G1 X90.451 Y108.045 E36.35981
G1 X88.828 Y109.031 E36.48672
G1 X87.275 Y109.903 E36.60572
G1 X85.693 Y110.721 E36.72469
G1 X84.193 Y111.437 E36.83574
G1 X82.452 Y112.197 E36.96266
G1 X80.907 Y112.811 E37.07370
G1 X79.231 Y113.414 E37.19266
G1 X77.422 Y113.995 E37.31958
G1 X75.824 Y114.450 E37.43063
G1 X74.096 Y114.881 E37.54960
G1 X72.238 Y115.277 E37.67652
G1 X70.601 Y115.569 E37.78758
G1 X68.839 Y115.824 E37.90654
G1 X66.951 Y116.031 E38.03345
G1 X65.293 Y116.157 E38.14449
G1 X63.513 Y116.234 E38.26349
G1 X61.614 Y116.250 E38.39039
G1 X59.952 Y116.208 E38.50145
G1 X58.174 Y116.105 E38.62042
G1 X56.283 Y115.930 E38.74733
G1 X54.633 Y115.721 E38.85838
G1 X52.875 Y115.440 E38.97736
G1 X51.126 Y115.100 E39.09635
G1 X49.275 Y114.673 E39.22325
G1 X47.555 Y114.212 E39.34223
G1 X45.964 Y113.731 E39.45328
G1 X44.166 Y113.119 E39.58018
G1 X42.610 Y112.532 E39.69124
G1 X40.966 Y111.849 E39.81020
G1 X39.345 Y111.111 E39.92919
G1 X37.644 Y110.264 E40.05610
G1 X36.079 Y109.415 E40.17507
G1 X34.644 Y108.576 E40.28614
G1 X33.037 Y107.562 E40.41304
G1 X31.565 Y106.561 E40.53201
G1 X30.221 Y105.581 E40.64307
G1 X28.725 Y104.411 E40.76998
G1 X27.451 Y103.344 E40.88102
G1 X26.123 Y102.156 E41.00001
G1 X24.752 Y100.842 E41.12691
G1 X23.510 Y99.565 E41.24590
G1 X22.390 Y98.337 E41.35695
G1 X21.158 Y96.891 E41.48385
G1 X20.123 Y95.590 E41.59489
G1 X19.060 Y94.161 E41.71388
G1 X17.980 Y92.598 E41.84080
G1 X17.019 Y91.099 E41.95976
G1 X16.168 Y89.671 E42.07081
G1 X15.250 Y88.007 E42.19773
G1 X14.445 Y86.419 E42.31670
G1 X13.742 Y84.913 E42.42776
G1 X12.996 Y83.165 E42.55467
G1 X12.355 Y81.504 E42.67364
G1 X11.807 Y79.935 E42.78470
G1 X11.241 Y78.121 E42.91159
G1 X10.800 Y76.519 E43.02264
G1 X10.383 Y74.787 E43.14163
G1 X10.002 Y72.926 E43.26854
G1 X9.706 Y71.170 E43.38752
G1 X9.484 Y69.522 E43.49857
G1 X9.292 Y67.632 E43.62548
G1 X9.181 Y65.974 E43.73653
G1 X9.119 Y64.203 E43.85487
G1 X9.117 Y62.404 E43.97508
G1 X9.181 Y60.515 E44.10138
G1 X9.302 Y58.737 E44.22038
G1 X9.470 Y57.084 E44.33142
G1 X9.724 Y55.201 E44.45833
G1 X10.002 Y53.562 E44.56938
G1 X10.357 Y51.817 E44.68835
G1 X10.800 Y49.969 E44.81527
G1 X11.354 Y47.999 E44.95201
G1 X11.807 Y46.554 E45.05321
G1 X12.355 Y44.984 E45.16426
G1 X13.041 Y43.213 E45.29118
G1 X13.693 Y41.684 E45.40223
G1 X14.445 Y40.069 E45.52119
G1 X15.306 Y38.376 E45.64812
G1 X16.168 Y36.817 E45.76709
G1 X17.019 Y35.389 E45.87815
G1 X18.046 Y33.791 E46.00505
G1 X19.060 Y32.327 E46.12403
G1 X20.051 Y30.993 E46.23508
G1 X21.234 Y29.506 E46.36199
G1 X22.311 Y28.241 E46.47303
G1 X23.510 Y26.923 E46.59201
G1 X24.794 Y25.605 E46.71493
G1 X25.380 Y26.130 F30000.000
G1 F2100
G1 X26.631 Y24.933 E46.84450
G1 X27.903 Y23.792 E46.97234
G1 X29.283 Y22.636 E47.10710
G1 X30.629 Y21.584 E47.23495
G1 X32.046 Y20.550 E47.36625
G1 X33.536 Y19.538 E47.50102
G1 X35.021 Y18.603 E47.63233
G1 X36.496 Y17.740 E47.76018
G1 X38.080 Y16.884 E47.89493
G1 X39.609 Y16.122 E48.02278
G1 X41.205 Y15.393 E48.15409
G1 X42.867 Y14.700 E48.28885
G1 X44.508 Y14.081 E48.42015
G1 X46.126 Y13.531 E48.54800
G1 X47.849 Y13.009 E48.68276
G1 X49.545 Y12.558 E48.81406
G1 X51.210 Y12.174 E48.94192
G1 X52.977 Y11.828 E49.07667
G1 X54.664 Y11.557 E49.20452
G1 X56.404 Y11.335 E49.33583
G1 X58.151 Y11.173 E49.46714
G1 X59.949 Y11.067 E49.60190
G1 X61.703 Y11.024 E49.73319
G1 X63.411 Y11.038 E49.86105
G1 X65.210 Y11.113 E49.99581
G1 X66.914 Y11.243 E50.12366
G1 X68.658 Y11.433 E50.25495
G1 X70.441 Y11.689 E50.38972
G1 X72.123 Y11.989 E50.51757
G1 X73.839 Y12.354 E50.64886
G1 X75.586 Y12.788 E50.78364
G1 X77.229 Y13.256 E50.91147
G1 X78.900 Y13.792 E51.04279
G1 X80.595 Y14.400 E51.17754
G1 X82.491 Y15.164 E51.33048
G1 X83.833 Y15.751 E51.44015
G1 X85.375 Y16.486 E51.56799
G1 X86.974 Y17.316 E51.70276
G1 X88.502 Y18.177 E51.83406
G1 X89.962 Y19.064 E51.96191
G1 X91.469 Y20.050 E52.09667
G1 X92.866 Y21.034 E52.22452
G1 X94.267 Y22.090 E52.35582
G1 X95.667 Y23.223 E52.49058
G1 X96.958 Y24.342 E52.61843
G1 X98.245 Y25.534 E52.74973
G1 X99.524 Y26.802 E52.88449
G1 X100.696 Y28.045 E53.01235
G1 X101.856 Y29.361 E53.14365
G1 X103.001 Y30.751 E53.27841
G1 X104.069 Y32.143 E53.40971
G1 X105.064 Y33.532 E53.53757
G1 X106.063 Y35.030 E53.67233
G1 X106.963 Y36.483 E53.80017
G1 X107.836 Y38.004 E53.93147
G1 X108.679 Y39.596 E54.06625
G1 X109.447 Y41.173 E54.19754
G1 X110.144 Y42.733 E54.32539
G1 X110.823 Y44.401 E54.46015
G1 X111.413 Y46.004 E54.58800
G1 X111.964 Y47.670 E54.71930
G1 X112.459 Y49.353 E54.85061
G1 X112.908 Y51.097 E54.98537
G1 X113.278 Y52.765 E55.11322
G1 X113.602 Y54.489 E55.24452
G1 X113.873 Y56.269 E55.37928
G1 X114.073 Y57.966 E55.50713
G1 X114.221 Y59.714 E55.63843
G1 X114.312 Y61.513 E55.77320
G1 X114.341 Y63.221 E55.90105
G1 X114.312 Y64.975 E56.03235
G1 X114.221 Y66.774 E56.16711
G1 X114.078 Y68.476 E56.29496
G1 X113.873 Y70.219 E56.42626
G1 X113.602 Y71.999 E56.56103
G1 X113.288 Y73.678 E56.68887
G1 X112.908 Y75.391 E56.82017
G1 X112.459 Y77.135 E56.95493
G1 X111.978 Y78.775 E57.08279
G1 X111.428 Y80.441 E57.21409
G1 X110.806 Y82.130 E57.34884
G1 X110.144 Y83.756 E57.48017
G1 X109.428 Y85.357 E57.61145
G1 X108.679 Y86.893 E57.73931
G1 X107.858 Y88.444 E57.87061
G1 X106.963 Y90.006 E58.00537
G1 X106.063 Y91.458 E58.13322
G1 X105.090 Y92.919 E58.26453
G1 X104.042 Y94.382 E58.39929
G1 X103.001 Y95.737 E58.52713
G1 X101.886 Y97.092 E58.65844
G1 X100.696 Y98.443 E58.79320
G1 X99.524 Y99.686 E58.92104
G1 X98.278 Y100.922 E59.05235
G1 X96.958 Y102.146 E59.18711
G1 X95.667 Y103.265 E59.31496
G1 X94.303 Y104.370 E59.44627
G1 X92.866 Y105.455 E59.58103
G1 X91.469 Y106.438 E59.70887
G1 X90.002 Y107.400 E59.84018
G1 X88.463 Y108.335 E59.97494
G1 X86.933 Y109.194 E60.10626
G1 X85.375 Y110.002 E60.23755
G1 X83.833 Y110.738 E60.36540
G1 X82.183 Y111.458 E60.50016
G1 X80.595 Y112.088 E60.62801
G1 X78.944 Y112.682 E60.75931
G1 X77.229 Y113.232 E60.89407
G1 X75.586 Y113.700 E61.02192
G1 X73.884 Y114.124 E61.15322
G1 X72.168 Y114.490 E61.28453
G1 X70.395 Y114.806 E61.41930
G1 X68.658 Y115.055 E61.55059
G1 X66.960 Y115.241 E61.67845
G1 X65.164 Y115.378 E61.81320
G1 X63.457 Y115.449 E61.94106
G1 X61.703 Y115.465 E62.07235
G1 X59.903 Y115.419 E62.20712
G1 X58.197 Y115.319 E62.33496
G1 X56.450 Y115.158 E62.46627
G1 X54.664 Y114.932 E62.60104
G1 X52.932 Y114.652 E62.73233
G1 X51.255 Y114.324 E62.86019
G1 X49.500 Y113.919 E62.99494
G1 X47.849 Y113.479 E63.12279
G1 X46.170 Y112.971 E63.25410
G1 X44.465 Y112.392 E63.38886
G1 X42.867 Y111.788 E63.51671
G1 X41.247 Y111.114 E63.64800
G1 X39.650 Y110.386 E63.77932
G1 X38.039 Y109.583 E63.91408
G1 X36.536 Y108.771 E64.04192
G1 X35.021 Y107.886 E64.17324
G1 X33.498 Y106.925 E64.30800
G1 X32.047 Y105.939 E64.43929
G1 X30.666 Y104.932 E64.56715
G1 X29.247 Y103.823 E64.70191
G1 X27.903 Y102.696 E64.83321
G1 X26.631 Y101.556 E64.96106
G1 X25.331 Y100.309 E65.09582
G1 X24.138 Y99.086 E65.22367
G1 X22.955 Y97.790 E65.35498
