; generated by Slic3r 1.3.0 on 2020-06-15 at 18:36:23

; external perimeters extrusion width = 0.44mm (2.78mm^3/s)
; perimeters extrusion width = 0.40mm (7.14mm^3/s)
; infill extrusion width = 0.50mm (10.97mm^3/s)
; solid infill extrusion width = 0.60mm (6.68mm^3/s)
; top infill extrusion width = 0.40mm (2.14mm^3/s)

M107
M190 S80 ; set bed temperature and wait for it to be reached
M104 S200 ; set temperature
G28 ; home all axes
G1 Z5 F5000 ; lift nozzle

; Filament gcode

M109 S200 ; set temperature and wait for it to be reached
G21 ; set units to millimeters
G90 ; use absolute coordinates
M82 ; use absolute distances for extrusion
G92 E0
G1 Z0.300 F30000.000
G1 E-2.00000 F2400.00000
G92 E0
G1 X29.214 Y18.528 F30000.000
G1 E2.00000 F2400.00000
G1 F2100
G1 X29.316 Y18.392 E2.01139
G1 X30.114 Y17.595 E2.08672
G1 X30.250 Y17.492 E2.09811
G1 X31.120 Y16.990 E2.16521
G1 X31.915 Y16.710 E2.22150
G1 X32.212 Y16.640 E2.24189
G1 X32.934 Y16.528 E2.29073
G1 X33.662 Y16.470 E2.33954
G1 X35.334 Y16.423 E2.45128
G1 X37.424 Y16.427 E2.59091
G1 X39.016 Y16.496 E2.69730
G1 X39.939 Y16.572 E2.75922
G1 X41.610 Y16.781 E2.87172
G1 X43.168 Y17.066 E2.97755
G1 X44.504 Y17.383 E3.06925
G1 X45.761 Y17.740 E3.15651
G1 X47.031 Y18.164 E3.24598
G1 X48.103 Y18.561 E3.32233
G1 X49.555 Y19.155 E3.42718
G1 X50.974 Y19.796 E3.53117
G1 X51.868 Y20.231 E3.59757
G1 X53.259 Y20.960 E3.70252
G1 X54.682 Y21.772 E3.81195
G1 X55.459 Y22.248 E3.87286
G1 X56.785 Y23.118 E3.97878
G1 X57.477 Y23.605 E4.03529
G1 X58.208 Y24.144 E4.09600
G1 X59.485 Y25.141 E4.20419
G1 X60.694 Y26.144 E4.30918
G1 X61.982 Y27.264 E4.42318
G1 X64.847 Y29.852 E4.68109
G1 X67.022 Y31.891 E4.88027
G1 X71.991 Y36.626 E5.33885
G1 X74.606 Y39.170 E5.58253
G1 X76.522 Y41.080 E5.76328
G1 X79.492 Y44.106 E6.04653
G1 X81.542 Y46.253 E6.24484
G1 X83.643 Y48.522 E6.45144
G1 X85.829 Y50.976 E6.67102
G1 X88.238 Y53.795 E6.91869
G1 X133.321 Y107.623 E11.60934
G1 X133.605 Y107.972 E11.63941
G1 X133.979 Y108.502 E11.68277
G1 X134.489 Y109.603 E11.76381
G1 X134.551 Y109.829 E11.77943
G1 X134.664 Y111.226 E11.87309
G1 X134.654 Y111.334 E11.88033
G1 X134.329 Y112.595 E11.96733
G1 X134.278 Y112.712 E11.97584
G1 X133.886 Y113.410 E12.02937
G1 X133.549 Y113.858 E12.06678
G1 X133.315 Y114.128 E12.09067
G1 X132.626 Y114.848 E12.15724
G1 X129.934 Y117.557 E12.41235
G1 X126.458 Y121.015 E12.73992
G1 X125.738 Y121.692 E12.80592
G1 X125.132 Y122.164 E12.85729
G1 X124.317 Y122.608 E12.91927
G1 X123.056 Y122.933 E13.00628
G1 X122.948 Y122.943 E13.01352
G1 X121.550 Y122.829 E13.10721
G1 X121.324 Y122.767 E13.12283
G1 X120.224 Y122.258 E13.20381
G1 X119.694 Y121.883 E13.24719
G1 X119.296 Y121.560 E13.28144
G1 X65.517 Y76.516 E17.96791
G1 X62.698 Y74.108 E18.21558
G1 X61.424 Y72.984 E18.32908
G1 X59.728 Y71.449 E18.48188
G1 X57.951 Y69.799 E18.64390
G1 X55.828 Y67.770 E18.84007
G1 X53.784 Y65.773 E19.03094
G1 X50.906 Y62.899 E19.30271
G1 X48.735 Y60.672 E19.51044
G1 X45.317 Y57.096 E19.84095
G1 X42.456 Y54.075 E20.11889
G1 X40.917 Y52.410 E20.27033
G1 X38.410 Y49.605 E20.52170
G1 X37.341 Y48.349 E20.63188
G1 X36.322 Y47.082 E20.74052
G1 X35.474 Y45.958 E20.83455
G1 X34.839 Y45.064 E20.90782
G1 X33.970 Y43.738 E21.01375
G1 X33.117 Y42.315 E21.12455
G1 X32.292 Y40.810 E21.23924
G1 X31.518 Y39.252 E21.35543
G1 X30.907 Y37.902 E21.45442
G1 X30.587 Y37.144 E21.50936
G1 X29.994 Y35.614 E21.61902
G1 X29.461 Y34.039 E21.73009
G1 X29.107 Y32.791 E21.81679
G1 X28.788 Y31.447 E21.90905
G1 X28.503 Y29.889 E22.01488
G1 X28.293 Y28.218 E22.12738
G1 X28.173 Y26.486 E22.24332
G1 X28.148 Y25.703 E22.29569
G1 X28.138 Y24.253 E22.39258
G1 X28.155 Y22.992 E22.47682
G1 X28.199 Y21.823 E22.55495
G1 X28.289 Y20.896 E22.61717
G1 X28.432 Y20.192 E22.66517
G1 X28.712 Y19.399 E22.72136
G1 X29.184 Y18.580 E22.78448
G1 X29.641 Y18.851 F30000.000
G1 F2100
G1 X29.744 Y18.715 E22.79586
G1 X30.436 Y18.022 E22.86129
G1 X30.572 Y17.920 E22.87267
G1 X31.328 Y17.484 E22.93095
G1 X31.513 Y17.406 E22.94432
G1 X32.042 Y17.231 E22.98161
G1 X32.685 Y17.099 E23.02543
G1 X33.583 Y17.011 E23.08574
G1 X34.727 Y16.969 E23.16217
G1 X36.675 Y16.952 E23.29235
G1 X38.190 Y16.987 E23.39359
G1 X39.788 Y17.095 E23.50059
G1 X40.696 Y17.194 E23.56158
G1 X42.242 Y17.430 E23.66609
G1 X43.519 Y17.694 E23.75317
G1 X44.798 Y18.015 E23.84126
G1 X46.295 Y18.475 E23.94589
G1 X47.147 Y18.773 E24.00622
G1 X48.596 Y19.334 E24.11000
G1 X49.980 Y19.928 E24.21061
G1 X50.893 Y20.350 E24.27780
G1 X52.287 Y21.047 E24.38194
G1 X53.712 Y21.827 E24.49042
G1 X54.493 Y22.284 E24.55091
G1 X55.800 Y23.102 E24.65391
G1 X56.663 Y23.685 E24.72346
G1 X57.831 Y24.531 E24.81984
G1 X58.524 Y25.062 E24.87813
G1 X59.731 Y26.034 E24.98165
G1 X61.796 Y27.815 E25.16384
G1 X64.485 Y30.246 E25.40602
G1 X66.654 Y32.279 E25.60460
G1 X71.621 Y37.014 E26.06307
G1 X74.230 Y39.552 E26.30625
G1 X76.141 Y41.457 E26.48648
G1 X79.107 Y44.480 E26.76941
G1 X81.151 Y46.618 E26.96701
G1 X83.245 Y48.880 E27.17295
G1 X85.428 Y51.331 E27.39216
G1 X87.827 Y54.139 E27.63892
G1 X132.905 Y107.960 E32.32902
G1 X133.189 Y108.310 E32.35910
G1 X133.532 Y108.797 E32.39890
G1 X133.974 Y109.753 E32.46928
G1 X134.032 Y109.963 E32.48385
G1 X134.131 Y111.177 E32.56519
G1 X134.121 Y111.285 E32.57243
G1 X133.838 Y112.380 E32.64798
G1 X133.787 Y112.497 E32.65649
G1 X133.447 Y113.103 E32.70298
G1 X133.142 Y113.510 E32.73692
G1 X132.921 Y113.765 E32.75950
G1 X132.245 Y114.473 E32.82487
G1 X129.554 Y117.179 E33.07979
G1 X126.082 Y120.633 E33.40697
G1 X125.390 Y121.285 E33.47047
G1 X124.825 Y121.725 E33.51837
G1 X124.102 Y122.117 E33.57331
G1 X123.006 Y122.400 E33.64887
G1 X122.898 Y122.409 E33.65611
G1 X121.684 Y122.311 E33.73747
G1 X121.474 Y122.253 E33.75205
G1 X120.519 Y121.811 E33.82237
G1 X120.031 Y121.468 E33.86220
G1 X119.640 Y121.149 E33.89590
G1 X65.860 Y76.106 E38.58237
G1 X63.052 Y73.706 E38.82914
G1 X61.782 Y72.586 E38.94227
G1 X60.087 Y71.052 E39.09498
G1 X58.320 Y69.410 E39.25614
G1 X56.201 Y67.386 E39.45189
G1 X54.161 Y65.393 E39.64243
G1 X51.286 Y62.522 E39.91386
G1 X49.121 Y60.301 E40.12106
G1 X45.704 Y56.726 E40.45140
G1 X42.847 Y53.708 E40.72908
G1 X41.312 Y52.048 E40.88009
G1 X38.816 Y49.255 E41.13035
G1 X37.756 Y48.009 E41.23965
G1 X36.747 Y46.756 E41.34712
G1 X35.906 Y45.641 E41.44041
G1 X35.284 Y44.765 E41.51219
G1 X34.421 Y43.449 E41.61733
G1 X33.587 Y42.058 E41.72570
G1 X32.800 Y40.624 E41.83493
G1 X32.046 Y39.118 E41.94746
G1 X31.371 Y37.626 E42.05686
G1 X30.756 Y36.121 E42.16544
G1 X30.197 Y34.574 E42.27540
G1 X29.737 Y33.076 E42.38003
G1 X29.415 Y31.798 E42.46812
G1 X29.152 Y30.521 E42.55520
G1 X28.904 Y28.879 E42.66614
G1 X28.817 Y28.067 E42.72070
G1 X28.712 Y26.552 E42.82211
G1 X28.674 Y24.954 E42.92894
G1 X28.707 Y22.424 E43.09799
G1 X28.780 Y21.280 E43.17454
G1 X28.884 Y20.611 E43.21976
G1 X28.952 Y20.320 E43.23974
G1 X29.205 Y19.607 E43.29030
G1 X29.611 Y18.903 E43.34458
G1 X30.269 Y19.324 F30000.000
G1 F2100
G1 X30.487 Y19.036 E43.37166
G1 X30.757 Y18.765 E43.40029
G1 X31.182 Y18.445 E43.44011
G1 X31.477 Y18.275 E43.46560
G1 X32.117 Y18.022 E43.51710
G1 X32.715 Y17.888 E43.56295
G1 X33.211 Y17.827 E43.60036
G1 X34.210 Y17.770 E43.67527
G1 X35.989 Y17.738 E43.80840
G1 X37.444 Y17.749 E43.91728
G1 X38.958 Y17.817 E44.03072
G1 X40.043 Y17.913 E44.11221
G1 X41.332 Y18.075 E44.20946
G1 X42.173 Y18.217 E44.27325
G1 X43.729 Y18.549 E44.39227
G1 X44.560 Y18.765 E44.45656
G1 X46.102 Y19.239 E44.57732
G1 X46.857 Y19.504 E44.63719
G1 X48.318 Y20.069 E44.75440
G1 X49.664 Y20.648 E44.86402
G1 X50.541 Y21.054 E44.93638
G1 X51.963 Y21.765 E45.05537
G1 X53.338 Y22.518 E45.17269
G1 X54.710 Y23.338 E45.29232
G1 X55.386 Y23.771 E45.35235
G1 X56.212 Y24.330 E45.42700
G1 X57.375 Y25.171 E45.53439
G1 X58.026 Y25.671 E45.59583
G1 X59.238 Y26.647 E45.71230
G1 X61.277 Y28.406 E45.91380
G1 X63.958 Y30.830 E46.18433
G1 X66.112 Y32.849 E46.40526
G1 X71.076 Y37.580 E46.91836
G1 X73.681 Y40.115 E47.19044
G1 X75.580 Y42.008 E47.39109
G1 X78.546 Y45.030 E47.70793
G1 X80.574 Y47.152 E47.92758
G1 X82.657 Y49.402 E48.15706
G1 X84.842 Y51.856 E48.40296
G1 X87.225 Y54.645 E48.67746
G1 X94.282 Y63.183 E49.50640
G1 X97.610 Y67.128 E49.89268
G1 X101.533 Y72.002 E50.36088
G1 X103.001 Y73.791 E50.53409
G1 X114.944 Y87.955 E51.92057
G1 X117.965 Y91.583 E52.27388
G1 X122.558 Y97.150 E52.81399
G1 X124.886 Y99.906 E53.08397
G1 X127.235 Y102.640 E53.35369
G1 X132.267 Y108.422 E53.92733
G1 X132.770 Y109.069 E53.98860
G1 X132.989 Y109.402 E54.01844
G1 X133.162 Y109.775 E54.04926
G1 X133.333 Y110.399 E54.09769
G1 X133.370 Y110.890 E54.13453
G1 X133.321 Y111.419 E54.17425
G1 X133.209 Y111.859 E54.20822
G1 X133.013 Y112.306 E54.24474
G1 X132.878 Y112.545 E54.26529
G1 X132.587 Y112.950 E54.30260
G1 X132.360 Y113.213 E54.32863
G1 X131.683 Y113.923 E54.40205
G1 X128.996 Y116.625 E54.68716
G1 X125.768 Y119.839 E55.02806
G1 X125.047 Y120.536 E55.10315
G1 X124.561 Y120.951 E55.15098
G1 X124.266 Y121.157 E55.17786
G1 X124.027 Y121.291 E55.19839
G1 X123.580 Y121.487 E55.23491
G1 X123.140 Y121.599 E55.26888
G1 X122.612 Y121.649 E55.30861
G1 X122.121 Y121.612 E55.34546
G1 X121.497 Y121.440 E55.39389
G1 X121.123 Y121.268 E55.42469
G1 X120.658 Y120.959 E55.46645
G1 X120.098 Y120.507 E55.52031
G1 X114.486 Y115.621 E56.07717
G1 X110.228 Y111.977 E56.49656
G1 X107.564 Y109.750 E56.75642
G1 X103.304 Y106.244 E57.16927
G1 X98.448 Y102.195 E57.64241
G1 X87.018 Y92.536 E58.76231
G1 X83.724 Y89.812 E59.08216
G1 X78.849 Y85.889 E59.55049
G1 X74.904 Y82.560 E59.93676
G1 X66.359 Y75.497 E60.76642
G1 X63.577 Y73.121 E61.04019
G1 X62.313 Y72.006 E61.16634
G1 X59.977 Y69.883 E61.40256
G1 X57.803 Y67.836 E61.62606
G1 X56.190 Y66.278 E61.79383
G1 X53.729 Y63.859 E62.05207
G1 X51.842 Y61.965 E62.25215
G1 X50.122 Y60.205 E62.43632
G1 X47.668 Y57.647 E62.70160
G1 X44.567 Y54.386 E63.03834
G1 X42.546 Y52.230 E63.25952
G1 X39.978 Y49.387 E63.54625
G1 X38.882 Y48.127 E63.67120
G1 X37.867 Y46.903 E63.79015
G1 X36.893 Y45.653 E63.90877
G1 X35.960 Y44.361 E64.02806
G1 X35.492 Y43.665 E64.09081
G1 X34.641 Y42.304 E64.21090
G1 X33.837 Y40.896 E64.33229
G1 X33.125 Y39.535 E64.44719
G1 X32.775 Y38.820 E64.50678
G1 X32.110 Y37.356 E64.62709
G1 X31.507 Y35.883 E64.74623
G1 X30.950 Y34.348 E64.86843
G1 X30.486 Y32.838 E64.98660
G1 X30.181 Y31.620 E65.08060
G1 X29.938 Y30.452 E65.16991
G1 X29.692 Y28.849 E65.29121
G1 X29.538 Y27.237 E65.41242
G1 X29.495 Y26.459 E65.47070
G1 X29.460 Y24.982 E65.58130
G1 X29.479 Y22.910 E65.73637
G1 X29.548 Y21.490 E65.84277
G1 X29.634 Y20.856 E65.89060
G1 X29.743 Y20.395 E65.92606
G1 X29.818 Y20.176 E65.94341
G1 X29.996 Y19.756 E65.97757
G1 X30.233 Y19.372 E66.01128
G1 X30.748 Y19.686 F30000.000
G1 F2100
G1 X30.940 Y19.430 E66.03522
G1 X31.152 Y19.219 E66.05761
G1 X31.514 Y18.946 E66.09152
G1 X31.744 Y18.813 E66.11145
G1 X32.113 Y18.657 E66.14140
G1 X32.698 Y18.500 E66.18676
G1 X33.263 Y18.425 E66.22936
G1 X34.230 Y18.369 E66.30188
G1 X35.994 Y18.338 E66.43390
G1 X37.427 Y18.349 E66.54117
G1 X38.921 Y18.416 E66.65305
G1 X39.718 Y18.481 E66.71289
G1 X41.246 Y18.669 E66.82811
G1 X42.060 Y18.806 E66.88992
G1 X43.207 Y19.044 E66.97758
G1 X44.365 Y19.333 E67.06684
G1 X45.157 Y19.565 E67.12863
G1 X46.627 Y20.059 E67.24471
G1 X47.384 Y20.344 E67.30524
G1 X48.838 Y20.939 E67.42274
G1 X50.165 Y21.540 E67.53178
G1 X50.965 Y21.928 E67.59838
G1 X52.334 Y22.644 E67.71394
G1 X53.059 Y23.050 E67.77613
G1 X54.395 Y23.849 E67.89259
G1 X55.082 Y24.289 E67.95367
G1 X55.867 Y24.821 E68.02463
G1 X57.016 Y25.652 E68.13077
G1 X57.655 Y26.142 E68.19105
G1 X58.856 Y27.110 E68.30650
G1 X60.879 Y28.855 E68.50641
G1 X63.552 Y31.272 E68.77604
G1 X65.699 Y33.285 E68.99633
G1 X70.660 Y38.012 E69.50914
G1 X73.261 Y40.543 E69.78070
G1 X75.154 Y42.430 E69.98079
G1 X78.115 Y45.448 E70.29714
G1 X80.136 Y47.562 E70.51602
G1 X82.212 Y49.804 E70.74470
G1 X84.391 Y52.251 E70.98992
G1 X86.765 Y55.030 E71.26338
G1 X93.821 Y63.566 E72.09220
G1 X97.147 Y67.509 E72.47821
G1 X101.067 Y72.380 E72.94615
G1 X102.539 Y74.173 E73.11971
G1 X114.484 Y88.340 E74.50646
G1 X117.503 Y91.966 E74.85959
G1 X122.097 Y97.535 E75.39987
G1 X124.430 Y100.295 E75.67030
G1 X126.780 Y103.032 E75.94027
G1 X131.807 Y108.808 E76.51328
G1 X132.192 Y109.286 E76.55924
G1 X132.463 Y109.694 E76.59589
G1 X132.598 Y109.986 E76.61999
G1 X132.739 Y110.498 E76.65971
G1 X132.768 Y110.882 E76.68852
G1 X132.727 Y111.319 E76.72133
G1 X132.640 Y111.663 E76.74789
G1 X132.475 Y112.038 E76.77853
G1 X132.370 Y112.225 E76.79459
G1 X132.188 Y112.484 E76.81828
G1 X131.719 Y113.024 E76.87185
G1 X128.337 Y116.437 E77.23140
G1 X125.346 Y119.412 E77.54713
G1 X124.746 Y119.997 E77.60984
G1 X124.206 Y120.467 E77.66340
G1 X123.946 Y120.648 E77.68711
G1 X123.759 Y120.754 E77.70316
G1 X123.384 Y120.918 E77.73379
G1 X123.040 Y121.006 E77.76035
G1 X122.604 Y121.047 E77.79317
G1 X122.220 Y121.017 E77.82198
G1 X121.708 Y120.877 E77.86171
G1 X121.416 Y120.742 E77.88579
G1 X121.008 Y120.471 E77.92244
G1 X120.487 Y120.050 E77.97251
G1 X114.879 Y115.167 E78.52901
G1 X110.616 Y111.518 E78.94896
G1 X107.947 Y109.288 E79.20921
G1 X103.687 Y105.782 E79.62209
G1 X98.834 Y101.735 E80.09500
G1 X87.404 Y92.077 E81.21484
G1 X84.102 Y89.346 E81.53553
G1 X79.230 Y85.425 E82.00348
G1 X75.288 Y82.100 E82.38943
G1 X66.745 Y75.038 E83.21887
G1 X63.973 Y72.670 E83.49176
G1 X62.713 Y71.559 E83.61746
G1 X60.384 Y69.442 E83.85299
G1 X58.216 Y67.401 E84.07581
G1 X56.608 Y65.848 E84.24309
G1 X54.152 Y63.433 E84.50089
G1 X52.268 Y61.543 E84.70053
G1 X50.553 Y59.788 E84.88424
G1 X48.102 Y57.233 E85.14921
G1 X45.003 Y53.975 E85.48569
G1 X42.993 Y51.830 E85.70564
G1 X40.429 Y48.991 E85.99192
G1 X39.340 Y47.739 E86.11614
G1 X38.337 Y46.530 E86.23371
G1 X37.374 Y45.295 E86.35091
G1 X36.453 Y44.019 E86.46867
G1 X35.996 Y43.339 E86.52995
G1 X35.158 Y41.999 E86.64823
G1 X34.379 Y40.637 E86.76565
G1 X33.650 Y39.244 E86.88330
G1 X32.973 Y37.823 E87.00108
G1 X32.356 Y36.393 E87.11765
G1 X31.781 Y34.906 E87.23696
G1 X31.286 Y33.436 E87.35305
G1 X30.966 Y32.304 E87.44103
G1 X30.675 Y31.086 E87.53479
G1 X30.391 Y29.524 E87.65355
G1 X30.200 Y27.968 E87.77091
G1 X30.094 Y26.436 E87.88579
G1 X30.060 Y24.284 E88.04686
G1 X30.076 Y23.045 E88.13963
G1 X30.112 Y22.012 E88.21695
G1 X30.203 Y21.084 E88.28673
G1 X30.320 Y20.563 E88.32669
G1 X30.378 Y20.392 E88.34024
G1 X30.534 Y20.023 E88.37022
G1 X30.711 Y19.734 E88.39560
G1 X31.227 Y20.047 F30000.000
G1 F2100
G1 X31.394 Y19.825 E88.41642
G1 X31.547 Y19.673 E88.43256
G1 X31.845 Y19.447 E88.46056
G1 X32.012 Y19.351 E88.47493
G1 X32.329 Y19.217 E88.50070
G1 X32.896 Y19.075 E88.54449
G1 X33.739 Y18.992 E88.60784
G1 X34.786 Y18.954 E88.68628
G1 X36.680 Y18.939 E88.82799
G1 X38.135 Y18.973 E88.93690
G1 X39.637 Y19.076 E89.04956
G1 X40.416 Y19.161 E89.10826
G1 X41.182 Y19.266 E89.16612
G1 X42.687 Y19.542 E89.28061
G1 X44.231 Y19.919 E89.39954
G1 X44.977 Y20.137 E89.45768
G1 X46.441 Y20.630 E89.57333
G1 X47.869 Y21.182 E89.68785
G1 X48.598 Y21.489 E89.74703
G1 X49.912 Y22.084 E89.85498
G1 X50.699 Y22.466 E89.92052
G1 X52.050 Y23.173 E90.03460
G1 X52.759 Y23.569 E90.09535
G1 X54.079 Y24.359 E90.21047
G1 X54.750 Y24.789 E90.27011
G1 X55.522 Y25.311 E90.33986
G1 X56.657 Y26.133 E90.44475
G1 X57.284 Y26.614 E90.50387
G1 X58.475 Y27.573 E90.61831
G1 X60.484 Y29.306 E90.81684
G1 X63.373 Y31.924 E91.10865
G1 X67.077 Y35.420 E91.48976
G1 X71.092 Y39.263 E91.90566
G1 X73.769 Y41.892 E92.18646
G1 X76.694 Y44.848 E92.49771
G1 X79.693 Y47.967 E92.82152
G1 X81.762 Y50.202 E93.04943
G1 X83.946 Y52.653 E93.29510
G1 X86.301 Y55.411 E93.56649
G1 X93.360 Y63.950 E94.39561
G1 X96.683 Y67.890 E94.78134
G1 X100.601 Y72.757 E95.24890
G1 X102.076 Y74.555 E95.42293
G1 X114.024 Y88.724 E96.80996
G1 X117.041 Y92.349 E97.16289
G1 X121.637 Y97.920 E97.70334
G1 X125.207 Y102.125 E98.11617
G1 X131.290 Y109.125 E98.81015
G1 X131.661 Y109.578 E98.85395
G1 X131.938 Y109.987 E98.89090
G1 X132.035 Y110.197 E98.90827
G1 X132.086 Y110.374 E98.92203
G1 X132.145 Y110.597 E98.93930
G1 X132.166 Y110.874 E98.96007
G1 X132.133 Y111.219 E98.98599
G1 X132.070 Y111.467 E99.00513
G1 X131.862 Y111.904 E99.04141
G1 X131.656 Y112.191 E99.06783
G1 X131.280 Y112.615 E99.11026
