; generated by Slic3r 1.3.0 on 2020-06-15 at 18:25:41

; external perimeters extrusion width = 0.44mm (2.78mm^3/s)
; perimeters extrusion width = 0.40mm (7.14mm^3/s)
; infill extrusion width = 0.50mm (10.97mm^3/s)
; solid infill extrusion width = 0.60mm (6.68mm^3/s)
; top infill extrusion width = 0.40mm (2.14mm^3/s)

M107
M190 S80 ; set bed temperature and wait for it to be reached
M104 S200 ; set temperature
G28 ; home all axes
G1 Z5 F5000 ; lift nozzle

; Filament gcode

M109 S200 ; set temperature and wait for it to be reached
G21 ; set units to millimeters
G90 ; use absolute coordinates
M82 ; use absolute distances for extrusion
G92 E0
G1 Z0.300 F30000.000
G1 E-2.00000 F2400.00000
G92 E0
G1 X48.356 Y49.153 F30000.000
G1 E2.00000 F2400.00000
G1 F2100
G1 X49.153 Y48.355 E2.07534
G1 X49.289 Y48.253 E2.08672
G1 X50.159 Y47.751 E2.15383
G1 X50.344 Y47.674 E2.16719
G1 X50.954 Y47.471 E2.21014
G1 X51.657 Y47.329 E2.25806
G1 X52.584 Y47.238 E2.32028
G1 X53.753 Y47.194 E2.39841
G1 X55.715 Y47.178 E2.52950
G1 X57.247 Y47.213 E2.63191
G1 X58.871 Y47.322 E2.74065
G1 X59.808 Y47.424 E2.80360
G1 X61.370 Y47.663 E2.90919
G1 X62.678 Y47.933 E2.99840
G1 X63.987 Y48.262 E3.08858
G1 X65.499 Y48.726 E3.19420
G1 X66.375 Y49.033 E3.25622
G1 X67.834 Y49.597 E3.36070
G1 X69.236 Y50.199 E3.46265
G1 X70.167 Y50.630 E3.53120
G1 X71.571 Y51.331 E3.63601
G1 X73.013 Y52.120 E3.74585
G1 X73.812 Y52.588 E3.80766
G1 X75.128 Y53.412 E3.91144
G1 X76.010 Y54.008 E3.98252
G1 X77.189 Y54.861 E4.07975
G1 X77.896 Y55.403 E4.13928
G1 X79.109 Y56.381 E4.24337
G1 X81.190 Y58.174 E4.42689
G1 X83.899 Y60.624 E4.67086
G1 X86.062 Y62.651 E4.86890
G1 X91.031 Y67.387 E5.32748
G1 X93.645 Y69.931 E5.57117
G1 X95.561 Y71.841 E5.75191
G1 X98.531 Y74.867 E6.03517
G1 X100.582 Y77.013 E6.23347
G1 X102.683 Y79.283 E6.44007
G1 X104.869 Y81.737 E6.65966
G1 X107.277 Y84.556 E6.90733
G1 X152.644 Y138.733 E11.62804
G1 X153.019 Y139.263 E11.67140
G1 X153.528 Y140.364 E11.75244
G1 X153.590 Y140.590 E11.76806
G1 X153.704 Y141.987 E11.86172
G1 X153.694 Y142.095 E11.86896
G1 X153.368 Y143.356 E11.95596
G1 X153.317 Y143.473 E11.96447
G1 X152.925 Y144.171 E12.01800
G1 X152.830 Y144.306 E12.02901
G1 X152.588 Y144.619 E12.05542
G1 X152.179 Y145.079 E12.09660
G1 X148.737 Y148.555 E12.42337
G1 X145.491 Y151.782 E12.72913
G1 X144.778 Y152.453 E12.79455
G1 X144.171 Y152.925 E12.84593
G1 X143.356 Y153.368 E12.90791
G1 X142.095 Y153.694 E12.99491
G1 X141.987 Y153.704 E13.00215
G1 X140.589 Y153.590 E13.09584
G1 X140.364 Y153.528 E13.11147
G1 X139.263 Y153.019 E13.19245
G1 X138.733 Y152.644 E13.23583
G1 X138.335 Y152.321 E13.27007
G1 X84.556 Y107.277 E17.95655
G1 X81.737 Y104.869 E18.20422
G1 X80.463 Y103.745 E18.31771
G1 X78.126 Y101.622 E18.52864
G1 X75.934 Y99.557 E18.72984
G1 X74.308 Y97.988 E18.88078
G1 X71.841 Y95.561 E19.11197
G1 X69.931 Y93.645 E19.29271
G1 X67.775 Y91.433 E19.49908
G1 X64.356 Y87.857 E19.82959
G1 X61.496 Y84.836 E20.10753
G1 X59.942 Y83.155 E20.26041
G1 X57.450 Y80.365 E20.51034
G1 X56.381 Y79.109 E20.62052
G1 X55.361 Y77.843 E20.72915
G1 X54.366 Y76.516 E20.83995
G1 X53.461 Y75.203 E20.94647
G1 X52.964 Y74.427 E21.00803
G1 X52.120 Y73.013 E21.11802
G1 X51.331 Y71.570 E21.22787
G1 X50.557 Y70.013 E21.34406
G1 X49.946 Y68.663 E21.44306
G1 X49.627 Y67.905 E21.49800
G1 X49.033 Y66.375 E21.60766
G1 X48.501 Y64.800 E21.71872
G1 X48.146 Y63.551 E21.80543
G1 X47.827 Y62.208 E21.89769
G1 X47.542 Y60.650 E22.00351
G1 X47.333 Y58.979 E22.11602
G1 X47.213 Y57.247 E22.23196
G1 X47.188 Y56.464 E22.28432
G1 X47.178 Y55.013 E22.38122
G1 X47.194 Y53.753 E22.46546
G1 X47.238 Y52.584 E22.54358
G1 X47.329 Y51.657 E22.60581
G1 X47.472 Y50.953 E22.65381
G1 X47.751 Y50.159 E22.71000
G1 X48.319 Y49.201 E22.78445
G1 X48.783 Y49.476 F30000.000
G1 F2100
G1 X49.476 Y48.783 E22.84987
G1 X49.612 Y48.680 E22.86126
G1 X50.368 Y48.245 E22.91954
G1 X51.082 Y47.991 E22.97017
G1 X51.724 Y47.860 E23.01398
G1 X52.229 Y47.801 E23.04793
G1 X53.185 Y47.746 E23.11187
G1 X54.306 Y47.720 E23.18681
G1 X55.764 Y47.713 E23.28420
G1 X57.313 Y47.752 E23.38774
G1 X58.828 Y47.856 E23.48916
G1 X59.990 Y47.990 E23.56733
G1 X61.383 Y48.210 E23.66155
G1 X62.926 Y48.539 E23.76691
G1 X63.837 Y48.776 E23.82983
G1 X65.334 Y49.236 E23.93446
G1 X66.187 Y49.534 E23.99479
G1 X67.636 Y50.095 E24.09857
G1 X69.019 Y50.689 E24.19918
G1 X69.932 Y51.111 E24.26637
G1 X71.327 Y51.808 E24.37051
G1 X72.751 Y52.587 E24.47899
G1 X73.533 Y53.045 E24.53948
G1 X74.839 Y53.863 E24.64248
G1 X75.702 Y54.446 E24.71203
G1 X76.871 Y55.292 E24.80841
G1 X77.563 Y55.823 E24.86670
G1 X78.770 Y56.795 E24.97022
G1 X80.835 Y58.576 E25.15241
G1 X83.535 Y61.017 E25.39557
G1 X85.693 Y63.040 E25.59317
G1 X90.661 Y67.775 E26.05164
G1 X93.270 Y70.313 E26.29482
G1 X95.181 Y72.218 E26.47505
G1 X98.147 Y75.241 E26.75798
G1 X100.190 Y77.379 E26.95558
G1 X102.285 Y79.641 E27.16152
G1 X104.467 Y82.091 E27.38073
G1 X106.866 Y84.900 E27.62749
G1 X151.945 Y138.721 E32.31759
G1 X152.228 Y139.071 E32.34766
G1 X152.572 Y139.558 E32.38747
G1 X153.014 Y140.514 E32.45785
G1 X153.072 Y140.724 E32.47242
G1 X153.170 Y141.938 E32.55376
G1 X153.160 Y142.046 E32.56100
G1 X152.878 Y143.141 E32.63655
G1 X152.827 Y143.258 E32.64506
G1 X152.486 Y143.864 E32.69155
G1 X152.392 Y143.999 E32.70256
G1 X152.181 Y144.271 E32.72549
G1 X151.785 Y144.716 E32.76534
G1 X148.357 Y148.176 E33.09070
G1 X145.116 Y151.399 E33.39605
G1 X144.430 Y152.046 E33.45905
G1 X143.864 Y152.486 E33.50694
G1 X143.141 Y152.878 E33.56188
G1 X142.046 Y153.160 E33.63744
G1 X141.938 Y153.170 E33.64468
G1 X140.724 Y153.071 E33.72605
G1 X140.514 Y153.014 E33.74062
G1 X139.558 Y152.572 E33.81095
G1 X139.071 Y152.228 E33.85077
G1 X138.679 Y151.910 E33.88447
G1 X84.900 Y106.866 E38.57095
G1 X82.091 Y104.467 E38.81771
G1 X80.821 Y103.347 E38.93085
G1 X78.489 Y101.227 E39.14140
G1 X76.303 Y99.168 E39.34202
G1 X74.682 Y97.604 E39.49253
G1 X72.218 Y95.181 E39.72340
G1 X70.313 Y93.270 E39.90362
G1 X68.161 Y91.062 E40.10963
G1 X64.744 Y87.487 E40.43997
G1 X61.886 Y84.469 E40.71766
G1 X60.339 Y82.795 E40.86992
G1 X57.855 Y80.016 E41.11892
G1 X56.795 Y78.770 E41.22822
G1 X55.786 Y77.517 E41.33570
G1 X54.945 Y76.402 E41.42898
G1 X54.323 Y75.526 E41.50077
G1 X53.460 Y74.210 E41.60591
G1 X52.619 Y72.806 E41.71524
G1 X51.808 Y71.326 E41.82794
G1 X51.043 Y69.787 E41.94277
G1 X50.436 Y68.447 E42.04109
G1 X50.120 Y67.698 E42.09538
G1 X49.534 Y66.187 E42.20365
G1 X49.011 Y64.636 E42.31303
G1 X48.664 Y63.416 E42.39770
G1 X48.353 Y62.104 E42.48783
G1 X48.070 Y60.561 E42.59261
G1 X47.865 Y58.921 E42.70302
G1 X47.748 Y57.230 E42.81627
G1 X47.713 Y55.018 E42.96402
G1 X47.730 Y53.766 E43.04768
G1 X47.772 Y52.623 E43.12411
G1 X47.860 Y51.724 E43.18442
G1 X47.992 Y51.081 E43.22831
G1 X48.245 Y50.368 E43.27886
G1 X48.747 Y49.523 E43.34448
G1 X49.411 Y49.949 F30000.000
G1 F2100
G1 X49.526 Y49.796 E43.35880
G1 X49.797 Y49.526 E43.38743
G1 X50.221 Y49.205 E43.42725
G1 X50.516 Y49.035 E43.45274
G1 X50.936 Y48.857 E43.48687
G1 X51.157 Y48.783 E43.50428
G1 X51.617 Y48.673 E43.53971
G1 X52.251 Y48.588 E43.58754
G1 X53.225 Y48.531 E43.66062
G1 X55.743 Y48.500 E43.84902
G1 X57.253 Y48.536 E43.96206
G1 X58.782 Y48.641 E44.07673
G1 X59.885 Y48.769 E44.15983
G1 X61.169 Y48.970 E44.25714
G1 X62.377 Y49.220 E44.34946
G1 X63.560 Y49.515 E44.44065
G1 X64.377 Y49.753 E44.50435
G1 X65.634 Y50.173 E44.60351
G1 X66.644 Y50.546 E44.68410
G1 X68.093 Y51.139 E44.80129
G1 X68.851 Y51.475 E44.86328
G1 X70.271 Y52.151 E44.98101
G1 X71.656 Y52.876 E45.09804
G1 X72.399 Y53.291 E45.16169
G1 X73.750 Y54.099 E45.27949
G1 X74.453 Y54.550 E45.34199
G1 X75.252 Y55.091 E45.41417
G1 X76.414 Y55.932 E45.52156
G1 X77.066 Y56.431 E45.58300
G1 X78.277 Y57.408 E45.69947
G1 X80.320 Y59.170 E45.90133
G1 X83.228 Y61.804 E46.19499
G1 X86.109 Y64.519 E46.49121
G1 X90.518 Y68.728 E46.94737
G1 X92.721 Y70.876 E47.17761
G1 X94.620 Y72.769 E47.37826
G1 X97.585 Y75.791 E47.69510
G1 X99.613 Y77.913 E47.91475
G1 X101.696 Y80.163 E48.14423
G1 X103.882 Y82.617 E48.39013
G1 X106.264 Y85.405 E48.66463
G1 X113.321 Y93.943 E49.49357
G1 X116.650 Y97.889 E49.87985
G1 X120.572 Y102.763 E50.34805
G1 X122.041 Y104.552 E50.52126
G1 X133.984 Y118.715 E51.90773
G1 X137.005 Y122.344 E52.26105
G1 X141.597 Y127.911 E52.80116
G1 X143.926 Y130.667 E53.07114
G1 X146.274 Y133.401 E53.34086
G1 X151.327 Y139.208 E53.91694
G1 X151.719 Y139.698 E53.96388
G1 X152.028 Y140.162 E54.00563
G1 X152.201 Y140.536 E54.03646
G1 X152.373 Y141.160 E54.08489
G1 X152.410 Y141.651 E54.12173
G1 X152.360 Y142.180 E54.16144
G1 X152.248 Y142.619 E54.19541
G1 X152.052 Y143.066 E54.23194
G1 X151.917 Y143.306 E54.25249
G1 X151.712 Y143.600 E54.27934
G1 X151.197 Y144.194 E54.33816
G1 X147.801 Y147.621 E54.69926
G1 X144.687 Y150.719 E55.02794
G1 X143.974 Y151.399 E55.10169
G1 X143.600 Y151.712 E55.13817
G1 X143.306 Y151.918 E55.16505
G1 X143.066 Y152.052 E55.18558
G1 X142.619 Y152.248 E55.22210
G1 X142.180 Y152.360 E55.25607
G1 X141.651 Y152.410 E55.29580
G1 X141.160 Y152.372 E55.33265
G1 X140.536 Y152.201 E55.38108
G1 X140.162 Y152.028 E55.41188
G1 X139.698 Y151.719 E55.45364
G1 X139.137 Y151.268 E55.50750
G1 X133.526 Y146.381 E56.06436
G1 X129.268 Y142.737 E56.48375
G1 X126.603 Y140.511 E56.74361
G1 X122.344 Y137.005 E57.15646
G1 X117.488 Y132.956 E57.62960
G1 X106.057 Y123.297 E58.74950
G1 X102.764 Y120.573 E59.06935
G1 X97.888 Y116.649 E59.53768
G1 X93.943 Y113.321 E59.92395
G1 X85.398 Y106.258 E60.75361
G1 X82.617 Y103.882 E61.02738
G1 X81.352 Y102.767 E61.15353
G1 X79.016 Y100.644 E61.38975
G1 X76.842 Y98.596 E61.61325
G1 X75.229 Y97.039 E61.78102
G1 X72.769 Y94.620 E62.03926
G1 X70.881 Y92.726 E62.23934
G1 X69.161 Y90.966 E62.42352
G1 X66.707 Y88.408 E62.68879
G1 X63.606 Y85.147 E63.02553
G1 X61.585 Y82.991 E63.24671
G1 X59.017 Y80.148 E63.53344
G1 X57.921 Y78.888 E63.65839
G1 X56.907 Y77.664 E63.77734
G1 X55.932 Y76.414 E63.89596
G1 X54.999 Y75.121 E64.01525
G1 X54.532 Y74.425 E64.07800
G1 X53.681 Y73.065 E64.19809
G1 X52.876 Y71.656 E64.31948
G1 X52.164 Y70.296 E64.43438
G1 X51.815 Y69.581 E64.49397
G1 X51.150 Y68.117 E64.61428
G1 X50.546 Y66.644 E64.73342
G1 X49.989 Y65.109 E64.85562
G1 X49.525 Y63.599 E64.97379
G1 X49.220 Y62.381 E65.06780
G1 X48.978 Y61.212 E65.15710
G1 X48.836 Y60.372 E65.22088
G1 X48.727 Y59.573 E65.28121
G1 X48.641 Y58.782 E65.34079
G1 X48.536 Y57.253 E65.45547
G1 X48.499 Y55.723 E65.56998
G1 X48.530 Y53.250 E65.75508
G1 X48.595 Y52.177 E65.83553
G1 X48.673 Y51.617 E65.87781
G1 X48.783 Y51.156 E65.91327
G1 X49.035 Y50.516 E65.96475
G1 X49.205 Y50.221 E65.99024
G1 X49.375 Y49.997 E66.01126
G1 X49.890 Y50.311 F30000.000
G1 F2100
G1 X49.980 Y50.191 E66.02245
G1 X50.191 Y49.980 E66.04483
G1 X50.553 Y49.707 E66.07875
G1 X50.784 Y49.574 E66.09867
G1 X51.324 Y49.359 E66.14220
G1 X51.738 Y49.261 E66.17400
G1 X52.302 Y49.186 E66.21660
G1 X53.269 Y49.130 E66.28911
G1 X55.033 Y49.099 E66.42114
G1 X56.467 Y49.110 E66.52840
G1 X57.960 Y49.176 E66.64029
G1 X58.757 Y49.242 E66.70013
G1 X60.285 Y49.430 E66.81535
G1 X61.100 Y49.567 E66.87715
G1 X62.247 Y49.805 E66.96482
G1 X63.404 Y50.094 E67.05408
G1 X64.196 Y50.325 E67.11587
G1 X65.667 Y50.820 E67.23195
G1 X66.424 Y51.105 E67.29248
G1 X67.877 Y51.700 E67.40998
G1 X69.204 Y52.301 E67.51902
G1 X70.005 Y52.689 E67.58562
G1 X71.373 Y53.405 E67.70117
G1 X72.098 Y53.811 E67.76337
G1 X73.434 Y54.609 E67.87983
G1 X74.121 Y55.050 E67.94090
G1 X74.906 Y55.581 E68.01187
G1 X76.055 Y56.413 E68.11801
G1 X76.695 Y56.903 E68.17829
G1 X77.896 Y57.871 E68.29374
G1 X79.922 Y59.618 E68.49394
G1 X82.821 Y62.245 E68.78667
G1 X85.696 Y64.954 E69.08231
G1 X90.102 Y69.160 E69.53817
G1 X92.300 Y71.304 E69.76794
G1 X94.194 Y73.191 E69.96803
G1 X97.154 Y76.208 E70.28438
G1 X99.175 Y78.323 E70.50326
G1 X101.251 Y80.565 E70.73194
G1 X103.431 Y83.012 E70.97716
G1 X105.804 Y85.791 E71.25062
G1 X112.860 Y94.327 E72.07944
G1 X116.186 Y98.270 E72.46545
G1 X120.107 Y103.141 E72.93339
G1 X121.578 Y104.934 E73.10695
G1 X133.524 Y119.100 E74.49370
G1 X136.543 Y122.727 E74.84683
G1 X141.137 Y128.296 E75.38710
G1 X143.469 Y131.056 E75.65754
G1 X145.820 Y133.793 E75.92751
G1 X150.847 Y139.568 E76.50052
G1 X151.231 Y140.047 E76.54648
G1 X151.503 Y140.455 E76.58313
G1 X151.638 Y140.747 E76.60722
G1 X151.778 Y141.259 E76.64695
G1 X151.807 Y141.643 E76.67575
G1 X151.766 Y142.080 E76.70857
G1 X151.679 Y142.424 E76.73513
G1 X151.514 Y142.798 E76.76577
G1 X151.409 Y142.985 E76.78183
G1 X151.228 Y143.245 E76.80552
G1 X150.758 Y143.785 E76.85909
G1 X147.376 Y147.198 E77.21864
G1 X144.385 Y150.173 E77.53437
G1 X143.785 Y150.758 E77.59707
G1 X143.245 Y151.228 E77.65064
G1 X142.985 Y151.409 E77.67434
G1 X142.798 Y151.514 E77.69040
G1 X142.424 Y151.679 E77.72103
G1 X142.080 Y151.766 E77.74759
G1 X141.643 Y151.807 E77.78041
G1 X141.259 Y151.778 E77.80922
G1 X140.747 Y151.638 E77.84894
G1 X140.455 Y151.503 E77.87302
G1 X140.047 Y151.231 E77.90968
G1 X139.527 Y150.811 E77.95975
G1 X133.918 Y145.928 E78.51625
G1 X129.655 Y142.279 E78.93620
G1 X126.986 Y140.049 E79.19645
G1 X122.727 Y136.543 E79.60933
G1 X117.873 Y132.496 E80.08224
G1 X106.443 Y122.838 E81.20208
G1 X103.141 Y120.107 E81.52277
G1 X98.270 Y116.186 E81.99072
G1 X94.328 Y112.860 E82.37667
G1 X85.785 Y105.799 E83.20610
G1 X83.012 Y103.431 E83.47899
G1 X81.752 Y102.320 E83.60470
G1 X79.423 Y100.203 E83.84023
G1 X77.255 Y98.162 E84.06305
G1 X75.647 Y96.609 E84.23033
G1 X73.191 Y94.194 E84.48813
G1 X71.308 Y92.304 E84.68777
G1 X69.592 Y90.548 E84.87147
G1 X67.141 Y87.993 E85.13645
G1 X64.042 Y84.735 E85.47293
G1 X62.032 Y82.591 E85.69288
G1 X59.468 Y79.752 E85.97916
G1 X58.379 Y78.500 E86.10338
G1 X57.376 Y77.290 E86.22095
G1 X56.413 Y76.055 E86.33815
G1 X55.492 Y74.779 E86.45591
G1 X55.036 Y74.100 E86.51719
G1 X54.197 Y72.760 E86.63547
G1 X53.427 Y71.414 E86.75147
G1 X53.056 Y70.722 E86.81027
G1 X52.354 Y69.319 E86.92766
G1 X51.700 Y67.877 E87.04618
G1 X51.105 Y66.424 E87.16368
G1 X50.559 Y64.921 E87.28331
G1 X50.102 Y63.435 E87.39967
G1 X49.805 Y62.247 E87.49133
G1 X49.567 Y61.100 E87.57899
G1 X49.327 Y59.533 E87.69761
G1 X49.176 Y57.960 E87.81584
G1 X49.134 Y57.197 E87.87303
G1 X49.099 Y55.737 E87.98238
G1 X49.118 Y53.686 E88.13580
G1 X49.186 Y52.302 E88.23953
G1 X49.261 Y51.738 E88.28213
G1 X49.359 Y51.324 E88.31395
G1 X49.574 Y50.784 E88.35745
G1 X49.707 Y50.553 E88.37739
G1 X49.853 Y50.358 E88.39562
G1 X50.369 Y50.672 F30000.000
G1 F2100
G1 X50.586 Y50.433 E88.41977
G1 X50.885 Y50.208 E88.44778
G1 X51.051 Y50.112 E88.46214
G1 X51.492 Y49.936 E88.49770
G1 X51.936 Y49.835 E88.53173
G1 X52.778 Y49.752 E88.59508
G1 X53.826 Y49.715 E88.67351
G1 X55.719 Y49.699 E88.81522
G1 X57.192 Y49.734 E88.92551
G1 X58.676 Y49.837 E89.03679
G1 X59.456 Y49.922 E89.09549
G1 X60.222 Y50.027 E89.15336
G1 X61.727 Y50.303 E89.26784
G1 X63.270 Y50.680 E89.38677
G1 X64.016 Y50.898 E89.44491
G1 X65.481 Y51.391 E89.56056
G1 X66.908 Y51.943 E89.67508
G1 X67.637 Y52.249 E89.73426
G1 X68.951 Y52.845 E89.84221
G1 X69.739 Y53.227 E89.90776
G1 X71.090 Y53.934 E90.02184
G1 X71.798 Y54.330 E90.08258
G1 X73.118 Y55.120 E90.19770
G1 X73.789 Y55.550 E90.25735
G1 X74.561 Y56.072 E90.32710
G1 X75.697 Y56.894 E90.43199
G1 X76.323 Y57.374 E90.49110
G1 X77.514 Y58.334 E90.60554
G1 X79.523 Y60.067 E90.80407
G1 X82.413 Y62.685 E91.09588
G1 X86.116 Y66.181 E91.47700
G1 X90.131 Y70.023 E91.89290
G1 X92.808 Y72.653 E92.17369
G1 X95.734 Y75.609 E92.48494
G1 X98.732 Y78.728 E92.80875
G1 X100.802 Y80.963 E93.03667
G1 X102.985 Y83.414 E93.28233
G1 X105.341 Y86.171 E93.55372
G1 X112.399 Y94.711 E94.38284
G1 X115.723 Y98.651 E94.76857
G1 X119.640 Y103.518 E95.23613
G1 X121.115 Y105.316 E95.41016
G1 X133.063 Y119.485 E96.79720
G1 X136.081 Y123.110 E97.15013
G1 X140.676 Y128.681 E97.69058
G1 X144.247 Y132.886 E98.10341
G1 X150.329 Y139.886 E98.79738
G1 X150.700 Y140.339 E98.84119
G1 X150.977 Y140.748 E98.87814
G1 X151.074 Y140.958 E98.89551
G1 X151.126 Y141.135 E98.90926
G1 X151.184 Y141.358 E98.92654
G1 X151.205 Y141.635 E98.94730
G1 X151.173 Y141.980 E98.97322
G1 X151.110 Y142.228 E98.99236
G1 X150.901 Y142.665 E99.02865
G1 X150.696 Y142.952 E99.05506
G1 X150.319 Y143.376 E99.09750
