; generated by Slic3r 1.3.0 on 2023-11-09 at 13:02:12

; external perimeters extrusion width = 0.44mm (2.78mm^3/s)
; perimeters extrusion width = 0.40mm (7.14mm^3/s)
; infill extrusion width = 0.50mm (10.97mm^3/s)
; solid infill extrusion width = 0.60mm (6.68mm^3/s)
; top infill extrusion width = 0.40mm (2.14mm^3/s)

M107
M190 S80 ; set bed temperature and wait for it to be reached
M104 S210 ; set temperature
G28 ; home all axes
G1 Z5 F5000 ; lift nozzle

; Filament gcode

M109 S210 ; set temperature and wait for it to be reached
G21 ; set units to millimeters
G90 ; use absolute coordinates
M82 ; use absolute distances for extrusion
G92 E0
G1 Z0.300 F30000.000
G1 E-2.00000 F2400.00000
G92 E0
G1 X71.073 Y70.210 F30000.000
G1 E2.00000 F2400.00000
G1 F2100
G1 X72.392 Y69.151 E2.11302
G1 X73.774 Y68.303 E2.22132
G1 X75.315 Y67.606 E2.33434
G1 X76.864 Y67.128 E2.44264
G1 X78.531 Y66.836 E2.55566
G1 X80.150 Y66.758 E2.66396
G1 X81.837 Y66.890 E2.77698
G1 X83.424 Y67.217 E2.88527
G1 X85.025 Y67.764 E2.99830
G1 X86.482 Y68.476 E3.10659
G1 X87.896 Y69.404 E3.21962
G1 X89.130 Y70.456 E3.32791
G1 X90.269 Y71.706 E3.44093
G1 X91.202 Y73.032 E3.54923
G1 X91.995 Y74.527 E3.66225
G1 X92.569 Y76.043 E3.77055
G1 X92.965 Y77.687 E3.88357
G1 X93.144 Y79.299 E3.99187
G1 X93.119 Y80.990 E4.10489
G1 X92.892 Y82.595 E4.21318
G1 X92.447 Y84.227 E4.32621
G1 X91.828 Y85.726 E4.43450
G1 X90.990 Y87.196 E4.54753
G1 X90.018 Y88.493 E4.65582
G1 X88.842 Y89.709 E4.76884
G1 X87.577 Y90.723 E4.87714
G1 X86.135 Y91.608 E4.99016
G1 X84.658 Y92.276 E5.09846
G1 X83.042 Y92.775 E5.21148
G1 X81.445 Y93.055 E5.31978
G1 X79.755 Y93.136 E5.43280
G1 X78.139 Y93.010 E5.54109
G1 X76.482 Y92.668 E5.65412
G1 X74.948 Y92.144 E5.76241
G1 X73.428 Y91.401 E5.87544
G1 X72.073 Y90.512 E5.98373
G1 X70.785 Y89.414 E6.09675
G1 X69.693 Y88.216 E6.20505
G1 X68.720 Y86.833 E6.31808
G1 X67.960 Y85.400 E6.42637
G1 X67.361 Y83.818 E6.53939
G1 X66.981 Y82.242 E6.64769
G1 X66.794 Y80.561 E6.76071
G1 X66.819 Y78.940 E6.86901
G1 X67.056 Y77.265 E6.98203
G1 X67.482 Y75.701 E7.09033
G1 X68.129 Y74.137 E7.20335
G1 X68.931 Y72.729 E7.31164
G1 X69.945 Y71.375 E7.42467
G1 X71.031 Y70.253 E7.52895
G1 X71.458 Y70.583 F30000.000
G1 F2100
G1 X72.672 Y69.608 E7.63301
G1 X74.054 Y68.760 E7.74130
G1 X75.473 Y68.118 E7.84536
G1 X77.022 Y67.640 E7.95365
G1 X78.556 Y67.371 E8.05771
G1 X80.176 Y67.293 E8.16600
G1 X81.728 Y67.414 E8.27006
G1 X83.316 Y67.742 E8.37835
G1 X84.790 Y68.245 E8.48240
G1 X86.246 Y68.958 E8.59070
G1 X87.549 Y69.812 E8.69475
G1 X88.782 Y70.864 E8.80305
G1 X89.831 Y72.015 E8.90710
G1 X90.764 Y73.340 E9.01540
G1 X91.494 Y74.716 E9.11945
G1 X92.068 Y76.232 E9.22775
G1 X92.433 Y77.747 E9.33180
G1 X92.612 Y79.358 E9.44009
G1 X92.589 Y80.915 E9.54415
G1 X92.362 Y82.520 E9.65244
G1 X91.952 Y84.023 E9.75650
G1 X91.333 Y85.521 E9.86479
G1 X90.562 Y86.874 E9.96885
G1 X89.589 Y88.172 E10.07714
G1 X88.506 Y89.291 E10.18120
G1 X87.242 Y90.305 E10.28949
G1 X85.915 Y91.120 E10.39354
G1 X84.438 Y91.788 E10.50184
G1 X82.949 Y92.247 E10.60589
G1 X81.353 Y92.527 E10.71419
G1 X79.797 Y92.602 E10.81824
G1 X78.181 Y92.476 E10.92654
G1 X76.655 Y92.161 E11.03059
G1 X75.121 Y91.637 E11.13889
G1 X73.722 Y90.953 E11.24294
G1 X72.366 Y90.064 E11.35124
G1 X71.181 Y89.053 E11.45529
G1 X70.089 Y87.855 E11.56358
G1 X69.193 Y86.582 E11.66764
G1 X68.433 Y85.149 E11.77593
G1 X67.882 Y83.693 E11.87999
G1 X67.502 Y82.117 E11.98828
G1 X67.330 Y80.569 E12.09234
G1 X67.354 Y78.948 E12.20063
G1 X67.572 Y77.406 E12.30469
G1 X67.999 Y75.842 E12.41298
G1 X68.594 Y74.402 E12.51704
G1 X69.396 Y72.994 E12.62533
G1 X70.330 Y71.747 E12.72938
G1 X71.416 Y70.626 E12.83367
G1 X71.843 Y70.955 F30000.000
G1 F2100
G1 X72.953 Y70.064 E12.92876
G1 X74.334 Y69.216 E13.03705
G1 X75.631 Y68.630 E13.13214
G1 X77.180 Y68.152 E13.24043
G1 X78.582 Y67.906 E13.33552
G1 X80.201 Y67.828 E13.44381
G1 X81.620 Y67.939 E13.53889
G1 X83.208 Y68.267 E13.64719
G1 X84.555 Y68.727 E13.74227
G1 X86.011 Y69.439 E13.85057
G1 X87.201 Y70.219 E13.94565
G1 X88.435 Y71.271 E14.05395
G1 X89.393 Y72.323 E14.14903
G1 X90.326 Y73.649 E14.25733
G1 X90.993 Y74.906 E14.35241
G1 X91.567 Y76.422 E14.46071
G1 X91.901 Y77.806 E14.55579
G1 X92.080 Y79.417 E14.66409
G1 X92.059 Y80.840 E14.75917
G1 X91.831 Y82.445 E14.86747
G1 X91.457 Y83.818 E14.96255
G1 X90.838 Y85.316 E15.07085
G1 X90.133 Y86.553 E15.16593
G1 X89.161 Y87.850 E15.27423
G1 X88.171 Y88.873 E15.36931
G1 X86.907 Y89.888 E15.47761
G1 X85.694 Y90.632 E15.57269
G1 X84.217 Y91.300 E15.68099
G1 X82.857 Y91.720 E15.77607
G1 X81.260 Y92.000 E15.88437
G1 X79.838 Y92.068 E15.97945
G1 X78.222 Y91.942 E16.08774
G1 X76.828 Y91.654 E16.18283
G1 X75.294 Y91.130 E16.29112
G1 X74.016 Y90.505 E16.38621
G1 X72.660 Y89.616 E16.49450
G1 X71.577 Y88.693 E16.58959
G1 X70.485 Y87.494 E16.69788
G1 X69.666 Y86.331 E16.79297
G1 X68.906 Y84.898 E16.90126
G1 X68.402 Y83.567 E16.99635
G1 X68.023 Y81.991 E17.10464
G1 X67.865 Y80.577 E17.19973
G1 X67.890 Y78.956 E17.30802
G1 X68.089 Y77.547 E17.40311
G1 X68.516 Y75.983 E17.51140
G1 X69.059 Y74.667 E17.60649
G1 X69.862 Y73.259 E17.71478
G1 X70.715 Y72.120 E17.80987
G1 X71.801 Y70.998 E17.91415
G1 X72.227 Y71.327 F30000.000
G1 F2100
G1 X73.233 Y70.521 E18.00027
G1 X74.614 Y69.673 E18.10856
G1 X75.789 Y69.141 E18.19468
G1 X77.338 Y68.664 E18.30297
G1 X78.608 Y68.441 E18.38909
G1 X80.227 Y68.363 E18.49738
G1 X81.512 Y68.464 E18.58350
G1 X83.100 Y68.791 E18.69179
G1 X84.319 Y69.208 E18.77791
G1 X85.776 Y69.920 E18.88620
G1 X86.854 Y70.627 E18.97232
G1 X88.087 Y71.679 E19.08061
G1 X88.955 Y72.631 E19.16673
G1 X89.888 Y73.957 E19.27502
G1 X90.492 Y75.096 E19.36114
G1 X91.067 Y76.612 E19.46943
G1 X91.368 Y77.865 E19.55555
G1 X91.547 Y79.476 E19.66384
G1 X91.528 Y80.765 E19.74996
G1 X91.301 Y82.370 E19.85825
G1 X90.962 Y83.614 E19.94437
G1 X90.343 Y85.112 E20.05267
G1 X89.705 Y86.232 E20.13878
G1 X88.732 Y87.529 E20.24708
G1 X87.836 Y88.455 E20.33319
G1 X86.572 Y89.470 E20.44149
G1 X85.473 Y90.144 E20.52760
G1 X83.996 Y90.812 E20.63590
G1 X82.764 Y91.192 E20.72201
G1 X81.168 Y91.472 E20.83031
G1 X79.880 Y91.534 E20.91642
G1 X78.264 Y91.408 E21.02472
G1 X77.001 Y91.147 E21.11083
G1 X75.467 Y90.623 E21.21913
G1 X74.309 Y90.057 E21.30524
G1 X72.954 Y89.168 E21.41354
G1 X71.973 Y88.332 E21.49965
G1 X70.881 Y87.134 E21.60795
G1 X70.139 Y86.080 E21.69406
G1 X69.379 Y84.647 E21.80236
G1 X68.923 Y83.442 E21.88847
G1 X68.543 Y81.866 E21.99677
G1 X68.401 Y80.585 E22.08288
G1 X68.425 Y78.964 E22.19118
G1 X68.606 Y77.688 E22.27729
G1 X69.032 Y76.124 E22.38559
G1 X69.525 Y74.932 E22.47170
G1 X70.327 Y73.524 E22.58000
G1 X71.100 Y72.492 E22.66611
G1 X72.186 Y71.371 E22.77040
G1 X72.612 Y71.700 F30000.000
G1 F2100
G1 X73.513 Y70.977 E22.84755
G1 X74.895 Y70.129 E22.95584
G1 X75.947 Y69.653 E23.03299
G1 X77.496 Y69.175 E23.14128
G1 X78.633 Y68.976 E23.21843
G1 X80.252 Y68.898 E23.32672
G1 X81.404 Y68.988 E23.40387
G1 X82.991 Y69.316 E23.51216
G1 X84.084 Y69.689 E23.58931
G1 X85.540 Y70.401 E23.69760
G1 X86.506 Y71.034 E23.77475
G1 X87.739 Y72.086 E23.88304
G1 X88.517 Y72.940 E23.96019
G1 X89.450 Y74.265 E24.06849
G1 X89.992 Y75.285 E24.14563
G1 X90.566 Y76.801 E24.25393
G1 X90.836 Y77.924 E24.33107
G1 X91.015 Y79.535 E24.43937
G1 X90.998 Y80.690 E24.51651
G1 X90.771 Y82.295 E24.62481
G1 X90.467 Y83.409 E24.70195
G1 X89.848 Y84.907 E24.81025
G1 X89.276 Y85.911 E24.88739
G1 X88.304 Y87.208 E24.99569
G1 X87.501 Y88.038 E25.07283
G1 X86.236 Y89.052 E25.18113
G1 X85.252 Y89.656 E25.25828
G1 X83.775 Y90.324 E25.36657
G1 X82.672 Y90.665 E25.44372
G1 X81.075 Y90.945 E25.55201
G1 X79.922 Y91.000 E25.62916
G1 X78.305 Y90.874 E25.73745
G1 X77.175 Y90.641 E25.81460
G1 X75.640 Y90.117 E25.92289
G1 X74.603 Y89.609 E26.00004
G1 X73.248 Y88.720 E26.10833
G1 X72.369 Y87.971 E26.18548
G1 X71.277 Y86.773 E26.29377
G1 X70.612 Y85.829 E26.37092
G1 X69.853 Y84.397 E26.47922
G1 X69.444 Y83.317 E26.55636
G1 X69.064 Y81.741 E26.66466
G1 X68.937 Y80.593 E26.74180
G1 X68.961 Y78.972 E26.85010
G1 X69.123 Y77.829 E26.92724
G1 X69.549 Y76.265 E27.03554
G1 X69.990 Y75.198 E27.11268
G1 X70.792 Y73.789 E27.22098
G1 X71.485 Y72.865 E27.29812
G1 X72.571 Y71.743 E27.40241
G1 X72.997 Y72.072 F30000.000
G1 F2100
G1 X73.793 Y71.434 E27.47059
G1 X75.175 Y70.586 E27.57888
G1 X76.105 Y70.165 E27.64706
G1 X77.654 Y69.687 E27.75535
G1 X78.659 Y69.511 E27.82353
G1 X80.278 Y69.433 E27.93182
G1 X81.295 Y69.513 E28.00000
G1 X82.883 Y69.840 E28.10830
G1 X83.849 Y70.170 E28.17647
G1 X85.305 Y70.882 E28.28477
G1 X86.158 Y71.442 E28.35294
G1 X87.392 Y72.494 E28.46124
G1 X88.079 Y73.248 E28.52942
G1 X89.012 Y74.574 E28.63771
G1 X89.491 Y75.475 E28.70589
G1 X90.065 Y76.991 E28.81418
G1 X90.304 Y77.983 E28.88236
G1 X90.483 Y79.594 E28.99065
G1 X90.468 Y80.615 E29.05883
G1 X90.240 Y82.220 E29.16712
G1 X89.972 Y83.204 E29.23530
G1 X89.353 Y84.703 E29.34360
G1 X88.848 Y85.589 E29.41177
G1 X87.875 Y86.886 E29.52007
G1 X87.166 Y87.620 E29.58824
G1 X85.901 Y88.634 E29.69654
G1 X85.031 Y89.168 E29.76471
G1 X83.555 Y89.836 E29.87301
G1 X82.579 Y90.137 E29.94119
G1 X80.983 Y90.417 E30.04948
G1 X79.963 Y90.466 E30.11766
G1 X78.347 Y90.340 E30.22595
G1 X77.348 Y90.134 E30.29413
G1 X75.814 Y89.610 E30.40242
G1 X74.897 Y89.161 E30.47060
G1 X73.541 Y88.272 E30.57890
G1 X72.765 Y87.610 E30.64707
G1 X71.673 Y86.412 E30.75537
G1 X71.085 Y85.578 E30.82354
G1 X70.326 Y84.146 E30.93184
G1 X69.964 Y83.191 E31.00001
G1 X69.585 Y81.615 E31.10831
G1 X69.472 Y80.601 E31.17649
G1 X69.496 Y78.980 E31.28478
G1 X69.639 Y77.970 E31.35296
G1 X70.066 Y76.406 E31.46125
G1 X70.456 Y75.463 E31.52943
G1 X71.258 Y74.054 E31.63772
G1 X71.870 Y73.237 E31.70590
G1 X72.956 Y72.115 E31.81019
G1 X73.382 Y72.445 F30000.000
G1 F2100
G1 X74.073 Y71.890 E31.86939
G1 X75.455 Y71.042 E31.97769
G1 X76.262 Y70.677 E32.03690
G1 X77.812 Y70.199 E32.14519
G1 X78.684 Y70.046 E32.20440
G1 X80.304 Y69.968 E32.31269
G1 X81.187 Y70.037 E32.37190
G1 X82.775 Y70.365 E32.48019
G1 X83.614 Y70.651 E32.53940
G1 X85.070 Y71.363 E32.64770
G1 X85.811 Y71.849 E32.70690
G1 X87.044 Y72.901 E32.81520
G1 X87.641 Y73.556 E32.87441
G1 X88.574 Y74.882 E32.98270
G1 X88.990 Y75.665 E33.04191
G1 X89.564 Y77.181 E33.15020
G1 X89.771 Y78.042 E33.20941
G1 X89.950 Y79.654 E33.31770
G1 X89.937 Y80.540 E33.37691
G1 X89.710 Y82.145 E33.48521
G1 X89.477 Y83.000 E33.54441
G1 X88.858 Y84.498 E33.65271
G1 X88.419 Y85.268 E33.71191
G1 X87.447 Y86.565 E33.82021
G1 X86.830 Y87.202 E33.87942
G1 X85.566 Y88.217 E33.98771
G1 X84.811 Y88.680 E34.04692
G1 X83.334 Y89.348 E34.15521
G1 X82.487 Y89.610 E34.21442
G1 X80.890 Y89.889 E34.32272
G1 X80.005 Y89.932 E34.38192
G1 X78.389 Y89.806 E34.49022
G1 X77.521 Y89.627 E34.54942
G1 X75.987 Y89.103 E34.65772
G1 X75.191 Y88.714 E34.71693
G1 X73.835 Y87.825 E34.82522
G1 X73.161 Y87.249 E34.88443
G1 X72.069 Y86.051 E34.99272
G1 X71.559 Y85.327 E35.05193
G1 X70.799 Y83.895 E35.16023
G1 X70.485 Y83.066 E35.21943
G1 X70.106 Y81.490 E35.32773
G1 X70.008 Y80.609 E35.38693
G1 X70.032 Y78.988 E35.49523
G1 X70.156 Y78.111 E35.55444
G1 X70.583 Y76.547 E35.66273
G1 X70.921 Y75.728 E35.72194
G1 X71.723 Y74.319 E35.83023
G1 X72.255 Y73.610 E35.88944
G1 X73.340 Y72.488 E35.99373
G1 E33.99373 F2400.00000
G92 E0
G1 X83.057 Y82.962 F30000.000
G1 E2.00000 F2400.00000
G1 F2100
G1 X82.632 Y84.315 E2.09473
G1 X82.210 Y83.635 E2.14818
G1 X81.463 Y84.839 E2.24291
G1 X81.223 Y84.076 E2.29636
G1 X80.199 Y85.057 E2.39109
G1 X80.157 Y84.258 E2.44455
G1 X78.921 Y84.953 E2.53927
G1 X79.079 Y84.169 E2.59273
G1 X77.709 Y84.535 E2.68745
G1 X78.057 Y83.815 E2.74091
G1 X76.639 Y83.829 E2.83564
G1 X77.156 Y83.217 E2.88909
G1 X75.779 Y82.878 E2.98381
G1 X76.431 Y82.415 E3.03727
G1 X75.181 Y81.744 E3.13200
G1 X75.928 Y81.457 E3.18545
G1 X74.885 Y80.497 E3.28018
G1 X75.680 Y80.404 E3.33363
G1 X74.908 Y79.215 E3.42836
G1 X75.701 Y79.323 E3.48181
G1 X75.250 Y77.979 E3.57654
G1 X75.991 Y78.281 E3.62999
G1 X75.887 Y76.867 E3.72472
G1 X76.530 Y77.344 E3.77817
G1 X76.782 Y75.948 E3.87290
G1 X77.286 Y76.570 E3.92635
G1 X77.877 Y75.281 E4.02108
G1 X78.210 Y76.008 E4.07453
G1 X79.103 Y74.907 E4.16926
G1 X79.245 Y75.694 E4.22271
G1 X80.384 Y74.849 E4.31744
G1 X80.325 Y75.647 E4.37089
G1 X81.638 Y75.112 E4.46562
G1 X81.384 Y75.871 E4.51907
G1 X82.788 Y75.679 E4.61380
G1 X82.353 Y76.350 E4.66725
G1 X83.761 Y76.514 E4.76198
G1 X83.173 Y77.056 E4.81543
G1 X84.496 Y77.565 E4.91016
G1 X83.791 Y77.943 E4.96361
G1 X84.946 Y78.765 E5.05834
G1 X84.169 Y78.956 E5.11179
G1 X85.084 Y80.040 E5.20652
G1 X84.284 Y80.032 E5.25997
G1 X84.900 Y81.309 E5.35470
G1 X84.127 Y81.102 E5.40815
G1 X84.407 Y82.492 E5.50288
G1 X83.710 Y82.100 E5.55633
G1 X83.635 Y83.515 E5.65106
G1 X83.100 Y83.003 E5.70051
G1 X83.310 Y83.946 F30000.000
G1 F2100
G1 X83.052 Y84.765 E5.75786
G1 X82.712 Y84.810 E5.78083
G1 X82.416 Y84.982 E5.80366
G1 X82.210 Y84.651 E5.82976
G1 X81.757 Y85.380 E5.88711
G1 X81.416 Y85.339 E5.91008
G1 X81.087 Y85.433 E5.93291
G1 X80.970 Y85.060 E5.95901
G1 X80.350 Y85.654 E6.01637
G1 X80.030 Y85.530 E6.03933
G1 X79.688 Y85.538 E6.06216
G1 X79.667 Y85.148 E6.08826
G1 X78.919 Y85.569 E6.14562
G1 X78.640 Y85.369 E6.16858
G1 X78.307 Y85.292 E6.19141
G1 X78.384 Y84.909 E6.21751
G1 X77.554 Y85.131 E6.27487
G1 X77.333 Y84.868 E6.29783
G1 X77.030 Y84.711 E6.32067
G1 X77.200 Y84.359 E6.34676
G1 X76.341 Y84.367 E6.40412
G1 X76.192 Y84.057 E6.42708
G1 X75.938 Y83.830 E6.44992
G1 X76.190 Y83.531 E6.47601
G1 X75.356 Y83.326 E6.53337
G1 X75.289 Y82.989 E6.55633
G1 X75.099 Y82.705 E6.57917
G1 X75.417 Y82.478 E6.60526
G1 X74.661 Y82.072 E6.66262
G1 X74.680 Y81.729 E6.68558
G1 X74.566 Y81.407 E6.70842
G1 X74.931 Y81.267 E6.73451
G1 X74.299 Y80.685 E6.79187
G1 X74.403 Y80.357 E6.81483
G1 X74.373 Y80.017 E6.83767
G1 X74.761 Y79.972 E6.86377
G1 X74.294 Y79.251 E6.92112
G1 X74.476 Y78.960 E6.94409
G1 X74.532 Y78.623 E6.96692
G1 X74.919 Y78.676 E6.99302
G1 X74.645 Y77.862 E7.05037
G1 X74.894 Y77.624 E7.07334
G1 X75.032 Y77.312 E7.09617
G1 X75.394 Y77.459 E7.12227
G1 X75.331 Y76.603 E7.17962
G1 X75.631 Y76.435 E7.20259
G1 X75.842 Y76.166 E7.22542
G1 X76.156 Y76.399 E7.25152
G1 X76.309 Y75.554 E7.30887
G1 X76.641 Y75.466 E7.33184
G1 X76.912 Y75.259 E7.35467
G1 X77.158 Y75.562 E7.38077
G1 X77.516 Y74.782 E7.43812
G1 X77.860 Y74.779 E7.46109
G1 X78.175 Y74.646 E7.48392
G1 X78.337 Y75.001 E7.51002
G1 X78.878 Y74.334 E7.56737
G1 X79.212 Y74.417 E7.59034
G1 X79.549 Y74.366 E7.61317
G1 X79.619 Y74.750 E7.63927
G1 X80.308 Y74.238 E7.69663
G1 X80.611 Y74.402 E7.71959
G1 X80.951 Y74.436 E7.74242
G1 X80.922 Y74.826 E7.76852
G1 X81.717 Y74.502 E7.82588
G1 X81.970 Y74.735 E7.84884
G1 X82.291 Y74.853 E7.87167
G1 X82.166 Y75.224 E7.89777
G1 X83.017 Y75.107 E7.95513
G1 X83.203 Y75.396 E7.97809
G1 X83.485 Y75.590 E8.00093
G1 X83.272 Y75.918 E8.02702
G1 X84.125 Y76.017 E8.08438
G1 X84.233 Y76.343 E8.10734
G1 X84.458 Y76.601 E8.13018
G1 X84.170 Y76.866 E8.15627
G1 X84.972 Y77.174 E8.21363
G1 X84.996 Y77.517 E8.23659
G1 X85.149 Y77.822 E8.25943
G1 X84.805 Y78.007 E8.28552
G1 X85.504 Y78.505 E8.34288
G1 X85.442 Y78.843 E8.36584
G1 X85.515 Y79.177 E8.38868
G1 X85.135 Y79.270 E8.41477
G1 X85.689 Y79.926 E8.47213
G1 X85.545 Y80.238 E8.49509
G1 X85.532 Y80.580 E8.51793
G1 X85.141 Y80.576 E8.54402
G1 X85.515 Y81.349 E8.60138
G1 X85.298 Y81.616 E8.62434
G1 X85.200 Y81.943 E8.64718
G1 X84.823 Y81.842 E8.67327
G1 X84.992 Y82.684 E8.73063
G1 X84.715 Y82.888 E8.75360
G1 X84.539 Y83.181 E8.77643
G1 X84.199 Y82.990 E8.80253
G1 X84.154 Y83.847 E8.85988
G1 X83.835 Y83.976 E8.88285
G1 X83.592 Y84.216 E8.90568
G1 X83.353 Y83.987 E8.92777
G1 X82.919 Y83.858 F30000.000
G1 X82.414 Y83.096 F30000.000
G1 F2100
G1 X82.528 Y82.982 E8.93913
G1 X82.861 Y81.921 E9.01772
G1 X83.218 Y82.264 E9.05267
G1 X83.262 Y81.448 E9.11039
G1 X81.453 Y83.257 E9.29115
G1 X81.419 Y83.149 E9.29913
G1 X80.615 Y83.919 E9.37774
G1 X80.589 Y83.425 E9.41268
G1 X80.347 Y83.561 E9.43230
G1 X83.508 Y80.400 E9.74814
G1 F2100
G1 X83.642 Y81.067 E9.79621
G1 X83.343 Y81.367 E9.82617
G1 X83.466 Y80.442 F30000.000
G1 F2100
G1 X83.807 Y80.101 E9.86025
G1 X83.546 Y79.561 E9.90264
G1 X79.587 Y83.520 E10.29826
G1 X78.643 Y83.773 E10.36731
