; generated by Slic3r 1.3.0 on 2023-11-11 at 01:53:17

; external perimeters extrusion width = 0.44mm (2.78mm^3/s)
; perimeters extrusion width = 0.40mm (7.14mm^3/s)
; infill extrusion width = 0.50mm (10.97mm^3/s)
; solid infill extrusion width = 0.60mm (6.68mm^3/s)
; top infill extrusion width = 0.40mm (2.14mm^3/s)

M107
M190 S80 ; set bed temperature and wait for it to be reached
M104 S210 ; set temperature
G28 ; home all axes
G1 Z5 F5000 ; lift nozzle

; Filament gcode

M109 S210 ; set temperature and wait for it to be reached
G21 ; set units to millimeters
G90 ; use absolute coordinates
M82 ; use absolute distances for extrusion
G92 E0
G1 Z0.300 F30000.000
G1 E-2.00000 F2400.00000
G92 E0
G1 X36.203 Y40.199 F30000.000
G1 E2.00000 F2400.00000
G1 F2100
G1 X49.656 Y29.433 E3.15105
G1 X49.951 Y29.218 E3.17544
G1 X50.655 Y28.761 E3.23153
G1 X54.391 Y26.604 E3.51973
G1 X55.490 Y26.074 E3.60121
G1 X56.178 Y25.826 E3.65011
G1 X72.847 Y21.463 E4.80116
G1 X73.204 Y21.386 E4.82555
G1 X74.033 Y21.255 E4.88164
G1 X78.323 Y20.804 E5.16984
G1 X79.542 Y20.767 E5.25132
G1 X80.272 Y20.821 E5.30022
G1 X97.274 Y23.614 E6.45127
G1 X97.632 Y23.689 E6.47566
G1 X98.443 Y23.906 E6.53175
G1 X102.545 Y25.240 E6.81995
G1 X103.674 Y25.702 E6.90143
G1 X104.319 Y26.048 E6.95033
G1 X118.715 Y35.515 E8.10138
G1 X119.011 Y35.729 E8.12577
G1 X119.663 Y36.257 E8.18186
G1 X122.869 Y39.144 E8.47006
G1 X123.123 Y39.394 E8.49386
G1 X123.712 Y40.025 E8.55156
G1 X124.161 Y40.604 E8.60046
G1 X133.462 Y55.108 E9.75151
G1 X133.645 Y55.424 E9.77590
G1 X134.026 Y56.172 E9.83199
G1 X135.781 Y60.113 E10.12019
G1 X135.911 Y60.444 E10.14398
G1 X136.192 Y61.261 E10.20168
G1 X136.367 Y61.972 E10.25058
G1 X138.964 Y79.005 E11.40163
G1 X139.003 Y79.368 E11.42603
G1 X139.047 Y80.206 E11.48212
G1 X139.047 Y84.520 E11.77031
G1 X138.956 Y85.736 E11.85179
G1 X138.827 Y86.457 E11.90070
G1 X134.272 Y103.074 E13.05174
G1 X134.159 Y103.421 E13.07613
G1 X133.858 Y104.205 E13.13223
G1 X132.104 Y108.146 E13.42042
G1 X131.526 Y109.220 E13.50191
G1 X131.115 Y109.826 E13.55080
G1 X120.195 Y123.153 E14.70185
G1 X119.538 Y123.845 E14.76558
G1 X116.151 Y126.905 E15.07052
G1 X115.186 Y127.651 E15.15200
G1 X114.564 Y128.037 E15.20090
G1 X99.168 Y135.771 E16.35195
G1 X98.834 Y135.920 E16.37634
G1 X98.051 Y136.221 E16.43243
G1 X93.948 Y137.554 E16.72063
G1 X92.763 Y137.843 E16.80211
G1 X92.038 Y137.943 E16.85101
G1 X74.826 Y138.745 E18.00206
G1 X74.461 Y138.746 E18.02645
G1 X73.623 Y138.702 E18.08254
G1 X69.333 Y138.251 E18.37074
G1 X68.132 Y138.034 E18.45222
G1 X67.429 Y137.830 E18.50112
G1 X51.380 Y131.562 E19.65217
G1 X51.046 Y131.414 E19.67656
G1 X50.298 Y131.033 E19.73265
G1 X46.562 Y128.876 E20.02085
G1 X45.554 Y128.189 E20.10233
G1 X44.995 Y127.717 E20.15123
G1 X32.882 Y115.464 E21.30228
G1 X32.637 Y115.193 E21.32667
G1 X32.109 Y114.540 E21.38276
G1 X29.573 Y111.050 E21.67096
G1 X28.932 Y110.013 E21.75244
G1 X28.613 Y109.354 E21.80134
G1 X22.531 Y93.233 E22.95239
G1 X22.418 Y92.886 E22.97678
G1 X22.200 Y92.075 E23.03287
G1 X21.303 Y87.855 E23.32107
G1 X21.140 Y86.647 E23.40255
G1 X21.116 Y85.915 E23.45145
G1 X22.117 Y68.714 E24.60250
G1 X22.155 Y68.351 E24.62689
G1 X22.286 Y67.522 E24.68298
G1 X23.183 Y63.302 E24.97118
G1 X23.525 Y62.131 E25.05266
G1 X23.801 Y61.453 E25.10156
G1 X31.712 Y46.147 E26.25261
G1 X31.894 Y45.830 E26.27700
G1 X32.351 Y45.126 E26.33309
G1 X34.887 Y41.636 E26.62129
G1 X35.675 Y40.706 E26.70277
G1 X36.160 Y40.240 E26.74766
G1 X36.538 Y40.617 F30000.000
G1 F2100
G1 X49.990 Y29.851 E27.89871
G1 X50.923 Y29.224 E27.97376
G1 X54.659 Y27.067 E28.26196
G1 X55.716 Y26.560 E28.34031
G1 X56.314 Y26.344 E28.38278
G1 X72.982 Y21.981 E29.53383
G1 X74.089 Y21.787 E29.60888
G1 X78.379 Y21.336 E29.89707
G1 X79.552 Y21.303 E29.97542
G1 X80.186 Y21.349 E30.01789
G1 X97.187 Y24.142 E31.16894
G1 X98.277 Y24.416 E31.24399
G1 X102.380 Y25.749 E31.53218
G1 X103.465 Y26.195 E31.61054
G1 X104.025 Y26.495 E31.65300
G1 X118.421 Y35.962 E32.80405
G1 X119.305 Y36.655 E32.87910
G1 X122.511 Y39.542 E33.16730
G1 X122.732 Y39.759 E33.18797
G1 X123.320 Y40.391 E33.24567
G1 X123.710 Y40.893 E33.28813
G1 X133.011 Y55.397 E34.43918
G1 X133.537 Y56.390 E34.51423
G1 X135.291 Y60.331 E34.80243
G1 X135.405 Y60.618 E34.82309
G1 X135.686 Y61.435 E34.88079
G1 X135.838 Y62.052 E34.92326
G1 X138.435 Y79.085 E36.07431
G1 X138.512 Y80.206 E36.14936
G1 X138.512 Y84.520 E36.43756
G1 X138.423 Y85.690 E36.51591
G1 X138.310 Y86.315 E36.55838
G1 X133.755 Y102.932 E37.70942
G1 X133.369 Y103.987 E37.78447
G1 X131.614 Y107.928 E38.07267
G1 X131.057 Y108.960 E38.15102
G1 X130.700 Y109.486 E38.19349
G1 X119.780 Y122.814 E39.34454
G1 X119.156 Y123.470 E39.40505
G1 X115.793 Y126.507 E39.70779
G1 X114.864 Y127.223 E39.78614
G1 X114.324 Y127.559 E39.82861
G1 X98.927 Y135.292 E40.97966
G1 X98.638 Y135.422 E41.00084
G1 X97.885 Y135.712 E41.05473
G1 X93.782 Y137.045 E41.34292
G1 X92.642 Y137.321 E41.42128
G1 X92.013 Y137.408 E41.46374
G1 X74.802 Y138.210 E42.61479
G1 X73.679 Y138.169 E42.68984
G1 X69.389 Y137.719 E42.97804
G1 X68.235 Y137.508 E43.05639
G1 X67.624 Y137.331 E43.09886
G1 X51.575 Y131.063 E44.24991
G1 X51.285 Y130.935 E44.27109
G1 X50.566 Y130.569 E44.32498
G1 X46.830 Y128.412 E44.61317
G1 X45.861 Y127.751 E44.69153
G1 X45.376 Y127.341 E44.73399
G1 X33.263 Y115.087 E45.88504
G1 X32.542 Y114.225 E45.96009
G1 X30.006 Y110.735 E46.24829
G1 X29.391 Y109.737 E46.32664
G1 X29.114 Y109.165 E46.36911
G1 X23.032 Y93.044 E47.52016
G1 X22.724 Y91.964 E47.59521
G1 X21.827 Y87.744 E47.88340
G1 X21.671 Y86.582 E47.96175
G1 X21.651 Y85.946 E48.00422
G1 X22.652 Y68.745 E49.15527
G1 X22.810 Y67.633 E49.23032
G1 X23.707 Y63.413 E49.51851
G1 X24.037 Y62.288 E49.59687
G1 X24.277 Y61.699 E49.63933
G1 X32.188 Y46.393 E50.79038
G1 X32.346 Y46.118 E50.81157
G1 X32.784 Y45.441 E50.86545
G1 X35.320 Y41.951 E51.15365
G1 X36.079 Y41.057 E51.23200
G1 X36.495 Y40.659 E51.27046
G1 E49.27046 F2400.00000
G92 E0
G1 X70.162 Y130.120 F30000.000
G1 E2.00000 F2400.00000
G1 F2100
G1 X73.411 Y130.461 E2.21824
G1 X73.403 Y130.539 E2.22349
G1 X74.227 Y130.588 E2.27861
G1 X73.889 Y133.796 E2.49413
G1 X70.627 Y133.453 E2.71329
G1 X69.825 Y133.328 E2.76750
G1 X70.156 Y130.179 E2.97899
G1 X69.704 Y129.515 F30000.000
G1 F2100
G1 X69.999 Y129.564 E2.99892
G1 X74.000 Y129.985 E3.26770
G1 X73.994 Y130.038 E3.27126
G1 X74.801 Y130.085 E3.32522
G1 X74.788 Y130.366 E3.34402
G1 X74.368 Y134.367 E3.61275
G1 X74.071 Y134.354 E3.63263
G1 X70.070 Y133.933 E3.90137
G1 X70.071 Y133.906 E3.90321
G1 X69.239 Y133.783 E3.95943
G1 X69.659 Y129.788 E4.22780
G1 X69.695 Y129.574 E4.24227
G1 X69.938 Y129.700 F30000.000
G1 X70.696 Y130.652 F30000.000
G1 F2100
G1 X70.582 Y130.765 E4.25474
G1 X70.479 Y131.747 E4.33127
G1 X71.491 Y130.735 E4.44221
G1 X72.286 Y130.819 E4.50418
G1 X70.376 Y132.729 E4.71359
G1 X70.354 Y132.934 E4.72956
G1 X70.970 Y133.014 E4.77770
G1 X72.992 Y130.992 E4.99933
G1 X73.692 Y131.033 E5.05366
G1 X73.676 Y131.187 E5.06566
G1 X71.765 Y133.097 E5.27507
G1 X72.561 Y133.181 E5.33704
G1 X73.573 Y132.169 E5.44798
G1 X73.470 Y133.151 E5.52450
G1 X73.356 Y133.264 E5.53697
G1 E3.53697 F2400.00000
G92 E0
G1 X91.398 Y129.788 F30000.000
G1 E2.00000 F2400.00000
G1 F2100
G1 X94.505 Y128.779 E2.21824
G1 X94.530 Y128.853 E2.22349
G1 X95.302 Y128.563 E2.27860
G1 X96.299 Y131.631 E2.49413
G1 X93.179 Y132.645 E2.71329
G1 X92.395 Y132.856 E2.76749
G1 X91.417 Y129.845 E2.97899
G1 X90.734 Y129.421 F30000.000
G1 F2100
G1 X91.023 Y129.347 E2.99892
G1 X94.849 Y128.104 E3.26770
G1 X94.866 Y128.154 E3.27126
G1 X95.622 Y127.870 E3.32522
G1 X95.725 Y128.131 E3.34402
G1 X96.968 Y131.957 E3.61275
G1 X96.691 Y132.066 E3.63263
G1 X92.865 Y133.310 E3.90137
G1 X92.855 Y133.284 E3.90321
G1 X92.044 Y133.510 E3.95943
G1 X90.803 Y129.689 E4.22780
G1 X90.749 Y129.480 E4.24227
G1 X91.023 Y129.496 F30000.000
G1 X92.130 Y130.075 F30000.000
G1 F2100
G1 X92.016 Y130.189 E4.25340
G1 X92.209 Y130.781 E4.29645
G1 X93.292 Y129.698 E4.40238
G1 X94.218 Y129.397 E4.46975
G1 X94.250 Y129.495 E4.47692
G1 X94.295 Y129.478 E4.48025
G1 X92.401 Y131.373 E4.66552
G1 X92.593 Y131.964 E4.70856
G1 X95.104 Y129.454 E4.95407
G1 X95.296 Y130.046 E4.99711
G1 X93.243 Y132.099 E5.19786
G1 X94.405 Y131.721 E5.28233
G1 X95.488 Y130.638 E5.38827
G1 X95.680 Y131.230 E5.43131
G1 X95.567 Y131.344 E5.44244
G1 E3.44244 F2400.00000
G92 E0
G1 X110.664 Y120.848 F30000.000
G1 E2.00000 F2400.00000
G1 F2100
G1 X113.091 Y118.662 E2.21824
G1 X113.144 Y118.720 E2.22349
G1 X113.731 Y118.140 E2.27860
G1 X115.890 Y120.538 E2.49413
G1 X113.452 Y122.733 E2.71329
G1 X112.822 Y123.245 E2.76749
G1 X110.704 Y120.892 E2.97899
G1 X109.907 Y120.783 F30000.000
G1 F2100
G1 X110.141 Y120.597 E2.99892
G1 X113.131 Y117.905 E3.26769
G1 X113.167 Y117.945 E3.27126
G1 X113.741 Y117.377 E3.32522
G1 X113.942 Y117.574 E3.34401
G1 X116.634 Y120.564 E3.61275
G1 X116.425 Y120.776 E3.63263
G1 X113.436 Y123.468 E3.90137
G1 X113.416 Y123.449 E3.90321
G1 X112.768 Y123.985 E3.95943
G1 X110.080 Y120.999 E4.22779
G1 X109.945 Y120.830 E4.24227
G1 X110.202 Y120.733 F30000.000
G1 X111.478 Y120.829 F30000.000
G1 F2100
G1 X111.363 Y120.944 E4.25419
G1 X111.757 Y121.381 E4.29732
G1 X114.009 Y119.129 E4.53071
G1 X114.402 Y119.567 E4.57384
G1 X112.151 Y121.819 E4.80723
G1 X112.544 Y122.256 E4.85036
G1 X114.796 Y120.004 E5.08376
G1 X115.190 Y120.441 E5.12688
G1 X115.075 Y120.556 E5.13880
G1 E3.13880 F2400.00000
G92 E0
G1 X124.627 Y104.844 F30000.000
G1 E2.00000 F2400.00000
G1 F2100
G1 X125.955 Y101.860 E2.21824
G1 X126.027 Y101.892 E2.22349
G1 X126.328 Y101.123 E2.27861
G1 X129.275 Y102.436 E2.49413
G1 X127.941 Y105.432 E2.71329
G1 X127.574 Y106.156 E2.76750
G1 X124.682 Y104.868 E2.97899
G1 X123.910 Y105.093 F30000.000
G1 F2100
G1 X124.048 Y104.828 E2.99892
G1 X125.684 Y101.153 E3.26770
G1 X125.733 Y101.174 E3.27126
G1 X126.027 Y100.422 E3.32522
G1 X126.291 Y100.520 E3.34402
G1 X129.965 Y102.157 E3.61275
G1 X129.861 Y102.435 E3.63263
G1 X128.225 Y106.110 E3.90137
G1 X128.199 Y106.101 E3.90321
G1 X127.825 Y106.854 E3.95943
G1 X124.155 Y105.220 E4.22780
G1 X123.963 Y105.120 E4.24227
G1 X124.158 Y104.928 F30000.000
G1 E2.24227 F2400.00000
G92 E0
G1 X127.269 Y105.516 F30000.000
G1 E2.00000 F2400.00000
G1 F2100
G1 X127.383 Y105.403 E2.01228
G1 X127.514 Y105.145 E2.03427
G1 X128.106 Y103.816 E2.14527
G1 X126.671 Y105.250 E2.29997
G1 X126.073 Y104.984 E2.34990
G1 X128.474 Y102.583 E2.60878
G1 X127.876 Y102.317 E2.65871
G1 X125.475 Y104.717 E2.91759
G1 X125.277 Y104.629 E2.93410
G1 X125.742 Y103.586 E3.02117
G1 X127.277 Y102.050 E3.18679
G1 X126.679 Y101.784 E3.23672
G1 X126.566 Y101.898 E3.24897
G1 E1.24897 F2400.00000
G92 E0
G1 X130.874 Y84.545 F30000.000
G1 E2.00000 F2400.00000
G1 F2100
G1 X130.874 Y81.278 E2.21824
G1 X130.952 Y81.278 E2.22349
G1 X130.914 Y80.454 E2.27860
G1 X134.140 Y80.454 E2.49413
G1 X134.140 Y83.734 E2.71328
G1 X134.099 Y84.545 E2.76749
G1 X130.934 Y84.545 E2.97899
G1 X130.320 Y85.063 F30000.000
G1 F2100
G1 X130.338 Y84.766 E2.99892
G1 X130.338 Y80.742 E3.26769
G1 X130.391 Y80.742 E3.27126
G1 X130.354 Y79.936 E3.32522
G1 X130.635 Y79.918 E3.34401
G1 X134.658 Y79.918 E3.61275
G1 X134.676 Y80.215 E3.63263
G1 X134.676 Y84.238 E3.90136
G1 X134.648 Y84.240 E3.90321
G1 X134.613 Y85.080 E3.95943
G1 X130.596 Y85.080 E4.22779
G1 X130.379 Y85.067 E4.24227
G1 X130.480 Y84.812 F30000.000
G1 E2.24227 F2400.00000
G92 E0
G1 X132.677 Y84.066 F30000.000
G1 E2.00000 F2400.00000
G1 F2100
G1 X133.662 Y83.082 E2.10504
G1 X133.662 Y82.226 E2.16963
G1 X131.822 Y84.066 E2.36601
G1 X131.352 Y84.066 E2.40144
G1 X131.352 Y83.680 E2.43060
G1 X133.662 Y81.370 E2.67708
G1 X133.662 Y80.933 E2.71012
G1 X133.243 Y80.933 E2.74167
G1 X131.352 Y82.824 E2.94353
G1 X131.352 Y81.968 E3.00811
G1 X132.388 Y80.933 E3.11863
G1 X131.532 Y80.933 E3.18322
G1 X131.418 Y81.046 E3.19535
G1 E1.19535 F2400.00000
G92 E0
G1 X133.647 Y83.952 F30000.000
G1 E2.00000 F2400.00000
G1 F2100
G1 X133.533 Y84.066 E2.01213
G1 E0.01213 F2400.00000
G92 E0
G1 X128.324 Y63.460 F30000.000
G1 E2.00000 F2400.00000
G1 F2100
G1 X126.995 Y60.475 E2.21824
G1 X127.067 Y60.443 E2.22349
G1 X126.697 Y59.706 E2.27861
G1 X129.644 Y58.394 E2.49413
G1 X130.979 Y61.391 E2.71328
G1 X131.271 Y62.148 E2.76750
G1 X128.379 Y63.435 E2.97899
G1 X128.029 Y64.159 F30000.000
G1 F2100
G1 X127.924 Y63.879 E2.99892
G1 X126.288 Y60.204 E3.26770
G1 X126.337 Y60.182 E3.27126
G1 X125.975 Y59.460 E3.32522
G1 X126.224 Y59.330 E3.34402
G1 X129.899 Y57.694 E3.61275
G1 X130.037 Y57.958 E3.63263
G1 X131.673 Y61.633 E3.90137
G1 X131.648 Y61.646 E3.90321
G1 X131.958 Y62.428 E3.95943
G1 X128.288 Y64.062 E4.22780
G1 X128.085 Y64.138 E4.24228
G1 X128.072 Y63.864 F30000.000
G1 X129.011 Y62.599 F30000.000
G1 F2100
G1 X130.396 Y61.214 E4.38790
G1 X130.136 Y60.631 E4.43539
G1 X128.359 Y62.407 E4.62221
G1 X128.100 Y61.824 E4.66969
G1 X129.876 Y60.048 E4.85651
G1 X129.617 Y59.464 E4.90399
G1 X127.840 Y61.241 E5.09082
G1 X127.645 Y60.804 E5.12639
G1 X127.740 Y60.762 E5.13411
G1 X127.652 Y60.586 E5.14874
G1 X129.004 Y59.234 E5.29091
G1 X127.484 Y59.910 E5.41460
G1 X127.371 Y60.024 E5.42655
G1 E3.42655 F2400.00000
G92 E0
G1 X130.531 Y61.922 F30000.000
G1 E2.00000 F2400.00000
G1 F2100
G1 X130.644 Y61.809 E2.01195
G1 E0.01195 F2400.00000
G92 E0
G1 X117.419 Y45.235 F30000.000
G1 E2.00000 F2400.00000
G1 F2100
G1 X114.991 Y43.049 E2.21824
G1 X115.043 Y42.990 E2.22349
G1 X114.406 Y42.467 E2.27860
G1 X116.564 Y40.070 E2.49413
G1 X119.002 Y42.265 E2.71329
G1 X119.577 Y42.837 E2.76749
G1 X117.459 Y45.190 E2.97899
G1 X117.433 Y45.993 F30000.000
G1 F2100
G1 X117.224 Y45.781 E2.99892
G1 X114.234 Y43.088 E3.26770
G1 X114.270 Y43.049 E3.27126
G1 X113.646 Y42.536 E3.32522
G1 X113.821 Y42.316 E3.34401
G1 X116.512 Y39.327 E3.61275
G1 X116.745 Y39.512 E3.63263
G1 X119.735 Y42.204 E3.90137
G1 X119.718 Y42.225 E3.90321
G1 X120.319 Y42.814 E3.95943
G1 X117.631 Y45.800 E4.22779
G1 X117.476 Y45.951 E4.24227
G1 X117.353 Y45.706 F30000.000
G1 X117.322 Y44.535 F30000.000
G1 F2100
G1 X117.436 Y44.421 E4.25482
G1 X116.856 Y44.116 F30000.000
G1 F2100
G1 X118.524 Y42.447 E4.43905
G1 X118.058 Y42.028 E4.48800
G1 X116.390 Y43.696 E4.67223
G1 X115.924 Y43.277 E4.72118
G1 X117.593 Y41.608 E4.90541
G1 X117.127 Y41.189 E4.95437
G1 X115.522 Y42.794 E5.13159
G1 X115.122 Y42.466 E5.17197
G1 X116.661 Y40.769 E5.35081
G1 E3.35081 F2400.00000
G92 E0
G1 X100.043 Y33.021 F30000.000
G1 E2.00000 F2400.00000
G1 F2100
G1 X96.936 Y32.011 E2.21824
G1 X96.961 Y31.937 E2.22349
G1 X96.165 Y31.718 E2.27860
G1 X97.162 Y28.650 E2.49413
G1 X100.282 Y29.663 E2.71327
G1 X101.040 Y29.953 E2.76749
G1 X100.062 Y32.964 E2.97899
G1 X100.365 Y33.708 F30000.000
G1 F2100
G1 X100.088 Y33.598 E2.99892
G1 X96.261 Y32.355 E3.26769
G1 X96.278 Y32.304 E3.27126
G1 X95.499 Y32.090 E3.32522
G1 X95.569 Y31.818 E3.34401
G1 X96.812 Y27.992 E3.61275
G1 X97.101 Y28.067 E3.63263
G1 X100.926 Y29.310 E3.90136
G1 X100.919 Y29.336 E3.90321
G1 X101.708 Y29.630 E3.95943
G1 X100.467 Y33.451 E4.22779
G1 X100.387 Y33.652 E4.24227
G1 X100.175 Y33.478 F30000.000
G1 X99.642 Y32.403 F30000.000
G1 F2100
G1 X99.756 Y32.289 E4.25461
G1 X100.175 Y31.002 E4.35836
G1 X98.986 Y32.190 E4.48714
G1 X98.331 Y31.976 E4.54000
G1 X100.185 Y30.121 E4.74108
G1 X99.531 Y29.907 E4.79389
G1 X97.675 Y31.763 E4.99508
G1 X97.554 Y31.724 E5.00476
G1 X97.586 Y31.626 E5.01272
G1 X97.082 Y31.487 E5.05283
G1 X98.875 Y29.694 E5.24716
G1 X98.219 Y29.481 E5.30002
G1 X97.031 Y30.669 E5.42880
G1 X97.449 Y29.382 E5.53255
G1 X97.563 Y29.268 E5.54489
G1 E3.54489 F2400.00000
G92 E0
G1 X79.202 Y28.930 F30000.000
G1 E2.00000 F2400.00000
G1 F2100
G1 X75.953 Y29.272 E2.21824
G1 X75.945 Y29.193 E2.22349
G1 X75.129 Y29.317 E2.27861
G1 X74.792 Y26.109 E2.49413
G1 X78.055 Y25.766 E2.71328
G1 X78.865 Y25.722 E2.76749
G1 X79.196 Y28.870 E2.97899
G1 X79.776 Y29.427 F30000.000
G1 F2100
G1 X79.478 Y29.440 E2.99892
G1 X75.477 Y29.860 E3.26769
G1 X75.471 Y29.807 E3.27126
G1 X74.673 Y29.928 E3.32522
G1 X74.626 Y29.651 E3.34401
G1 X74.205 Y25.650 E3.61275
G1 X74.499 Y25.601 E3.63263
G1 X78.500 Y25.181 E3.90137
G1 X78.504 Y25.208 E3.90321
G1 X79.344 Y25.155 E3.95943
G1 X79.764 Y29.150 E4.22779
