; generated by Slic3r 1.3.0 on 2022-10-26 at 12:19:24

; external perimeters extrusion width = 0.44mm (3.38mm^3/s)
; perimeters extrusion width = 0.48mm (7.54mm^3/s)
; infill extrusion width = 0.48mm (10.05mm^3/s)
; solid infill extrusion width = 0.48mm (2.51mm^3/s)
; top infill extrusion width = 0.48mm (1.88mm^3/s)

M107
M104 S210 ; set temperature
G28 ; home all axes
G1 Z5 F5000 ; lift nozzle

; Filament gcode

M109 S210 ; set temperature and wait for it to be reached
G21 ; set units to millimeters
G90 ; use absolute coordinates
M82 ; use absolute distances for extrusion
G92 E0
G1 Z0.350 F7800.000
G1 E-2.00000 F2400.00000
G92 E0
G1 X51.265 Y45.148 F7800.000
G1 E2.00000 F2400.00000
G1 F1800
G1 X53.018 Y43.669 E2.20437
G1 X55.170 Y42.876 E2.40874
G1 X56.350 Y42.770 E2.51430
G1 X113.650 Y42.770 E7.62036
G1 X115.909 Y43.167 E7.82473
G1 X117.897 Y44.311 E8.02910
G1 X119.376 Y46.063 E8.23347
G1 X120.169 Y48.215 E8.43784
G1 X120.275 Y49.395 E8.54340
G1 X120.275 Y100.596 E13.10596
G1 X119.878 Y102.855 E13.31034
G1 X118.735 Y104.843 E13.51471
G1 X116.982 Y106.322 E13.71908
G1 X114.830 Y107.115 E13.92345
G1 X113.650 Y107.221 E14.02901
G1 X56.350 Y107.221 E19.13507
G1 X54.091 Y106.824 E19.33944
G1 X52.103 Y105.681 E19.54381
G1 X50.624 Y103.928 E19.74818
G1 X49.831 Y101.776 E19.95255
G1 X49.725 Y100.596 E20.05811
G1 X49.725 Y49.395 E24.62067
G1 X50.122 Y47.136 E24.82504
G1 X51.236 Y45.200 E25.02407
G1 E23.02407 F2400.00000
G92 E0
G1 X112.050 Y98.996 F7800.000
G1 E2.00000 F2400.00000
G1 F1800
G1 X57.950 Y98.996 E6.82094
G1 X57.950 Y50.995 E11.09839
G1 X112.050 Y50.995 E15.91934
G1 X112.050 Y98.936 E20.19144
G1 X112.675 Y99.621 F7800.000
G1 F1800
G1 X57.325 Y99.621 E25.12376
G1 X57.325 Y50.370 E29.51258
G1 X112.675 Y50.370 E34.44489
G1 X112.675 Y99.561 E38.82836
G1 X113.300 Y100.246 F7800.000
G1 F1800
G1 X56.700 Y100.246 E43.87204
G1 X56.700 Y49.745 E48.37223
G1 X113.300 Y49.745 E53.41591
G1 X113.300 Y100.186 E57.91076
G1 X112.912 Y100.150 F7800.000
G1 E55.91076 F2400.00000
G92 E0
G1 X111.182 Y98.615 F7800.000
G1 E2.00000 F2400.00000
G1 F1800
G1 X111.668 Y98.128 E2.06166
G1 X111.668 Y97.239 E2.14140
G1 X110.293 Y98.615 E2.31584
G1 X109.404 Y98.615 E2.39559
G1 X111.668 Y96.350 E2.68280
G1 X111.668 Y95.460 E2.76255
G1 X108.514 Y98.615 E3.16255
G1 X107.625 Y98.615 E3.24229
G1 X111.668 Y94.571 E3.75507
G1 X111.668 Y93.682 E3.83481
G1 X106.736 Y98.615 E4.46037
G1 X105.846 Y98.615 E4.54011
G1 X111.668 Y92.793 E5.27845
G1 X111.668 Y91.903 E5.35819
G1 X104.957 Y98.615 E6.20930
G1 X104.068 Y98.615 E6.28905
G1 X111.668 Y91.014 E7.25294
G1 X111.668 Y90.125 E7.33269
G1 X103.178 Y98.615 E8.40936
G1 X102.289 Y98.615 E8.48910
G1 X111.668 Y89.235 E9.67855
G1 X111.668 Y88.346 E9.75830
G1 X101.400 Y98.615 E11.06053
G1 X100.511 Y98.615 E11.14027
G1 X111.668 Y87.457 E12.55528
G1 X111.668 Y86.567 E12.63503
G1 X99.621 Y98.615 E14.16281
G1 X98.732 Y98.615 E14.24256
G1 X111.668 Y85.678 E15.88313
G1 X111.668 Y84.789 E15.96287
G1 X97.843 Y98.615 E17.71622
G1 X96.953 Y98.615 E17.79596
G1 X111.668 Y83.899 E19.66209
G1 X111.668 Y83.010 E19.74183
G1 X96.064 Y98.615 E21.72074
G1 X95.175 Y98.615 E21.80048
G1 X111.668 Y82.121 E23.89217
G1 X111.668 Y81.232 E23.97191
G1 X94.285 Y98.615 E26.17637
G1 X93.396 Y98.615 E26.25612
G1 X111.668 Y80.342 E28.57336
G1 X111.668 Y79.453 E28.65311
G1 X92.507 Y98.615 E31.08313
G1 X91.617 Y98.615 E31.16287
G1 X111.668 Y78.564 E33.70567
G1 X111.668 Y77.674 E33.78542
G1 X90.728 Y98.615 E36.44100
G1 X89.839 Y98.615 E36.52074
G1 X111.668 Y76.785 E39.28910
G1 X111.668 Y75.896 E39.36885
G1 X88.950 Y98.615 E42.24998
G1 X88.060 Y98.615 E42.32973
G1 X111.668 Y75.006 E45.32364
G1 X111.668 Y74.117 E45.40339
G1 X87.171 Y98.615 E48.51008
G1 X86.282 Y98.615 E48.58983
G1 X111.668 Y73.228 E51.80930
G1 X111.668 Y72.339 E51.88905
G1 X85.392 Y98.615 E55.22130
G1 X84.503 Y98.615 E55.30105
G1 X111.668 Y71.449 E58.74608
G1 X111.668 Y70.560 E58.82583
G1 X83.614 Y98.615 E62.38364
G1 X82.724 Y98.615 E62.46339
G1 X111.668 Y69.671 E66.13397
G1 X111.668 Y68.781 E66.21372
G1 X81.835 Y98.615 E69.99709
G1 X80.946 Y98.615 E70.07684
G1 X111.668 Y67.892 E73.97298
G1 X111.668 Y67.003 E74.05273
G1 X80.057 Y98.615 E78.06166
G1 X79.167 Y98.615 E78.14141
G1 X111.668 Y66.113 E82.26311
G1 X111.668 Y65.224 E82.34286
G1 X78.278 Y98.615 E86.57734
G1 X77.389 Y98.615 E86.65709
G1 X111.668 Y64.335 E91.00435
G1 X111.668 Y63.445 E91.08410
G1 X76.499 Y98.615 E95.54414
G1 X75.610 Y98.615 E95.62389
G1 X111.668 Y62.556 E100.19671
G1 X111.668 Y61.667 E100.27646
G1 X74.721 Y98.615 E104.96206
G1 X73.831 Y98.615 E105.04181
G1 X111.668 Y60.778 E109.84019
G1 X111.668 Y59.888 E109.91994
G1 X72.942 Y98.615 E114.83110
G1 X72.053 Y98.615 E114.91084
G1 X111.668 Y58.999 E119.93478
G1 X111.668 Y58.110 E120.01453
G1 X71.163 Y98.615 E125.15125
G1 X70.274 Y98.615 E125.23100
G1 X111.668 Y57.220 E130.48049
G1 X111.668 Y56.331 E130.56024
G1 X69.385 Y98.615 E135.92252
G1 X68.496 Y98.615 E136.00226
G1 X111.668 Y55.442 E141.47732
G1 X111.668 Y54.552 E141.55707
G1 X67.606 Y98.615 E147.14490
G1 X66.717 Y98.615 E147.22465
G1 X111.668 Y53.663 E152.92526
G1 X111.668 Y52.774 E153.00501
G1 X65.828 Y98.615 E158.81840
G1 X64.938 Y98.615 E158.89815
G1 X111.668 Y51.885 E164.82432
G1 X111.668 Y51.377 E164.86985
G1 X111.287 Y51.377 E164.90407
G1 X64.049 Y98.615 E170.89462
G1 X63.160 Y98.615 E170.97437
G1 X110.397 Y51.377 E176.96493
G1 X109.508 Y51.377 E177.04467
G1 X62.270 Y98.615 E183.03523
G1 X61.381 Y98.615 E183.11498
G1 X108.619 Y51.377 E189.10554
G1 X107.730 Y51.377 E189.18528
G1 X60.492 Y98.615 E195.17584
G1 X59.603 Y98.615 E195.25559
G1 X106.840 Y51.377 E201.24614
G1 X105.951 Y51.377 E201.32589
G1 X58.713 Y98.615 E207.31645
G1 X58.332 Y98.615 E207.35067
G1 X58.332 Y98.107 E207.39619
G1 X105.062 Y51.377 E213.32237
G1 X104.172 Y51.377 E213.40211
G1 X58.332 Y97.218 E219.21551
G1 X58.332 Y96.328 E219.29525
G1 X103.283 Y51.377 E224.99587
G1 X102.394 Y51.377 E225.07562
G1 X58.332 Y95.439 E230.66345
G1 X58.332 Y94.550 E230.74320
G1 X101.504 Y51.377 E236.21826
G1 X100.615 Y51.377 E236.29800
G1 X58.332 Y93.660 E241.66028
G1 X58.332 Y92.771 E241.74003
G1 X99.726 Y51.377 E246.98953
G1 X98.837 Y51.377 E247.06927
G1 X58.332 Y91.882 E252.20599
G1 X58.332 Y90.992 E252.28574
G1 X97.947 Y51.377 E257.30968
G1 X97.058 Y51.377 E257.38943
G1 X58.332 Y90.103 E262.30059
G1 X58.332 Y89.214 E262.38033
G1 X96.169 Y51.377 E267.17872
G1 X95.279 Y51.377 E267.25846
G1 X58.332 Y88.324 E271.94406
G1 X58.332 Y87.435 E272.02381
G1 X94.390 Y51.377 E276.59664
G1 X93.501 Y51.377 E276.67638
G1 X58.332 Y86.546 E281.13643
G1 X58.332 Y85.657 E281.21617
G1 X92.611 Y51.377 E285.56344
G1 X91.722 Y51.377 E285.64319
G1 X58.332 Y84.767 E289.87767
G1 X58.332 Y83.878 E289.95742
G1 X90.833 Y51.377 E294.07913
G1 X89.943 Y51.377 E294.15887
G1 X58.332 Y82.989 E298.16780
G1 X58.332 Y82.099 E298.24755
G1 X89.054 Y51.377 E302.14370
G1 X88.165 Y51.377 E302.22344
G1 X58.332 Y81.210 E306.00681
G1 X58.332 Y80.321 E306.08656
G1 X87.276 Y51.377 E309.75715
G1 X86.386 Y51.377 E309.83690
G1 X58.332 Y79.431 E313.39471
G1 X58.332 Y78.542 E313.47446
G1 X85.497 Y51.377 E316.91949
G1 X84.608 Y51.377 E316.99924
G1 X58.332 Y77.653 E320.33149
G1 X58.332 Y76.764 E320.41124
G1 X83.718 Y51.377 E323.63071
G1 X82.829 Y51.377 E323.71046
G1 X58.332 Y75.874 E326.81715
G1 X58.332 Y74.985 E326.89690
G1 X81.940 Y51.377 E329.89081
G1 X81.050 Y51.377 E329.97056
G1 X58.332 Y74.096 E332.85170
G1 X58.332 Y73.206 E332.93145
G1 X80.161 Y51.377 E335.69980
G1 X79.272 Y51.377 E335.77955
G1 X58.332 Y72.317 E338.43513
G1 X58.332 Y71.428 E338.51487
G1 X78.383 Y51.377 E341.05767
G1 X77.493 Y51.377 E341.13742
G1 X58.332 Y70.538 E343.56744
G1 X58.332 Y69.649 E343.64719
G1 X76.604 Y51.377 E345.96443
G1 X75.715 Y51.377 E346.04418
G1 X58.332 Y68.760 E348.24864
G1 X58.332 Y67.870 E348.32839
G1 X74.825 Y51.377 E350.42007
G1 X73.936 Y51.377 E350.49982
G1 X58.332 Y66.981 E352.47872
G1 X58.332 Y66.092 E352.55847
G1 X73.047 Y51.377 E354.42459
G1 X72.157 Y51.377 E354.50434
G1 X58.332 Y65.203 E356.25768
G1 X58.332 Y64.313 E356.33743
G1 X71.268 Y51.377 E357.97800
G1 X70.379 Y51.377 E358.05774
G1 X58.332 Y63.424 E359.58553
G1 X58.332 Y62.535 E359.66528
G1 X69.489 Y51.377 E361.08029
G1 X68.600 Y51.377 E361.16003
G1 X58.332 Y61.645 E362.46226
G1 X58.332 Y60.756 E362.54201
G1 X67.711 Y51.377 E363.73146
G1 X66.822 Y51.377 E363.81121
G1 X58.332 Y59.867 E364.88788
G1 X58.332 Y58.977 E364.96762
G1 X65.932 Y51.377 E365.93151
G1 X65.043 Y51.377 E366.01126
G1 X58.332 Y58.088 E366.86237
G1 X58.332 Y57.199 E366.94212
G1 X64.154 Y51.377 E367.68045
G1 X63.264 Y51.377 E367.76020
G1 X58.332 Y56.310 E368.38576
G1 X58.332 Y55.420 E368.46550
G1 X62.375 Y51.377 E368.97828
G1 X61.486 Y51.377 E369.05802
G1 X58.332 Y54.531 E369.45802
G1 X58.332 Y53.642 E369.53777
G1 X60.596 Y51.377 E369.82498
G1 X59.707 Y51.377 E369.90473
G1 X58.332 Y52.752 E370.07917
G1 X58.332 Y51.863 E370.15892
G1 X58.818 Y51.377 E370.22057
M104 S205 ; set temperature
G1 Z0.650 F7800.000
G1 X112.614 Y99.560 F7800.000
G1 F3600
G1 X57.386 Y99.560 E373.04823
G1 X57.386 Y50.432 E375.56362
G1 X112.614 Y50.432 E378.39128
G1 X112.614 Y99.500 E380.90360
G1 X113.033 Y99.979 F7800.000
G1 F3600
G1 X56.967 Y99.979 E383.77416
G1 X56.967 Y50.013 E386.33244
G1 X113.033 Y50.013 E389.20299
G1 X113.033 Y99.919 E391.75820
G1 X113.430 Y100.376 F7800.000
G1 F1800
G1 X56.570 Y100.376 E394.36878
G1 X56.570 Y49.615 E396.69933
G1 X113.430 Y49.615 E399.30991
G1 X113.430 Y100.316 E401.63771
G1 X113.042 Y100.280 F7800.000
G1 X112.358 Y51.014 F7800.000
G1 F1200
G1 X112.032 Y50.688 E401.66135
G1 X111.438 Y50.688 E401.69180
G1 X112.358 Y51.607 E401.75851
G1 X112.358 Y52.201 E401.78895
G1 X110.845 Y50.688 E401.89872
G1 X110.251 Y50.688 E401.92917
G1 X112.358 Y52.794 E402.08199
G1 X112.358 Y53.388 E402.11244
G1 X109.658 Y50.688 E402.30832
G1 X109.064 Y50.688 E402.33877
G1 X112.358 Y53.981 E402.57771
G1 X112.358 Y54.575 E402.60816
G1 X108.471 Y50.688 E402.89016
G1 X107.877 Y50.688 E402.92061
G1 X112.358 Y55.168 E403.24567
G1 X112.358 Y55.762 E403.27612
G1 X107.284 Y50.688 E403.64424
G1 X106.690 Y50.688 E403.67469
G1 X112.358 Y56.355 E404.08587
G1 X112.358 Y56.949 E404.11632
G1 X106.097 Y50.688 E404.57056
G1 X105.503 Y50.688 E404.60101
G1 X112.358 Y57.542 E405.09831
G1 X112.358 Y58.136 E405.12875
G1 X104.910 Y50.688 E405.66911
G1 X104.316 Y50.688 E405.69956
G1 X112.358 Y58.729 E406.28298
G1 X112.358 Y59.323 E406.31342
G1 X103.723 Y50.688 E406.93990
G1 X103.129 Y50.688 E406.97035
G1 X112.358 Y59.916 E407.63988
G1 X112.358 Y60.510 E407.67033
G1 X102.535 Y50.688 E408.38293
G1 X101.942 Y50.688 E408.41337
G1 X112.358 Y61.104 E409.16903
G1 X112.358 Y61.697 E409.19948
G1 X101.348 Y50.688 E409.99819
G1 X100.755 Y50.688 E410.02864
G1 X112.358 Y62.291 E410.87041
G1 X112.358 Y62.884 E410.90086
G1 X100.161 Y50.688 E411.78569
G1 X99.568 Y50.688 E411.81614
G1 X112.358 Y63.478 E412.74403
G1 X112.358 Y64.071 E412.77448
G1 X98.974 Y50.688 E413.74543
G1 X98.381 Y50.688 E413.77588
G1 X112.358 Y64.665 E414.78989
G1 X112.358 Y65.258 E414.82033
G1 X97.787 Y50.688 E415.87740
G1 X97.194 Y50.688 E415.90785
G1 X112.358 Y65.852 E417.00798
G1 X112.358 Y66.445 E417.03843
G1 X96.600 Y50.688 E418.18161
G1 X96.007 Y50.688 E418.21206
G1 X112.358 Y67.039 E419.39831
G1 X112.358 Y67.632 E419.42876
G1 X95.413 Y50.688 E420.65806
G1 X94.820 Y50.688 E420.68851
G1 X112.358 Y68.226 E421.96088
G1 X112.358 Y68.819 E421.99132
G1 X94.226 Y50.688 E423.30675
G1 X93.633 Y50.688 E423.33720
G1 X112.358 Y69.413 E424.69568
G1 X112.358 Y70.006 E424.72613
G1 X93.039 Y50.688 E426.12767
G1 X92.445 Y50.688 E426.15812
G1 X112.358 Y70.600 E427.60272
G1 X112.358 Y71.194 E427.63317
G1 X91.852 Y50.688 E429.12083
G1 X91.258 Y50.688 E429.15128
G1 X112.358 Y71.787 E430.68200
G1 X112.358 Y72.381 E430.71245
G1 X90.665 Y50.688 E432.28623
G1 X90.071 Y50.688 E432.31668
G1 X112.358 Y72.974 E433.93352
G1 X112.358 Y73.568 E433.96396
G1 X89.478 Y50.688 E435.62386
G1 X88.884 Y50.688 E435.65431
G1 X112.358 Y74.161 E437.35727
G1 X112.358 Y74.755 E437.38772
G1 X88.291 Y50.688 E439.13373
G1 X87.697 Y50.688 E439.16418
G1 X112.358 Y75.348 E440.95326
G1 X112.358 Y75.942 E440.98370
G1 X87.104 Y50.688 E442.81584
G1 X86.510 Y50.688 E442.84629
G1 X112.358 Y76.535 E444.72148
G1 X112.358 Y77.129 E444.75193
G1 X85.917 Y50.688 E446.67019
G1 X85.323 Y50.688 E446.70063
G1 X112.358 Y77.722 E448.66195
G1 X112.358 Y78.316 E448.69239
G1 X84.730 Y50.688 E450.69677
G1 X84.136 Y50.688 E450.72722
G1 X112.358 Y78.909 E452.77465
G1 X112.358 Y79.503 E452.80510
G1 X83.543 Y50.688 E454.89559
G1 X82.949 Y50.688 E454.92603
G1 X112.358 Y80.096 E457.05958
G1 X112.358 Y80.690 E457.09003
G1 X82.355 Y50.688 E459.26664
G1 X81.762 Y50.688 E459.29709
G1 X112.358 Y81.284 E461.51676
G1 X112.358 Y81.877 E461.54721
G1 X81.168 Y50.688 E463.80994
G1 X80.575 Y50.688 E463.84038
G1 X112.358 Y82.471 E466.14617
G1 X112.358 Y83.064 E466.17662
G1 X79.981 Y50.688 E468.52547
G1 X79.388 Y50.688 E468.55591
G1 X112.358 Y83.658 E470.94782
G1 X112.358 Y84.251 E470.97827
G1 X78.794 Y50.688 E473.41323
G1 X78.201 Y50.688 E473.44368
G1 X112.358 Y84.845 E475.92171
G1 X112.358 Y85.438 E475.95215
G1 X77.607 Y50.688 E478.47324
G1 X77.014 Y50.688 E478.50368
G1 X112.358 Y86.032 E481.06783
G1 X112.358 Y86.625 E481.09828
G1 X76.420 Y50.688 E483.70548
G1 X75.827 Y50.688 E483.73593
G1 X112.358 Y87.219 E486.38619
G1 X112.358 Y87.812 E486.41664
G1 X75.233 Y50.688 E489.10996
G1 X74.640 Y50.688 E489.14040
G1 X112.358 Y88.406 E491.87678
G1 X112.358 Y88.999 E491.90723
G1 X74.046 Y50.688 E494.68667
G1 X73.453 Y50.688 E494.71712
G1 X112.358 Y89.593 E497.53962
G1 X112.358 Y90.186 E497.57007
G1 X72.859 Y50.688 E500.43562
G1 X72.265 Y50.688 E500.46607
G1 X112.358 Y90.780 E503.37469
G1 X112.358 Y91.374 E503.40514
G1 X71.672 Y50.688 E506.35681
G1 X71.078 Y50.688 E506.38726
G1 X112.358 Y91.967 E509.38200
G1 X112.358 Y92.561 E509.41244
G1 X70.485 Y50.688 E512.45024
G1 X69.891 Y50.688 E512.48069
G1 X112.358 Y93.154 E515.56154
G1 X112.358 Y93.748 E515.59199
G1 X69.298 Y50.688 E518.71590
G1 X68.704 Y50.688 E518.74635
G1 X112.358 Y94.341 E521.91332
G1 X112.358 Y94.935 E521.94377
G1 X68.111 Y50.688 E525.15380
G1 X67.517 Y50.688 E525.18425
G1 X112.358 Y95.528 E528.43734
G1 X112.358 Y96.122 E528.46779
G1 X66.924 Y50.688 E531.76394
G1 X66.330 Y50.688 E531.79439
G1 X112.358 Y96.715 E535.13360
G1 X112.358 Y97.309 E535.16405
G1 X65.737 Y50.688 E538.54631
G1 X65.143 Y50.688 E538.57676
G1 X112.358 Y97.902 E542.00209
G1 X112.358 Y98.496 E542.03254
G1 X64.550 Y50.688 E545.50093
G1 X63.956 Y50.688 E545.53137
G1 X112.358 Y99.089 E549.04282
G1 X112.358 Y99.304 E549.05385
G1 X111.979 Y99.304 E549.07327
G1 X63.363 Y50.688 E552.60031
G1 X62.769 Y50.688 E552.63075
G1 X111.386 Y99.304 E556.15779
G1 X110.792 Y99.304 E556.18824
G1 X62.175 Y50.688 E559.71528
G1 X61.582 Y50.688 E559.74573
G1 X110.199 Y99.304 E563.27276
G1 X109.605 Y99.304 E563.30321
G1 X60.988 Y50.688 E566.83025
G1 X60.395 Y50.688 E566.86070
G1 X109.012 Y99.304 E570.38774
G1 X108.418 Y99.304 E570.41818
G1 X59.801 Y50.688 E573.94522
G1 X59.208 Y50.688 E573.97567
G1 X107.825 Y99.304 E577.50271
G1 X107.231 Y99.304 E577.53315
G1 X58.614 Y50.688 E581.06019
G1 X58.021 Y50.688 E581.09064
G1 X106.638 Y99.304 E584.61768
G1 X106.044 Y99.304 E584.64813
G1 X57.642 Y50.902 E588.15958
G1 X57.642 Y51.496 E588.19002
G1 X105.450 Y99.304 E591.65841
G1 X104.857 Y99.304 E591.68886
G1 X57.642 Y52.089 E595.11419
G1 X57.642 Y52.683 E595.14464
G1 X104.263 Y99.304 E598.52691
G1 X103.670 Y99.304 E598.55736
G1 X57.642 Y53.277 E601.89658
G1 X57.642 Y53.870 E601.92702
G1 X103.076 Y99.304 E605.22318
G1 X102.483 Y99.304 E605.25362
G1 X57.642 Y54.464 E608.50672
G1 X57.642 Y55.057 E608.53717
G1 X101.889 Y99.304 E611.74720
G1 X101.296 Y99.304 E611.77765
G1 X57.642 Y55.651 E614.94463
G1 X57.642 Y56.244 E614.97507
G1 X100.702 Y99.304 E618.09899
G1 X100.109 Y99.304 E618.12944
G1 X57.642 Y56.838 E621.21030
G1 X57.642 Y57.431 E621.24074
G1 X99.515 Y99.304 E624.27854
G1 X98.922 Y99.304 E624.30899
G1 X57.642 Y58.025 E627.30373
G1 X57.642 Y58.618 E627.33418
G1 X98.328 Y99.304 E630.28586
G1 X97.735 Y99.304 E630.31631
