; generated by Slic3r 1.3.0 on 2022-10-27 at 16:05:34

; external perimeters extrusion width = 0.44mm (3.38mm^3/s)
; perimeters extrusion width = 0.48mm (7.54mm^3/s)
; infill extrusion width = 0.48mm (10.05mm^3/s)
; solid infill extrusion width = 0.48mm (2.51mm^3/s)
; top infill extrusion width = 0.48mm (1.88mm^3/s)

M107
M104 S210 ; set temperature
G28 ; home all axes
G1 Z5 F5000 ; lift nozzle

; Filament gcode

M109 S210 ; set temperature and wait for it to be reached
G21 ; set units to millimeters
G90 ; use absolute coordinates
M82 ; use absolute distances for extrusion
G92 E0
G1 Z0.350 F7800.000
G1 E-2.00000 F2400.00000
G92 E0
G1 X51.265 Y45.153 F7800.000
G1 E2.00000 F2400.00000
G1 F1800
G1 X53.018 Y43.674 E2.20437
G1 X55.170 Y42.881 E2.40874
G1 X56.350 Y42.775 E2.51430
G1 X113.650 Y42.775 E7.62036
G1 X115.909 Y43.172 E7.82473
G1 X117.897 Y44.315 E8.02910
G1 X119.376 Y46.068 E8.23347
G1 X120.169 Y48.220 E8.43784
G1 X120.275 Y49.400 E8.54340
G1 X120.275 Y100.600 E13.10588
G1 X119.878 Y102.859 E13.31025
G1 X118.735 Y104.847 E13.51462
G1 X116.982 Y106.326 E13.71900
G1 X114.830 Y107.119 E13.92337
G1 X113.650 Y107.225 E14.02892
G1 X56.350 Y107.225 E19.13498
G1 X54.091 Y106.828 E19.33935
G1 X52.103 Y105.685 E19.54372
G1 X50.624 Y103.932 E19.74810
G1 X49.831 Y101.780 E19.95247
G1 X49.725 Y100.600 E20.05802
G1 X49.725 Y49.400 E24.62050
G1 X50.122 Y47.141 E24.82488
G1 X51.236 Y45.205 E25.02390
G1 E23.02390 F2400.00000
G92 E0
G1 X112.050 Y99.000 F7800.000
G1 E2.00000 F2400.00000
G1 F1800
G1 X57.950 Y99.000 E6.82094
G1 X57.950 Y51.000 E11.09831
G1 X112.050 Y51.000 E15.91926
G1 X112.050 Y98.940 E20.19128
G1 X112.675 Y99.625 F7800.000
G1 F1800
G1 X57.325 Y99.625 E25.12359
G1 X57.325 Y50.375 E29.51232
G1 X112.675 Y50.375 E34.44464
G1 X112.675 Y99.565 E38.82803
G1 X113.300 Y100.250 F7800.000
G1 F1800
G1 X56.700 Y100.250 E43.87171
G1 X56.700 Y49.750 E48.37181
G1 X113.300 Y49.750 E53.41550
G1 X113.300 Y100.190 E57.91025
G1 X112.912 Y100.154 F7800.000
G1 E55.91025 F2400.00000
G92 E0
G1 X111.182 Y98.618 F7800.000
G1 E2.00000 F2400.00000
G1 F1800
G1 X111.668 Y98.132 E2.06166
G1 X111.668 Y97.243 E2.14140
G1 X110.293 Y98.618 E2.31584
G1 X109.404 Y98.618 E2.39558
G1 X111.668 Y96.354 E2.68279
G1 X111.668 Y95.464 E2.76254
G1 X108.514 Y98.618 E3.16253
G1 X107.625 Y98.618 E3.24227
G1 X111.668 Y94.575 E3.75504
G1 X111.668 Y93.686 E3.83478
G1 X106.736 Y98.618 E4.46032
G1 X105.846 Y98.618 E4.54007
G1 X111.668 Y92.796 E5.27839
G1 X111.668 Y91.907 E5.35813
G1 X104.957 Y98.618 E6.20923
G1 X104.068 Y98.618 E6.28897
G1 X111.668 Y91.018 E7.25285
G1 X111.668 Y90.129 E7.33259
G1 X103.179 Y98.618 E8.40924
G1 X102.289 Y98.618 E8.48899
G1 X111.668 Y89.239 E9.67841
G1 X111.668 Y88.350 E9.75816
G1 X101.400 Y98.618 E11.06036
G1 X100.511 Y98.618 E11.14011
G1 X111.668 Y87.461 E12.55509
G1 X111.668 Y86.571 E12.63483
G1 X99.621 Y98.618 E14.16259
G1 X98.732 Y98.618 E14.24234
G1 X111.668 Y85.682 E15.88287
G1 X111.668 Y84.793 E15.96262
G1 X97.843 Y98.618 E17.71593
G1 X96.953 Y98.618 E17.79567
G1 X111.668 Y83.903 E19.66176
G1 X111.668 Y83.014 E19.74151
G1 X96.064 Y98.618 E21.72037
G1 X95.175 Y98.618 E21.80012
G1 X111.668 Y82.125 E23.89176
G1 X111.668 Y81.236 E23.97150
G1 X94.286 Y98.618 E26.17592
G1 X93.396 Y98.618 E26.25567
G1 X111.668 Y80.346 E28.57287
G1 X111.668 Y79.457 E28.65261
G1 X92.507 Y98.618 E31.08258
G1 X91.618 Y98.618 E31.16233
G1 X111.668 Y78.568 E33.70508
G1 X111.668 Y77.678 E33.78482
G1 X90.728 Y98.618 E36.44035
G1 X89.839 Y98.618 E36.52010
G1 X111.668 Y76.789 E39.28840
G1 X111.668 Y75.900 E39.36815
G1 X88.950 Y98.618 E42.24923
G1 X88.060 Y98.618 E42.32897
G1 X111.668 Y75.011 E45.32283
G1 X111.668 Y74.121 E45.40258
G1 X87.171 Y98.618 E48.50921
G1 X86.282 Y98.618 E48.58896
G1 X111.668 Y73.232 E51.80837
G1 X111.668 Y72.343 E51.88811
G1 X85.393 Y98.618 E55.22030
G1 X84.503 Y98.618 E55.30005
G1 X111.668 Y71.453 E58.74502
G1 X111.668 Y70.564 E58.82476
G1 X83.614 Y98.618 E62.38250
G1 X82.725 Y98.618 E62.46225
G1 X111.668 Y69.675 E66.13277
G1 X111.668 Y68.785 E66.21251
G1 X81.835 Y98.618 E69.99581
G1 X80.946 Y98.618 E70.07556
G1 X111.668 Y67.896 E73.97163
G1 X111.668 Y67.007 E74.05138
G1 X80.057 Y98.618 E78.06023
G1 X79.168 Y98.618 E78.13997
G1 X111.668 Y66.118 E82.26160
G1 X111.668 Y65.228 E82.34134
G1 X78.278 Y98.618 E86.57575
G1 X77.389 Y98.618 E86.65549
G1 X111.668 Y64.339 E91.00268
G1 X111.668 Y63.450 E91.08242
G1 X76.500 Y98.618 E95.54238
G1 X75.610 Y98.618 E95.62213
G1 X111.668 Y62.560 E100.19486
G1 X111.668 Y61.671 E100.27461
G1 X74.721 Y98.618 E104.96012
G1 X73.832 Y98.618 E105.03987
G1 X111.668 Y60.782 E109.83815
G1 X111.668 Y59.892 E109.91790
G1 X72.942 Y98.618 E114.82897
G1 X72.053 Y98.618 E114.90871
G1 X111.668 Y59.003 E119.93256
G1 X111.668 Y58.114 E120.01230
G1 X71.164 Y98.618 E125.14892
G1 X70.275 Y98.618 E125.22867
G1 X111.668 Y57.225 E130.47806
G1 X111.668 Y56.335 E130.55781
G1 X69.385 Y98.618 E135.91998
G1 X68.496 Y98.618 E135.99973
G1 X111.668 Y55.446 E141.47468
G1 X111.668 Y54.557 E141.55443
G1 X67.607 Y98.618 E147.14216
G1 X66.717 Y98.618 E147.22190
G1 X111.668 Y53.667 E152.92241
G1 X111.668 Y52.778 E153.00215
G1 X65.828 Y98.618 E158.81543
G1 X64.939 Y98.618 E158.89518
G1 X111.668 Y51.889 E164.82124
G1 X111.668 Y51.382 E164.86672
G1 X111.286 Y51.382 E164.90098
G1 X64.050 Y98.618 E170.89137
G1 X63.160 Y98.618 E170.97111
G1 X110.397 Y51.382 E176.96149
G1 X109.508 Y51.382 E177.04124
G1 X62.271 Y98.618 E183.03162
G1 X61.382 Y98.618 E183.11136
G1 X108.618 Y51.382 E189.10174
G1 X107.729 Y51.382 E189.18149
G1 X60.492 Y98.618 E195.17187
G1 X59.603 Y98.618 E195.25162
G1 X106.840 Y51.382 E201.24200
G1 X105.951 Y51.382 E201.32174
G1 X58.714 Y98.618 E207.31212
G1 X58.332 Y98.618 E207.34639
G1 X58.332 Y98.111 E207.39187
G1 X105.061 Y51.382 E213.31793
G1 X104.172 Y51.382 E213.39768
G1 X58.332 Y97.222 E219.21096
G1 X58.332 Y96.333 E219.29071
G1 X103.283 Y51.382 E224.99121
G1 X102.393 Y51.382 E225.07096
G1 X58.332 Y95.443 E230.65869
G1 X58.332 Y94.554 E230.73844
G1 X101.504 Y51.382 E236.21339
G1 X100.615 Y51.382 E236.29314
G1 X58.332 Y93.665 E241.65531
G1 X58.332 Y92.775 E241.73506
G1 X99.725 Y51.382 E246.98446
G1 X98.836 Y51.382 E247.06420
G1 X58.332 Y91.886 E252.20083
G1 X58.332 Y90.997 E252.28057
G1 X97.947 Y51.382 E257.30442
G1 X97.058 Y51.382 E257.38416
G1 X58.332 Y90.108 E262.29523
G1 X58.332 Y89.218 E262.37498
G1 X96.168 Y51.382 E267.17327
G1 X95.279 Y51.382 E267.25302
G1 X58.332 Y88.329 E271.93853
G1 X58.332 Y87.440 E272.01828
G1 X94.390 Y51.382 E276.59102
G1 X93.500 Y51.382 E276.67076
G1 X58.332 Y86.550 E281.13072
G1 X58.332 Y85.661 E281.21047
G1 X92.611 Y51.382 E285.55765
G1 X91.722 Y51.382 E285.63740
G1 X58.332 Y84.772 E289.87181
G1 X58.332 Y83.882 E289.95155
G1 X90.832 Y51.382 E294.07318
G1 X89.943 Y51.382 E294.15293
G1 X58.332 Y82.993 E298.16178
G1 X58.332 Y82.104 E298.24153
G1 X89.054 Y51.382 E302.13760
G1 X88.165 Y51.382 E302.21735
G1 X58.332 Y81.215 E306.00065
G1 X58.332 Y80.325 E306.08039
G1 X87.275 Y51.382 E309.75092
G1 X86.386 Y51.382 E309.83066
G1 X58.332 Y79.436 E313.38841
G1 X58.332 Y78.547 E313.46815
G1 X85.497 Y51.382 E316.91312
G1 X84.607 Y51.382 E316.99287
G1 X58.332 Y77.657 E320.32506
G1 X58.332 Y76.768 E320.40480
G1 X83.718 Y51.382 E323.62422
G1 X82.829 Y51.382 E323.70396
G1 X58.332 Y75.879 E326.81060
G1 X58.332 Y74.990 E326.89035
G1 X81.940 Y51.382 E329.88421
G1 X81.050 Y51.382 E329.96395
G1 X58.332 Y74.100 E332.84504
G1 X58.332 Y73.211 E332.92478
G1 X80.161 Y51.382 E335.69309
G1 X79.272 Y51.382 E335.77283
G1 X58.332 Y72.322 E338.42836
G1 X58.332 Y71.432 E338.50811
G1 X78.382 Y51.382 E341.05086
G1 X77.493 Y51.382 E341.13061
G1 X58.332 Y70.543 E343.56058
G1 X58.332 Y69.654 E343.64033
G1 X76.604 Y51.382 E345.95753
G1 X75.714 Y51.382 E346.03727
G1 X58.332 Y68.764 E348.24169
G1 X58.332 Y67.875 E348.32144
G1 X74.825 Y51.382 E350.41309
G1 X73.936 Y51.382 E350.49283
G1 X58.332 Y66.986 E352.47170
G1 X58.332 Y66.097 E352.55144
G1 X73.047 Y51.382 E354.41754
G1 X72.157 Y51.382 E354.49728
G1 X58.332 Y65.207 E356.25059
G1 X58.332 Y64.318 E356.33034
G1 X71.268 Y51.382 E357.97088
G1 X70.379 Y51.382 E358.05062
G1 X58.332 Y63.429 E359.57838
G1 X58.332 Y62.539 E359.65813
G1 X69.489 Y51.382 E361.07311
G1 X68.600 Y51.382 E361.15286
G1 X58.332 Y61.650 E362.45506
G1 X58.332 Y60.761 E362.53481
G1 X67.711 Y51.382 E363.72424
G1 X66.821 Y51.382 E363.80398
G1 X58.332 Y59.871 E364.88064
G1 X58.332 Y58.982 E364.96038
G1 X65.932 Y51.382 E365.92426
G1 X65.043 Y51.382 E366.00400
G1 X58.332 Y58.093 E366.85510
G1 X58.332 Y57.204 E366.93485
G1 X64.154 Y51.382 E367.67317
G1 X63.264 Y51.382 E367.75291
G1 X58.332 Y56.314 E368.37846
G1 X58.332 Y55.425 E368.45820
G1 X62.375 Y51.382 E368.97097
G1 X61.486 Y51.382 E369.05071
G1 X58.332 Y54.536 E369.45070
G1 X58.332 Y53.646 E369.53045
G1 X60.596 Y51.382 E369.81766
G1 X59.707 Y51.382 E369.89741
G1 X58.332 Y52.757 E370.07184
G1 X58.332 Y51.868 E370.15159
G1 X58.818 Y51.382 E370.21325
M104 S205 ; set temperature
G1 Z0.650 F7800.000
G1 X112.614 Y99.564 F7800.000
G1 F3600
G1 X57.386 Y99.564 E373.04091
G1 X57.386 Y50.436 E375.55625
G1 X112.614 Y50.436 E378.38391
G1 X112.614 Y99.504 E380.89618
G1 X113.033 Y99.983 F7800.000
G1 F3600
G1 X56.967 Y99.983 E383.76673
G1 X56.967 Y50.017 E386.32497
G1 X113.033 Y50.017 E389.19552
G1 X113.033 Y99.923 E391.75068
G1 X113.430 Y100.380 F7800.000
G1 F1800
G1 X56.570 Y100.380 E394.36126
G1 X56.570 Y49.620 E396.69177
G1 X113.430 Y49.620 E399.30235
G1 X113.430 Y100.320 E401.63010
G1 X113.042 Y100.284 F7800.000
G1 X112.358 Y51.018 F7800.000
G1 F1200
G1 X112.032 Y50.692 E401.65375
G1 X111.438 Y50.692 E401.68420
G1 X112.358 Y51.612 E401.75090
G1 X112.358 Y52.205 E401.78135
G1 X110.845 Y50.692 E401.89111
G1 X110.251 Y50.692 E401.92156
G1 X112.358 Y52.799 E402.07438
G1 X112.358 Y53.392 E402.10483
G1 X109.658 Y50.692 E402.30071
G1 X109.064 Y50.692 E402.33116
G1 X112.358 Y53.986 E402.57010
G1 X112.358 Y54.579 E402.60054
G1 X108.471 Y50.692 E402.88254
G1 X107.877 Y50.692 E402.91299
G1 X112.358 Y55.173 E403.23804
G1 X112.358 Y55.766 E403.26849
G1 X107.284 Y50.692 E403.63660
G1 X106.690 Y50.692 E403.66705
G1 X112.358 Y56.360 E404.07822
G1 X112.358 Y56.953 E404.10867
G1 X106.097 Y50.692 E404.56290
G1 X105.503 Y50.692 E404.59335
G1 X112.358 Y57.547 E405.09064
G1 X112.358 Y58.140 E405.12109
G1 X104.910 Y50.692 E405.66143
G1 X104.316 Y50.692 E405.69188
G1 X112.358 Y58.734 E406.27529
G1 X112.358 Y59.327 E406.30573
G1 X103.723 Y50.692 E406.93220
G1 X103.129 Y50.692 E406.96265
G1 X112.358 Y59.921 E407.63217
G1 X112.358 Y60.514 E407.66262
G1 X102.536 Y50.692 E408.37520
G1 X101.942 Y50.692 E408.40565
G1 X112.358 Y61.108 E409.16129
G1 X112.358 Y61.701 E409.19173
G1 X101.349 Y50.692 E409.99043
G1 X100.755 Y50.692 E410.02088
G1 X112.358 Y62.295 E410.86264
G1 X112.358 Y62.889 E410.89308
G1 X100.161 Y50.692 E411.77790
G1 X99.568 Y50.692 E411.80835
G1 X112.358 Y63.482 E412.73622
G1 X112.358 Y64.076 E412.76667
G1 X98.974 Y50.692 E413.73760
G1 X98.381 Y50.692 E413.76805
G1 X112.358 Y64.669 E414.78204
G1 X112.358 Y65.263 E414.81248
G1 X97.787 Y50.692 E415.86953
G1 X97.194 Y50.692 E415.89998
G1 X112.358 Y65.856 E417.00009
G1 X112.358 Y66.450 E417.03053
G1 X96.600 Y50.692 E418.17370
G1 X96.007 Y50.692 E418.20415
G1 X112.358 Y67.043 E419.39037
G1 X112.358 Y67.637 E419.42082
G1 X95.413 Y50.692 E420.65010
G1 X94.820 Y50.692 E420.68055
G1 X112.358 Y68.230 E421.95289
G1 X112.358 Y68.824 E421.98334
G1 X94.226 Y50.692 E423.29874
G1 X93.633 Y50.692 E423.32919
G1 X112.358 Y69.417 E424.68764
G1 X112.358 Y70.011 E424.71809
G1 X93.039 Y50.692 E426.11961
G1 X92.446 Y50.692 E426.15005
G1 X112.358 Y70.604 E427.59463
G1 X112.358 Y71.198 E427.62508
G1 X91.852 Y50.692 E429.11271
G1 X91.259 Y50.692 E429.14316
G1 X112.358 Y71.791 E430.67385
G1 X112.358 Y72.385 E430.70430
G1 X90.665 Y50.692 E432.27805
G1 X90.072 Y50.692 E432.30849
G1 X112.358 Y72.978 E433.92530
G1 X112.358 Y73.572 E433.95575
G1 X89.478 Y50.692 E435.61562
G1 X88.885 Y50.692 E435.64606
G1 X112.358 Y74.165 E437.34899
G1 X112.358 Y74.759 E437.37944
G1 X88.291 Y50.692 E439.12542
G1 X87.697 Y50.692 E439.15587
G1 X112.358 Y75.353 E440.94491
G1 X112.358 Y75.946 E440.97536
G1 X87.104 Y50.692 E442.80746
G1 X86.510 Y50.692 E442.83791
G1 X112.358 Y76.540 E444.71307
G1 X112.358 Y77.133 E444.74351
G1 X85.917 Y50.692 E446.66173
G1 X85.323 Y50.692 E446.69218
G1 X112.358 Y77.727 E448.65346
G1 X112.358 Y78.320 E448.68390
G1 X84.730 Y50.692 E450.68824
G1 X84.136 Y50.692 E450.71868
G1 X112.358 Y78.914 E452.76608
G1 X112.358 Y79.507 E452.79652
G1 X83.543 Y50.692 E454.88698
G1 X82.949 Y50.692 E454.91742
G1 X112.358 Y80.101 E457.05093
G1 X112.358 Y80.694 E457.08138
G1 X82.356 Y50.692 E459.25795
G1 X81.762 Y50.692 E459.28840
G1 X112.358 Y81.288 E461.50802
G1 X112.358 Y81.881 E461.53847
G1 X81.169 Y50.692 E463.80116
G1 X80.575 Y50.692 E463.83160
G1 X112.358 Y82.475 E466.13735
G1 X112.358 Y83.068 E466.16779
G1 X79.982 Y50.692 E468.51660
G1 X79.388 Y50.692 E468.54704
G1 X112.358 Y83.662 E470.93890
G1 X112.358 Y84.255 E470.96935
G1 X78.795 Y50.692 E473.40427
G1 X78.201 Y50.692 E473.43472
G1 X112.358 Y84.849 E475.91270
G1 X112.358 Y85.442 E475.94314
G1 X77.608 Y50.692 E478.46418
G1 X77.014 Y50.692 E478.49463
G1 X112.358 Y86.036 E481.05872
G1 X112.358 Y86.629 E481.08917
G1 X76.421 Y50.692 E483.69632
G1 X75.827 Y50.692 E483.72677
G1 X112.358 Y87.223 E486.37698
G1 X112.358 Y87.817 E486.40743
G1 X75.233 Y50.692 E489.10070
G1 X74.640 Y50.692 E489.13114
G1 X112.358 Y88.410 E491.86747
G1 X112.358 Y89.004 E491.89792
G1 X74.046 Y50.692 E494.67730
G1 X73.453 Y50.692 E494.70775
G1 X112.358 Y89.597 E497.53020
G1 X112.358 Y90.191 E497.56064
G1 X72.859 Y50.692 E500.42615
G1 X72.266 Y50.692 E500.45659
G1 X112.358 Y90.784 E503.36516
G1 X112.358 Y91.378 E503.39560
G1 X71.672 Y50.692 E506.34722
G1 X71.079 Y50.692 E506.37767
G1 X112.358 Y91.971 E509.37235
G1 X112.358 Y92.565 E509.40280
G1 X70.485 Y50.692 E512.44053
G1 X69.892 Y50.692 E512.47098
G1 X112.358 Y93.158 E515.55178
G1 X112.358 Y93.752 E515.58222
G1 X69.298 Y50.692 E518.70608
G1 X68.705 Y50.692 E518.73652
G1 X112.358 Y94.345 E521.90344
G1 X112.358 Y94.939 E521.93388
G1 X68.111 Y50.692 E525.14386
G1 X67.518 Y50.692 E525.17430
G1 X112.358 Y95.532 E528.42733
G1 X112.358 Y96.126 E528.45778
G1 X66.924 Y50.692 E531.75387
G1 X66.331 Y50.692 E531.78431
G1 X112.358 Y96.719 E535.12346
G1 X112.358 Y97.313 E535.15391
G1 X65.737 Y50.692 E538.53611
G1 X65.144 Y50.692 E538.56656
G1 X112.358 Y97.906 E541.99182
G1 X112.358 Y98.500 E542.02227
G1 X64.550 Y50.692 E545.49059
G1 X63.957 Y50.692 E545.52104
G1 X112.358 Y99.093 E549.03242
G1 X112.358 Y99.308 E549.04342
G1 X111.979 Y99.308 E549.06287
G1 X63.363 Y50.692 E552.58980
G1 X62.769 Y50.692 E552.62025
G1 X111.385 Y99.308 E556.14719
G1 X110.792 Y99.308 E556.17763
G1 X62.176 Y50.692 E559.70457
G1 X61.582 Y50.692 E559.73502
G1 X110.198 Y99.308 E563.26195
G1 X109.605 Y99.308 E563.29240
G1 X60.989 Y50.692 E566.81933
G1 X60.395 Y50.692 E566.84978
G1 X109.011 Y99.308 E570.37672
G1 X108.418 Y99.308 E570.40716
G1 X59.802 Y50.692 E573.93410
G1 X59.208 Y50.692 E573.96455
G1 X107.824 Y99.308 E577.49148
G1 X107.231 Y99.308 E577.52193
G1 X58.615 Y50.692 E581.04887
G1 X58.021 Y50.692 E581.07931
G1 X106.637 Y99.308 E584.60625
G1 X106.044 Y99.308 E584.63670
G1 X57.642 Y50.906 E588.14808
G1 X57.642 Y51.500 E588.17853
G1 X105.450 Y99.308 E591.64686
G1 X104.857 Y99.308 E591.67731
G1 X57.642 Y52.093 E595.10258
G1 X57.642 Y52.687 E595.13302
G1 X104.263 Y99.308 E598.51523
G1 X103.669 Y99.308 E598.54568
G1 X57.642 Y53.281 E601.88483
G1 X57.642 Y53.874 E601.91528
G1 X103.076 Y99.308 E605.21138
G1 X102.482 Y99.308 E605.24182
G1 X57.642 Y54.468 E608.49486
G1 X57.642 Y55.061 E608.52530
G1 X101.889 Y99.308 E611.73528
G1 X101.295 Y99.308 E611.76573
G1 X57.642 Y55.655 E614.93265
G1 X57.642 Y56.248 E614.96310
G1 X100.702 Y99.308 E618.08696
G1 X100.108 Y99.308 E618.11740
G1 X57.642 Y56.842 E621.19821
G1 X57.642 Y57.435 E621.22865
G1 X99.515 Y99.308 E624.26640
G1 X98.921 Y99.308 E624.29684
G1 X57.642 Y58.029 E627.29153
G1 X57.642 Y58.622 E627.32197
G1 X98.328 Y99.308 E630.27360
G1 X97.734 Y99.308 E630.30405
