; generated by Slic3r 1.3.0 on 2024-03-02 at 02:09:40

; external perimeters extrusion width = 0.44mm (2.78mm^3/s)
; perimeters extrusion width = 0.40mm (7.14mm^3/s)
; infill extrusion width = 0.50mm (10.97mm^3/s)
; solid infill extrusion width = 0.60mm (6.68mm^3/s)
; top infill extrusion width = 0.40mm (2.14mm^3/s)

M107
M190 S80 ; set bed temperature and wait for it to be reached
M104 S210 ; set temperature
G28 ; home all axes
G1 Z5 F5000 ; lift nozzle

; Filament gcode

M109 S210 ; set temperature and wait for it to be reached
G21 ; set units to millimeters
G90 ; use absolute coordinates
M82 ; use absolute distances for extrusion
G92 E0
G1 Z0.300 F30000.000
G1 E-2.00000 F2400.00000
G92 E0
G1 X9.409 Y3.427 F30000.000
G1 E2.00000 F2400.00000
G1 F2100
G1 X10.504 Y2.167 E2.11156
G1 X12.550 Y1.514 E2.25503
G1 X147.450 Y1.514 E11.26708
G1 X149.073 Y1.909 E11.37864
G1 X150.333 Y3.004 E11.49020
G1 X150.986 Y5.050 E11.63367
G1 X150.986 Y154.950 E21.64780
G1 X150.591 Y156.573 E21.75936
G1 X149.496 Y157.833 E21.87092
G1 X147.450 Y158.486 E22.01439
G1 X12.550 Y158.486 E31.02644
G1 X10.927 Y158.091 E31.13800
G1 X9.667 Y156.996 E31.24956
G1 X9.014 Y154.950 E31.39303
G1 X9.014 Y5.050 E41.40716
G1 X9.395 Y3.486 E41.51471
G1 E39.51471 F2400.00000
G92 E0
G1 X75.886 Y34.114 F30000.000
G1 E2.00000 F2400.00000
G1 F2100
G1 X13.386 Y34.114 E6.17534
G1 X13.386 Y5.886 E8.06117
G1 X146.614 Y5.886 E16.96157
G1 X146.614 Y34.114 E18.84741
G1 X84.114 Y34.114 E23.02275
G1 X84.114 Y125.886 E29.15356
G1 X146.614 Y125.886 E33.32890
G1 X146.614 Y154.114 E35.21473
G1 X13.386 Y154.114 E44.11514
G1 X13.386 Y125.886 E46.00097
G1 X75.886 Y125.886 E50.17631
G1 X75.886 Y34.174 E56.30311
G1 X75.350 Y34.650 F30000.000
G1 F2100
G1 X12.850 Y34.650 E60.47845
G1 X12.850 Y5.350 E62.43585
G1 X147.150 Y5.350 E71.40782
G1 X147.150 Y34.650 E73.36522
G1 X84.650 Y34.650 E77.54055
G1 X84.650 Y125.350 E83.59980
G1 X147.150 Y125.350 E87.77514
G1 X147.150 Y154.650 E89.73254
G1 X12.850 Y154.650 E98.70451
G1 X12.850 Y125.350 E100.66191
G1 X75.350 Y125.350 E104.83724
G1 X75.350 Y34.710 E110.89249
G1 X75.430 Y34.258 F30000.000
G1 E108.89249 F2400.00000
G92 E0
G1 X76.364 Y40.372 F30000.000
G1 E2.00000 F2400.00000
G1 F2100
G1 X110.372 Y6.364 E5.21945
G1 X109.613 Y6.364 E5.27026
G1 X76.364 Y39.613 E8.41785
G1 X76.364 Y38.854 E8.46866
G1 X108.854 Y6.364 E11.54440
G1 X108.095 Y6.364 E11.59521
G1 X76.364 Y38.095 E14.59909
G1 X76.364 Y37.336 E14.64990
G1 X107.336 Y6.364 E17.58194
G1 X106.577 Y6.364 E17.63274
G1 X76.364 Y36.577 E20.49292
G1 X76.364 Y35.818 E20.54373
G1 X105.818 Y6.364 E23.33206
G1 X105.059 Y6.364 E23.38287
G1 X76.364 Y35.059 E26.09934
G1 X76.364 Y34.300 E26.15015
G1 X104.300 Y6.364 E28.79477
G1 X103.541 Y6.364 E28.84558
G1 X76.270 Y33.636 E31.42728
G1 X75.511 Y33.636 E31.47808
G1 X102.782 Y6.364 E34.05978
G1 X102.023 Y6.364 E34.11059
G1 X74.752 Y33.636 E36.69229
G1 X73.993 Y33.636 E36.74309
G1 X101.264 Y6.364 E39.32479
G1 X100.505 Y6.364 E39.37560
G1 X73.234 Y33.636 E41.95729
G1 X72.475 Y33.636 E42.00810
G1 X99.746 Y6.364 E44.58980
G1 X98.987 Y6.364 E44.64061
G1 X71.716 Y33.636 E47.22230
G1 X70.957 Y33.636 E47.27311
G1 X98.228 Y6.364 E49.85481
G1 X97.469 Y6.364 E49.90562
G1 X70.198 Y33.636 E52.48731
G1 X69.439 Y33.636 E52.53812
G1 X96.710 Y6.364 E55.11982
G1 X95.951 Y6.364 E55.17063
G1 X68.680 Y33.636 E57.75232
G1 X67.921 Y33.636 E57.80313
G1 X95.192 Y6.364 E60.38483
G1 X94.433 Y6.364 E60.43563
G1 X67.162 Y33.636 E63.01733
G1 X66.403 Y33.636 E63.06814
G1 X93.674 Y6.364 E65.64984
G1 X92.915 Y6.364 E65.70064
G1 X65.644 Y33.636 E68.28234
G1 X64.885 Y33.636 E68.33315
G1 X92.156 Y6.364 E70.91484
G1 X91.397 Y6.364 E70.96565
G1 X64.126 Y33.636 E73.54735
G1 X63.367 Y33.636 E73.59816
G1 X90.638 Y6.364 E76.17985
G1 X89.879 Y6.364 E76.23066
G1 X62.608 Y33.636 E78.81236
G1 X61.849 Y33.636 E78.86317
G1 X89.120 Y6.364 E81.44486
G1 X88.361 Y6.364 E81.49567
G1 X61.090 Y33.636 E84.07737
G1 X60.331 Y33.636 E84.12818
G1 X87.602 Y6.364 E86.70987
G1 X86.843 Y6.364 E86.76068
G1 X59.572 Y33.636 E89.34238
G1 X58.813 Y33.636 E89.39318
G1 X86.084 Y6.364 E91.97488
G1 X85.325 Y6.364 E92.02569
G1 X58.054 Y33.636 E94.60739
G1 X57.295 Y33.636 E94.65819
G1 X84.566 Y6.364 E97.23989
G1 X83.807 Y6.364 E97.29070
G1 X56.536 Y33.636 E99.87240
G1 X55.777 Y33.636 E99.92320
G1 X83.048 Y6.364 E102.50490
G1 X82.289 Y6.364 E102.55571
G1 X55.018 Y33.636 E105.13740
G1 X54.259 Y33.636 E105.18821
G1 X81.530 Y6.364 E107.76991
G1 X80.771 Y6.364 E107.82072
G1 X53.500 Y33.636 E110.40241
G1 X52.741 Y33.636 E110.45322
G1 X80.012 Y6.364 E113.03492
G1 X79.253 Y6.364 E113.08573
G1 X51.982 Y33.636 E115.66742
G1 X51.223 Y33.636 E115.71823
G1 X78.494 Y6.364 E118.29993
G1 X77.735 Y6.364 E118.35074
G1 X50.464 Y33.636 E120.93243
G1 X49.705 Y33.636 E120.98324
G1 X76.976 Y6.364 E123.56494
G1 X76.217 Y6.364 E123.61574
G1 X48.946 Y33.636 E126.19744
G1 X48.187 Y33.636 E126.24825
G1 X75.458 Y6.364 E128.82995
G1 X74.699 Y6.364 E128.88075
G1 X47.428 Y33.636 E131.46245
G1 X46.669 Y33.636 E131.51326
G1 X73.940 Y6.364 E134.09495
G1 X73.181 Y6.364 E134.14576
G1 X45.910 Y33.636 E136.72746
G1 X45.151 Y33.636 E136.77827
G1 X72.422 Y6.364 E139.35996
G1 X71.663 Y6.364 E139.41077
G1 X44.392 Y33.636 E141.99247
G1 X43.633 Y33.636 E142.04328
G1 X70.904 Y6.364 E144.62497
G1 X70.145 Y6.364 E144.67578
G1 X42.874 Y33.636 E147.25748
G1 X42.115 Y33.636 E147.30829
G1 X69.386 Y6.364 E149.88998
G1 X68.627 Y6.364 E149.94079
G1 X41.356 Y33.636 E152.52249
G1 X40.597 Y33.636 E152.57329
G1 X67.868 Y6.364 E155.15499
G1 X67.109 Y6.364 E155.20580
G1 X39.838 Y33.636 E157.78750
G1 X39.079 Y33.636 E157.83830
G1 X66.350 Y6.364 E160.42000
G1 X65.591 Y6.364 E160.47081
G1 X38.320 Y33.636 E163.05250
G1 X37.561 Y33.636 E163.10331
G1 X64.832 Y6.364 E165.68501
G1 X64.073 Y6.364 E165.73582
G1 X36.802 Y33.636 E168.31751
G1 X36.043 Y33.636 E168.36832
G1 X63.314 Y6.364 E170.95002
G1 X62.555 Y6.364 E171.00083
G1 X35.284 Y33.636 E173.58252
G1 X34.525 Y33.636 E173.63333
G1 X61.796 Y6.364 E176.21503
G1 X61.037 Y6.364 E176.26584
G1 X33.766 Y33.636 E178.84753
G1 X33.007 Y33.636 E178.89834
G1 X60.278 Y6.364 E181.48004
G1 X59.519 Y6.364 E181.53084
G1 X32.248 Y33.636 E184.11254
G1 X31.489 Y33.636 E184.16335
G1 X58.760 Y6.364 E186.74504
G1 X58.001 Y6.364 E186.79585
G1 X30.730 Y33.636 E189.37755
G1 X29.971 Y33.636 E189.42836
G1 X57.242 Y6.364 E192.01005
G1 X56.483 Y6.364 E192.06086
G1 X29.212 Y33.636 E194.64256
G1 X28.453 Y33.636 E194.69337
G1 X55.724 Y6.364 E197.27506
G1 X54.965 Y6.364 E197.32587
G1 X27.694 Y33.636 E199.90757
G1 X26.935 Y33.636 E199.95837
G1 X54.206 Y6.364 E202.54007
G1 X53.447 Y6.364 E202.59088
G1 X26.176 Y33.636 E205.17258
G1 X25.417 Y33.636 E205.22338
G1 X52.688 Y6.364 E207.80508
G1 X51.929 Y6.364 E207.85589
G1 X24.658 Y33.636 E210.43758
G1 X23.899 Y33.636 E210.48839
G1 X51.170 Y6.364 E213.07009
G1 X50.411 Y6.364 E213.12090
G1 X23.140 Y33.636 E215.70259
G1 X22.381 Y33.636 E215.75340
G1 X49.652 Y6.364 E218.33510
G1 X48.893 Y6.364 E218.38591
G1 X21.622 Y33.636 E220.96760
G1 X20.863 Y33.636 E221.01841
G1 X48.134 Y6.364 E223.60011
G1 X47.375 Y6.364 E223.65091
G1 X20.104 Y33.636 E226.23261
G1 X19.345 Y33.636 E226.28342
G1 X46.616 Y6.364 E228.86512
G1 X45.857 Y6.364 E228.91592
G1 X18.586 Y33.636 E231.49762
G1 X17.827 Y33.636 E231.54843
G1 X45.098 Y6.364 E234.13012
G1 X44.339 Y6.364 E234.18093
G1 X17.068 Y33.636 E236.76263
G1 X16.309 Y33.636 E236.81344
G1 X43.580 Y6.364 E239.39513
G1 X42.821 Y6.364 E239.44594
G1 X15.550 Y33.636 E242.02764
G1 X14.791 Y33.636 E242.07845
G1 X42.062 Y6.364 E244.66014
G1 X41.303 Y6.364 E244.71095
G1 X14.032 Y33.636 E247.29265
G1 X13.864 Y33.636 E247.30383
G1 X13.864 Y33.044 E247.34345
G1 X40.544 Y6.364 E249.86912
G1 X39.785 Y6.364 E249.91992
G1 X13.864 Y32.285 E252.37373
G1 X13.864 Y31.526 E252.42454
G1 X39.026 Y6.364 E254.80650
G1 X38.267 Y6.364 E254.85730
G1 X13.864 Y30.767 E257.16740
G1 X13.864 Y30.008 E257.21821
G1 X37.508 Y6.364 E259.45646
G1 X36.749 Y6.364 E259.50727
G1 X13.864 Y29.249 E261.67366
G1 X13.864 Y28.490 E261.72447
G1 X35.990 Y6.364 E263.81901
G1 X35.231 Y6.364 E263.86982
G1 X13.864 Y27.731 E265.89251
G1 X13.864 Y26.972 E265.94332
G1 X34.472 Y6.364 E267.89415
G1 X33.713 Y6.364 E267.94496
G1 X13.864 Y26.213 E269.82394
G1 X13.864 Y25.454 E269.87475
G1 X32.954 Y6.364 E271.68188
G1 X32.195 Y6.364 E271.73269
G1 X13.864 Y24.695 E273.46796
G1 X13.864 Y23.936 E273.51877
G1 X31.436 Y6.364 E275.18219
G1 X30.677 Y6.364 E275.23300
G1 X13.864 Y23.177 E276.82457
G1 X13.864 Y22.418 E276.87538
G1 X29.918 Y6.364 E278.39509
G1 X29.159 Y6.364 E278.44590
G1 X13.864 Y21.659 E279.89376
G1 X13.864 Y20.900 E279.94457
G1 X28.400 Y6.364 E281.32058
G1 X27.641 Y6.364 E281.37139
G1 X13.864 Y20.141 E282.67554
G1 X13.864 Y19.382 E282.72635
G1 X26.882 Y6.364 E283.95865
G1 X26.123 Y6.364 E284.00946
G1 X13.864 Y18.623 E285.16991
G1 X13.864 Y17.864 E285.22072
G1 X25.364 Y6.364 E286.30931
G1 X24.605 Y6.364 E286.36012
G1 X13.864 Y17.105 E287.37686
G1 X13.864 Y16.346 E287.42767
G1 X23.846 Y6.364 E288.37256
G1 X23.087 Y6.364 E288.42337
G1 X13.864 Y15.587 E289.29640
G1 X13.864 Y14.828 E289.34721
G1 X22.328 Y6.364 E290.14839
G1 X21.569 Y6.364 E290.19920
G1 X13.864 Y14.069 E290.92853
G1 X13.864 Y13.310 E290.97934
G1 X20.810 Y6.364 E291.63681
G1 X20.050 Y6.364 E291.68762
G1 X13.864 Y12.550 E292.27324
G1 X13.864 Y11.791 E292.32405
G1 X19.291 Y6.364 E292.83782
G1 X18.532 Y6.364 E292.88863
G1 X13.864 Y11.032 E293.33054
G1 X13.864 Y10.273 E293.38135
G1 X17.773 Y6.364 E293.75141
G1 X17.014 Y6.364 E293.80222
G1 X13.864 Y9.514 E294.10043
G1 X13.864 Y8.755 E294.15124
G1 X16.255 Y6.364 E294.37759
G1 X15.496 Y6.364 E294.42840
G1 X13.864 Y7.996 E294.58290
G1 X13.864 Y7.237 E294.63371
G1 X14.737 Y6.364 E294.71636
G1 X13.978 Y6.364 E294.76717
G1 X13.865 Y6.478 E294.77793
G1 E292.77793 F2400.00000
G92 E0
G1 X83.522 Y33.974 F30000.000
G1 E2.00000 F2400.00000
G1 F2100
G1 X83.522 Y33.636 E2.02264
G1 X83.860 Y33.636 E2.04528
G1 X111.131 Y6.364 E4.62697
G1 X111.890 Y6.364 E4.67778
G1 X84.619 Y33.636 E7.25948
G1 X85.378 Y33.636 E7.31029
G1 X112.649 Y6.364 E9.89198
G1 X113.408 Y6.364 E9.94279
G1 X86.137 Y33.636 E12.52449
G1 X86.896 Y33.636 E12.57529
G1 X114.167 Y6.364 E15.15699
G1 X114.926 Y6.364 E15.20780
G1 X87.655 Y33.636 E17.78950
G1 X88.414 Y33.636 E17.84030
G1 X115.685 Y6.364 E20.42200
G1 X116.444 Y6.364 E20.47281
G1 X89.173 Y33.636 E23.05450
G1 X89.932 Y33.636 E23.10531
G1 X117.203 Y6.364 E25.68701
G1 X117.962 Y6.364 E25.73782
G1 X90.691 Y33.636 E28.31951
G1 X91.450 Y33.636 E28.37032
G1 X118.721 Y6.364 E30.95202
G1 X119.480 Y6.364 E31.00283
G1 X92.209 Y33.636 E33.58452
G1 X92.968 Y33.636 E33.63533
G1 X120.239 Y6.364 E36.21703
G1 X120.998 Y6.364 E36.26784
G1 X93.727 Y33.636 E38.84953
G1 X94.486 Y33.636 E38.90034
G1 X121.757 Y6.364 E41.48204
G1 X122.516 Y6.364 E41.53285
G1 X95.245 Y33.636 E44.11454
G1 X96.004 Y33.636 E44.16535
G1 X123.275 Y6.364 E46.74705
G1 X124.034 Y6.364 E46.79785
G1 X96.763 Y33.636 E49.37955
G1 X97.522 Y33.636 E49.43036
G1 X124.793 Y6.364 E52.01206
G1 X125.552 Y6.364 E52.06286
G1 X98.281 Y33.636 E54.64456
G1 X99.040 Y33.636 E54.69537
G1 X126.312 Y6.364 E57.27706
G1 X127.071 Y6.364 E57.32787
G1 X99.799 Y33.636 E59.90957
G1 X100.558 Y33.636 E59.96038
G1 X127.830 Y6.364 E62.54207
G1 X128.589 Y6.364 E62.59288
G1 X101.317 Y33.636 E65.17458
G1 X102.076 Y33.636 E65.22539
G1 X129.348 Y6.364 E67.80708
G1 X130.107 Y6.364 E67.85789
G1 X102.835 Y33.636 E70.43959
G1 X103.594 Y33.636 E70.49040
G1 X130.866 Y6.364 E73.07209
G1 X131.625 Y6.364 E73.12290
G1 X104.353 Y33.636 E75.70460
G1 X105.112 Y33.636 E75.75541
G1 X132.384 Y6.364 E78.33710
G1 X133.143 Y6.364 E78.38791
G1 X105.871 Y33.636 E80.96961
G1 X106.630 Y33.636 E81.02041
G1 X133.902 Y6.364 E83.60211
G1 X134.661 Y6.364 E83.65292
G1 X107.389 Y33.636 E86.23462
G1 X108.148 Y33.636 E86.28542
G1 X135.420 Y6.364 E88.86712
G1 X136.179 Y6.364 E88.91793
G1 X108.907 Y33.636 E91.49963
G1 X109.666 Y33.636 E91.55043
G1 X136.938 Y6.364 E94.13213
G1 X137.697 Y6.364 E94.18294
G1 X110.425 Y33.636 E96.76464
G1 X111.184 Y33.636 E96.81544
G1 X138.456 Y6.364 E99.39714
G1 X139.215 Y6.364 E99.44795
G1 X111.943 Y33.636 E102.02964
G1 X112.702 Y33.636 E102.08045
G1 X139.974 Y6.364 E104.66215
G1 X140.733 Y6.364 E104.71296
G1 X113.461 Y33.636 E107.29465
G1 X114.220 Y33.636 E107.34546
G1 X141.492 Y6.364 E109.92716
G1 X142.251 Y6.364 E109.97797
G1 X114.979 Y33.636 E112.55966
G1 X115.738 Y33.636 E112.61047
G1 X143.010 Y6.364 E115.19217
G1 X143.769 Y6.364 E115.24298
G1 X116.497 Y33.636 E117.82467
G1 X117.256 Y33.636 E117.87548
G1 X144.528 Y6.364 E120.45718
G1 X145.287 Y6.364 E120.50799
G1 X118.015 Y33.636 E123.08968
G1 X118.774 Y33.636 E123.14049
G1 X146.046 Y6.364 E125.72219
G1 X146.136 Y6.364 E125.72821
G1 X146.136 Y7.034 E125.77300
G1 X119.533 Y33.636 E128.29135
G1 X120.292 Y33.636 E128.34216
G1 X146.136 Y7.793 E130.78866
G1 X146.136 Y8.552 E130.83947
G1 X121.052 Y33.636 E133.21412
G1 X121.811 Y33.636 E133.26492
G1 X146.136 Y9.311 E135.56772
G1 X146.136 Y10.070 E135.61853
G1 X122.570 Y33.636 E137.84947
G1 X123.329 Y33.636 E137.90028
G1 X146.136 Y10.829 E140.05937
G1 X146.136 Y11.588 E140.11017
G1 X124.088 Y33.636 E142.19741
G1 X124.847 Y33.636 E142.24822
G1 X146.136 Y12.347 E144.26360
G1 X146.136 Y13.106 E144.31441
G1 X125.606 Y33.636 E146.25793
G1 X126.365 Y33.636 E146.30874
G1 X146.136 Y13.865 E148.18042
G1 X146.136 Y14.624 E148.23122
G1 X127.124 Y33.636 E150.03105
G1 X127.883 Y33.636 E150.08185
G1 X146.136 Y15.383 E151.80982
G1 X146.136 Y16.142 E151.86063
G1 X128.642 Y33.636 E153.51675
G1 X129.401 Y33.636 E153.56755
G1 X146.136 Y16.901 E155.15182
G1 X146.136 Y17.660 E155.20262
G1 X130.160 Y33.636 E156.71503
G1 X130.919 Y33.636 E156.76584
G1 X146.136 Y18.419 E158.20640
G1 X146.136 Y19.178 E158.25720
G1 X131.678 Y33.636 E159.62591
G1 X132.437 Y33.636 E159.67671
G1 X146.136 Y19.937 E160.97356
G1 X146.136 Y20.696 E161.02437
G1 X133.196 Y33.636 E162.24936
G1 X133.955 Y33.636 E162.30017
G1 X146.136 Y21.455 E163.45331
G1 X146.136 Y22.214 E163.50412
G1 X134.714 Y33.636 E164.58541
G1 X135.473 Y33.636 E164.63622
G1 X146.136 Y22.973 E165.64565
G1 X146.136 Y23.732 E165.69646
G1 X136.232 Y33.636 E166.63404
G1 X136.991 Y33.636 E166.68485
G1 X146.136 Y24.491 E167.55058
G1 X146.136 Y25.250 E167.60139
G1 X137.750 Y33.636 E168.39526
G1 X138.509 Y33.636 E168.44607
G1 X146.136 Y26.009 E169.16809
G1 X146.136 Y26.768 E169.21890
G1 X139.268 Y33.636 E169.86907
G1 X140.027 Y33.636 E169.91988
G1 X146.136 Y27.527 E170.49819
G1 X146.136 Y28.286 E170.54900
G1 X140.786 Y33.636 E171.05546
G1 X141.545 Y33.636 E171.10627
G1 X146.136 Y29.045 E171.54088
G1 X146.136 Y29.804 E171.59169
G1 X142.304 Y33.636 E171.95444
G1 X143.063 Y33.636 E172.00525
G1 X146.136 Y30.563 E172.29615
G1 X146.136 Y31.322 E172.34696
G1 X143.822 Y33.636 E172.56601
G1 X144.581 Y33.636 E172.61682
G1 X146.136 Y32.081 E172.76401
G1 X146.136 Y32.840 E172.81482
G1 X145.340 Y33.636 E172.89016
G1 E170.89016 F2400.00000
G92 E0
G1 X83.636 Y33.860 F30000.000
G1 E2.00000 F2400.00000
G1 F2100
G1 X76.364 Y41.131 E2.68835
G1 X76.364 Y41.890 E2.73915
G1 X83.636 Y34.619 E3.42750
G1 X83.636 Y35.378 E3.47831
G1 X76.364 Y42.649 E4.16665
G1 X76.364 Y43.408 E4.21746
G1 X83.636 Y36.137 E4.90580
G1 X83.636 Y36.896 E4.95661
G1 X76.364 Y44.167 E5.64496
G1 X76.364 Y44.926 E5.69577
G1 X83.636 Y37.655 E6.38411
G1 X83.636 Y38.414 E6.43492
G1 X76.364 Y45.685 E7.12326
G1 X76.364 Y46.444 E7.17407
G1 X83.636 Y39.173 E7.86242
G1 X83.636 Y39.932 E7.91323
G1 X76.364 Y47.203 E8.60157
G1 X76.364 Y47.962 E8.65238
G1 X83.636 Y40.691 E9.34072
G1 X83.636 Y41.450 E9.39153
G1 X76.364 Y48.721 E10.07988
G1 X76.364 Y49.480 E10.13069
G1 X83.636 Y42.209 E10.81903
G1 X83.636 Y42.968 E10.86984
G1 X76.364 Y50.239 E11.55818
G1 X76.364 Y50.998 E11.60899
G1 X83.636 Y43.727 E12.29734
G1 X83.636 Y44.486 E12.34815
G1 X76.364 Y51.757 E13.03649
G1 X76.364 Y52.516 E13.08730
G1 X83.636 Y45.245 E13.77564
G1 X83.636 Y46.004 E13.82645
G1 X76.364 Y53.275 E14.51480
G1 X76.364 Y54.034 E14.56560
G1 X83.636 Y46.763 E15.25395
G1 X83.636 Y47.522 E15.30476
G1 X76.364 Y54.793 E15.99310
G1 X76.364 Y55.552 E16.04391
G1 X83.636 Y48.281 E16.73226
