; generated by Slic3r 1.3.0 on 2020-06-06 at 19:11:46

; external perimeters extrusion width = 0.44mm (2.78mm^3/s)
; perimeters extrusion width = 0.40mm (7.14mm^3/s)
; infill extrusion width = 0.50mm (10.97mm^3/s)
; solid infill extrusion width = 0.60mm (6.68mm^3/s)
; top infill extrusion width = 0.40mm (2.14mm^3/s)

M107
M190 S80 ; set bed temperature and wait for it to be reached
M104 S200 ; set temperature
G28 ; home all axes
G1 Z5 F5000 ; lift nozzle

; Filament gcode

M109 S200 ; set temperature and wait for it to be reached
G21 ; set units to millimeters
G90 ; use absolute coordinates
M82 ; use absolute distances for extrusion
G92 E0
G1 Z0.300 F30000.000
G1 E-2.00000 F2400.00000
G92 E0
G1 X88.562 Y87.894 F30000.000
G1 E2.00000 F2400.00000
G1 F2100
G1 X90.035 Y86.655 E2.12857
G1 X90.838 Y86.092 E2.19411
G1 X92.504 Y85.128 E2.32268
G1 X93.393 Y84.712 E2.38822
G1 X94.847 Y84.180 E2.49171
G1 X95.200 Y84.052 E2.51678
G1 X96.147 Y83.797 E2.58232
G1 X98.042 Y83.461 E2.71089
G1 X99.020 Y83.374 E2.77644
G1 X100.944 Y83.372 E2.90500
G1 X101.922 Y83.457 E2.97054
G1 X103.817 Y83.789 E3.09912
G1 X104.765 Y84.042 E3.16466
G1 X106.575 Y84.698 E3.29322
G1 X107.464 Y85.112 E3.35876
G1 X109.132 Y86.072 E3.48733
G1 X109.936 Y86.634 E3.55287
G1 X111.124 Y87.628 E3.65636
G1 X111.412 Y87.869 E3.68144
G1 X112.106 Y88.562 E3.74698
G1 X113.345 Y90.035 E3.87555
G1 X113.908 Y90.838 E3.94109
G1 X114.872 Y92.504 E4.06966
G1 X115.288 Y93.393 E4.13520
G1 X115.820 Y94.847 E4.23869
G1 X115.948 Y95.200 E4.26376
G1 X116.203 Y96.147 E4.32930
G1 X116.539 Y98.042 E4.45787
G1 X116.626 Y99.020 E4.52342
G1 X116.628 Y100.944 E4.65198
G1 X116.543 Y101.922 E4.71752
G1 X116.211 Y103.817 E4.84610
G1 X115.958 Y104.765 E4.91164
G1 X115.302 Y106.575 E5.04020
G1 X114.888 Y107.464 E5.10574
G1 X113.928 Y109.132 E5.23431
G1 X113.366 Y109.936 E5.29985
G1 X112.372 Y111.124 E5.40334
G1 X112.131 Y111.412 E5.42842
G1 X111.438 Y112.106 E5.49396
G1 X109.965 Y113.345 E5.62252
G1 X109.162 Y113.908 E5.68807
G1 X107.496 Y114.872 E5.81663
G1 X106.607 Y115.288 E5.88218
G1 X105.153 Y115.820 E5.98567
G1 X104.800 Y115.948 E6.01074
G1 X103.853 Y116.203 E6.07627
G1 X101.958 Y116.539 E6.20485
G1 X100.980 Y116.626 E6.27040
G1 X99.056 Y116.628 E6.39896
G1 X98.078 Y116.543 E6.46450
G1 X96.182 Y116.211 E6.59308
G1 X95.235 Y115.958 E6.65862
G1 X93.425 Y115.302 E6.78718
G1 X92.536 Y114.888 E6.85272
G1 X90.868 Y113.928 E6.98129
G1 X90.064 Y113.366 E7.04683
G1 X88.876 Y112.372 E7.15031
G1 X88.588 Y112.131 E7.17540
G1 X87.894 Y111.438 E7.24094
G1 X86.655 Y109.965 E7.36950
G1 X86.092 Y109.162 E7.43505
G1 X85.128 Y107.496 E7.56361
G1 X84.712 Y106.607 E7.62916
G1 X84.180 Y105.153 E7.73265
G1 X84.052 Y104.800 E7.75772
G1 X83.797 Y103.853 E7.82325
G1 X83.461 Y101.958 E7.95182
G1 X83.374 Y100.980 E8.01738
G1 X83.372 Y99.056 E8.14594
G1 X83.457 Y98.078 E8.21148
G1 X83.789 Y96.182 E8.34006
G1 X84.042 Y95.235 E8.40559
G1 X84.698 Y93.425 E8.53416
G1 X85.112 Y92.536 E8.59969
G1 X86.072 Y90.868 E8.72827
G1 X86.634 Y90.064 E8.79381
G1 X87.869 Y88.588 E8.92237
G1 X88.520 Y87.936 E8.98391
G1 X88.907 Y88.304 F30000.000
G1 F2100
G1 X90.379 Y87.065 E9.11242
G1 X91.107 Y86.555 E9.17178
G1 X92.772 Y85.591 E9.30029
G1 X93.577 Y85.215 E9.35966
G1 X95.031 Y84.683 E9.46314
G1 X95.383 Y84.555 E9.48816
G1 X96.241 Y84.324 E9.54751
G1 X98.135 Y83.988 E9.67603
G1 X99.021 Y83.910 E9.73540
G1 X100.944 Y83.908 E9.86391
G1 X101.829 Y83.984 E9.92327
G1 X103.724 Y84.316 E10.05179
G1 X104.583 Y84.545 E10.11114
G1 X106.391 Y85.201 E10.23965
G1 X107.197 Y85.576 E10.29900
G1 X108.864 Y86.536 E10.42752
G1 X109.592 Y87.045 E10.48688
G1 X110.780 Y88.039 E10.59037
G1 X111.067 Y88.279 E10.61539
G1 X111.696 Y88.907 E10.67475
G1 X112.935 Y90.379 E10.80326
G1 X113.445 Y91.107 E10.86262
G1 X114.409 Y92.772 E10.99114
G1 X114.785 Y93.577 E11.05050
G1 X115.317 Y95.031 E11.15398
G1 X115.445 Y95.383 E11.17900
G1 X115.676 Y96.241 E11.23836
G1 X116.012 Y98.135 E11.36687
G1 X116.090 Y99.021 E11.42625
G1 X116.092 Y100.944 E11.55475
G1 X116.016 Y101.829 E11.61411
G1 X115.684 Y103.724 E11.74263
G1 X115.455 Y104.583 E11.80198
G1 X114.799 Y106.391 E11.93049
G1 X114.424 Y107.197 E11.98985
G1 X113.464 Y108.864 E12.11837
G1 X112.955 Y109.592 E12.17772
G1 X111.961 Y110.780 E12.28121
G1 X111.721 Y111.067 E12.30623
G1 X111.093 Y111.696 E12.36559
G1 X109.621 Y112.935 E12.49410
G1 X108.893 Y113.445 E12.55346
G1 X107.228 Y114.409 E12.68198
G1 X106.423 Y114.785 E12.74134
G1 X104.969 Y115.317 E12.84483
G1 X104.617 Y115.445 E12.86985
G1 X103.759 Y115.676 E12.92920
G1 X101.865 Y116.012 E13.05771
G1 X100.979 Y116.090 E13.11709
G1 X99.056 Y116.092 E13.24559
G1 X98.171 Y116.016 E13.30495
G1 X96.276 Y115.684 E13.43347
G1 X95.417 Y115.455 E13.49283
G1 X93.609 Y114.799 E13.62134
G1 X92.803 Y114.424 E13.68069
G1 X91.136 Y113.464 E13.80921
G1 X90.408 Y112.955 E13.86856
G1 X89.220 Y111.961 E13.97205
G1 X88.933 Y111.721 E13.99708
G1 X88.304 Y111.093 E14.05644
G1 X87.065 Y109.621 E14.18495
G1 X86.555 Y108.893 E14.24431
G1 X85.591 Y107.228 E14.37282
G1 X85.215 Y106.423 E14.43218
G1 X84.683 Y104.969 E14.53567
G1 X84.555 Y104.617 E14.56069
G1 X84.324 Y103.759 E14.62004
G1 X83.988 Y101.865 E14.74856
G1 X83.910 Y100.979 E14.80793
G1 X83.908 Y99.056 E14.93643
G1 X83.984 Y98.171 E14.99579
G1 X84.316 Y96.276 E15.12431
G1 X84.545 Y95.417 E15.18367
G1 X85.201 Y93.609 E15.31218
G1 X85.576 Y92.803 E15.37153
G1 X86.536 Y91.136 E15.50005
G1 X87.045 Y90.408 E15.55941
G1 X88.279 Y88.933 E15.68792
G1 X88.865 Y88.346 E15.74327
G1 X89.252 Y88.714 F30000.000
G1 F2100
G1 X90.724 Y87.476 E15.87173
G1 X91.375 Y87.019 E15.92490
G1 X93.039 Y86.055 E16.05336
G1 X93.761 Y85.718 E16.10654
G1 X95.215 Y85.186 E16.21003
G1 X95.567 Y85.058 E16.23499
G1 X96.335 Y84.852 E16.28816
G1 X98.228 Y84.515 E16.41662
G1 X99.022 Y84.445 E16.46981
G1 X100.944 Y84.443 E16.59826
G1 X101.737 Y84.512 E16.65144
G1 X103.631 Y84.843 E16.77990
G1 X104.400 Y85.049 E16.83308
G1 X106.208 Y85.704 E16.96153
G1 X106.930 Y86.040 E17.01470
G1 X108.596 Y87.000 E17.14317
G1 X109.249 Y87.456 E17.19634
G1 X110.437 Y88.449 E17.29983
G1 X110.723 Y88.690 E17.32480
G1 X111.286 Y89.252 E17.37798
G1 X112.524 Y90.724 E17.50643
G1 X112.981 Y91.375 E17.55961
G1 X113.945 Y93.039 E17.68807
G1 X114.282 Y93.761 E17.74125
G1 X114.814 Y95.215 E17.84473
G1 X114.942 Y95.567 E17.86970
G1 X115.148 Y96.335 E17.92287
G1 X115.485 Y98.228 E18.05133
G1 X115.555 Y99.022 E18.10452
G1 X115.557 Y100.944 E18.23297
G1 X115.488 Y101.737 E18.28614
G1 X115.157 Y103.631 E18.41461
G1 X114.951 Y104.400 E18.46778
G1 X114.296 Y106.208 E18.59624
G1 X113.960 Y106.930 E18.64941
G1 X113.000 Y108.596 E18.77787
G1 X112.544 Y109.249 E18.83105
G1 X111.551 Y110.437 E18.93453
G1 X111.310 Y110.723 E18.95950
G1 X110.748 Y111.286 E19.01268
G1 X109.276 Y112.524 E19.14114
G1 X108.625 Y112.981 E19.19431
G1 X106.961 Y113.945 E19.32277
G1 X106.239 Y114.282 E19.37595
G1 X104.785 Y114.814 E19.47944
G1 X104.433 Y114.942 E19.50440
G1 X103.665 Y115.148 E19.55757
G1 X101.772 Y115.485 E19.68603
G1 X100.978 Y115.555 E19.73922
G1 X99.056 Y115.557 E19.86767
G1 X98.263 Y115.488 E19.92085
G1 X96.369 Y115.157 E20.04931
G1 X95.600 Y114.951 E20.10249
G1 X93.792 Y114.296 E20.23094
G1 X93.070 Y113.960 E20.28411
G1 X91.404 Y113.000 E20.41258
G1 X90.751 Y112.544 E20.46575
G1 X89.563 Y111.551 E20.56924
G1 X89.277 Y111.310 E20.59421
G1 X88.714 Y110.748 E20.64738
G1 X87.476 Y109.276 E20.77584
G1 X87.019 Y108.625 E20.82902
G1 X86.055 Y106.961 E20.95748
G1 X85.718 Y106.239 E21.01066
G1 X85.186 Y104.785 E21.11414
G1 X85.058 Y104.433 E21.13911
G1 X84.852 Y103.665 E21.19228
G1 X84.515 Y101.772 E21.32074
G1 X84.445 Y100.978 E21.37393
G1 X84.443 Y99.056 E21.50238
G1 X84.512 Y98.263 E21.55555
G1 X84.843 Y96.369 E21.68402
G1 X85.049 Y95.600 E21.73719
G1 X85.704 Y93.792 E21.86565
G1 X86.040 Y93.070 E21.91882
G1 X87.000 Y91.404 E22.04728
G1 X87.456 Y90.751 E22.10046
G1 X88.690 Y89.277 E22.22891
G1 X89.210 Y88.756 E22.27808
G1 X89.597 Y89.123 F30000.000
G1 F2100
G1 X91.068 Y87.886 E22.40648
G1 X91.644 Y87.482 E22.45348
G1 X93.307 Y86.519 E22.58188
G1 X93.944 Y86.221 E22.62888
G1 X95.399 Y85.689 E22.73236
G1 X95.750 Y85.562 E22.75728
G1 X96.429 Y85.379 E22.80426
G1 X98.321 Y85.043 E22.93267
G1 X99.022 Y84.981 E22.97967
G1 X100.944 Y84.979 E23.10807
G1 X101.645 Y85.040 E23.15506
G1 X103.538 Y85.371 E23.28347
G1 X104.218 Y85.553 E23.33046
G1 X106.025 Y86.208 E23.45887
G1 X106.663 Y86.504 E23.50585
G1 X108.328 Y87.463 E23.63426
G1 X108.905 Y87.866 E23.68125
G1 X110.093 Y88.860 E23.78474
G1 X110.379 Y89.100 E23.80965
G1 X110.877 Y89.597 E23.85665
G1 X112.114 Y91.068 E23.98505
G1 X112.518 Y91.644 E24.03204
G1 X113.481 Y93.307 E24.16045
G1 X113.779 Y93.944 E24.20744
G1 X114.311 Y95.399 E24.31093
G1 X114.438 Y95.750 E24.33584
G1 X114.621 Y96.429 E24.38283
G1 X114.957 Y98.321 E24.51124
G1 X115.019 Y99.022 E24.55824
G1 X115.021 Y100.944 E24.68664
G1 X114.960 Y101.645 E24.73363
G1 X114.629 Y103.538 E24.86204
G1 X114.447 Y104.218 E24.90903
G1 X113.792 Y106.025 E25.03743
G1 X113.496 Y106.663 E25.08442
G1 X112.537 Y108.328 E25.21283
G1 X112.134 Y108.905 E25.25982
G1 X111.140 Y110.093 E25.36331
G1 X110.900 Y110.379 E25.38822
G1 X110.403 Y110.877 E25.43522
G1 X108.932 Y112.114 E25.56362
G1 X108.356 Y112.518 E25.61061
G1 X106.693 Y113.481 E25.73901
G1 X106.056 Y113.779 E25.78601
G1 X104.601 Y114.311 E25.88950
G1 X104.250 Y114.438 E25.91441
G1 X103.571 Y114.621 E25.96140
G1 X101.679 Y114.957 E26.08980
G1 X100.978 Y115.019 E26.13681
G1 X99.056 Y115.021 E26.26521
G1 X98.355 Y114.960 E26.31220
G1 X96.462 Y114.629 E26.44061
G1 X95.782 Y114.447 E26.48760
G1 X93.975 Y113.792 E26.61600
G1 X93.337 Y113.496 E26.66299
G1 X91.672 Y112.537 E26.79140
G1 X91.095 Y112.134 E26.83839
G1 X89.907 Y111.140 E26.94187
G1 X89.621 Y110.900 E26.96679
G1 X89.123 Y110.403 E27.01378
G1 X87.886 Y108.932 E27.14219
G1 X87.482 Y108.356 E27.18918
G1 X86.519 Y106.693 E27.31758
G1 X86.221 Y106.056 E27.36458
G1 X85.689 Y104.601 E27.46807
G1 X85.562 Y104.250 E27.49298
G1 X85.379 Y103.571 E27.53997
G1 X85.043 Y101.679 E27.66837
G1 X84.981 Y100.978 E27.71538
G1 X84.979 Y99.056 E27.84377
G1 X85.040 Y98.355 E27.89077
G1 X85.371 Y96.462 E28.01918
G1 X85.553 Y95.782 E28.06617
G1 X86.208 Y93.975 E28.19457
G1 X86.504 Y93.337 E28.24156
G1 X87.463 Y91.672 E28.36996
G1 X87.866 Y91.095 E28.41696
G1 X89.100 Y89.621 E28.54536
G1 X89.555 Y89.166 E28.58834
G1 X89.942 Y89.533 F30000.000
G1 F2100
G1 X91.412 Y88.296 E28.71669
G1 X91.912 Y87.946 E28.75750
G1 X93.575 Y86.983 E28.88585
G1 X94.128 Y86.724 E28.92666
G1 X95.583 Y86.192 E29.03015
G1 X95.933 Y86.065 E29.05501
G1 X96.523 Y85.906 E29.09581
G1 X98.414 Y85.570 E29.22416
G1 X99.023 Y85.517 E29.26499
G1 X100.944 Y85.514 E29.39333
G1 X101.553 Y85.567 E29.43414
G1 X103.445 Y85.898 E29.56249
G1 X104.036 Y86.056 E29.60330
G1 X105.842 Y86.711 E29.73165
G1 X106.396 Y86.969 E29.77245
G1 X108.061 Y87.927 E29.90081
G1 X108.561 Y88.277 E29.94162
G1 X109.749 Y89.271 E30.04510
G1 X110.035 Y89.510 E30.06996
G1 X110.467 Y89.942 E30.11077
G1 X111.704 Y91.412 E30.23912
G1 X112.054 Y91.912 E30.27993
G1 X113.017 Y93.575 E30.40828
G1 X113.276 Y94.128 E30.44909
G1 X113.808 Y95.583 E30.55258
G1 X113.935 Y95.933 E30.57744
G1 X114.094 Y96.523 E30.61824
G1 X114.430 Y98.414 E30.74659
G1 X114.483 Y99.023 E30.78742
G1 X114.486 Y100.944 E30.91576
G1 X114.433 Y101.553 E30.95657
G1 X114.102 Y103.445 E31.08492
G1 X113.944 Y104.036 E31.12573
G1 X113.289 Y105.842 E31.25408
G1 X113.031 Y106.396 E31.29488
G1 X112.073 Y108.061 E31.42324
G1 X111.723 Y108.561 E31.46405
G1 X110.729 Y109.749 E31.56753
G1 X110.490 Y110.035 E31.59239
G1 X110.058 Y110.467 E31.63321
G1 X108.588 Y111.704 E31.76155
G1 X108.088 Y112.054 E31.80236
G1 X106.425 Y113.017 E31.93071
G1 X105.872 Y113.276 E31.97153
G1 X104.417 Y113.808 E32.07501
G1 X104.067 Y113.935 E32.09987
G1 X103.477 Y114.094 E32.14068
G1 X101.586 Y114.430 E32.26903
G1 X100.977 Y114.483 E32.30985
G1 X99.056 Y114.486 E32.43819
G1 X98.447 Y114.433 E32.47900
G1 X96.555 Y114.102 E32.60735
G1 X95.964 Y113.944 E32.64816
G1 X94.158 Y113.289 E32.77651
G1 X93.604 Y113.031 E32.81731
G1 X91.939 Y112.073 E32.94567
G1 X91.439 Y111.723 E32.98648
G1 X90.251 Y110.729 E33.08996
G1 X89.965 Y110.490 E33.11482
G1 X89.533 Y110.058 E33.15564
G1 X88.296 Y108.588 E33.28398
G1 X87.946 Y108.088 E33.32479
G1 X86.983 Y106.425 E33.45314
G1 X86.724 Y105.872 E33.49396
G1 X86.192 Y104.417 E33.59744
G1 X86.065 Y104.067 E33.62230
G1 X85.906 Y103.477 E33.66311
G1 X85.570 Y101.586 E33.79146
G1 X85.517 Y100.977 E33.83228
G1 X85.514 Y99.056 E33.96062
G1 X85.567 Y98.447 E34.00143
G1 X85.898 Y96.555 E34.12978
G1 X86.056 Y95.964 E34.17059
G1 X86.711 Y94.158 E34.29894
G1 X86.969 Y93.604 E34.33975
G1 X87.927 Y91.939 E34.46810
G1 X88.277 Y91.439 E34.50891
G1 X89.510 Y89.965 E34.63725
G1 X89.900 Y89.576 E34.67406
G1 X90.504 Y90.005 F30000.000
G1 F2100
G1 X90.845 Y89.598 E34.71373
G1 X91.061 Y89.580 E34.72997
G1 X91.150 Y89.542 E34.73723
G1 X92.790 Y88.167 E34.89740
G1 X93.006 Y88.186 E34.91364
G1 X93.101 Y88.165 E34.92089
G1 X94.954 Y87.094 E35.08106
G1 X95.164 Y87.151 E35.09730
G1 X95.261 Y87.146 E35.10456
G1 X97.272 Y86.414 E35.26473
G1 X97.469 Y86.506 E35.28096
G1 X97.565 Y86.519 E35.28822
G1 X99.673 Y86.147 E35.44839
G1 X99.850 Y86.271 E35.46464
G1 X99.943 Y86.301 E35.47189
G1 X102.083 Y86.301 E35.63206
G1 X102.237 Y86.454 E35.64829
G1 X102.323 Y86.499 E35.65555
G1 X104.430 Y86.871 E35.81573
G1 X104.555 Y87.048 E35.83197
G1 X104.632 Y87.107 E35.83922
G1 X106.643 Y87.839 E35.99939
G1 X106.735 Y88.036 E36.01563
G1 X106.800 Y88.107 E36.02288
G1 X108.654 Y89.178 E36.18305
G1 X108.710 Y89.387 E36.19929
G1 X108.762 Y89.469 E36.20655
G1 X110.401 Y90.845 E36.36671
G1 X110.420 Y91.061 E36.38295
G1 X110.458 Y91.150 E36.39020
G1 X111.833 Y92.790 E36.55038
G1 X111.814 Y93.006 E36.56662
G1 X111.835 Y93.101 E36.57388
G1 X112.906 Y94.954 E36.73404
G1 X112.849 Y95.164 E36.75028
G1 X112.854 Y95.261 E36.75753
G1 X113.586 Y97.272 E36.91770
G1 X113.494 Y97.469 E36.93394
G1 X113.481 Y97.565 E36.94119
G1 X113.853 Y99.673 E37.10137
G1 X113.729 Y99.850 E37.11761
G1 X113.699 Y99.943 E37.12487
G1 X113.699 Y102.083 E37.28504
G1 X113.546 Y102.237 E37.30127
G1 X113.501 Y102.323 E37.30853
G1 X113.129 Y104.430 E37.46871
G1 X112.952 Y104.555 E37.48495
G1 X112.893 Y104.632 E37.49220
G1 X112.161 Y106.643 E37.65237
G1 X111.964 Y106.735 E37.66861
G1 X111.893 Y106.800 E37.67586
G1 X110.822 Y108.654 E37.83603
G1 X110.613 Y108.710 E37.85227
G1 X110.531 Y108.762 E37.85952
G1 X109.155 Y110.402 E38.01969
G1 X108.939 Y110.420 E38.03593
G1 X108.850 Y110.458 E38.04319
G1 X107.210 Y111.833 E38.20336
G1 X106.994 Y111.814 E38.21959
G1 X106.899 Y111.835 E38.22685
G1 X105.046 Y112.906 E38.38702
G1 X104.836 Y112.849 E38.40326
G1 X104.739 Y112.854 E38.41052
G1 X102.728 Y113.586 E38.57068
G1 X102.531 Y113.494 E38.58692
G1 X102.435 Y113.481 E38.59417
G1 X100.327 Y113.853 E38.75435
G1 X100.150 Y113.729 E38.77059
G1 X100.057 Y113.699 E38.77785
G1 X97.917 Y113.699 E38.93802
G1 X97.763 Y113.546 E38.95425
G1 X97.677 Y113.501 E38.96151
G1 X95.570 Y113.129 E39.12168
G1 X95.445 Y112.952 E39.13792
G1 X95.368 Y112.893 E39.14518
G1 X93.357 Y112.161 E39.30535
G1 X93.265 Y111.964 E39.32158
G1 X93.200 Y111.893 E39.32884
G1 X91.346 Y110.822 E39.48901
G1 X91.290 Y110.613 E39.50524
G1 X91.238 Y110.531 E39.51250
G1 X89.598 Y109.155 E39.67267
G1 X89.580 Y108.939 E39.68891
G1 X89.542 Y108.850 E39.69616
G1 X88.167 Y107.210 E39.85633
G1 X88.186 Y106.994 E39.87257
G1 X88.165 Y106.899 E39.87982
G1 X87.094 Y105.046 E40.04000
G1 X87.151 Y104.836 E40.05624
G1 X87.146 Y104.739 E40.06350
G1 X86.414 Y102.728 E40.22366
G1 X86.506 Y102.531 E40.23990
G1 X86.519 Y102.435 E40.24715
G1 X86.147 Y100.327 E40.40732
G1 X86.271 Y100.150 E40.42357
G1 X86.301 Y100.057 E40.43083
G1 X86.301 Y97.917 E40.59099
G1 X86.454 Y97.763 E40.60723
G1 X86.499 Y97.677 E40.61449
G1 X86.871 Y95.570 E40.77466
G1 X87.048 Y95.445 E40.79090
G1 X87.107 Y95.368 E40.79815
G1 X87.839 Y93.357 E40.95833
G1 X88.036 Y93.265 E40.97456
G1 X88.107 Y93.200 E40.98182
G1 X89.178 Y91.346 E41.14198
G1 X89.387 Y91.290 E41.15822
G1 X89.469 Y91.238 E41.16548
G1 X90.465 Y90.051 E41.28148
