; generated by Slic3r 1.3.0 on 2021-07-31 at 21:10:56

; external perimeters extrusion width = 0.44mm (2.78mm^3/s)
; perimeters extrusion width = 0.40mm (7.14mm^3/s)
; infill extrusion width = 0.50mm (10.97mm^3/s)
; solid infill extrusion width = 0.60mm (6.68mm^3/s)
; top infill extrusion width = 0.40mm (2.14mm^3/s)

M107
M190 S80 ; set bed temperature and wait for it to be reached
M104 S210 ; set temperature
G28 ; home all axes
G1 Z5 F5000 ; lift nozzle

; Filament gcode

M109 S210 ; set temperature and wait for it to be reached
G21 ; set units to millimeters
G90 ; use absolute coordinates
M82 ; use absolute distances for extrusion
G92 E0
G1 Z0.300 F30000.000
G1 E-2.00000 F2400.00000
G92 E0
G1 X49.168 Y48.737 F30000.000
G1 E2.00000 F2400.00000
G1 F2100
G1 X50.177 Y47.847 E2.08988
G1 X50.959 Y47.255 E2.15545
G1 X51.477 Y46.903 E2.19726
G1 X52.629 Y46.222 E2.28666
G1 X53.509 Y45.786 E2.35224
G1 X54.082 Y45.538 E2.39399
G1 X55.341 Y45.084 E2.48338
G1 X56.286 Y44.821 E2.54893
G1 X57.247 Y44.618 E2.61452
G1 X58.218 Y44.476 E2.68008
G1 X58.841 Y44.417 E2.72189
G1 X60.178 Y44.375 E2.81125
G1 X60.803 Y44.394 E2.85304
G1 X61.781 Y44.476 E2.91862
G1 X63.103 Y44.685 E3.00801
G1 X64.059 Y44.910 E3.07360
G1 X64.659 Y45.084 E3.11536
G1 X65.918 Y45.538 E3.20473
G1 X66.491 Y45.786 E3.24650
G1 X67.371 Y46.222 E3.31208
G1 X68.530 Y46.907 E3.40201
G1 X69.328 Y47.463 E3.46703
G1 X70.097 Y48.074 E3.53264
G1 X70.566 Y48.488 E3.57440
G1 X71.268 Y49.174 E3.63998
G1 X72.153 Y50.178 E3.72938
G1 X72.746 Y50.960 E3.79495
G1 X73.098 Y51.478 E3.83679
G1 X73.778 Y52.629 E3.92611
G1 X74.062 Y53.186 E3.96787
G1 X74.462 Y54.082 E4.03345
G1 X74.916 Y55.341 E4.12284
G1 X75.090 Y55.941 E4.16460
G1 X75.315 Y56.897 E4.23019
G1 X75.480 Y57.865 E4.29576
G1 X75.583 Y58.833 E4.36082
G1 X75.625 Y60.178 E4.45073
G1 X75.606 Y60.803 E4.49249
G1 X75.524 Y61.781 E4.55808
G1 X75.382 Y62.753 E4.62368
G1 X75.180 Y63.705 E4.68871
G1 X74.805 Y64.998 E4.77863
G1 X74.594 Y65.586 E4.82039
G1 X74.214 Y66.491 E4.88597
G1 X73.607 Y67.684 E4.97536
G1 X73.288 Y68.222 E5.01712
G1 X72.746 Y69.040 E5.08270
G1 X71.926 Y70.097 E5.17209
G1 X71.512 Y70.567 E5.21389
G1 X70.826 Y71.268 E5.27944
G1 X69.823 Y72.153 E5.36883
G1 X69.329 Y72.536 E5.41059
G1 X68.523 Y73.097 E5.47617
G1 X67.371 Y73.778 E5.56557
G1 X66.814 Y74.062 E5.60733
G1 X65.918 Y74.462 E5.67291
G1 X64.998 Y74.805 E5.73848
G1 X64.059 Y75.090 E5.80406
G1 X62.753 Y75.382 E5.89346
G1 X62.135 Y75.480 E5.93521
G1 X61.159 Y75.583 E6.00080
G1 X59.822 Y75.625 E6.09019
G1 X58.841 Y75.583 E6.15573
G1 X58.219 Y75.524 E6.19753
G1 X56.897 Y75.315 E6.28692
G1 X56.287 Y75.179 E6.32868
G1 X55.341 Y74.916 E6.39427
G1 X54.414 Y74.594 E6.45985
G1 X53.509 Y74.214 E6.52542
G1 X52.316 Y73.607 E6.61482
G1 X51.478 Y73.098 E6.68032
G1 X50.960 Y72.746 E6.72216
G1 X49.903 Y71.926 E6.81155
G1 X49.174 Y71.268 E6.87713
G1 X48.732 Y70.826 E6.91889
G1 X47.847 Y69.822 E7.00829
G1 X47.463 Y69.328 E7.05008
G1 X46.903 Y68.523 E7.11562
G1 X46.222 Y67.371 E7.20502
G1 X45.938 Y66.814 E7.24679
G1 X45.538 Y65.918 E7.31237
G1 X45.194 Y64.998 E7.37796
G1 X44.912 Y64.066 E7.44299
G1 X44.618 Y62.753 E7.53291
G1 X44.520 Y62.135 E7.57467
G1 X44.417 Y61.159 E7.64025
G1 X44.375 Y59.822 E7.72965
G1 X44.394 Y59.197 E7.77142
G1 X44.476 Y58.218 E7.83703
G1 X44.685 Y56.897 E7.92638
G1 X44.821 Y56.286 E7.96817
G1 X45.084 Y55.341 E8.03374
G1 X45.538 Y54.082 E8.12311
G1 X45.786 Y53.509 E8.16487
G1 X46.222 Y52.629 E8.23045
G1 X46.903 Y51.477 E8.31985
G1 X47.255 Y50.959 E8.36166
G1 X47.847 Y50.177 E8.42722
G1 X48.488 Y49.433 E8.49281
G1 X49.126 Y48.780 E8.55382
G1 X49.547 Y49.116 F30000.000
G1 F2100
G1 X50.505 Y48.270 E8.63921
G1 X51.260 Y47.697 E8.70253
G1 X51.778 Y47.346 E8.74433
G1 X52.872 Y46.699 E8.82924
G1 X53.721 Y46.277 E8.89257
G1 X54.295 Y46.029 E8.93433
G1 X55.491 Y45.599 E9.01922
G1 X56.403 Y45.344 E9.08253
G1 X57.331 Y45.147 E9.14587
G1 X58.268 Y45.009 E9.20918
G1 X58.891 Y44.950 E9.25099
G1 X60.161 Y44.910 E9.33586
G1 X60.786 Y44.930 E9.37764
G1 X61.731 Y45.009 E9.44098
G1 X62.986 Y45.208 E9.52588
G1 X63.909 Y45.424 E9.58921
G1 X64.509 Y45.599 E9.63097
G1 X65.705 Y46.029 E9.71586
G1 X66.279 Y46.277 E9.75763
G1 X67.128 Y46.699 E9.82096
G1 X68.222 Y47.346 E9.90586
G1 X69.000 Y47.887 E9.96917
G1 X69.494 Y48.270 E10.01095
G1 X70.212 Y48.889 E10.07429
G1 X70.890 Y49.552 E10.13762
G1 X71.730 Y50.506 E10.22252
G1 X72.303 Y51.261 E10.28585
G1 X72.655 Y51.779 E10.32769
G1 X73.301 Y52.872 E10.41252
G1 X73.585 Y53.429 E10.45428
G1 X73.971 Y54.295 E10.51761
G1 X74.401 Y55.491 E10.60250
G1 X74.576 Y56.091 E10.64426
G1 X74.792 Y57.014 E10.70760
G1 X74.951 Y57.948 E10.77093
G1 X75.049 Y58.883 E10.83374
G1 X75.090 Y60.162 E10.91916
G1 X75.070 Y60.786 E10.96092
G1 X74.991 Y61.731 E11.02426
G1 X74.853 Y62.669 E11.08761
G1 X74.658 Y63.589 E11.15040
G1 X74.301 Y64.817 E11.23582
G1 X74.090 Y65.405 E11.27758
G1 X73.723 Y66.279 E11.34091
G1 X73.146 Y67.411 E11.42582
G1 X72.827 Y67.949 E11.46758
G1 X72.303 Y68.739 E11.53091
G1 X71.524 Y69.743 E11.61581
G1 X71.110 Y70.212 E11.65760
G1 X70.448 Y70.890 E11.72090
G1 X69.494 Y71.730 E11.80580
G1 X69.000 Y72.113 E11.84756
G1 X68.222 Y72.654 E11.91089
G1 X67.128 Y73.301 E11.99580
G1 X66.571 Y73.585 E12.03755
G1 X65.705 Y73.971 E12.10089
G1 X64.817 Y74.301 E12.16422
G1 X63.909 Y74.576 E12.22755
G1 X62.669 Y74.853 E12.31245
G1 X62.052 Y74.951 E12.35421
G1 X61.109 Y75.050 E12.41754
G1 X59.838 Y75.090 E12.50244
G1 X58.892 Y75.050 E12.56574
G1 X58.269 Y74.991 E12.60754
G1 X57.014 Y74.792 E12.69244
G1 X56.404 Y74.656 E12.73419
G1 X55.491 Y74.401 E12.79753
G1 X54.595 Y74.090 E12.86086
G1 X53.721 Y73.723 E12.92419
G1 X52.589 Y73.146 E13.00910
G1 X51.779 Y72.655 E13.07236
G1 X51.261 Y72.303 E13.11419
G1 X50.257 Y71.524 E13.19909
G1 X49.788 Y71.111 E13.24085
G1 X49.110 Y70.448 E13.30418
G1 X48.270 Y69.494 E13.38908
G1 X47.887 Y69.000 E13.43087
G1 X47.346 Y68.222 E13.49417
G1 X46.699 Y67.128 E13.57908
G1 X46.415 Y66.571 E13.62084
G1 X46.029 Y65.705 E13.68418
G1 X45.698 Y64.816 E13.74752
G1 X45.427 Y63.917 E13.81031
G1 X45.147 Y62.669 E13.89573
G1 X45.049 Y62.052 E13.93749
G1 X44.950 Y61.109 E14.00082
G1 X44.910 Y59.839 E14.08572
G1 X44.930 Y59.213 E14.12750
G1 X45.009 Y58.268 E14.19086
G1 X45.208 Y57.014 E14.27572
G1 X45.344 Y56.403 E14.31750
G1 X45.599 Y55.490 E14.38083
G1 X46.029 Y54.295 E14.46571
G1 X46.277 Y53.721 E14.50746
G1 X46.699 Y52.872 E14.57080
G1 X47.346 Y51.778 E14.65570
G1 X47.697 Y51.260 E14.69751
G1 X48.270 Y50.505 E14.76083
G1 X48.890 Y49.788 E14.82417
G1 X49.505 Y49.158 E14.88293
G1 X49.926 Y49.495 F30000.000
G1 F2100
G1 X50.834 Y48.694 E14.96383
G1 X51.562 Y48.140 E15.02490
G1 X52.079 Y47.789 E15.06670
G1 X53.115 Y47.176 E15.14711
G1 X53.672 Y46.892 E15.18887
G1 X54.508 Y46.521 E15.24996
G1 X55.640 Y46.113 E15.33036
G1 X56.520 Y45.867 E15.39142
G1 X57.415 Y45.676 E15.45251
G1 X58.319 Y45.542 E15.51358
G1 X58.942 Y45.483 E15.55538
G1 X60.144 Y45.445 E15.63576
G1 X60.769 Y45.465 E15.67754
G1 X61.681 Y45.542 E15.73863
G1 X62.869 Y45.730 E15.81904
G1 X63.479 Y45.867 E15.86079
G1 X64.360 Y46.113 E15.92188
G1 X65.492 Y46.521 E16.00228
G1 X66.066 Y46.769 E16.04404
G1 X66.885 Y47.176 E16.10513
G1 X67.921 Y47.789 E16.18554
G1 X68.672 Y48.310 E16.24660
G1 X69.389 Y48.878 E16.30771
G1 X69.858 Y49.291 E16.34947
G1 X70.511 Y49.931 E16.41056
G1 X71.307 Y50.834 E16.49096
G1 X71.860 Y51.562 E16.55205
G1 X72.212 Y52.080 E16.59387
G1 X72.824 Y53.115 E16.67422
G1 X73.108 Y53.672 E16.71598
G1 X73.479 Y54.508 E16.77706
G1 X73.887 Y55.640 E16.85746
G1 X74.061 Y56.240 E16.89922
G1 X74.270 Y57.131 E16.96031
G1 X74.422 Y58.032 E17.02139
G1 X74.516 Y58.934 E17.08196
G1 X74.555 Y60.145 E17.16289
G1 X74.535 Y60.769 E17.20465
G1 X74.458 Y61.681 E17.26573
G1 X74.324 Y62.585 E17.32684
G1 X74.135 Y63.472 E17.38738
G1 X73.797 Y64.635 E17.46831
G1 X73.586 Y65.223 E17.51007
G1 X73.231 Y66.066 E17.57115
G1 X72.685 Y67.139 E17.65156
G1 X72.366 Y67.677 E17.69332
G1 X71.860 Y68.438 E17.75441
G1 X71.122 Y69.389 E17.83481
G1 X70.709 Y69.858 E17.87660
G1 X70.069 Y70.511 E17.93766
G1 X69.166 Y71.307 E18.01806
G1 X68.672 Y71.690 E18.05982
G1 X67.921 Y72.211 E18.12091
G1 X66.885 Y72.824 E18.20132
G1 X66.328 Y73.108 E18.24308
G1 X65.492 Y73.479 E18.30416
G1 X64.635 Y73.797 E18.36525
G1 X63.760 Y74.061 E18.42633
G1 X62.585 Y74.324 E18.50674
G1 X61.968 Y74.422 E18.54850
G1 X61.058 Y74.517 E18.60958
G1 X59.855 Y74.555 E18.68999
G1 X58.942 Y74.517 E18.75105
G1 X58.319 Y74.458 E18.79284
G1 X57.415 Y74.324 E18.85392
G1 X56.521 Y74.133 E18.91501
G1 X55.365 Y73.797 E18.99541
G1 X54.777 Y73.586 E19.03717
G1 X53.934 Y73.231 E19.09826
G1 X52.861 Y72.685 E19.17867
G1 X52.080 Y72.212 E19.23969
G1 X51.562 Y71.860 E19.28151
G1 X50.611 Y71.122 E19.36192
G1 X50.142 Y70.709 E19.40367
G1 X49.489 Y70.069 E19.46476
G1 X48.693 Y69.166 E19.54517
G1 X48.310 Y68.672 E19.58695
G1 X47.789 Y67.921 E19.64801
G1 X47.176 Y66.885 E19.72842
G1 X46.769 Y66.066 E19.78951
G1 X46.521 Y65.492 E19.83128
G1 X46.202 Y64.635 E19.89237
G1 X45.941 Y63.767 E19.95291
G1 X45.676 Y62.585 E20.03384
G1 X45.542 Y61.681 E20.09493
G1 X45.483 Y61.058 E20.13669
G1 X45.445 Y59.855 E20.21709
G1 X45.465 Y59.230 E20.25887
G1 X45.542 Y58.319 E20.31998
G1 X45.730 Y57.131 E20.40035
G1 X45.867 Y56.520 E20.44213
G1 X46.113 Y55.640 E20.50321
G1 X46.521 Y54.508 E20.58359
G1 X46.769 Y53.934 E20.62535
G1 X47.176 Y53.115 E20.68644
G1 X47.789 Y52.079 E20.76685
G1 X48.140 Y51.562 E20.80865
G1 X48.694 Y50.834 E20.86972
G1 X49.291 Y50.142 E20.93082
G1 X49.883 Y49.537 E20.98733
G1 X50.304 Y49.874 F30000.000
G1 F2100
G1 X51.162 Y49.117 E21.06375
G1 X51.863 Y48.583 E21.12257
G1 X52.380 Y48.232 E21.16437
G1 X53.358 Y47.653 E21.24028
G1 X54.147 Y47.261 E21.29912
G1 X54.720 Y47.012 E21.34088
G1 X55.789 Y46.627 E21.41679
G1 X56.637 Y46.390 E21.47561
G1 X57.498 Y46.205 E21.53445
G1 X58.369 Y46.075 E21.59327
G1 X58.992 Y46.016 E21.63507
G1 X60.128 Y45.981 E21.71096
G1 X60.753 Y46.000 E21.75274
G1 X61.630 Y46.075 E21.81158
G1 X62.753 Y46.253 E21.88749
G1 X63.610 Y46.453 E21.94633
G1 X64.211 Y46.627 E21.98809
G1 X65.287 Y47.015 E22.06451
G1 X66.085 Y47.369 E22.12283
G1 X66.866 Y47.776 E22.18168
G1 X67.620 Y48.232 E22.24051
G1 X68.137 Y48.583 E22.28227
G1 X69.035 Y49.280 E22.35819
G1 X69.690 Y49.868 E22.41703
G1 X70.132 Y50.310 E22.45878
G1 X70.883 Y51.162 E22.53470
G1 X71.417 Y51.863 E22.59353
G1 X71.769 Y52.381 E22.63535
G1 X72.347 Y53.358 E22.71121
G1 X72.631 Y53.915 E22.75297
G1 X72.988 Y54.720 E22.81181
G1 X73.373 Y55.789 E22.88772
G1 X73.547 Y56.390 E22.92947
G1 X73.747 Y57.248 E22.98832
G1 X73.893 Y58.116 E23.04715
G1 X73.983 Y58.984 E23.10547
G1 X74.019 Y60.128 E23.18190
G1 X74.000 Y60.753 E23.22366
G1 X73.925 Y61.630 E23.28250
G1 X73.795 Y62.502 E23.34136
G1 X73.612 Y63.355 E23.39965
G1 X73.294 Y64.454 E23.47609
G1 X73.082 Y65.042 E23.51785
G1 X72.739 Y65.853 E23.57669
G1 X72.224 Y66.866 E23.65260
G1 X71.905 Y67.404 E23.69436
G1 X71.417 Y68.137 E23.75320
G1 X70.720 Y69.035 E23.82911
G1 X70.307 Y69.504 E23.87090
G1 X69.690 Y70.132 E23.92971
G1 X68.838 Y70.883 E24.00562
G1 X68.344 Y71.267 E24.04738
G1 X67.620 Y71.768 E24.10622
G1 X66.642 Y72.347 E24.18214
G1 X66.085 Y72.631 E24.22389
G1 X65.280 Y72.988 E24.28273
G1 X64.454 Y73.294 E24.34157
G1 X63.610 Y73.547 E24.40041
G1 X62.501 Y73.795 E24.47632
G1 X61.884 Y73.893 E24.51808
G1 X61.008 Y73.984 E24.57692
G1 X59.872 Y74.019 E24.65283
G1 X58.993 Y73.984 E24.71164
G1 X58.370 Y73.925 E24.75343
G1 X57.499 Y73.795 E24.81227
G1 X56.637 Y73.611 E24.87111
G1 X55.546 Y73.294 E24.94702
G1 X54.958 Y73.082 E24.98878
G1 X54.147 Y72.739 E25.04761
G1 X53.134 Y72.224 E25.12353
G1 X52.381 Y71.769 E25.18231
G1 X51.863 Y71.417 E25.22413
G1 X50.965 Y70.720 E25.30004
G1 X50.496 Y70.307 E25.34180
G1 X49.868 Y69.690 E25.40064
G1 X49.117 Y68.838 E25.47655
G1 X48.733 Y68.343 E25.51833
G1 X48.232 Y67.620 E25.57715
G1 X47.653 Y66.642 E25.65306
G1 X47.369 Y66.085 E25.69483
G1 X47.012 Y65.280 E25.75367
G1 X46.706 Y64.454 E25.81251
G1 X46.455 Y63.618 E25.87081
G1 X46.205 Y62.501 E25.94725
G1 X46.107 Y61.884 E25.98901
G1 X46.016 Y61.008 E26.04785
G1 X45.981 Y59.872 E26.12376
G1 X46.000 Y59.247 E26.16553
G1 X46.075 Y58.369 E26.22439
G1 X46.253 Y57.247 E26.30027
G1 X46.390 Y56.637 E26.34205
G1 X46.627 Y55.789 E26.40088
G1 X47.012 Y54.720 E26.47678
G1 X47.261 Y54.147 E26.51854
G1 X47.653 Y53.358 E26.57737
G1 X48.232 Y52.380 E26.65329
G1 X48.583 Y51.863 E26.69509
G1 X49.117 Y51.162 E26.75391
G1 X49.693 Y50.496 E26.81276
G1 X50.262 Y49.916 E26.86703
G1 X50.683 Y50.252 F30000.000
G1 F2100
G1 X51.490 Y49.540 E26.93895
G1 X52.164 Y49.026 E26.99553
G1 X52.681 Y48.675 E27.03732
G1 X53.601 Y48.130 E27.10875
G1 X54.158 Y47.847 E27.15051
G1 X54.933 Y47.504 E27.20710
G1 X55.939 Y47.142 E27.27851
G1 X56.754 Y46.912 E27.33509
G1 X57.582 Y46.734 E27.39168
G1 X58.420 Y46.609 E27.44826
G1 X59.043 Y46.550 E27.49005
G1 X60.111 Y46.516 E27.56145
G1 X60.736 Y46.536 E27.60322
G1 X61.580 Y46.609 E27.65982
G1 X62.636 Y46.776 E27.73124
G1 X63.461 Y46.967 E27.78783
G1 X64.061 Y47.142 E27.82959
G1 X65.067 Y47.504 E27.90100
G1 X65.641 Y47.752 E27.94276
G1 X66.399 Y48.130 E27.99935
G1 X67.319 Y48.675 E28.07078
G1 X68.015 Y49.156 E28.12735
G1 X68.680 Y49.681 E28.18396
G1 X69.311 Y50.247 E28.24055
G1 X69.753 Y50.689 E28.28231
G1 X70.460 Y51.491 E28.35373
G1 X70.974 Y52.164 E28.41032
G1 X71.326 Y52.682 E28.45213
G1 X71.870 Y53.601 E28.52350
G1 X72.153 Y54.158 E28.56526
G1 X72.496 Y54.933 E28.62185
G1 X72.858 Y55.939 E28.69327
G1 X73.033 Y56.539 E28.73502
G1 X73.224 Y57.364 E28.79162
G1 X73.364 Y58.200 E28.84821
G1 X73.450 Y59.035 E28.90428
G1 X73.484 Y60.111 E28.97622
G1 X73.464 Y60.736 E29.01798
G1 X73.391 Y61.580 E29.07457
G1 X73.266 Y62.418 E29.13118
G1 X73.090 Y63.238 E29.18723
G1 X72.790 Y64.272 E29.25917
G1 X72.496 Y65.067 E29.31576
G1 X72.248 Y65.641 E29.35752
G1 X71.762 Y66.593 E29.42894
G1 X71.444 Y67.131 E29.47070
G1 X70.974 Y67.836 E29.52729
G1 X70.319 Y68.680 E29.59871
G1 X69.905 Y69.150 E29.64049
G1 X69.311 Y69.753 E29.69706
G1 X68.509 Y70.460 E29.76848
G1 X68.015 Y70.843 E29.81024
G1 X67.319 Y71.325 E29.86683
G1 X66.399 Y71.870 E29.93825
G1 X65.842 Y72.153 E29.98001
G1 X65.067 Y72.496 E30.03660
G1 X64.272 Y72.790 E30.09319
G1 X63.461 Y73.033 E30.14978
G1 X62.418 Y73.266 E30.22120
G1 X61.800 Y73.364 E30.26296
G1 X60.957 Y73.450 E30.31955
G1 X59.889 Y73.484 E30.39097
G1 X59.043 Y73.450 E30.44754
G1 X58.420 Y73.391 E30.48932
G1 X57.582 Y73.266 E30.54591
G1 X56.754 Y73.088 E30.60250
G1 X55.728 Y72.790 E30.67392
G1 X55.140 Y72.578 E30.71568
G1 X54.359 Y72.248 E30.77227
G1 X53.407 Y71.762 E30.84369
G1 X52.682 Y71.326 E30.90023
G1 X52.164 Y70.974 E30.94204
G1 X51.320 Y70.319 E31.01346
G1 X50.851 Y69.905 E31.05522
G1 X50.247 Y69.311 E31.11181
G1 X49.540 Y68.509 E31.18323
G1 X49.156 Y68.015 E31.22501
G1 X48.675 Y67.319 E31.28158
G1 X48.130 Y66.399 E31.35300
G1 X47.847 Y65.842 E31.39476
G1 X47.504 Y65.067 E31.45136
G1 X47.210 Y64.272 E31.50796
G1 X46.970 Y63.468 E31.56401
G1 X46.734 Y62.418 E31.63595
G1 X46.636 Y61.800 E31.67771
G1 X46.550 Y60.957 E31.73430
G1 X46.516 Y59.889 E31.80572
G1 X46.536 Y59.264 E31.84749
G1 X46.609 Y58.420 E31.90410
G1 X46.776 Y57.364 E31.97549
G1 X46.912 Y56.754 E32.01727
G1 X47.142 Y55.939 E32.07385
G1 X47.504 Y54.933 E32.14526
G1 X47.847 Y54.158 E32.20185
G1 X48.130 Y53.601 E32.24361
G1 X48.675 Y52.681 E32.31503
G1 X49.026 Y52.164 E32.35682
G1 X49.540 Y51.490 E32.41340
G1 X50.095 Y50.850 E32.47000
G1 X50.641 Y50.295 E32.52203
G1 X51.239 Y50.808 F30000.000
G1 F2100
G1 X51.938 Y50.188 E32.59199
G1 X52.570 Y49.701 E32.65168
G1 X53.159 Y49.301 E32.70495
G1 X53.920 Y48.851 E32.77111
G1 X54.554 Y48.528 E32.82436
G1 X55.285 Y48.208 E32.88405
G1 X56.166 Y47.895 E32.95403
G1 X56.883 Y47.689 E33.00991
G1 X57.663 Y47.518 E33.06961
G1 X58.451 Y47.395 E33.12931
G1 X59.159 Y47.328 E33.18257
G1 X60.043 Y47.301 E33.24872
G1 X60.754 Y47.323 E33.30198
G1 X61.549 Y47.395 E33.36168
G1 X62.422 Y47.534 E33.42784
G1 X63.200 Y47.710 E33.48754
G1 X63.965 Y47.936 E33.54724
G1 X64.715 Y48.208 E33.60695
G1 X65.368 Y48.491 E33.66019
G1 X66.156 Y48.892 E33.72636
G1 X66.768 Y49.254 E33.77960
G1 X67.430 Y49.701 E33.83930
