; generated by Slic3r 1.3.0 on 2022-07-02 at 13:41:02

; external perimeters extrusion width = 0.44mm (3.38mm^3/s)
; perimeters extrusion width = 0.48mm (7.54mm^3/s)
; infill extrusion width = 0.48mm (10.05mm^3/s)
; solid infill extrusion width = 0.48mm (2.51mm^3/s)
; top infill extrusion width = 0.48mm (1.88mm^3/s)

M107
M104 S205 ; set temperature
G28 ; home all axes
G1 Z5 F5000 ; lift nozzle

; Filament gcode

M109 S205 ; set temperature and wait for it to be reached
G21 ; set units to millimeters
G90 ; use absolute coordinates
M82 ; use absolute distances for extrusion
G92 E0
G1 Z0.350 F7800.000
G1 E-2.00000 F2400.00000
G92 E0
G1 X45.240 Y52.348 F7800.000
G1 E2.00000 F2400.00000
G1 F1800
G1 X45.682 Y51.977 E2.05253
G1 X46.790 Y51.127 E2.17947
G1 X47.263 Y50.795 E2.23200
G1 X48.440 Y50.045 E2.35894
G1 X48.941 Y49.756 E2.41149
G1 X50.179 Y49.112 E2.53842
G1 X51.357 Y48.582 E2.65586
G1 X52.130 Y48.301 E2.73061
G1 X52.506 Y48.191 E2.76626
G1 X53.780 Y47.948 E2.88421
G1 X54.172 Y47.913 E2.92000
G1 X55.425 Y47.919 E3.03393
G1 X85.911 Y50.967 E5.81979
G1 X86.948 Y51.103 E5.91498
G1 X87.518 Y51.204 E5.96754
G1 X88.540 Y51.430 E6.06273
G1 X89.098 Y51.580 E6.11528
G1 X90.096 Y51.895 E6.21047
G1 X90.639 Y52.092 E6.26300
G1 X91.607 Y52.493 E6.35822
G1 X92.130 Y52.737 E6.41076
G1 X93.059 Y53.220 E6.50595
G1 X93.560 Y53.509 E6.55851
G1 X94.443 Y54.072 E6.65371
G1 X94.916 Y54.403 E6.70626
G1 X95.746 Y55.041 E6.80145
G1 X96.189 Y55.412 E6.85397
G1 X96.961 Y56.119 E6.94918
G1 X97.370 Y56.528 E7.00175
G1 X98.077 Y57.300 E7.09696
G1 X98.448 Y57.743 E7.14948
G1 X99.086 Y58.573 E7.24467
G1 X99.417 Y59.047 E7.29722
G1 X99.980 Y59.930 E7.39241
G1 X100.269 Y60.430 E7.44498
G1 X100.752 Y61.359 E7.54017
G1 X100.996 Y61.882 E7.59272
G1 X101.397 Y62.850 E7.68791
G1 X101.595 Y63.393 E7.74047
G1 X101.909 Y64.391 E7.83566
G1 X102.059 Y64.949 E7.88820
G1 X102.286 Y65.971 E7.98339
G1 X102.386 Y66.541 E8.03595
G1 X102.523 Y67.579 E8.13114
G1 X102.573 Y68.154 E8.18369
G1 X102.619 Y69.200 E8.27888
G1 X102.619 Y69.778 E8.33143
G1 X102.573 Y70.825 E8.42668
G1 X102.523 Y71.400 E8.47918
G1 X102.386 Y72.438 E8.57437
G1 X102.286 Y73.007 E8.62692
G1 X102.059 Y74.029 E8.72213
G1 X101.909 Y74.587 E8.77466
G1 X101.598 Y75.574 E8.86871
G1 X101.397 Y76.129 E8.92241
G1 X100.996 Y77.096 E9.01760
G1 X100.752 Y77.620 E9.07014
G1 X100.268 Y78.549 E9.16541
G1 X99.980 Y79.049 E9.21790
G1 X99.424 Y79.921 E9.31190
G1 X99.086 Y80.405 E9.36564
G1 X98.448 Y81.236 E9.46089
G1 X98.077 Y81.678 E9.51337
G1 X97.370 Y82.450 E9.60856
G1 X96.961 Y82.859 E9.66113
G1 X96.189 Y83.566 E9.75632
G1 X95.747 Y83.937 E9.80885
G1 X94.916 Y84.575 E9.90405
G1 X94.443 Y84.906 E9.95658
G1 X93.560 Y85.469 E10.05179
G1 X93.059 Y85.758 E10.10436
G1 X92.130 Y86.241 E10.19955
G1 X91.607 Y86.485 E10.25203
G1 X90.639 Y86.886 E10.34729
G1 X90.096 Y87.084 E10.39985
G1 X89.098 Y87.399 E10.49504
G1 X88.540 Y87.548 E10.54758
G1 X87.188 Y87.839 E10.67332
G1 X63.882 Y91.778 E12.82253
G1 X62.259 Y91.996 E12.97146
G1 X61.684 Y92.047 E13.02401
G1 X60.289 Y92.108 E13.15093
G1 X59.711 Y92.108 E13.20349
G1 X58.316 Y92.047 E13.33041
G1 X57.741 Y91.996 E13.38296
G1 X56.357 Y91.814 E13.50988
G1 X55.788 Y91.714 E13.56243
G1 X54.425 Y91.412 E13.68935
G1 X53.867 Y91.262 E13.74187
G1 X52.536 Y90.843 E13.86882
G1 X51.992 Y90.645 E13.92138
G1 X50.703 Y90.111 E14.04831
G1 X50.164 Y89.858 E14.10244
G1 X48.941 Y89.222 E14.22777
G1 X48.441 Y88.933 E14.28031
G1 X47.263 Y88.183 E14.40725
G1 X46.790 Y87.851 E14.45980
G1 X45.682 Y87.002 E14.58673
G1 X45.240 Y86.630 E14.63927
G1 X44.211 Y85.687 E14.76619
G1 X43.802 Y85.279 E14.81875
G1 X42.859 Y84.249 E14.94567
G1 X42.487 Y83.807 E14.99822
G1 X41.648 Y82.713 E15.12355
G1 X41.306 Y82.226 E15.17769
G1 X40.556 Y81.049 E15.30461
G1 X40.267 Y80.548 E15.35717
G1 X39.623 Y79.310 E15.48409
G1 X39.378 Y78.786 E15.53664
G1 X38.844 Y77.497 E15.66357
G1 X38.647 Y76.954 E15.71612
G1 X38.227 Y75.622 E15.84305
G1 X38.077 Y75.064 E15.89559
G1 X37.779 Y73.718 E16.02092
G1 X37.675 Y73.132 E16.07506
G1 X37.493 Y71.748 E16.20199
G1 X37.442 Y71.173 E16.25453
G1 X37.381 Y69.778 E16.38149
G1 X37.381 Y69.200 E16.43401
G1 X37.442 Y67.806 E16.56094
G1 X37.493 Y67.230 E16.61348
G1 X37.675 Y65.846 E16.74040
G1 X37.775 Y65.277 E16.79296
G1 X38.077 Y63.914 E16.91988
G1 X38.227 Y63.356 E16.97243
G1 X38.647 Y62.024 E17.09939
G1 X38.844 Y61.482 E17.15191
G1 X39.372 Y60.208 E17.27724
G1 X39.623 Y59.668 E17.33138
G1 X40.267 Y58.430 E17.45831
G1 X40.556 Y57.930 E17.51085
G1 X41.306 Y56.752 E17.63780
G1 X41.638 Y56.279 E17.69033
G1 X42.477 Y55.185 E17.81566
G1 X42.859 Y54.729 E17.86979
G1 X43.802 Y53.700 E17.99672
G1 X44.211 Y53.291 E18.04926
G1 X45.196 Y52.389 E18.17074
G1 E16.17074 F2400.00000
G92 E0
G1 X81.635 Y79.543 F7800.000
G1 E2.00000 F2400.00000
G1 F1800
G1 X81.552 Y79.415 E2.01392
G1 X81.531 Y79.341 E2.02092
G1 X81.532 Y79.191 E2.03458
G1 X81.557 Y79.113 E2.04201
G1 X81.593 Y79.047 E2.04883
G1 X81.702 Y78.942 E2.06258
G1 X81.845 Y78.884 E2.07667
G1 X82.086 Y78.890 E2.09861
G1 X82.333 Y78.945 E2.12155
G1 X83.163 Y79.054 E2.19771
G1 X84.000 Y79.090 E2.27387
G1 X84.837 Y79.054 E2.35004
G1 X85.667 Y78.945 E2.42620
G1 X86.485 Y78.763 E2.50236
G1 X87.284 Y78.511 E2.57853
G1 X88.058 Y78.191 E2.65469
G1 X88.801 Y77.804 E2.73085
G1 X89.507 Y77.354 E2.80702
G1 X90.172 Y76.844 E2.88318
G1 X90.789 Y76.278 E2.95934
G1 X91.355 Y75.661 E3.03550
G1 X91.865 Y74.996 E3.11167
G1 X92.315 Y74.290 E3.18783
G1 X92.702 Y73.547 E3.26399
G1 X93.022 Y72.773 E3.34016
G1 X93.274 Y71.974 E3.41632
G1 X93.455 Y71.156 E3.49248
G1 X93.565 Y70.326 E3.56865
G1 X93.601 Y69.489 E3.64481
G1 X93.565 Y68.652 E3.72097
G1 X93.455 Y67.822 E3.79713
G1 X93.274 Y67.004 E3.87330
G1 X93.022 Y66.205 E3.94946
G1 X92.705 Y65.440 E4.02475
G1 X92.315 Y64.689 E4.10171
G1 X91.865 Y63.982 E4.17795
G1 X91.355 Y63.318 E4.25411
G1 X90.789 Y62.700 E4.33027
G1 X90.171 Y62.134 E4.40651
G1 X89.499 Y61.619 E4.48347
G1 X88.801 Y61.174 E4.55876
G1 X88.058 Y60.787 E4.63492
G1 X87.283 Y60.467 E4.71116
G1 X86.476 Y60.213 E4.78812
G1 X85.667 Y60.034 E4.86341
G1 X84.837 Y59.924 E4.93957
G1 X84.000 Y59.888 E5.01573
G1 X83.163 Y59.924 E5.09190
G1 X82.333 Y60.034 E5.16806
G1 X81.515 Y60.215 E5.24422
G1 X80.716 Y60.467 E5.32039
G1 X79.942 Y60.787 E5.39655
G1 X79.199 Y61.174 E5.47271
G1 X78.493 Y61.624 E5.54888
G1 X77.828 Y62.134 E5.62504
G1 X77.211 Y62.700 E5.70120
G1 X76.645 Y63.318 E5.77736
G1 X76.141 Y63.974 E5.85266
G1 X75.685 Y64.688 E5.92961
G1 X75.298 Y65.431 E6.00585
G1 X74.978 Y66.205 E6.08201
G1 X74.726 Y67.004 E6.15818
G1 X74.545 Y67.822 E6.23434
G1 X74.435 Y68.652 E6.31050
G1 X74.344 Y70.744 E6.50088
G1 X74.180 Y71.989 E6.61510
G1 X73.908 Y73.216 E6.72932
G1 X73.530 Y74.414 E6.84354
G1 X73.050 Y75.574 E6.95776
G1 X72.470 Y76.688 E7.07198
G1 X71.795 Y77.748 E7.18620
G1 X71.030 Y78.744 E7.30042
G1 X70.193 Y79.658 E7.41313
G1 X69.255 Y80.520 E7.52893
G1 X68.259 Y81.284 E7.64307
G1 X67.199 Y81.959 E7.75729
G1 X66.085 Y82.539 E7.87151
G1 X64.925 Y83.019 E7.98572
G1 X63.727 Y83.397 E8.09994
G1 X62.500 Y83.669 E8.21416
G1 X61.255 Y83.833 E8.32838
G1 X60.000 Y83.888 E8.44260
G1 X58.745 Y83.833 E8.55682
G1 X57.500 Y83.669 E8.67104
G1 X56.273 Y83.397 E8.78526
G1 X55.075 Y83.019 E8.89948
G1 X53.915 Y82.539 E9.01369
G1 X52.801 Y81.959 E9.12791
G1 X51.741 Y81.284 E9.24213
G1 X50.745 Y80.519 E9.35635
G1 X49.819 Y79.671 E9.47057
G1 X48.970 Y78.744 E9.58479
G1 X48.215 Y77.761 E9.69750
G1 X47.530 Y76.688 E9.81330
G1 X46.950 Y75.574 E9.92744
G1 X46.476 Y74.429 E10.04015
G1 X46.092 Y73.215 E10.15595
G1 X45.820 Y71.989 E10.27009
G1 X45.656 Y70.744 E10.38431
G1 X45.601 Y69.489 E10.49853
G1 X45.656 Y68.234 E10.61274
G1 X45.820 Y66.989 E10.72696
G1 X46.092 Y65.762 E10.84118
G1 X46.470 Y64.564 E10.95540
G1 X46.950 Y63.404 E11.06962
G1 X47.530 Y62.290 E11.18384
G1 X48.205 Y61.230 E11.29806
G1 X48.969 Y60.235 E11.41220
G1 X49.831 Y59.297 E11.52800
G1 X50.745 Y58.459 E11.64071
G1 X51.741 Y57.694 E11.75493
G1 X52.801 Y57.020 E11.86915
G1 X53.927 Y56.433 E11.98465
G1 X54.547 Y56.163 E12.04610
G1 X54.675 Y56.126 E12.05820
G1 X54.830 Y56.126 E12.07230
G1 X54.903 Y56.149 E12.07929
G1 X55.030 Y56.236 E12.09322
G1 X55.078 Y56.295 E12.10022
G1 X55.136 Y56.437 E12.11414
G1 X55.134 Y56.591 E12.12807
G1 X55.075 Y56.732 E12.14199
G1 X54.930 Y56.863 E12.15979
G1 X54.805 Y56.933 E12.17280
G1 X54.252 Y57.162 E12.22723
G1 X53.199 Y57.710 E12.33512
G1 X52.199 Y58.348 E12.44301
G1 X51.257 Y59.070 E12.55091
G1 X50.382 Y59.872 E12.65880
G1 X49.581 Y60.746 E12.76669
G1 X48.858 Y61.688 E12.87459
G1 X48.221 Y62.688 E12.98248
G1 X47.673 Y63.741 E13.09037
G1 X47.219 Y64.837 E13.19827
G1 X46.862 Y65.969 E13.30616
G1 X46.605 Y67.127 E13.41405
G1 X46.450 Y68.304 E13.52195
G1 X46.399 Y69.489 E13.62984
G1 X46.450 Y70.675 E13.73773
G1 X46.604 Y71.837 E13.84436
G1 X46.862 Y73.009 E13.95344
G1 X47.219 Y74.141 E14.06141
G1 X47.673 Y75.237 E14.16930
G1 X48.221 Y76.290 E14.27720
G1 X48.858 Y77.291 E14.38509
G1 X49.581 Y78.232 E14.49298
G1 X50.382 Y79.107 E14.60088
G1 X51.257 Y79.908 E14.70877
G1 X52.199 Y80.631 E14.81666
G1 X53.199 Y81.268 E14.92456
G1 X54.252 Y81.816 E15.03245
G1 X55.348 Y82.270 E15.14034
G1 X56.480 Y82.627 E15.24824
G1 X57.638 Y82.884 E15.35613
G1 X58.815 Y83.039 E15.46402
G1 X60.000 Y83.090 E15.57192
G1 X61.185 Y83.039 E15.67981
G1 X62.362 Y82.884 E15.78770
G1 X63.520 Y82.627 E15.89560
G1 X64.652 Y82.270 E16.00349
G1 X65.748 Y81.816 E16.11138
G1 X66.801 Y81.268 E16.21928
G1 X67.801 Y80.631 E16.32717
G1 X68.743 Y79.908 E16.43506
G1 X69.618 Y79.107 E16.54296
G1 X70.419 Y78.232 E16.65085
G1 X71.142 Y77.291 E16.75874
G1 X71.779 Y76.290 E16.86664
G1 X72.327 Y75.237 E16.97453
G1 X72.781 Y74.141 E17.08243
G1 X73.138 Y73.009 E17.19032
G1 X73.395 Y71.851 E17.29821
G1 X73.555 Y70.630 E17.41022
G1 X73.641 Y68.581 E17.59664
G1 X73.759 Y67.683 E17.67899
G1 X73.956 Y66.798 E17.76148
G1 X74.228 Y65.933 E17.84397
G1 X74.576 Y65.094 E17.92646
G1 X74.994 Y64.290 E18.00894
G1 X75.482 Y63.525 E18.09143
G1 X76.034 Y62.805 E18.17392
G1 X76.647 Y62.136 E18.25641
G1 X77.316 Y61.523 E18.33890
G1 X78.036 Y60.971 E18.42139
G1 X78.801 Y60.484 E18.50388
G1 X79.605 Y60.065 E18.58636
G1 X80.443 Y59.718 E18.66885
G1 X81.309 Y59.445 E18.75134
G1 X82.194 Y59.248 E18.83383
G1 X83.094 Y59.130 E18.91632
G1 X84.000 Y59.090 E18.99881
G1 X84.906 Y59.130 E19.08129
G1 X85.806 Y59.248 E19.16378
G1 X86.691 Y59.445 E19.24627
G1 X87.557 Y59.718 E19.32876
G1 X88.394 Y60.064 E19.41117
G1 X89.210 Y60.490 E19.49484
G1 X89.964 Y60.971 E19.57622
G1 X90.684 Y61.523 E19.65871
G1 X91.353 Y62.136 E19.74120
G1 X91.966 Y62.805 E19.82369
G1 X92.518 Y63.525 E19.90618
G1 X93.006 Y64.290 E19.98866
G1 X93.424 Y65.094 E20.07115
G1 X93.772 Y65.933 E20.15364
G1 X94.044 Y66.798 E20.23613
G1 X94.238 Y67.672 E20.31751
G1 X94.359 Y68.584 E20.40118
G1 X94.399 Y69.489 E20.48359
G1 X94.359 Y70.395 E20.56608
G1 X94.241 Y71.295 E20.64857
G1 X94.044 Y72.181 E20.73106
G1 X93.775 Y73.034 E20.81243
G1 X93.424 Y73.885 E20.89611
G1 X93.006 Y74.688 E20.97852
G1 X92.518 Y75.454 E21.06100
G1 X91.966 Y76.173 E21.14349
G1 X91.353 Y76.842 E21.22598
G1 X90.684 Y77.455 E21.30847
G1 X89.964 Y78.007 E21.39096
G1 X89.199 Y78.495 E21.47345
G1 X88.395 Y78.914 E21.55594
G1 X87.557 Y79.261 E21.63843
G1 X86.691 Y79.533 E21.72091
G1 X85.806 Y79.730 E21.80340
G1 X84.906 Y79.848 E21.88589
G1 X84.000 Y79.888 E21.96838
G1 X83.094 Y79.848 E22.05087
G1 X82.174 Y79.727 E22.13525
G1 X81.899 Y79.674 E22.16073
G1 X81.759 Y79.629 E22.17406
G1 X81.681 Y79.582 E22.18230
G1 X81.232 Y80.021 F7800.000
G1 F1800
G1 X81.061 Y79.825 E22.20601
G1 X80.969 Y79.647 E22.22419
G1 X80.913 Y79.455 E22.24238
G1 X80.896 Y79.256 E22.26057
G1 X80.918 Y79.061 E22.27842
G1 X80.980 Y78.865 E22.29705
G1 X81.076 Y78.691 E22.31513
G1 X81.205 Y78.539 E22.33332
G1 X81.360 Y78.414 E22.35140
G1 X81.543 Y78.321 E22.37003
G1 X81.731 Y78.266 E22.38788
G1 X81.940 Y78.249 E22.40690
G1 X83.218 Y78.431 E22.52429
G1 X84.000 Y78.465 E22.59549
G1 X84.782 Y78.431 E22.66670
G1 X85.559 Y78.329 E22.73790
G1 X86.323 Y78.159 E22.80910
G1 X87.070 Y77.924 E22.88030
G1 X87.793 Y77.624 E22.95150
G1 X88.488 Y77.262 E23.02270
G1 X89.148 Y76.842 E23.09390
G1 X89.770 Y76.365 E23.16510
G1 X90.347 Y75.836 E23.23631
G1 X90.876 Y75.259 E23.30751
G1 X91.353 Y74.637 E23.37871
G1 X91.773 Y73.977 E23.44991
G1 X92.135 Y73.282 E23.52111
G1 X92.434 Y72.559 E23.59231
G1 X92.670 Y71.812 E23.66352
G1 X92.839 Y71.048 E23.73472
G1 X92.942 Y70.271 E23.80592
G1 X92.976 Y69.489 E23.87712
G1 X92.942 Y68.707 E23.94832
G1 X92.839 Y67.931 E24.01952
G1 X92.670 Y67.166 E24.09072
G1 X92.434 Y66.419 E24.16192
G1 X92.138 Y65.704 E24.23228
G1 X91.774 Y65.002 E24.30428
G1 X91.353 Y64.341 E24.37553
G1 X90.876 Y63.720 E24.44673
G1 X90.347 Y63.142 E24.51793
G1 X89.769 Y62.613 E24.58918
G1 X89.141 Y62.132 E24.66117
G1 X88.488 Y61.716 E24.73153
G1 X87.793 Y61.354 E24.80273
G1 X87.069 Y61.054 E24.87398
G1 X86.314 Y60.817 E24.94597
G1 X85.559 Y60.650 E25.01633
G1 X84.782 Y60.547 E25.08753
G1 X84.000 Y60.513 E25.15873
G1 X83.218 Y60.547 E25.22993
G1 X82.441 Y60.650 E25.30113
G1 X81.677 Y60.819 E25.37234
G1 X80.930 Y61.055 E25.44354
G1 X80.207 Y61.354 E25.51474
G1 X79.512 Y61.716 E25.58594
G1 X78.852 Y62.137 E25.65714
G1 X78.230 Y62.613 E25.72834
G1 X77.653 Y63.142 E25.79955
G1 X77.124 Y63.720 E25.87075
G1 X76.653 Y64.333 E25.94111
G1 X76.227 Y65.001 E26.01310
G1 X75.865 Y65.696 E26.08435
G1 X75.565 Y66.419 E26.15555
G1 X75.330 Y67.166 E26.22675
G1 X75.161 Y67.931 E26.29795
G1 X75.058 Y68.707 E26.36915
G1 X74.967 Y70.799 E26.55953
G1 X74.796 Y72.098 E26.67872
G1 X74.512 Y73.378 E26.79790
G1 X74.118 Y74.628 E26.91708
G1 X73.617 Y75.839 E27.03626
G1 X73.011 Y77.001 E27.15544
G1 X72.307 Y78.107 E27.27462
G1 X71.509 Y79.146 E27.39380
G1 X70.635 Y80.100 E27.51144
G1 X69.657 Y80.999 E27.63220
G1 X68.618 Y81.796 E27.75134
G1 X67.512 Y82.500 E27.87051
G1 X66.349 Y83.106 E27.98970
G1 X65.139 Y83.607 E28.10888
G1 X63.889 Y84.001 E28.22806
G1 X62.609 Y84.285 E28.34724
G1 X61.309 Y84.456 E28.46642
G1 X60.000 Y84.513 E28.58560
G1 X58.691 Y84.456 E28.70478
G1 X57.391 Y84.285 E28.82396
G1 X56.111 Y84.001 E28.94314
G1 X54.861 Y83.607 E29.06232
G1 X53.651 Y83.106 E29.18150
G1 X52.488 Y82.500 E29.30068
G1 X51.382 Y81.796 E29.41986
G1 X50.343 Y80.998 E29.53904
G1 X49.376 Y80.113 E29.65822
G1 X48.491 Y79.146 E29.77740
G1 X47.703 Y78.120 E29.89505
G1 X46.988 Y77.001 E30.01581
G1 X46.383 Y75.839 E30.13494
G1 X45.888 Y74.643 E30.25258
G1 X45.488 Y73.377 E30.37334
G1 X45.204 Y72.098 E30.49248
G1 X45.033 Y70.799 E30.61166
G1 X44.976 Y69.489 E30.73084
G1 X45.033 Y68.180 E30.85002
G1 X45.204 Y66.880 E30.96920
G1 X45.488 Y65.601 E31.08838
G1 X45.882 Y64.351 E31.20756
G1 X46.383 Y63.140 E31.32674
G1 X46.989 Y61.977 E31.44592
G1 X47.693 Y60.872 E31.56510
G1 X48.490 Y59.832 E31.68423
G1 X49.389 Y58.854 E31.80499
G1 X50.343 Y57.980 E31.92264
G1 X51.382 Y57.182 E32.04182
G1 X52.488 Y56.478 E32.16100
G1 X53.658 Y55.869 E32.28096
G1 X54.333 Y55.575 E32.34792
G1 X54.558 Y55.509 E32.36922
G1 X54.762 Y55.491 E32.38785
G1 X54.957 Y55.512 E32.40570
G1 X55.148 Y55.571 E32.42389
G1 X55.324 Y55.667 E32.44207
G1 X55.477 Y55.795 E32.46026
G1 X55.603 Y55.951 E32.47845
G1 X55.696 Y56.128 E32.49664
G1 X55.752 Y56.320 E32.51483
G1 X55.770 Y56.519 E32.53302
G1 X55.749 Y56.718 E32.55121
G1 X55.689 Y56.909 E32.56940
G1 X55.594 Y57.085 E32.58758
G1 X55.496 Y57.202 E32.60152
G1 X55.288 Y57.379 E32.62627
G1 X55.078 Y57.496 E32.64817
G1 X54.516 Y57.729 E32.70346
G1 X53.512 Y58.252 E32.80639
G1 X52.557 Y58.860 E32.90933
G1 X51.659 Y59.549 E33.01226
G1 X50.825 Y60.314 E33.11519
G1 X50.060 Y61.148 E33.21812
G1 X49.371 Y62.047 E33.32105
G1 X48.763 Y63.001 E33.42398
G1 X48.240 Y64.005 E33.52692
G1 X47.807 Y65.051 E33.62985
G1 X47.466 Y66.131 E33.73278
G1 X47.221 Y67.236 E33.83571
G1 X47.074 Y68.358 E33.93864
G1 X47.024 Y69.489 E34.04157
G1 X47.074 Y70.620 E34.14451
G1 X47.220 Y71.729 E34.24620
G1 X47.466 Y72.847 E34.35032
G1 X47.807 Y73.927 E34.45330
G1 X48.240 Y74.973 E34.55623
G1 X48.763 Y75.977 E34.65916
G1 X49.371 Y76.932 E34.76209
G1 X50.060 Y77.830 E34.86502
G1 X50.825 Y78.664 E34.96796
G1 X51.659 Y79.429 E35.07089
