; generated by Slic3r 1.3.0 on 2022-07-02 at 00:37:00

; external perimeters extrusion width = 0.44mm (3.38mm^3/s)
; perimeters extrusion width = 0.48mm (7.54mm^3/s)
; infill extrusion width = 0.48mm (10.05mm^3/s)
; solid infill extrusion width = 0.48mm (2.51mm^3/s)
; top infill extrusion width = 0.48mm (1.88mm^3/s)
; support material extrusion width = 0.44mm (6.76mm^3/s)

M107
M104 S205 ; set temperature
G28 ; home all axes
G1 Z5 F5000 ; lift nozzle

; Filament gcode

M109 S205 ; set temperature and wait for it to be reached
G21 ; set units to millimeters
G90 ; use absolute coordinates
M82 ; use absolute distances for extrusion
G92 E0
G1 Z0.350 F7800.000
G1 E-2.00000 F2400.00000
G92 E0
G1 X27.038 Y37.957 F7800.000
G1 E2.00000 F2400.00000
G1 F1800
G1 X27.775 Y37.449 E2.08138
G1 X30.129 Y35.949 E2.33523
G1 X30.630 Y35.660 E2.38778
G1 X33.106 Y34.371 E2.64162
G1 X33.630 Y34.127 E2.69417
G1 X36.209 Y33.058 E2.94801
G1 X36.752 Y32.861 E3.00057
G1 X39.415 Y32.021 E3.25442
G1 X39.973 Y31.872 E3.30697
G1 X43.151 Y31.176 E3.60278
G1 X46.346 Y30.741 E3.89602
G1 X46.922 Y30.691 E3.94857
G1 X49.711 Y30.569 E4.20241
G1 X50.289 Y30.569 E4.25497
G1 X53.078 Y30.691 E4.50881
G1 X53.654 Y30.741 E4.56136
G1 X56.661 Y31.141 E4.83721
G1 X103.272 Y39.020 E9.13563
G1 X105.957 Y39.599 E9.38539
G1 X106.515 Y39.749 E9.43793
G1 X108.512 Y40.378 E9.62832
G1 X109.055 Y40.576 E9.68087
G1 X110.989 Y41.377 E9.87126
G1 X111.513 Y41.621 E9.92380
G1 X113.370 Y42.588 E10.11418
G1 X113.871 Y42.877 E10.16675
G1 X116.021 Y44.257 E10.39912
G1 X118.035 Y45.784 E10.62888
G1 X118.477 Y46.156 E10.68142
G1 X120.021 Y47.570 E10.87181
G1 X120.430 Y47.979 E10.92437
G1 X121.844 Y49.523 E11.11475
G1 X122.216 Y49.965 E11.16729
G1 X123.490 Y51.627 E11.35768
G1 X123.998 Y52.364 E11.43905
G1 X125.123 Y54.130 E11.62945
G1 X125.412 Y54.630 E11.68200
G1 X126.379 Y56.487 E11.87240
G1 X126.623 Y57.011 E11.92493
G1 X127.424 Y58.945 E12.11532
G1 X127.622 Y59.488 E12.16785
G1 X128.251 Y61.485 E12.35826
G1 X128.401 Y62.043 E12.41079
G1 X128.946 Y64.540 E12.64314
G1 X129.290 Y67.044 E12.87293
G1 X129.340 Y67.619 E12.92548
G1 X129.431 Y69.711 E13.11587
G1 X129.431 Y70.289 E13.16842
G1 X129.340 Y72.381 E13.35881
G1 X129.290 Y72.956 E13.41136
G1 X129.016 Y75.032 E13.60174
G1 X128.854 Y75.912 E13.68311
G1 X128.401 Y77.957 E13.87351
G1 X128.251 Y78.515 E13.92604
G1 X127.660 Y80.389 E14.10478
G1 X127.424 Y81.055 E14.16897
G1 X126.623 Y82.989 E14.35936
G1 X126.379 Y83.513 E14.41189
G1 X125.991 Y84.258 E14.48826
G1 X125.412 Y85.370 E14.60229
G1 X125.123 Y85.871 E14.65484
G1 X123.998 Y87.636 E14.84523
G1 X123.490 Y88.373 E14.92661
G1 X122.216 Y90.035 E15.11699
G1 X121.844 Y90.477 E15.16952
G1 X120.430 Y92.021 E15.35992
G1 X120.021 Y92.430 E15.41248
G1 X118.477 Y93.844 E15.60287
G1 X118.035 Y94.216 E15.65541
G1 X116.021 Y95.743 E15.88518
G1 X113.871 Y97.123 E16.11754
G1 X113.370 Y97.412 E16.17010
G1 X111.513 Y98.379 E16.36049
G1 X110.989 Y98.623 E16.41303
G1 X109.055 Y99.424 E16.60341
G1 X108.512 Y99.622 E16.65597
G1 X106.515 Y100.251 E16.84636
G1 X105.957 Y100.401 E16.89890
G1 X103.272 Y100.980 E17.14866
G1 X56.661 Y108.859 E21.44707
G1 X53.654 Y109.259 E21.72293
G1 X53.078 Y109.309 E21.77547
G1 X50.289 Y109.431 E22.02932
G1 X49.711 Y109.431 E22.08188
G1 X46.922 Y109.309 E22.33572
G1 X46.346 Y109.259 E22.38827
G1 X43.151 Y108.824 E22.68151
G1 X39.973 Y108.128 E22.97732
G1 X39.415 Y107.979 E23.02987
G1 X36.752 Y107.139 E23.28371
G1 X36.209 Y106.942 E23.33627
G1 X33.630 Y105.873 E23.59012
G1 X33.106 Y105.629 E23.64266
G1 X30.630 Y104.340 E23.89651
G1 X30.129 Y104.051 E23.94906
G1 X27.390 Y102.296 E24.24491
G1 X24.823 Y100.344 E24.53812
G1 X24.381 Y99.972 E24.59066
G1 X22.322 Y98.086 E24.84451
G1 X21.914 Y97.678 E24.89707
G1 X20.028 Y95.619 E25.15091
G1 X19.656 Y95.177 E25.20345
G1 X17.704 Y92.610 E25.49669
G1 X15.949 Y89.871 E25.79251
G1 X15.660 Y89.370 E25.84507
G1 X14.371 Y86.894 E26.09892
G1 X14.127 Y86.370 E26.15146
G1 X13.058 Y83.791 E26.40530
G1 X12.861 Y83.248 E26.45786
G1 X12.021 Y80.585 E26.71170
G1 X11.872 Y80.027 E26.76425
G1 X11.176 Y76.849 E27.06007
G1 X10.741 Y73.654 E27.35331
G1 X10.691 Y73.078 E27.40585
G1 X10.569 Y70.289 E27.65970
G1 X10.569 Y69.711 E27.71226
G1 X10.691 Y66.922 E27.96610
G1 X10.741 Y66.346 E28.01865
G1 X11.176 Y63.151 E28.31189
G1 X11.872 Y59.973 E28.60771
G1 X12.021 Y59.415 E28.66025
G1 X12.861 Y56.752 E28.91410
G1 X13.058 Y56.209 E28.96665
G1 X14.127 Y53.630 E29.22050
G1 X14.371 Y53.106 E29.27304
G1 X15.660 Y50.630 E29.52689
G1 X15.949 Y50.129 E29.57944
G1 X17.704 Y47.390 E29.87527
G1 X19.656 Y44.823 E30.16850
G1 X20.028 Y44.381 E30.22104
G1 X21.914 Y42.322 E30.47489
G1 X22.322 Y41.914 E30.52745
G1 X24.381 Y40.028 E30.78129
G1 X24.823 Y39.656 E30.83383
G1 X26.990 Y37.993 E31.08222
G1 E29.08222 F2400.00000
G92 E0
G1 X28.191 Y81.744 F7800.000
G1 E2.00000 F2400.00000
G1 F1800
G1 X28.579 Y82.490 E2.07647
G1 X29.652 Y84.173 E2.25792
G1 X30.963 Y85.882 E2.45379
G1 X32.472 Y87.528 E2.65687
G1 X34.118 Y89.037 E2.85996
G1 X35.827 Y90.348 E3.05582
G1 X37.510 Y91.421 E3.23727
G1 X39.491 Y92.452 E3.44036
G1 X41.555 Y93.307 E3.64344
G1 X43.685 Y93.978 E3.84652
G1 X45.633 Y94.410 E4.02797
G1 X47.769 Y94.691 E4.22384
G1 X50.000 Y94.789 E4.42692
G1 X52.231 Y94.691 E4.63001
G1 X54.367 Y94.410 E4.82587
G1 X56.315 Y93.978 E5.00732
G1 X58.445 Y93.307 E5.21041
G1 X60.509 Y92.452 E5.41349
G1 X62.490 Y91.421 E5.61658
G1 X64.173 Y90.348 E5.79802
G1 X65.882 Y89.037 E5.99389
G1 X67.528 Y87.528 E6.19698
G1 X69.037 Y85.882 E6.40006
G1 X70.348 Y84.173 E6.59593
G1 X71.421 Y82.490 E6.77738
G1 X72.452 Y80.509 E6.98046
G1 X73.307 Y78.445 E7.18355
G1 X73.978 Y76.315 E7.38663
G1 X74.410 Y74.367 E7.56808
G1 X74.691 Y72.231 E7.76394
G1 X74.874 Y68.048 E8.14471
G1 X75.129 Y66.108 E8.32259
G1 X75.614 Y63.890 E8.52910
G1 X76.201 Y62.028 E8.70657
G1 X76.949 Y60.223 E8.88425
G1 X77.850 Y58.492 E9.06172
G1 X79.076 Y56.580 E9.26823
G1 X80.267 Y55.028 E9.44612
G1 X81.587 Y53.587 E9.62380
G1 X83.028 Y52.267 E9.80148
G1 X84.580 Y51.076 E9.97937
G1 X86.492 Y49.850 E10.18587
G1 X88.223 Y48.949 E10.36334
G1 X90.028 Y48.201 E10.54102
G1 X91.890 Y47.614 E10.71849
G1 X94.108 Y47.129 E10.92500
G1 X96.048 Y46.874 E11.10289
G1 X98.000 Y46.789 E11.28056
G1 X99.952 Y46.874 E11.45824
G1 X101.907 Y47.131 E11.63751
G1 X104.108 Y47.614 E11.84244
G1 X105.972 Y48.201 E12.02011
G1 X107.777 Y48.949 E12.19779
G1 X109.508 Y49.850 E12.37527
G1 X111.420 Y51.076 E12.58177
G1 X112.972 Y52.267 E12.75966
G1 X114.413 Y53.587 E12.93734
G1 X115.733 Y55.028 E13.11502
G1 X116.924 Y56.580 E13.29291
G1 X118.150 Y58.492 E13.49941
G1 X119.051 Y60.223 E13.67688
G1 X119.799 Y62.028 E13.85456
G1 X120.386 Y63.892 E14.03224
G1 X120.869 Y66.093 E14.23717
G1 X121.126 Y68.048 E14.41643
G1 X121.211 Y70.000 E14.59411
G1 X121.126 Y71.952 E14.77179
G1 X120.869 Y73.907 E14.95106
G1 X120.386 Y76.108 E15.15598
G1 X119.799 Y77.972 E15.33366
G1 X119.051 Y79.777 E15.51134
G1 X118.150 Y81.508 E15.68881
G1 X116.924 Y83.420 E15.89532
G1 X115.733 Y84.972 E16.07321
G1 X114.413 Y86.413 E16.25089
G1 X112.972 Y87.733 E16.42857
G1 X111.420 Y88.924 E16.60646
G1 X109.508 Y90.150 E16.81296
G1 X107.777 Y91.051 E16.99043
G1 X105.972 Y91.799 E17.16811
G1 X104.110 Y92.386 E17.34558
G1 X101.892 Y92.871 E17.55209
G1 X99.952 Y93.126 E17.72998
G1 X98.044 Y93.209 E17.90368
G1 X97.455 Y93.151 E17.95750
G1 X96.768 Y92.958 E18.02233
G1 X96.157 Y92.614 E18.08611
G1 X95.734 Y92.266 E18.13594
G1 X95.386 Y91.843 E18.18577
G1 X95.039 Y91.227 E18.25008
G1 X94.849 Y90.545 E18.31439
G1 X94.795 Y90.000 E18.36422
G1 X94.849 Y89.455 E18.41405
G1 X95.039 Y88.773 E18.47836
G1 X95.297 Y88.290 E18.52819
G1 X95.734 Y87.734 E18.59250
G1 X96.290 Y87.297 E18.65682
G1 X96.773 Y87.039 E18.70665
G1 X97.298 Y86.880 E18.75647
G1 X97.455 Y86.849 E18.77101
G1 X98.113 Y86.784 E18.83120
G1 X99.534 Y86.722 E18.96050
G1 X100.978 Y86.532 E19.09291
G1 X102.245 Y86.251 E19.21090
G1 X103.709 Y85.789 E19.35052
G1 X105.128 Y85.201 E19.49015
G1 X106.490 Y84.492 E19.62977
G1 X107.584 Y83.795 E19.74776
G1 X108.739 Y82.909 E19.88016
G1 X109.871 Y81.871 E20.01979
G1 X110.909 Y80.739 E20.15941
G1 X111.795 Y79.584 E20.29182
G1 X112.492 Y78.490 E20.40980
G1 X113.201 Y77.128 E20.54943
G1 X113.789 Y75.709 E20.68905
G1 X114.251 Y74.245 E20.82868
G1 X114.532 Y72.978 E20.94666
G1 X114.722 Y71.534 E21.07907
G1 X114.789 Y70.000 E21.21869
G1 X114.722 Y68.466 E21.35832
G1 X114.532 Y67.022 E21.49072
G1 X114.251 Y65.755 E21.60871
G1 X113.789 Y64.291 E21.74834
G1 X113.201 Y62.872 E21.88796
G1 X112.492 Y61.510 E22.02758
G1 X111.795 Y60.416 E22.14557
G1 X110.909 Y59.261 E22.27798
G1 X109.871 Y58.129 E22.41760
G1 X108.739 Y57.091 E22.55722
G1 X107.584 Y56.205 E22.68963
G1 X106.490 Y55.508 E22.80762
G1 X105.128 Y54.799 E22.94724
G1 X103.709 Y54.211 E23.08686
G1 X102.245 Y53.749 E23.22649
G1 X100.978 Y53.468 E23.34447
G1 X99.534 Y53.278 E23.47688
G1 X98.000 Y53.211 E23.61651
G1 X96.466 Y53.278 E23.75613
G1 X95.022 Y53.468 E23.88854
G1 X93.755 Y53.749 E24.00652
G1 X92.291 Y54.211 E24.14615
G1 X90.872 Y54.799 E24.28577
G1 X89.510 Y55.508 E24.42540
G1 X88.416 Y56.205 E24.54338
G1 X87.261 Y57.091 E24.67579
G1 X86.129 Y58.129 E24.81541
G1 X85.091 Y59.261 E24.95503
G1 X84.205 Y60.416 E25.08744
G1 X83.508 Y61.510 E25.20543
G1 X82.799 Y62.872 E25.34505
G1 X82.211 Y64.291 E25.48468
G1 X81.749 Y65.755 E25.62430
G1 X81.468 Y67.022 E25.74229
G1 X81.278 Y68.466 E25.87470
G1 X81.096 Y72.649 E26.25546
G1 X80.747 Y75.296 E26.49819
G1 X80.114 Y78.179 E26.76657
G1 X79.316 Y80.708 E27.00771
G1 X78.301 Y83.158 E27.24885
G1 X77.077 Y85.510 E27.48999
G1 X75.486 Y87.997 E27.75837
G1 X73.861 Y90.115 E28.00110
G1 X72.070 Y92.070 E28.24224
G1 X70.115 Y93.861 E28.48338
G1 X67.997 Y95.486 E28.72612
G1 X67.791 Y95.624 E28.74860
G1 X65.510 Y97.077 E28.99450
G1 X63.158 Y98.301 E29.23564
G1 X60.708 Y99.316 E29.47678
G1 X58.180 Y100.113 E29.71776
G1 X55.280 Y100.749 E29.98773
G1 X52.649 Y101.096 E30.22903
G1 X50.000 Y101.211 E30.47017
G1 X47.351 Y101.096 E30.71131
G1 X44.720 Y100.749 E30.95261
G1 X41.820 Y100.113 E31.22258
G1 X39.292 Y99.316 E31.46356
G1 X36.842 Y98.301 E31.70470
G1 X34.491 Y97.078 E31.94567
G1 X31.991 Y95.477 E32.21564
G1 X29.885 Y93.861 E32.45694
G1 X27.930 Y92.070 E32.69808
G1 X26.139 Y90.115 E32.93922
G1 X24.523 Y88.009 E33.18053
G1 X22.922 Y85.509 E33.45049
G1 X21.699 Y83.158 E33.69147
G1 X20.684 Y80.708 E33.93261
G1 X19.887 Y78.180 E34.17359
G1 X19.251 Y75.280 E34.44355
G1 X18.904 Y72.649 E34.68486
G1 X18.789 Y70.000 E34.92600
G1 X18.904 Y67.351 E35.16714
G1 X19.251 Y64.720 E35.40844
G1 X19.887 Y61.820 E35.67841
G1 X20.684 Y59.292 E35.91938
G1 X21.699 Y56.842 E36.16052
G1 X22.922 Y54.491 E36.40150
G1 X24.523 Y51.991 E36.67147
G1 X26.139 Y49.885 E36.91277
G1 X27.930 Y47.930 E37.15391
G1 X29.885 Y46.139 E37.39505
G1 X32.003 Y44.514 E37.63778
G1 X34.490 Y42.923 E37.90616
G1 X36.842 Y41.699 E38.14730
G1 X39.292 Y40.684 E38.38844
G1 X41.820 Y39.887 E38.62942
G1 X44.720 Y39.251 E38.89939
G1 X47.351 Y38.904 E39.14069
G1 X50.000 Y38.789 E39.38183
G1 X52.649 Y38.904 E39.62297
G1 X55.283 Y39.251 E39.86452
G1 X56.457 Y39.504 E39.97371
G1 X56.927 Y39.582 E40.01707
G1 X57.405 Y39.740 E40.06278
G1 X58.031 Y40.108 E40.12887
G1 X58.432 Y40.453 E40.17694
G1 X58.870 Y41.033 E40.24303
G1 X59.108 Y41.505 E40.29110
G1 X59.290 Y42.209 E40.35719
G1 X59.329 Y42.736 E40.40526
G1 X59.229 Y43.456 E40.47135
G1 X59.063 Y43.958 E40.51942
G1 X58.784 Y44.452 E40.57101
G1 X58.695 Y44.585 E40.58554
G1 X58.350 Y44.985 E40.63361
G1 X57.770 Y45.423 E40.69971
G1 X57.298 Y45.661 E40.74777
G1 X56.594 Y45.844 E40.81387
G1 X56.067 Y45.883 E40.86193
G1 X55.265 Y45.784 E40.93544
G1 X54.362 Y45.589 E41.01939
G1 X52.231 Y45.309 E41.21483
G1 X50.000 Y45.211 E41.41791
G1 X47.769 Y45.309 E41.62100
G1 X45.633 Y45.590 E41.81686
G1 X43.685 Y46.022 E41.99831
G1 X41.555 Y46.693 E42.20139
G1 X39.491 Y47.548 E42.40448
G1 X37.510 Y48.579 E42.60757
G1 X35.827 Y49.652 E42.78901
G1 X34.118 Y50.963 E42.98488
G1 X32.472 Y52.472 E43.18796
G1 X30.963 Y54.118 E43.39105
G1 X29.652 Y55.827 E43.58692
G1 X28.579 Y57.510 E43.76836
G1 X27.548 Y59.491 E43.97145
G1 X26.693 Y61.555 E44.17454
G1 X26.022 Y63.685 E44.37762
G1 X25.590 Y65.633 E44.55907
G1 X25.309 Y67.769 E44.75493
G1 X25.211 Y70.000 E44.95802
G1 X25.309 Y72.231 E45.16110
G1 X25.590 Y74.367 E45.35697
G1 X26.022 Y76.315 E45.53842
G1 X26.693 Y78.445 E45.74150
G1 X27.548 Y80.509 E45.94458
G1 X28.163 Y81.690 E46.06574
G1 X28.745 Y81.455 F7800.000
G1 F1800
G1 X29.121 Y82.177 E46.13973
G1 X30.164 Y83.814 E46.31622
G1 X31.442 Y85.479 E46.50713
G1 X32.914 Y87.086 E46.70525
G1 X34.521 Y88.558 E46.90337
G1 X36.186 Y89.836 E47.09428
G1 X37.823 Y90.879 E47.27076
G1 X39.756 Y91.885 E47.46889
G1 X41.769 Y92.719 E47.66701
G1 X43.847 Y93.374 E47.86513
G1 X45.742 Y93.794 E48.04162
G1 X47.823 Y94.068 E48.23252
G1 X50.000 Y94.163 E48.43065
G1 X52.177 Y94.068 E48.62877
G1 X54.258 Y93.794 E48.81967
G1 X56.153 Y93.374 E48.99616
G1 X58.231 Y92.719 E49.19428
G1 X60.244 Y91.885 E49.39240
G1 X62.177 Y90.879 E49.59053
G1 X63.814 Y89.836 E49.76701
G1 X65.479 Y88.558 E49.95792
G1 X67.086 Y87.086 E50.15604
G1 X68.558 Y85.479 E50.35417
G1 X69.836 Y83.814 E50.54507
G1 X70.879 Y82.177 E50.72156
G1 X71.885 Y80.244 E50.91968
G1 X72.719 Y78.231 E51.11780
G1 X73.374 Y76.153 E51.31593
G1 X73.794 Y74.258 E51.49241
G1 X74.068 Y72.177 E51.68332
G1 X74.251 Y67.993 E52.06408
G1 X74.513 Y66.001 E52.24685
G1 X75.010 Y63.729 E52.45832
G1 X75.614 Y61.814 E52.64083
G1 X76.382 Y59.959 E52.82347
G1 X77.309 Y58.178 E53.00599
G1 X78.564 Y56.220 E53.21745
G1 X79.788 Y54.626 E53.40022
G1 X81.145 Y53.145 E53.58286
G1 X82.626 Y51.788 E53.76550
G1 X84.220 Y50.564 E53.94828
G1 X86.178 Y49.309 E54.15974
G1 X87.959 Y48.382 E54.34225
G1 X89.814 Y47.614 E54.52490
G1 X91.729 Y47.010 E54.70741
G1 X94.001 Y46.513 E54.91888
G1 X95.993 Y46.251 E55.10165
G1 X98.000 Y46.163 E55.28429
G1 X100.007 Y46.251 E55.46693
G1 X102.009 Y46.514 E55.65054
G1 X104.270 Y47.010 E55.86104
G1 X106.186 Y47.614 E56.04368
G1 X108.041 Y48.382 E56.22632
G1 X109.822 Y49.309 E56.40884
G1 X111.780 Y50.564 E56.62030
G1 X113.374 Y51.788 E56.80307
G1 X114.855 Y53.145 E56.98571
G1 X116.212 Y54.626 E57.16836
G1 X117.436 Y56.220 E57.35113
G1 X118.691 Y58.178 E57.56259
G1 X119.618 Y59.959 E57.74511
G1 X120.386 Y61.814 E57.92775
G1 X120.990 Y63.730 E58.11039
G1 X121.486 Y65.991 E58.32089
G1 X121.749 Y67.993 E58.50450
G1 X121.837 Y70.000 E58.68714
G1 X121.749 Y72.007 E58.86978
G1 X121.486 Y74.009 E59.05339
G1 X120.990 Y76.270 E59.26389
G1 X120.386 Y78.186 E59.44654
G1 X119.618 Y80.041 E59.62918
G1 X118.691 Y81.822 E59.81169
G1 X117.436 Y83.780 E60.02316
G1 X116.212 Y85.374 E60.20593
G1 X114.855 Y86.855 E60.38857
G1 X113.374 Y88.212 E60.57121
G1 X111.780 Y89.436 E60.75398
G1 X109.822 Y90.691 E60.96545
G1 X108.041 Y91.618 E61.14796
G1 X106.186 Y92.386 E61.33060
G1 X104.271 Y92.990 E61.51312
G1 X101.999 Y93.487 E61.72458
G1 X100.007 Y93.749 E61.90735
G1 X98.027 Y93.836 E62.08757
G1 X97.363 Y93.770 E62.14822
G1 X96.530 Y93.540 E62.22680
G1 X95.969 Y93.239 E62.28469
G1 X95.785 Y93.117 E62.30481
G1 X95.290 Y92.710 E62.36303
G1 X94.883 Y92.215 E62.42125
G1 X94.761 Y92.031 E62.44137
G1 X94.459 Y91.467 E62.49958
G1 X94.273 Y90.854 E62.55780
G1 X94.230 Y90.637 E62.57792
G1 X94.167 Y90.000 E62.63614
G1 X94.230 Y89.363 E62.69435
G1 X94.273 Y89.146 E62.71448
G1 X94.459 Y88.533 E62.77269
G1 X94.761 Y87.969 E62.83091
G1 X94.883 Y87.785 E62.85103
G1 X95.290 Y87.290 E62.90924
G1 X95.785 Y86.883 E62.96746
G1 X95.969 Y86.761 E62.98758
G1 X96.533 Y86.459 E63.04580
G1 X97.146 Y86.273 E63.10401
G1 X97.363 Y86.230 E63.12414
G1 X98.069 Y86.160 E63.18867
G1 X99.480 Y86.099 E63.31704
G1 X100.869 Y85.916 E63.44448
G1 X102.083 Y85.647 E63.55751
G1 X103.495 Y85.201 E63.69217
G1 X104.863 Y84.634 E63.82683
G1 X106.177 Y83.951 E63.96150
G1 X107.225 Y83.283 E64.07452
G1 X108.337 Y82.430 E64.20197
G1 X109.429 Y81.429 E64.33663
G1 X110.430 Y80.337 E64.47129
G1 X111.283 Y79.225 E64.59873
G1 X111.951 Y78.177 E64.71176
G1 X112.634 Y76.863 E64.84642
G1 X113.201 Y75.495 E64.98108
G1 X113.647 Y74.083 E65.11575
G1 X113.916 Y72.869 E65.22877
G1 X114.099 Y71.480 E65.35622
