; generated by Slic3r 1.3.0 on 2022-07-01 at 14:53:52

; external perimeters extrusion width = 0.44mm (3.38mm^3/s)
; perimeters extrusion width = 0.48mm (7.54mm^3/s)
; infill extrusion width = 0.48mm (10.05mm^3/s)
; solid infill extrusion width = 0.48mm (2.51mm^3/s)
; top infill extrusion width = 0.48mm (1.88mm^3/s)

M107
M104 S205 ; set temperature
G28 ; home all axes
G1 Z5 F5000 ; lift nozzle

; Filament gcode

M109 S205 ; set temperature and wait for it to be reached
G21 ; set units to millimeters
G90 ; use absolute coordinates
M82 ; use absolute distances for extrusion
G92 E0
G1 Z0.350 F7800.000
G1 E-2.00000 F2400.00000
G92 E0
G1 X42.678 Y45.654 F7800.000
G1 E2.00000 F2400.00000
G1 F1800
G1 X44.574 Y44.362 E2.20854
G1 X47.300 Y43.775 E2.46214
G1 X72.900 Y43.775 E4.78993
G1 X75.159 Y44.172 E4.99848
G1 X77.147 Y45.315 E5.20702
G1 X78.354 Y46.640 E5.36996
G1 X100.554 Y78.840 E8.92631
G1 X101.510 Y80.925 E9.13486
G1 X101.725 Y82.600 E9.28845
G1 X101.725 Y89.600 E9.92496
G1 X101.328 Y91.859 E10.13350
G1 X100.185 Y93.847 E10.34204
G1 X98.432 Y95.326 E10.55058
G1 X96.280 Y96.119 E10.75913
G1 X95.100 Y96.225 E10.86683
G1 X60.100 Y96.225 E14.04937
G1 X58.937 Y96.192 E14.15512
G1 X57.571 Y96.076 E14.27978
G1 X57.159 Y96.023 E14.31762
G1 X55.807 Y95.796 E14.44224
G1 X54.459 Y95.481 E14.56815
G1 X53.160 Y95.090 E14.69153
G1 X52.260 Y94.766 E14.77842
G1 X51.873 Y94.613 E14.81626
G1 X50.621 Y94.057 E14.94086
G1 X49.393 Y93.415 E15.06685
G1 X48.232 Y92.713 E15.19024
G1 X47.442 Y92.176 E15.27707
G1 X47.105 Y91.932 E15.31491
G1 X46.030 Y91.082 E15.43953
G1 X45.314 Y90.450 E15.52639
G1 X44.335 Y89.489 E15.65108
G1 X43.419 Y88.470 E15.77571
G1 X43.154 Y88.149 E15.81355
G1 X42.568 Y87.395 E15.90040
G1 X41.787 Y86.268 E16.02504
G1 X41.078 Y85.095 E16.14970
G1 X40.450 Y83.892 E16.27309
G1 X40.267 Y83.503 E16.31220
G1 X39.734 Y82.240 E16.43686
G1 X39.411 Y81.341 E16.52371
G1 X39.016 Y80.028 E16.64837
G1 X38.707 Y78.707 E16.77173
G1 X38.626 Y78.285 E16.81084
G1 X38.424 Y76.929 E16.93550
G1 X38.334 Y75.977 E17.02239
G1 X38.279 Y74.622 E17.14572
G1 X38.278 Y74.192 E17.18483
G1 X38.335 Y72.822 E17.30949
G1 X40.710 Y49.720 E19.42124
G1 X41.337 Y47.514 E19.62978
G1 X42.643 Y45.702 E19.83287
G1 E17.83287 F2400.00000
G92 E0
G1 X73.500 Y84.200 F7800.000
G1 E2.00000 F2400.00000
G1 F1800
G1 X93.500 Y84.200 E3.81859
G1 X93.500 Y88.000 E4.16416
G1 X63.102 Y88.000 E6.92823
G1 X63.066 Y87.666 E6.95876
G1 X63.482 Y87.573 E6.99759
G1 X64.303 Y87.335 E7.07528
G1 X65.107 Y87.045 E7.15298
G1 X65.891 Y86.706 E7.23067
G1 X66.652 Y86.318 E7.30836
G1 X67.388 Y85.883 E7.38605
G1 X68.094 Y85.403 E7.46374
G1 X68.769 Y84.879 E7.54143
G1 X69.410 Y84.314 E7.61912
G1 X70.014 Y83.710 E7.69681
G1 X70.579 Y83.069 E7.77450
G1 X71.103 Y82.394 E7.85219
G1 X71.583 Y81.688 E7.92989
G1 X72.018 Y80.952 E8.00758
G1 X72.406 Y80.191 E8.08527
G1 X72.745 Y79.407 E8.16296
G1 X73.035 Y78.603 E8.24065
G1 X73.178 Y78.110 E8.28733
G1 X73.500 Y78.156 E8.31691
G1 X73.500 Y84.140 E8.86104
G1 E6.86104 F2400.00000
G92 E0
G1 X71.047 Y66.333 F7800.000
G1 E2.00000 F2400.00000
G1 F1800
G1 X70.579 Y65.731 E2.06933
G1 X70.014 Y65.090 E2.14702
G1 X69.700 Y64.775 E2.18748
G1 X69.700 Y52.000 E3.34914
G1 X71.300 Y52.000 E3.49467
G1 X71.300 Y66.246 E4.79010
G1 X71.104 Y66.314 E4.80901
G1 E2.80901 F2400.00000
G92 E0
G1 X49.153 Y66.333 F7800.000
G1 E2.00000 F2400.00000
G1 F1800
G1 X48.900 Y66.246 E2.02436
G1 X48.900 Y52.000 E3.31980
G1 X50.500 Y52.000 E3.46533
G1 X50.500 Y64.775 E4.62699
G1 X50.186 Y65.090 E4.66744
G1 X49.621 Y65.731 E4.74513
G1 X49.190 Y66.286 E4.80901
G1 E2.80901 F2400.00000
G92 E0
G1 X74.125 Y83.575 F7800.000
G1 E2.00000 F2400.00000
G1 F1800
G1 X94.125 Y83.575 E3.81859
G1 X94.125 Y88.625 E4.27781
G1 X60.115 Y88.625 E7.37030
G1 X59.207 Y88.597 E7.45295
G1 X58.317 Y88.512 E7.53421
G1 X57.435 Y88.373 E7.61542
G1 X56.550 Y88.174 E7.69794
G1 X55.704 Y87.928 E7.77797
G1 X54.864 Y87.626 E7.85923
G1 X54.043 Y87.271 E7.94048
G1 X53.247 Y86.865 E8.02174
G1 X52.478 Y86.410 E8.10300
G1 X51.739 Y85.908 E8.18425
G1 X51.033 Y85.360 E8.26551
G1 X50.363 Y84.769 E8.34676
G1 X49.731 Y84.137 E8.42802
G1 X49.140 Y83.467 E8.50928
G1 X48.592 Y82.761 E8.59053
G1 X48.097 Y82.033 E8.67056
G1 X47.635 Y81.252 E8.75308
G1 X47.229 Y80.457 E8.83430
G1 X46.874 Y79.636 E8.91555
G1 X46.572 Y78.796 E8.99681
G1 X46.322 Y77.938 E9.07806
G1 X46.127 Y77.065 E9.15932
G1 X45.988 Y76.183 E9.24058
G1 X45.903 Y75.293 E9.32183
G1 X45.875 Y74.400 E9.40309
G1 X45.903 Y73.507 E9.48434
G1 X45.988 Y72.617 E9.56560
G1 X46.127 Y71.735 E9.64685
G1 X46.322 Y70.862 E9.72811
G1 X46.572 Y70.004 E9.80937
G1 X46.874 Y69.164 E9.89062
G1 X47.229 Y68.343 E9.97188
G1 X47.634 Y67.549 E10.05297
G1 X48.275 Y66.474 E10.16673
G1 X48.275 Y51.375 E11.53972
G1 X51.125 Y51.375 E11.79889
G1 X51.125 Y65.034 E13.04090
G1 X50.641 Y65.518 E13.10311
G1 X50.102 Y66.129 E13.17723
G1 X49.603 Y66.773 E13.25135
G1 X49.145 Y67.447 E13.32547
G1 X48.730 Y68.149 E13.39959
G1 X48.360 Y68.875 E13.47371
G1 X48.036 Y69.623 E13.54783
G1 X47.760 Y70.390 E13.62195
G1 X47.532 Y71.173 E13.69607
G1 X47.354 Y71.969 E13.77019
G1 X47.227 Y72.774 E13.84431
G1 X47.150 Y73.585 E13.91843
G1 X47.125 Y74.400 E13.99255
G1 X47.150 Y75.215 E14.06667
G1 X47.227 Y76.026 E14.14079
G1 X47.354 Y76.831 E14.21491
G1 X47.530 Y77.616 E14.28799
G1 X47.760 Y78.409 E14.36310
G1 X48.036 Y79.177 E14.43726
G1 X48.355 Y79.914 E14.51034
G1 X48.729 Y80.651 E14.58546
G1 X49.145 Y81.353 E14.65962
G1 X49.596 Y82.017 E14.73270
G1 X50.102 Y82.670 E14.80782
G1 X50.641 Y83.282 E14.88198
G1 X51.218 Y83.859 E14.95610
G1 X51.830 Y84.398 E15.03026
G1 X52.483 Y84.904 E15.10537
G1 X53.147 Y85.355 E15.17845
G1 X53.849 Y85.770 E15.25257
G1 X54.575 Y86.140 E15.32669
G1 X55.323 Y86.464 E15.40081
G1 X56.091 Y86.740 E15.47497
G1 X56.884 Y86.970 E15.55009
G1 X57.669 Y87.146 E15.62317
G1 X58.474 Y87.273 E15.69729
G1 X59.285 Y87.350 E15.77141
G1 X60.100 Y87.375 E15.84553
G1 X60.915 Y87.350 E15.91965
G1 X61.726 Y87.273 E15.99377
G1 X62.531 Y87.146 E16.06789
G1 X63.327 Y86.968 E16.14201
G1 X64.110 Y86.740 E16.21613
G1 X64.877 Y86.464 E16.29025
G1 X65.625 Y86.140 E16.36437
G1 X66.351 Y85.770 E16.43849
G1 X67.053 Y85.355 E16.51261
G1 X67.727 Y84.897 E16.58673
G1 X68.371 Y84.398 E16.66085
G1 X68.982 Y83.859 E16.73496
G1 X69.559 Y83.282 E16.80908
G1 X70.098 Y82.671 E16.88320
G1 X70.597 Y82.027 E16.95732
G1 X71.055 Y81.353 E17.03144
G1 X71.470 Y80.651 E17.10556
G1 X71.840 Y79.925 E17.17968
G1 X72.164 Y79.177 E17.25380
G1 X72.440 Y78.410 E17.32792
G1 X72.668 Y77.627 E17.40204
G1 X72.846 Y76.831 E17.47616
G1 X72.973 Y76.026 E17.55028
G1 X73.050 Y75.215 E17.62440
G1 X73.075 Y74.400 E17.69852
G1 X73.050 Y73.585 E17.77264
G1 X72.973 Y72.774 E17.84676
G1 X72.846 Y71.969 E17.92088
G1 X72.668 Y71.173 E17.99500
G1 X72.440 Y70.390 E18.06912
G1 X72.164 Y69.623 E18.14324
G1 X71.840 Y68.875 E18.21736
G1 X71.470 Y68.149 E18.29148
G1 X71.055 Y67.447 E18.36560
G1 X70.597 Y66.773 E18.43972
G1 X70.098 Y66.129 E18.51384
G1 X69.559 Y65.518 E18.58796
G1 X69.075 Y65.034 E18.65016
G1 X69.075 Y51.375 E19.89218
G1 X71.925 Y51.375 E20.15135
G1 X71.925 Y66.474 E21.52434
G1 X72.566 Y67.549 E21.63810
G1 X72.971 Y68.343 E21.71919
G1 X73.326 Y69.164 E21.80045
G1 X73.628 Y70.004 E21.88170
G1 X73.878 Y70.862 E21.96296
G1 X74.073 Y71.735 E22.04421
G1 X74.212 Y72.617 E22.12547
G1 X74.297 Y73.507 E22.20673
G1 X74.325 Y74.400 E22.28798
G1 X74.297 Y75.293 E22.36924
G1 X74.212 Y76.183 E22.45049
G1 X74.125 Y76.734 E22.50127
G1 X74.125 Y83.515 E23.11782
G1 X74.750 Y82.950 F7800.000
G1 F1800
G1 X94.750 Y82.950 E24.93641
G1 X94.750 Y89.250 E25.50927
G1 X60.105 Y89.250 E28.65948
G1 X59.168 Y89.221 E28.74480
G1 X58.239 Y89.133 E28.82963
G1 X57.318 Y88.987 E28.91444
G1 X56.394 Y88.779 E29.00054
G1 X55.511 Y88.523 E29.08411
G1 X54.633 Y88.207 E29.16894
G1 X53.777 Y87.837 E29.25377
G1 X52.946 Y87.413 E29.33859
G1 X52.143 Y86.938 E29.42342
G1 X51.371 Y86.414 E29.50825
G1 X50.634 Y85.842 E29.59307
G1 X49.935 Y85.225 E29.67790
G1 X49.275 Y84.565 E29.76273
G1 X48.658 Y83.866 E29.84756
G1 X48.086 Y83.129 E29.93238
G1 X47.570 Y82.368 E30.01596
G1 X47.087 Y81.554 E30.10205
G1 X46.663 Y80.723 E30.18686
G1 X46.293 Y79.867 E30.27169
G1 X45.977 Y78.989 E30.35652
G1 X45.717 Y78.093 E30.44134
G1 X45.513 Y77.183 E30.52617
G1 X45.367 Y76.261 E30.61100
G1 X45.279 Y75.332 E30.69583
G1 X45.250 Y74.400 E30.78065
G1 X45.279 Y73.468 E30.86548
G1 X45.367 Y72.539 E30.95031
G1 X45.513 Y71.617 E31.03513
G1 X45.717 Y70.707 E31.11996
G1 X45.977 Y69.811 E31.20479
G1 X46.293 Y68.933 E31.28962
G1 X46.663 Y68.077 E31.37444
G1 X47.087 Y67.247 E31.45921
G1 X47.650 Y66.302 E31.55920
G1 X47.650 Y50.750 E32.97336
G1 X51.750 Y50.750 E33.34617
G1 X51.750 Y65.305 E34.66966
G1 X51.097 Y65.946 E34.75283
G1 X50.584 Y66.528 E34.82338
G1 X50.108 Y67.141 E34.89393
G1 X49.672 Y67.782 E34.96448
G1 X49.277 Y68.450 E35.03502
G1 X48.925 Y69.142 E35.10557
G1 X48.617 Y69.854 E35.17612
G1 X48.354 Y70.584 E35.24667
G1 X48.138 Y71.329 E35.31722
G1 X47.969 Y72.086 E35.38777
G1 X47.847 Y72.852 E35.45831
G1 X47.774 Y73.625 E35.52886
G1 X47.750 Y74.400 E35.59941
G1 X47.774 Y75.175 E35.66996
G1 X47.847 Y75.948 E35.74051
G1 X47.969 Y76.714 E35.81106
G1 X48.135 Y77.460 E35.88059
G1 X48.354 Y78.216 E35.95214
G1 X48.617 Y78.946 E36.02270
G1 X48.921 Y79.648 E36.09223
G1 X49.277 Y80.350 E36.16378
G1 X49.672 Y81.018 E36.23434
G1 X50.102 Y81.650 E36.30388
G1 X50.584 Y82.272 E36.37542
G1 X51.097 Y82.854 E36.44599
G1 X51.646 Y83.403 E36.51653
G1 X52.228 Y83.916 E36.58710
G1 X52.850 Y84.398 E36.65864
G1 X53.482 Y84.828 E36.72818
G1 X54.150 Y85.223 E36.79872
G1 X54.842 Y85.575 E36.86927
G1 X55.554 Y85.883 E36.93982
G1 X56.284 Y86.146 E37.01038
G1 X57.040 Y86.365 E37.08193
G1 X57.786 Y86.531 E37.15146
G1 X58.552 Y86.653 E37.22201
G1 X59.325 Y86.726 E37.29256
G1 X60.100 Y86.750 E37.36311
G1 X60.875 Y86.726 E37.43366
G1 X61.648 Y86.653 E37.50421
G1 X62.414 Y86.531 E37.57475
G1 X63.171 Y86.362 E37.64530
G1 X63.916 Y86.146 E37.71585
G1 X64.646 Y85.883 E37.78640
G1 X65.358 Y85.575 E37.85695
G1 X66.050 Y85.223 E37.92750
G1 X66.718 Y84.828 E37.99804
G1 X67.359 Y84.392 E38.06859
G1 X67.972 Y83.916 E38.13914
G1 X68.554 Y83.403 E38.20969
G1 X69.103 Y82.854 E38.28024
G1 X69.616 Y82.272 E38.35079
G1 X70.091 Y81.659 E38.42133
G1 X70.528 Y81.018 E38.49188
G1 X70.923 Y80.350 E38.56243
G1 X71.275 Y79.658 E38.63298
G1 X71.583 Y78.946 E38.70353
G1 X71.846 Y78.216 E38.77408
G1 X72.062 Y77.471 E38.84462
G1 X72.231 Y76.714 E38.91517
G1 X72.353 Y75.948 E38.98572
G1 X72.426 Y75.175 E39.05627
G1 X72.450 Y74.400 E39.12682
G1 X72.426 Y73.625 E39.19736
G1 X72.353 Y72.852 E39.26791
G1 X72.231 Y72.086 E39.33846
G1 X72.062 Y71.329 E39.40901
G1 X71.846 Y70.584 E39.47956
G1 X71.583 Y69.854 E39.55011
G1 X71.275 Y69.142 E39.62065
G1 X70.923 Y68.450 E39.69120
G1 X70.528 Y67.782 E39.76175
G1 X70.091 Y67.141 E39.83230
G1 X69.616 Y66.528 E39.90285
G1 X69.103 Y65.946 E39.97340
G1 X68.450 Y65.305 E40.05656
G1 X68.450 Y50.750 E41.38006
G1 X72.550 Y50.750 E41.75287
G1 X72.550 Y66.302 E43.16702
G1 X73.113 Y67.247 E43.26702
G1 X73.537 Y68.077 E43.35179
G1 X73.907 Y68.933 E43.43661
G1 X74.223 Y69.811 E43.52144
G1 X74.483 Y70.707 E43.60627
G1 X74.687 Y71.617 E43.69109
G1 X74.833 Y72.539 E43.77592
G1 X74.921 Y73.468 E43.86075
G1 X74.950 Y74.400 E43.94558
G1 X74.921 Y75.332 E44.03040
G1 X74.833 Y76.261 E44.11523
G1 X74.750 Y76.784 E44.16332
G1 X74.750 Y82.890 E44.71858
G1 X74.748 Y83.350 F7800.000
G1 E42.71858 F2400.00000
G92 E0
G1 X72.815 Y80.932 F7800.000
G1 E2.00000 F2400.00000
G1 F1800
G1 X73.179 Y79.304 E2.10981
G1 X73.384 Y77.823 F7800.000
G1 F1800
G1 X73.447 Y77.250 E2.16846
G1 F1800
G1 X73.499 Y76.710 E2.21803
G1 F1800
G1 X73.593 Y76.105 E2.26727
G1 X73.672 Y75.264 E2.33517
G1 X73.700 Y74.400 E2.40465
G1 X73.673 Y73.546 E2.47333
G1 X73.594 Y72.705 E2.54124
G1 X73.457 Y71.842 E2.61150
G1 X73.273 Y71.018 E2.67940
G1 X73.037 Y70.207 E2.74730
G1 X72.745 Y69.394 E2.81678
G1 X72.406 Y68.609 E2.88547
G1 X72.019 Y67.851 E2.95392
G1 X71.250 Y66.594 E3.07239
G1 X70.500 Y65.168 F7800.000
G1 F1800
G1 X70.500 Y52.312 E4.75686
G1 E2.75686 F2400.00000
G92 E0
G1 X49.700 Y52.312 F7800.000
G1 E2.00000 F2400.00000
G1 F1800
G1 X49.700 Y65.168 E3.68447
G1 X48.950 Y66.594 F7800.000
G1 F1800
G1 X48.181 Y67.851 E3.80505
G1 X47.794 Y68.609 E3.87471
G1 X47.455 Y69.394 E3.94462
G1 X47.166 Y70.197 E4.01453
G1 X46.927 Y71.018 E4.08444
G1 X46.741 Y71.852 E4.15435
G1 X46.607 Y72.695 E4.22426
G1 X46.527 Y73.546 E4.29417
G1 X46.500 Y74.400 E4.36408
G1 X46.527 Y75.254 E4.43399
G1 X46.607 Y76.105 E4.50389
G1 X46.743 Y76.958 E4.57460
G1 X46.928 Y77.782 E4.64371
G1 X47.163 Y78.592 E4.71275
G1 X47.452 Y79.397 E4.78273
G1 X47.794 Y80.189 E4.85327
G1 X48.182 Y80.951 E4.92328
G1 X48.623 Y81.695 E4.99405
G1 X49.098 Y82.394 E5.06316
G1 X49.621 Y83.069 E5.13307
G1 X50.193 Y83.717 E5.20378
G1 X50.790 Y84.314 E5.27288
G1 X51.439 Y84.886 E5.34366
G1 X52.106 Y85.402 E5.41270
G1 X52.805 Y85.877 E5.48181
G1 X53.548 Y86.318 E5.55252
G1 X54.309 Y86.706 E5.62243
G1 X55.094 Y87.045 E5.69233
G1 X55.897 Y87.334 E5.76224
G1 X56.739 Y87.577 E5.83390
G1 X57.552 Y87.759 E5.90212
G1 X58.405 Y87.894 E5.97277
G1 X59.256 Y87.973 E6.04268
G1 X60.110 Y88.000 E6.11258
G1 X60.965 Y87.986 E6.18257
G1 F1800
G1 X61.823 Y87.946 E6.25963
G1 F1800
G1 X62.774 Y87.871 E6.35701
G1 X64.444 Y87.653 F7800.000
G1 F1800
G1 X64.584 Y87.629 E6.35815
G1 F1800
G1 X64.864 Y87.580 E6.36426
G1 F1800
G1 X65.143 Y87.531 E6.37421
G1 F1800
G1 X66.253 Y87.322 E6.42212
G1 X66.158 Y86.926 F7800.000
G1 F1800
G1 X65.792 Y87.688 E6.44329
G1 X66.800 Y87.056 F7800.000
G1 F1800
G1 X67.286 Y86.570 E6.50766
G1 X67.966 Y86.168 E6.58162
G1 X68.705 Y85.666 E6.66532
G1 X69.411 Y85.118 E6.74901
G1 X70.081 Y84.527 E6.83270
G1 X70.713 Y83.895 E6.91640
G1 X71.304 Y83.225 E7.00009
G1 X71.852 Y82.519 E7.08378
G1 X72.354 Y81.780 E7.16748
G1 X72.671 Y81.243 E7.22584
G1 X73.118 Y81.343 E7.26873
G1 X73.118 Y81.648 E7.29727
G1 X67.148 Y87.618 E8.08802
G1 X68.058 Y87.618 E8.17326
G1 X73.118 Y82.558 E8.84347
G1 X73.118 Y83.468 E8.92871
G1 X68.968 Y87.618 E9.47838
G1 X69.878 Y87.618 E9.56361
G1 X73.118 Y84.378 E9.99274
G1 X73.118 Y84.582 E10.01180
G1 X73.825 Y84.582 E10.07798
G1 X70.788 Y87.618 E10.48017
G1 X71.699 Y87.618 E10.56541
G1 X74.735 Y84.582 E10.96759
G1 X75.645 Y84.582 E11.05283
G1 X72.609 Y87.618 E11.45502
G1 X73.519 Y87.618 E11.54025
G1 X76.556 Y84.582 E11.94244
G1 X77.466 Y84.582 E12.02768
G1 X74.429 Y87.618 E12.42987
G1 X75.339 Y87.618 E12.51510
G1 X78.376 Y84.582 E12.91729
G1 X79.286 Y84.582 E13.00253
G1 X76.249 Y87.618 E13.40472
G1 X77.159 Y87.618 E13.48995
G1 X80.196 Y84.582 E13.89214
G1 X81.106 Y84.582 E13.97738
G1 X78.070 Y87.618 E14.37957
G1 X78.980 Y87.618 E14.46480
G1 X82.017 Y84.582 E14.86699
G1 X82.927 Y84.582 E14.95223
G1 X79.890 Y87.618 E15.35441
G1 X80.800 Y87.618 E15.43965
G1 X83.837 Y84.582 E15.84184
G1 X84.747 Y84.582 E15.92707
G1 X81.710 Y87.618 E16.32926
G1 X82.620 Y87.618 E16.41450
G1 X85.657 Y84.582 E16.81669
G1 X86.567 Y84.582 E16.90192
G1 X83.531 Y87.618 E17.30411
G1 X84.441 Y87.618 E17.38935
G1 X87.478 Y84.582 E17.79154
G1 X88.388 Y84.582 E17.87677
G1 X85.351 Y87.618 E18.27896
G1 X86.261 Y87.618 E18.36420
G1 X89.298 Y84.582 E18.76639
G1 X90.208 Y84.582 E18.85162
G1 X87.171 Y87.618 E19.25381
G1 X88.081 Y87.618 E19.33905
G1 X91.118 Y84.582 E19.74124
G1 X92.028 Y84.582 E19.82647
G1 X88.992 Y87.618 E20.22866
G1 X89.902 Y87.618 E20.31390
G1 X92.938 Y84.582 E20.71609
G1 X93.118 Y84.582 E20.73293
G1 X93.118 Y85.312 E20.80132
G1 X90.812 Y87.618 E21.10680
G1 X91.722 Y87.618 E21.19203
G1 X93.118 Y86.222 E21.37696
G1 X93.118 Y87.132 E21.46220
G1 X92.632 Y87.618 E21.52659
M104 S200 ; set temperature
G1 Z0.650 F7800.000
G1 X74.064 Y83.636 F7800.000
G1 F3600
G1 X94.064 Y83.636 E22.57149
G1 X94.064 Y88.564 E22.82894
G1 X60.116 Y88.564 E24.60253
G1 X59.212 Y88.535 E24.64980
G1 X58.287 Y88.446 E24.69836
G1 X57.446 Y88.312 E24.74283
G1 X56.578 Y88.118 E24.78932
G1 X55.723 Y87.870 E24.83580
G1 X54.886 Y87.569 E24.88229
G1 X54.070 Y87.215 E24.92877
G1 X53.277 Y86.811 E24.97526
G1 X52.511 Y86.359 E25.02175
G1 X51.775 Y85.858 E25.06823
G1 X51.072 Y85.313 E25.11472
