; generated by Slic3r 1.3.0 on 2022-07-01 at 19:05:25

; external perimeters extrusion width = 0.44mm (3.38mm^3/s)
; perimeters extrusion width = 0.48mm (7.54mm^3/s)
; infill extrusion width = 0.48mm (10.05mm^3/s)
; solid infill extrusion width = 0.48mm (2.51mm^3/s)
; top infill extrusion width = 0.48mm (1.88mm^3/s)
; support material extrusion width = 0.44mm (6.76mm^3/s)

M107
M104 S205 ; set temperature
G28 ; home all axes
G1 Z5 F5000 ; lift nozzle

; Filament gcode

M109 S205 ; set temperature and wait for it to be reached
G21 ; set units to millimeters
G90 ; use absolute coordinates
M82 ; use absolute distances for extrusion
G92 E0
G1 Z0.350 F7800.000
G1 E-2.00000 F2400.00000
G92 E0
G1 X47.578 Y45.654 F7800.000
G1 E2.00000 F2400.00000
G1 F1800
G1 X49.474 Y44.362 E2.20854
G1 X52.200 Y43.775 E2.46214
G1 X77.800 Y43.775 E4.78993
G1 X80.059 Y44.172 E4.99848
G1 X82.047 Y45.315 E5.20702
G1 X83.686 Y47.359 E5.44521
G1 X96.086 Y71.359 E7.90159
G1 X96.825 Y74.400 E8.18615
G1 X96.825 Y89.400 E9.55009
G1 X96.428 Y91.659 E9.75864
G1 X95.285 Y93.647 E9.96718
G1 X93.532 Y95.126 E10.17572
G1 X90.253 Y96.025 E10.48489
G1 X65.053 Y96.225 E12.77639
G1 X63.422 Y96.165 E12.92474
G1 X62.471 Y96.076 E13.01164
G1 X61.115 Y95.874 E13.13626
G1 X59.775 Y95.588 E13.26089
G1 X59.372 Y95.484 E13.29873
G1 X58.455 Y95.218 E13.38556
G1 X57.160 Y94.766 E13.51022
G1 X55.896 Y94.233 E13.63494
G1 X54.670 Y93.623 E13.75953
G1 X54.305 Y93.422 E13.79738
G1 X53.132 Y92.713 E13.92204
G1 X52.342 Y92.176 E14.00889
G1 X51.262 Y91.355 E14.13226
G1 X50.930 Y91.081 E14.17136
G1 X50.214 Y90.450 E14.25819
G1 X49.235 Y89.490 E14.38285
G1 X48.319 Y88.470 E14.50751
G1 X48.054 Y88.149 E14.54535
G1 X47.468 Y87.395 E14.63218
G1 X46.687 Y86.268 E14.75684
G1 X45.978 Y85.095 E14.88150
G1 X45.777 Y84.730 E14.91934
G1 X45.167 Y83.503 E15.04399
G1 X44.634 Y82.240 E15.16863
G1 X44.311 Y81.341 E15.25548
G1 X44.182 Y80.945 E15.29333
G1 X43.812 Y79.625 E15.41798
G1 X43.526 Y78.285 E15.54262
G1 X43.377 Y77.341 E15.62947
G1 X43.324 Y76.929 E15.66731
G1 X43.208 Y75.563 E15.79195
G1 X43.178 Y74.192 E15.91661
G1 X43.234 Y72.822 E16.04127
G1 X45.610 Y49.720 E18.15304
G1 X46.237 Y47.514 E18.36158
G1 X47.543 Y45.702 E18.56467
G1 E16.56467 F2400.00000
G92 E0
G1 X88.600 Y87.800 F7800.000
G1 E2.00000 F2400.00000
G1 F1800
G1 X69.800 Y87.800 E3.70952
G1 X69.800 Y87.120 E3.77137
G1 X70.790 Y86.706 E3.86896
G1 X71.552 Y86.318 E3.94672
G1 X72.288 Y85.883 E4.02441
G1 X72.994 Y85.403 E4.10210
G1 X73.669 Y84.879 E4.17979
G1 X74.301 Y84.322 E4.25642
G1 X74.914 Y83.711 E4.33511
G1 X75.479 Y83.069 E4.41286
G1 X76.003 Y82.394 E4.49055
G1 X76.483 Y81.688 E4.56824
G1 X76.918 Y80.952 E4.64594
G1 X77.306 Y80.191 E4.72363
G1 X77.645 Y79.407 E4.80132
G1 X77.935 Y78.603 E4.87901
G1 X78.173 Y77.782 E4.95670
G1 X78.360 Y76.948 E5.03439
G1 X78.510 Y76.000 E5.12173
G1 X88.600 Y76.000 E6.03924
G1 X88.600 Y87.740 E7.10679
G1 E5.10679 F2400.00000
G92 E0
G1 X76.200 Y66.246 F7800.000
G1 E2.00000 F2400.00000
G1 F1800
G1 X75.947 Y66.333 E2.02436
G1 X75.479 Y65.731 E2.09369
G1 X74.914 Y65.090 E2.17138
G1 X74.600 Y64.775 E2.21184
G1 X74.600 Y52.000 E3.37350
G1 X76.200 Y52.000 E3.51903
G1 X76.200 Y66.186 E4.80901
G1 E2.80901 F2400.00000
G92 E0
G1 X54.053 Y66.333 F7800.000
G1 E2.00000 F2400.00000
G1 F1800
G1 X53.800 Y66.246 E2.02436
G1 X53.800 Y52.000 E3.31980
G1 X55.400 Y52.000 E3.46533
G1 X55.400 Y64.775 E4.62699
G1 X55.086 Y65.090 E4.66744
G1 X54.521 Y65.731 E4.74513
G1 X54.090 Y66.286 E4.80901
G1 E2.80901 F2400.00000
G92 E0
G1 X69.175 Y88.035 F7800.000
G1 E2.00000 F2400.00000
G1 F1800
G1 X67.665 Y88.373 E2.14064
G1 X66.783 Y88.512 E2.22190
G1 X65.893 Y88.597 E2.30315
G1 X65.000 Y88.625 E2.38441
G1 X64.107 Y88.597 E2.46567
G1 X63.217 Y88.512 E2.54692
G1 X62.335 Y88.373 E2.62818
G1 X61.462 Y88.178 E2.70943
G1 X60.604 Y87.928 E2.79069
G1 X59.764 Y87.626 E2.87194
G1 X58.943 Y87.271 E2.95320
G1 X58.147 Y86.865 E3.03446
G1 X57.378 Y86.410 E3.11571
G1 X56.639 Y85.908 E3.19697
G1 X55.933 Y85.360 E3.27822
G1 X55.263 Y84.769 E3.35948
G1 X54.631 Y84.137 E3.44074
G1 X54.040 Y83.467 E3.52199
G1 X53.492 Y82.761 E3.60325
G1 X52.990 Y82.022 E3.68450
G1 X52.535 Y81.253 E3.76576
G1 X52.129 Y80.457 E3.84697
G1 X51.770 Y79.624 E3.92949
G1 X51.472 Y78.796 E4.00952
G1 X51.222 Y77.938 E4.09078
G1 X51.027 Y77.065 E4.17204
G1 X50.888 Y76.183 E4.25325
G1 X50.803 Y75.280 E4.33577
G1 X50.775 Y74.400 E4.41580
G1 X50.803 Y73.507 E4.49706
G1 X50.888 Y72.617 E4.57831
G1 X51.027 Y71.735 E4.65957
G1 X51.222 Y70.862 E4.74082
G1 X51.472 Y70.004 E4.82208
G1 X51.774 Y69.164 E4.90334
G1 X52.129 Y68.343 E4.98459
G1 X52.534 Y67.549 E5.06568
G1 X53.175 Y66.474 E5.17944
G1 X53.175 Y51.375 E6.55243
G1 X56.025 Y51.375 E6.81160
G1 X56.025 Y65.034 E8.05362
G1 X55.541 Y65.518 E8.11583
G1 X55.002 Y66.129 E8.18995
G1 X54.503 Y66.773 E8.26406
G1 X54.045 Y67.447 E8.33818
G1 X53.630 Y68.149 E8.41230
G1 X53.260 Y68.875 E8.48642
G1 X52.936 Y69.623 E8.56054
G1 X52.660 Y70.390 E8.63466
G1 X52.432 Y71.173 E8.70878
G1 X52.254 Y71.969 E8.78290
G1 X52.127 Y72.774 E8.85702
G1 X52.050 Y73.585 E8.93114
G1 X52.025 Y74.400 E9.00526
G1 X52.050 Y75.215 E9.07938
G1 X52.127 Y76.026 E9.15350
G1 X52.254 Y76.831 E9.22762
G1 X52.432 Y77.627 E9.30174
G1 X52.660 Y78.410 E9.37586
G1 X52.936 Y79.177 E9.44998
G1 X53.260 Y79.925 E9.52410
G1 X53.630 Y80.651 E9.59822
G1 X54.045 Y81.353 E9.67234
G1 X54.503 Y82.027 E9.74646
G1 X55.002 Y82.671 E9.82058
G1 X55.541 Y83.282 E9.89470
G1 X56.118 Y83.859 E9.96882
G1 X56.729 Y84.398 E10.04294
G1 X57.373 Y84.897 E10.11706
G1 X58.047 Y85.355 E10.19118
G1 X58.749 Y85.770 E10.26530
G1 X59.475 Y86.140 E10.33941
G1 X60.223 Y86.464 E10.41353
G1 X60.990 Y86.740 E10.48765
G1 X61.773 Y86.968 E10.56177
G1 X62.569 Y87.146 E10.63589
G1 X63.374 Y87.273 E10.71001
G1 X64.185 Y87.350 E10.78413
G1 X64.989 Y87.375 E10.85721
G1 X65.814 Y87.350 E10.93233
G1 X66.626 Y87.273 E11.00649
G1 X67.431 Y87.146 E11.08061
G1 X68.227 Y86.968 E11.15473
G1 X69.010 Y86.740 E11.22885
G1 X69.766 Y86.468 E11.30193
G1 X70.524 Y86.141 E11.37705
G1 X71.251 Y85.770 E11.45121
G1 X71.953 Y85.355 E11.52532
G1 X72.627 Y84.897 E11.59944
G1 X73.271 Y84.398 E11.67356
G1 X73.874 Y83.866 E11.74664
G1 X74.458 Y83.283 E11.82176
G1 X74.998 Y82.671 E11.89592
G1 X75.497 Y82.027 E11.97004
G1 X75.955 Y81.353 E12.04416
G1 X76.370 Y80.651 E12.11828
G1 X76.740 Y79.925 E12.19240
G1 X77.064 Y79.177 E12.26652
G1 X77.340 Y78.410 E12.34064
G1 X77.568 Y77.627 E12.41476
G1 X77.746 Y76.831 E12.48888
G1 X77.873 Y76.026 E12.56300
G1 X77.950 Y75.215 E12.63712
G1 X77.975 Y74.400 E12.71124
G1 X77.950 Y73.585 E12.78536
G1 X77.873 Y72.774 E12.85948
G1 X77.746 Y71.969 E12.93360
G1 X77.568 Y71.173 E13.00772
G1 X77.340 Y70.390 E13.08184
G1 X77.064 Y69.623 E13.15596
G1 X76.740 Y68.875 E13.23007
G1 X76.370 Y68.149 E13.30419
G1 X75.955 Y67.447 E13.37831
G1 X75.497 Y66.773 E13.45243
G1 X74.998 Y66.129 E13.52655
G1 X74.459 Y65.518 E13.60067
G1 X73.975 Y65.034 E13.66288
G1 X73.975 Y51.375 E14.90490
G1 X76.825 Y51.375 E15.16407
G1 X76.825 Y66.474 E16.53706
G1 X77.466 Y67.549 E16.65082
G1 X77.871 Y68.343 E16.73191
G1 X78.226 Y69.164 E16.81316
G1 X78.528 Y70.004 E16.89442
G1 X78.778 Y70.862 E16.97567
G1 X78.973 Y71.735 E17.05693
G1 X79.112 Y72.617 E17.13819
G1 X79.197 Y73.507 E17.21944
G1 X79.255 Y75.375 E17.38939
G1 X89.225 Y75.375 E18.29594
G1 X89.225 Y88.425 E19.48259
G1 X69.175 Y88.425 E21.30575
G1 X69.175 Y88.095 E21.33574
G1 X68.550 Y88.815 F7800.000
G1 F1800
G1 X67.783 Y88.987 E21.40725
G1 X66.861 Y89.133 E21.49208
G1 X65.932 Y89.221 E21.57690
G1 X65.000 Y89.250 E21.66173
G1 X64.068 Y89.221 E21.74656
G1 X63.139 Y89.133 E21.83138
G1 X62.217 Y88.987 E21.91621
G1 X61.307 Y88.783 E22.00104
G1 X60.411 Y88.523 E22.08587
G1 X59.533 Y88.207 E22.17069
G1 X58.677 Y87.837 E22.25552
G1 X57.846 Y87.413 E22.34035
G1 X57.043 Y86.938 E22.42517
G1 X56.271 Y86.414 E22.51000
G1 X55.534 Y85.842 E22.59483
G1 X54.835 Y85.225 E22.67966
G1 X54.175 Y84.565 E22.76448
G1 X53.558 Y83.866 E22.84931
G1 X52.986 Y83.129 E22.93414
G1 X52.462 Y82.357 E23.01896
G1 X51.987 Y81.554 E23.10379
G1 X51.564 Y80.723 E23.18860
G1 X51.188 Y79.854 E23.27470
G1 X50.877 Y78.989 E23.35827
G1 X50.617 Y78.093 E23.44310
G1 X50.413 Y77.183 E23.52792
G1 X50.267 Y76.261 E23.61274
G1 X50.179 Y75.319 E23.69883
G1 X50.150 Y74.400 E23.78240
G1 X50.179 Y73.468 E23.86723
G1 X50.267 Y72.539 E23.95206
G1 X50.413 Y71.617 E24.03689
G1 X50.617 Y70.707 E24.12171
G1 X50.877 Y69.811 E24.20654
G1 X51.193 Y68.933 E24.29137
G1 X51.563 Y68.077 E24.37619
G1 X51.987 Y67.247 E24.46096
G1 X52.550 Y66.302 E24.56096
G1 X52.550 Y50.750 E25.97511
G1 X56.650 Y50.750 E26.34792
G1 X56.650 Y65.305 E27.67142
G1 X55.997 Y65.946 E27.75458
G1 X55.484 Y66.528 E27.82513
G1 X55.008 Y67.141 E27.89568
G1 X54.572 Y67.782 E27.96623
G1 X54.177 Y68.450 E28.03678
G1 X53.825 Y69.142 E28.10732
G1 X53.517 Y69.854 E28.17787
G1 X53.254 Y70.584 E28.24842
G1 X53.038 Y71.329 E28.31897
G1 X52.869 Y72.086 E28.38952
G1 X52.747 Y72.852 E28.46007
G1 X52.674 Y73.625 E28.53061
G1 X52.650 Y74.400 E28.60116
G1 X52.674 Y75.175 E28.67171
G1 X52.747 Y75.948 E28.74226
G1 X52.869 Y76.714 E28.81281
G1 X53.038 Y77.471 E28.88336
G1 X53.254 Y78.216 E28.95390
G1 X53.517 Y78.946 E29.02445
G1 X53.825 Y79.658 E29.09500
G1 X54.177 Y80.350 E29.16555
G1 X54.572 Y81.018 E29.23610
G1 X55.009 Y81.659 E29.30665
G1 X55.484 Y82.272 E29.37719
G1 X55.997 Y82.854 E29.44774
G1 X56.546 Y83.403 E29.51829
G1 X57.128 Y83.916 E29.58884
G1 X57.741 Y84.392 E29.65939
G1 X58.382 Y84.828 E29.72994
G1 X59.050 Y85.223 E29.80048
G1 X59.742 Y85.575 E29.87103
G1 X60.454 Y85.883 E29.94158
G1 X61.184 Y86.146 E30.01213
G1 X61.929 Y86.362 E30.08268
G1 X62.686 Y86.531 E30.15323
G1 X63.452 Y86.653 E30.22377
G1 X64.225 Y86.726 E30.29432
G1 X64.989 Y86.750 E30.36386
G1 X65.775 Y86.726 E30.43540
G1 X66.548 Y86.653 E30.50597
G1 X67.314 Y86.531 E30.57651
G1 X68.071 Y86.362 E30.64706
G1 X68.816 Y86.146 E30.71761
G1 X69.536 Y85.887 E30.78714
G1 X70.258 Y85.575 E30.85869
G1 X70.950 Y85.223 E30.92925
G1 X71.618 Y84.828 E30.99980
G1 X72.259 Y84.392 E31.07035
G1 X72.872 Y83.916 E31.14090
G1 X73.446 Y83.410 E31.21043
G1 X74.003 Y82.854 E31.28198
G1 X74.516 Y82.272 E31.35254
G1 X74.991 Y81.659 E31.42309
G1 X75.428 Y81.018 E31.49364
G1 X75.823 Y80.350 E31.56419
G1 X76.175 Y79.658 E31.63473
G1 X76.483 Y78.946 E31.70528
G1 X76.746 Y78.216 E31.77583
G1 X76.962 Y77.471 E31.84638
G1 X77.131 Y76.714 E31.91693
G1 X77.253 Y75.948 E31.98748
G1 X77.326 Y75.175 E32.05802
G1 X77.350 Y74.400 E32.12857
G1 X77.326 Y73.625 E32.19912
G1 X77.253 Y72.852 E32.26967
G1 X77.131 Y72.086 E32.34022
G1 X76.962 Y71.329 E32.41077
G1 X76.746 Y70.584 E32.48131
G1 X76.483 Y69.854 E32.55186
G1 X76.175 Y69.142 E32.62241
G1 X75.823 Y68.450 E32.69296
G1 X75.428 Y67.782 E32.76351
G1 X74.991 Y67.141 E32.83406
G1 X74.516 Y66.528 E32.90460
G1 X74.003 Y65.946 E32.97515
G1 X73.350 Y65.305 E33.05832
G1 X73.350 Y50.750 E34.38182
G1 X77.450 Y50.750 E34.75463
G1 X77.450 Y66.302 E36.16878
G1 X78.013 Y67.247 E36.26877
G1 X78.437 Y68.077 E36.35354
G1 X78.807 Y68.933 E36.43837
G1 X79.123 Y69.811 E36.52320
G1 X79.383 Y70.707 E36.60802
G1 X79.587 Y71.617 E36.69285
G1 X79.733 Y72.539 E36.77768
G1 X79.821 Y73.468 E36.86250
G1 X79.861 Y74.750 E36.97917
G1 X89.850 Y74.750 E37.88748
G1 X89.850 Y89.050 E39.18778
G1 X68.550 Y89.050 E41.12458
G1 X68.550 Y88.875 E41.14047
G1 X68.303 Y88.501 F7800.000
G1 E39.14047 F2400.00000
G92 E0
G1 X70.112 Y87.432 F7800.000
G1 E2.00000 F2400.00000
G1 F1800
G1 X71.532 Y87.115 E2.09570
G1 E0.09570 F2400.00000
G92 E0
G1 X69.487 Y86.914 F7800.000
G1 E2.00000 F2400.00000
G1 F1800
G1 X69.151 Y87.375 E2.04676
G1 X68.373 Y87.575 E2.11247
G1 X67.548 Y87.759 E2.18158
G1 X66.705 Y87.893 E2.25149
G1 X65.854 Y87.973 E2.32140
G1 X65.000 Y88.000 E2.39131
G1 X64.156 Y87.973 E2.46041
G1 X63.295 Y87.893 E2.53112
G1 X62.442 Y87.757 E2.60183
G1 X61.618 Y87.573 E2.67094
G1 X60.807 Y87.337 E2.74005
G1 X59.994 Y87.045 E2.81076
G1 X59.201 Y86.701 E2.88147
G1 X58.448 Y86.318 E2.95057
G1 X57.721 Y85.888 E3.01968
G1 X57.006 Y85.403 E3.09039
G1 X56.331 Y84.879 E3.16030
G1 X55.683 Y84.307 E3.23101
G1 X55.086 Y83.710 E3.30012
G1 X54.527 Y83.076 E3.36922
G1 X54.003 Y82.402 E3.43913
G1 X53.517 Y81.687 E3.50984
G1 X53.078 Y80.943 E3.58055
G1 X52.690 Y80.182 E3.65046
G1 X52.352 Y79.397 E3.72036
G1 X52.066 Y78.603 E3.78947
G1 X51.827 Y77.782 E3.85938
G1 X51.639 Y76.939 E3.93009
G1 X51.506 Y76.095 E4.00000
G1 X51.427 Y75.244 E4.06990
G1 X51.400 Y74.400 E4.13901
G1 X51.428 Y73.536 E4.20972
G1 X51.507 Y72.695 E4.27883
G1 X51.639 Y71.861 E4.34794
G1 X51.827 Y71.018 E4.41865
G1 X52.066 Y70.197 E4.48855
G1 X52.355 Y69.394 E4.55846
G1 X52.694 Y68.609 E4.62837
G1 X53.081 Y67.851 E4.69804
G1 X53.850 Y66.594 E4.81862
G1 X54.600 Y65.168 F7800.000
G1 F1800
G1 X54.600 Y52.312 E6.50308
G1 E4.50308 F2400.00000
G92 E0
G1 X75.400 Y52.312 F7800.000
G1 E2.00000 F2400.00000
G1 F1800
G1 X75.400 Y65.168 E3.68447
G1 X76.150 Y66.594 F7800.000
G1 F1800
G1 X76.919 Y67.851 E3.80224
G1 X77.306 Y68.609 E3.87029
G1 X77.645 Y69.394 E3.93858
G1 X77.934 Y70.197 E4.00686
G1 X78.175 Y71.027 E4.07593
G1 X78.359 Y71.852 E4.14343
G1 X78.491 Y72.686 E4.21093
G1 X78.573 Y73.546 E4.28000
G1 X78.600 Y74.410 E4.34907
G1 F1800
G1 X78.586 Y75.687 E4.46310
G1 X79.287 Y76.382 F7800.000
G1 F1800
G1 X78.801 Y76.868 E4.52576
G1 X78.731 Y77.309 E4.56642
G1 X78.583 Y77.971 E4.62830
G1 X80.172 Y76.382 E4.83315
G1 X81.058 Y76.382 E4.91384
G1 X78.222 Y79.217 E5.27923
G1 X77.984 Y79.880 E5.34341
G1 X77.632 Y80.693 E5.42418
G1 X81.943 Y76.382 E5.97979
G1 X82.829 Y76.382 E6.06048
G1 X76.879 Y82.332 E6.82719
G1 X76.204 Y83.225 E6.92919
G1 X75.612 Y83.896 E7.01072
G1 X74.972 Y84.535 E7.09315
G1 X74.311 Y85.118 E7.17348
G1 X73.418 Y85.793 E7.27548
G1 X71.915 Y87.295 E7.46906
G1 X71.943 Y87.418 E7.48056
G1 X72.678 Y87.418 E7.54752
G1 X83.715 Y76.382 E8.96971
G1 X84.600 Y76.382 E9.05040
G1 X73.563 Y87.418 E10.47259
G1 X74.449 Y87.418 E10.55328
G1 X85.486 Y76.382 E11.97547
G1 X86.371 Y76.382 E12.05616
G1 X75.334 Y87.418 E13.47835
G1 X76.220 Y87.418 E13.55904
G1 X87.257 Y76.382 E14.98123
G1 X88.142 Y76.382 E15.06192
G1 X77.106 Y87.418 E16.48411
G1 X77.991 Y87.418 E16.56480
G1 X88.218 Y77.191 E17.88268
G1 X88.218 Y78.077 E17.96337
G1 X78.877 Y87.418 E19.16714
G1 X79.762 Y87.418 E19.24783
G1 X88.218 Y78.962 E20.33748
G1 X88.218 Y79.848 E20.41817
G1 X80.648 Y87.418 E21.39372
G1 X81.533 Y87.418 E21.47441
G1 X88.218 Y80.733 E22.33584
G1 X88.218 Y81.619 E22.41653
G1 X82.419 Y87.418 E23.16385
G1 X83.304 Y87.418 E23.24454
G1 X88.218 Y82.504 E23.87775
G1 X88.218 Y83.390 E23.95844
G1 X84.190 Y87.418 E24.47753
G1 X85.076 Y87.418 E24.55822
G1 X88.218 Y84.276 E24.96321
G1 X88.218 Y85.161 E25.04390
G1 X85.961 Y87.418 E25.33477
G1 X86.847 Y87.418 E25.41546
G1 X88.218 Y86.047 E25.59222
G1 X88.218 Y86.932 E25.67291
G1 X87.732 Y87.418 E25.73556
G1 Z0.350 F7800.000
M104 S200 ; set temperature
G1 Z0.600 F7800.000
G1 E23.73556 F2400.00000
G92 E0
G1 X91.700 Y89.609 F7800.000
G1 E2.00000 F2400.00000
G1 F3600
G1 X91.700 Y79.321 E2.41315
G1 X90.860 Y79.321 E2.44689
G1 X90.860 Y89.609 E2.86004
G1 X91.700 Y89.609 E2.89377
G1 E0.89377 F2400.00000
G92 E0
G1 X79.300 Y60.764 F7800.000
G1 E2.00000 F2400.00000
G1 F3600
G1 X79.300 Y54.836 E2.23808
G1 X78.460 Y54.836 E2.27182
G1 X78.460 Y60.764 E2.50990
G1 X79.300 Y60.764 E2.54363
G1 E0.54363 F2400.00000
G92 E0
G1 X72.340 Y55.456 F7800.000
G1 E2.00000 F2400.00000
G1 F3600
G1 X72.340 Y54.836 E2.02490
G1 X71.500 Y54.836 E2.05863
G1 X71.500 Y56.896 E2.14135
G1 X72.340 Y56.896 E2.17508
G1 X72.340 Y55.456 E2.23291
G1 E0.23291 F2400.00000
G92 E0
G1 X58.500 Y60.764 F7800.000
G1 E2.00000 F2400.00000
G1 F3600
G1 X58.500 Y54.836 E2.23808
G1 X57.660 Y54.836 E2.27182
G1 X57.660 Y60.764 E2.50990
G1 X58.500 Y60.764 E2.54363
G1 E0.54363 F2400.00000
G92 E0
G1 X51.540 Y55.456 F7800.000
G1 E2.00000 F2400.00000
G1 F3600
G1 X51.540 Y54.836 E2.02490
G1 X50.700 Y54.836 E2.05863
G1 X50.700 Y56.896 E2.14135
G1 X51.540 Y56.896 E2.17508
G1 X51.540 Y55.456 E2.23291
G1 Z0.650 F7800.000
G1 E0.23291 F2400.00000
G92 E0
G1 X69.236 Y87.959 F7800.000
G1 E2.00000 F2400.00000
G1 F3600
G1 X67.654 Y88.312 E2.08470
