; generated by Slic3r 1.3.0 on 2022-07-01 at 19:01:38

; external perimeters extrusion width = 0.44mm (3.38mm^3/s)
; perimeters extrusion width = 0.48mm (7.54mm^3/s)
; infill extrusion width = 0.48mm (10.05mm^3/s)
; solid infill extrusion width = 0.48mm (2.51mm^3/s)
; top infill extrusion width = 0.48mm (1.88mm^3/s)
; support material extrusion width = 0.44mm (6.76mm^3/s)

M107
M104 S205 ; set temperature
G28 ; home all axes
G1 Z5 F5000 ; lift nozzle

; Filament gcode

M109 S205 ; set temperature and wait for it to be reached
G21 ; set units to millimeters
G90 ; use absolute coordinates
M82 ; use absolute distances for extrusion
G92 E0
G1 Z0.350 F7800.000
G1 E-2.00000 F2400.00000
G92 E0
G1 X57.704 Y45.534 F7800.000
G1 E2.00000 F2400.00000
G1 F1800
G1 X59.632 Y44.293 E2.20854
G1 X62.200 Y43.775 E2.44673
G1 X87.800 Y43.775 E4.77453
G1 X90.059 Y44.172 E4.98307
G1 X92.047 Y45.315 E5.19161
G1 X93.526 Y47.068 E5.40016
G1 X94.390 Y49.720 E5.65375
G1 X96.670 Y71.815 E7.67350
G1 X96.792 Y73.238 E7.80333
G1 X96.822 Y74.608 E7.92799
G1 X96.765 Y75.978 E8.05265
G1 X96.623 Y77.341 E8.17731
G1 X96.474 Y78.286 E8.26424
G1 X96.188 Y79.625 E8.38879
G1 X95.818 Y80.945 E8.51345
G1 X95.366 Y82.240 E8.63811
G1 X94.833 Y83.503 E8.76281
G1 X94.223 Y84.730 E8.88742
G1 X94.022 Y85.095 E8.92527
G1 X93.313 Y86.268 E9.04993
G1 X92.776 Y87.058 E9.13675
G1 X91.947 Y88.149 E9.26141
G1 X91.050 Y89.186 E9.38609
G1 X90.090 Y90.165 E9.51073
G1 X89.070 Y91.081 E9.63539
G1 X87.995 Y91.932 E9.76004
G1 X87.647 Y92.184 E9.79908
G1 X86.517 Y92.936 E9.92255
G1 X85.330 Y93.623 E10.04721
G1 X84.091 Y94.239 E10.17304
G1 X82.840 Y94.766 E10.29652
G1 X81.941 Y95.089 E10.38335
G1 X80.628 Y95.484 E10.50800
G1 X79.293 Y95.796 E10.63266
G1 X77.941 Y96.023 E10.75732
G1 X76.578 Y96.165 E10.88198
G1 X74.947 Y96.225 E11.03033
G1 X49.747 Y96.025 E13.32183
G1 X47.492 Y95.610 E13.53037
G1 X45.513 Y94.451 E13.73891
G1 X44.048 Y92.686 E13.94746
G1 X43.175 Y89.400 E14.25663
G1 X43.175 Y74.400 E15.62057
G1 X43.914 Y71.359 E15.90514
G1 X56.314 Y47.359 E18.36151
G1 X57.667 Y45.582 E18.56460
G1 E16.56460 F2400.00000
G92 E0
G1 X70.200 Y87.800 F7800.000
G1 E2.00000 F2400.00000
G1 F1800
G1 X51.400 Y87.800 E3.70952
G1 X51.400 Y76.000 E4.78253
G1 X61.490 Y76.000 E5.70003
G1 X61.640 Y76.948 E5.78737
G1 X61.824 Y77.771 E5.86400
G1 X62.065 Y78.602 E5.94269
G1 X62.355 Y79.407 E6.02045
G1 X62.689 Y80.180 E6.09707
G1 X63.081 Y80.951 E6.17576
G1 X63.517 Y81.688 E6.25352
G1 X63.997 Y82.394 E6.33121
G1 X64.521 Y83.069 E6.40890
G1 X65.086 Y83.710 E6.48659
G1 X65.690 Y84.314 E6.56428
G1 X66.331 Y84.880 E6.64204
G1 X67.015 Y85.410 E6.72073
G1 X67.712 Y85.883 E6.79735
G1 X68.448 Y86.318 E6.87504
G1 X69.209 Y86.706 E6.95273
G1 X70.200 Y87.120 E7.05039
G1 X70.200 Y87.740 E7.10679
G1 E5.10679 F2400.00000
G92 E0
G1 X64.053 Y66.333 F7800.000
G1 E2.00000 F2400.00000
G1 F1800
G1 X63.800 Y66.246 E2.02436
G1 X63.800 Y52.000 E3.31980
G1 X65.400 Y52.000 E3.46533
G1 X65.400 Y64.775 E4.62699
G1 X65.086 Y65.090 E4.66744
G1 X64.521 Y65.731 E4.74513
G1 X64.090 Y66.286 E4.80901
G1 E2.80901 F2400.00000
G92 E0
G1 X85.947 Y66.333 F7800.000
G1 E2.00000 F2400.00000
G1 F1800
G1 X85.479 Y65.731 E2.06933
G1 X84.914 Y65.090 E2.14702
G1 X84.600 Y64.775 E2.18748
G1 X84.600 Y52.000 E3.34914
G1 X86.200 Y52.000 E3.49467
G1 X86.200 Y66.246 E4.79010
G1 X86.004 Y66.314 E4.80901
G1 E2.80901 F2400.00000
G92 E0
G1 X70.825 Y88.035 F7800.000
G1 E2.00000 F2400.00000
G1 F1800
G1 X70.825 Y88.425 E2.03545
G1 X50.775 Y88.425 E3.85861
G1 X50.775 Y75.375 E5.04526
G1 X60.745 Y75.375 E5.95181
G1 X60.803 Y73.507 E6.12176
G1 X60.888 Y72.617 E6.20301
G1 X61.027 Y71.735 E6.28427
G1 X61.219 Y70.876 E6.36430
G1 X61.472 Y70.004 E6.44682
G1 X61.774 Y69.164 E6.52804
G1 X62.129 Y68.343 E6.60929
G1 X62.534 Y67.549 E6.69038
G1 X63.175 Y66.474 E6.80414
G1 X63.175 Y51.375 E8.17713
G1 X66.025 Y51.375 E8.43630
G1 X66.025 Y65.034 E9.67832
G1 X65.541 Y65.518 E9.74053
G1 X65.002 Y66.129 E9.81465
G1 X64.503 Y66.773 E9.88877
G1 X64.045 Y67.447 E9.96288
G1 X63.635 Y68.139 E10.03596
G1 X63.260 Y68.875 E10.11108
G1 X62.936 Y69.623 E10.18524
G1 X62.676 Y70.345 E10.25501
G1 X62.433 Y71.171 E10.33331
G1 X62.254 Y71.969 E10.40759
G1 X62.127 Y72.774 E10.48171
G1 X62.050 Y73.585 E10.55583
G1 X62.025 Y74.400 E10.62995
G1 X62.050 Y75.215 E10.70407
G1 X62.127 Y76.026 E10.77819
G1 X62.254 Y76.831 E10.85231
G1 X62.430 Y77.616 E10.92539
G1 X62.660 Y78.409 E11.00051
G1 X62.936 Y79.177 E11.07467
G1 X63.255 Y79.914 E11.14775
G1 X63.629 Y80.651 E11.22287
G1 X64.045 Y81.353 E11.29702
G1 X64.503 Y82.027 E11.37114
G1 X65.002 Y82.671 E11.44526
G1 X65.541 Y83.282 E11.51938
G1 X66.118 Y83.859 E11.59350
G1 X66.730 Y84.398 E11.66766
G1 X67.383 Y84.904 E11.74278
G1 X68.047 Y85.355 E11.81586
G1 X68.749 Y85.770 E11.88998
G1 X69.475 Y86.140 E11.96410
G1 X70.223 Y86.464 E12.03822
G1 X70.991 Y86.740 E12.11238
G1 X71.784 Y86.970 E12.18750
G1 X72.569 Y87.146 E12.26058
G1 X73.374 Y87.273 E12.33470
G1 X74.185 Y87.350 E12.40882
G1 X75.000 Y87.375 E12.48293
G1 X75.815 Y87.350 E12.55705
G1 X76.626 Y87.273 E12.63117
G1 X77.431 Y87.146 E12.70529
G1 X78.227 Y86.968 E12.77941
G1 X79.010 Y86.740 E12.85353
G1 X79.777 Y86.464 E12.92765
G1 X80.525 Y86.140 E13.00177
G1 X81.251 Y85.770 E13.07589
G1 X81.953 Y85.355 E13.15001
G1 X82.627 Y84.897 E13.22413
G1 X83.271 Y84.398 E13.29825
G1 X83.882 Y83.859 E13.37237
G1 X84.459 Y83.282 E13.44649
G1 X84.998 Y82.671 E13.52061
G1 X85.497 Y82.027 E13.59473
G1 X85.955 Y81.353 E13.66885
G1 X86.370 Y80.651 E13.74297
G1 X86.740 Y79.925 E13.81709
G1 X87.064 Y79.177 E13.89121
G1 X87.340 Y78.410 E13.96533
G1 X87.568 Y77.627 E14.03945
G1 X87.746 Y76.831 E14.11357
G1 X87.873 Y76.026 E14.18769
G1 X87.950 Y75.215 E14.26181
G1 X87.975 Y74.400 E14.33593
G1 X87.950 Y73.585 E14.41005
G1 X87.873 Y72.774 E14.48417
G1 X87.746 Y71.969 E14.55828
G1 X87.570 Y71.184 E14.63137
G1 X87.340 Y70.391 E14.70648
G1 X87.064 Y69.623 E14.78064
G1 X86.740 Y68.875 E14.85476
G1 X86.370 Y68.149 E14.92888
G1 X85.955 Y67.447 E15.00300
G1 X85.497 Y66.773 E15.07712
G1 X84.998 Y66.129 E15.15124
G1 X84.459 Y65.518 E15.22536
G1 X83.975 Y65.034 E15.28757
G1 X83.975 Y51.375 E16.52958
G1 X86.825 Y51.375 E16.78875
G1 X86.825 Y66.474 E18.16174
G1 X87.466 Y67.549 E18.27550
G1 X87.871 Y68.343 E18.35659
G1 X88.226 Y69.164 E18.43785
G1 X88.528 Y70.004 E18.51911
G1 X88.778 Y70.862 E18.60036
G1 X88.973 Y71.735 E18.68162
G1 X89.112 Y72.617 E18.76287
G1 X89.197 Y73.507 E18.84413
G1 X89.225 Y74.400 E18.92539
G1 X89.197 Y75.293 E19.00664
G1 X89.112 Y76.183 E19.08790
G1 X88.975 Y77.052 E19.16793
G1 X88.778 Y77.938 E19.25045
G1 X88.528 Y78.796 E19.33166
G1 X88.226 Y79.636 E19.41292
G1 X87.871 Y80.457 E19.49417
G1 X87.465 Y81.253 E19.57543
G1 X87.010 Y82.022 E19.65669
G1 X86.508 Y82.761 E19.73794
G1 X85.960 Y83.467 E19.81920
G1 X85.369 Y84.137 E19.90045
G1 X84.737 Y84.769 E19.98171
G1 X84.067 Y85.360 E20.06296
G1 X83.361 Y85.908 E20.14422
G1 X82.622 Y86.410 E20.22548
G1 X81.853 Y86.865 E20.30673
G1 X81.057 Y87.271 E20.38799
G1 X80.236 Y87.626 E20.46924
G1 X79.396 Y87.928 E20.55050
G1 X78.538 Y88.178 E20.63176
G1 X77.666 Y88.373 E20.71297
G1 X76.769 Y88.514 E20.79549
G1 X75.893 Y88.597 E20.87552
G1 X75.000 Y88.625 E20.95678
G1 X74.107 Y88.597 E21.03803
G1 X73.217 Y88.512 E21.11929
G1 X72.335 Y88.373 E21.20054
G1 X70.884 Y88.048 E21.33573
G1 X71.450 Y88.815 F7800.000
G1 F1800
G1 X71.450 Y89.050 E21.35708
G1 X50.150 Y89.050 E23.29388
G1 X50.150 Y74.750 E24.59417
G1 X60.139 Y74.750 E25.50248
G1 X60.179 Y73.468 E25.61915
G1 X60.267 Y72.539 E25.70398
G1 X60.413 Y71.617 E25.78880
G1 X60.614 Y70.720 E25.87238
G1 X60.877 Y69.811 E25.95847
G1 X61.193 Y68.933 E26.04328
G1 X61.563 Y68.077 E26.12811
G1 X61.987 Y67.247 E26.21288
G1 X62.550 Y66.302 E26.31287
G1 X62.550 Y50.750 E27.72702
G1 X66.650 Y50.750 E28.09983
G1 X66.650 Y65.305 E29.42333
G1 X65.997 Y65.946 E29.50650
G1 X65.484 Y66.528 E29.57705
G1 X65.009 Y67.141 E29.64759
G1 X64.572 Y67.782 E29.71814
G1 X64.183 Y68.441 E29.78768
G1 X63.825 Y69.141 E29.85922
G1 X63.517 Y69.854 E29.92979
G1 X63.270 Y70.540 E29.99609
G1 X63.038 Y71.328 E30.07082
G1 X62.869 Y72.086 E30.14142
G1 X62.747 Y72.852 E30.21197
G1 X62.674 Y73.625 E30.28252
G1 X62.650 Y74.400 E30.35307
G1 X62.674 Y75.175 E30.42362
G1 X62.747 Y75.948 E30.49416
G1 X62.869 Y76.714 E30.56471
G1 X63.035 Y77.460 E30.63425
G1 X63.254 Y78.216 E30.70579
G1 X63.517 Y78.946 E30.77636
G1 X63.821 Y79.648 E30.84589
G1 X64.177 Y80.350 E30.91744
G1 X64.572 Y81.018 E30.98800
G1 X65.009 Y81.659 E31.05855
G1 X65.484 Y82.272 E31.12910
G1 X65.997 Y82.854 E31.19964
G1 X66.546 Y83.403 E31.27019
G1 X67.128 Y83.916 E31.34075
G1 X67.750 Y84.398 E31.41230
G1 X68.382 Y84.828 E31.48184
G1 X69.050 Y85.223 E31.55238
G1 X69.742 Y85.575 E31.62293
G1 X70.454 Y85.883 E31.69348
G1 X71.184 Y86.146 E31.76404
G1 X71.940 Y86.365 E31.83559
G1 X72.686 Y86.531 E31.90512
G1 X73.452 Y86.653 E31.97567
G1 X74.225 Y86.726 E32.04622
G1 X75.000 Y86.750 E32.11677
G1 X75.775 Y86.726 E32.18732
G1 X76.548 Y86.653 E32.25786
G1 X77.314 Y86.531 E32.32841
G1 X78.071 Y86.362 E32.39896
G1 X78.816 Y86.146 E32.46951
G1 X79.546 Y85.883 E32.54006
G1 X80.258 Y85.575 E32.61061
G1 X80.950 Y85.223 E32.68115
G1 X81.618 Y84.828 E32.75170
G1 X82.259 Y84.392 E32.82225
G1 X82.872 Y83.916 E32.89280
G1 X83.454 Y83.403 E32.96335
G1 X84.003 Y82.854 E33.03390
G1 X84.516 Y82.272 E33.10444
G1 X84.991 Y81.659 E33.17499
G1 X85.428 Y81.018 E33.24554
G1 X85.823 Y80.350 E33.31609
G1 X86.175 Y79.658 E33.38664
G1 X86.483 Y78.946 E33.45719
G1 X86.746 Y78.216 E33.52773
G1 X86.962 Y77.471 E33.59828
G1 X87.131 Y76.714 E33.66883
G1 X87.253 Y75.948 E33.73938
G1 X87.326 Y75.175 E33.80993
G1 X87.350 Y74.400 E33.88048
G1 X87.326 Y73.625 E33.95102
G1 X87.253 Y72.852 E34.02157
G1 X87.131 Y72.086 E34.09212
G1 X86.965 Y71.340 E34.16165
G1 X86.746 Y70.584 E34.23320
G1 X86.483 Y69.854 E34.30376
G1 X86.175 Y69.142 E34.37431
G1 X85.823 Y68.450 E34.44486
G1 X85.428 Y67.782 E34.51541
G1 X84.991 Y67.141 E34.58596
G1 X84.516 Y66.528 E34.65650
G1 X84.003 Y65.946 E34.72705
G1 X83.350 Y65.305 E34.81022
G1 X83.350 Y50.750 E36.13372
G1 X87.450 Y50.750 E36.50653
G1 X87.450 Y66.302 E37.92068
G1 X88.013 Y67.247 E38.02067
G1 X88.437 Y68.077 E38.10544
G1 X88.807 Y68.933 E38.19027
G1 X89.123 Y69.811 E38.27510
G1 X89.383 Y70.707 E38.35992
G1 X89.587 Y71.617 E38.44475
G1 X89.733 Y72.539 E38.52958
G1 X89.821 Y73.468 E38.61441
G1 X89.850 Y74.400 E38.69923
G1 X89.821 Y75.332 E38.78406
G1 X89.733 Y76.261 E38.86889
G1 X89.589 Y77.169 E38.95246
G1 X89.383 Y78.093 E39.03855
G1 X89.123 Y78.989 E39.12337
G1 X88.807 Y79.867 E39.20819
G1 X88.437 Y80.723 E39.29302
G1 X88.013 Y81.554 E39.37785
G1 X87.538 Y82.357 E39.46268
G1 X87.014 Y83.129 E39.54750
G1 X86.442 Y83.866 E39.63233
G1 X85.825 Y84.565 E39.71716
G1 X85.165 Y85.225 E39.80198
G1 X84.466 Y85.842 E39.88681
G1 X83.729 Y86.414 E39.97164
G1 X82.957 Y86.938 E40.05647
G1 X82.154 Y87.413 E40.14129
G1 X81.323 Y87.837 E40.22612
G1 X80.467 Y88.207 E40.31095
G1 X79.589 Y88.523 E40.39577
G1 X78.693 Y88.783 E40.48060
G1 X77.783 Y88.987 E40.56541
G1 X76.847 Y89.134 E40.65150
G1 X75.932 Y89.221 E40.73508
G1 X75.000 Y89.250 E40.81991
G1 X74.068 Y89.221 E40.90473
G1 X73.139 Y89.133 E40.98956
G1 X72.217 Y88.987 E41.07439
G1 X71.509 Y88.828 E41.14044
G1 X71.216 Y88.801 F7800.000
G1 E39.14044 F2400.00000
G92 E0
G1 X69.888 Y87.432 F7800.000
G1 E2.00000 F2400.00000
G1 F1800
G1 X68.468 Y87.115 E2.09579
G1 X67.571 Y87.418 F7800.000
G1 F1800
G1 X68.057 Y86.932 E2.16005
G1 X68.157 Y86.485 E2.20283
G1 X67.804 Y86.277 E2.24113
G1 X66.663 Y87.418 E2.39201
G1 X65.754 Y87.418 E2.47689
G1 X67.254 Y85.919 E2.67507
G1 X66.722 Y85.542 E2.73595
G1 X64.846 Y87.418 E2.98395
G1 X63.938 Y87.418 E3.06883
G1 X66.211 Y85.146 E3.36922
G1 X65.726 Y84.722 E3.42937
G1 X63.029 Y87.418 E3.78574
G1 X62.121 Y87.418 E3.87062
G1 X65.259 Y84.281 E4.28528
G1 X64.809 Y83.822 E4.34531
G1 X61.213 Y87.418 E4.82056
G1 X60.305 Y87.418 E4.90544
G1 X64.383 Y83.340 E5.44448
G1 X63.980 Y82.835 E5.50487
G1 X59.396 Y87.418 E6.11062
G1 X58.488 Y87.418 E6.19550
G1 X63.594 Y82.312 E6.87032
G1 X63.227 Y81.771 E6.93143
G1 X57.580 Y87.418 E7.67778
G1 X56.672 Y87.418 E7.76266
G1 X62.889 Y81.201 E8.58444
G1 X62.573 Y80.609 E8.64715
G1 X55.763 Y87.418 E9.54712
G1 X54.855 Y87.418 E9.63200
G1 X62.277 Y79.996 E10.61292
G1 X62.004 Y79.361 E10.67756
G1 X53.947 Y87.418 E11.74248
G1 X53.039 Y87.418 E11.82736
G1 X61.764 Y78.693 E12.98055
G1 X61.552 Y77.996 E13.04860
G1 X52.130 Y87.418 E14.29386
G1 X51.782 Y87.418 E14.32644
G1 X51.782 Y86.859 E14.37874
G1 X61.369 Y77.271 E15.64591
G1 X61.220 Y76.512 E15.71819
G1 X51.782 Y85.951 E16.96562
G1 X51.782 Y85.042 E17.05051
G1 X60.442 Y76.382 E18.19513
G1 X59.534 Y76.382 E18.28002
G1 X51.782 Y84.134 E19.30460
G1 X51.782 Y83.226 E19.38949
G1 X58.626 Y76.382 E20.29403
G1 X57.717 Y76.382 E20.37891
G1 X51.782 Y82.317 E21.16342
G1 X51.782 Y81.409 E21.24830
G1 X56.809 Y76.382 E21.91276
G1 X55.901 Y76.382 E21.99765
G1 X51.782 Y80.501 E22.54207
G1 X51.782 Y79.593 E22.62695
G1 X54.993 Y76.382 E23.05133
G1 X54.084 Y76.382 E23.13622
G1 X51.782 Y78.684 E23.44056
G1 X51.782 Y77.776 E23.52544
G1 X53.176 Y76.382 E23.70974
G1 X52.268 Y76.382 E23.79462
G1 X51.782 Y76.868 E23.85886
G1 E21.85886 F2400.00000
G92 E0
G1 X61.414 Y75.687 F7800.000
G1 E2.00000 F2400.00000
G1 F1800
G1 X61.400 Y75.266 E2.03760
G1 F1800
G1 X61.400 Y74.410 E2.10768
G1 X61.427 Y73.546 E2.17839
G1 X61.506 Y72.705 E2.24750
G1 X61.641 Y71.852 E2.31821
G1 X61.831 Y71.005 E2.38920
G1 X62.067 Y70.197 E2.45808
G1 X62.352 Y69.403 E2.52712
G1 X62.694 Y68.609 E2.59783
G1 X63.093 Y67.830 E2.66949
G1 X63.850 Y66.594 E2.78807
G1 X64.600 Y65.168 F7800.000
G1 F1800
G1 X64.600 Y52.312 E4.47254
G1 E2.47254 F2400.00000
G92 E0
G1 X85.400 Y52.312 F7800.000
G1 E2.00000 F2400.00000
G1 F1800
G1 X85.400 Y65.168 E3.68447
G1 X86.150 Y66.594 F7800.000
G1 F1800
G1 X86.919 Y67.851 E3.80504
G1 X87.306 Y68.609 E3.87471
G1 X87.645 Y69.394 E3.94462
G1 X87.934 Y70.197 E4.01453
G1 X88.177 Y71.039 E4.08618
G1 X88.359 Y71.852 E4.15434
G1 X88.491 Y72.686 E4.22345
G1 X88.573 Y73.546 E4.29416
G1 X88.600 Y74.400 E4.36407
G1 X88.572 Y75.264 E4.43478
G1 X88.493 Y76.105 E4.50389
G1 X88.361 Y76.935 E4.57272
G1 X88.172 Y77.783 E4.64376
G1 X87.934 Y78.603 E4.71362
G1 X87.641 Y79.415 E4.78432
G1 X87.306 Y80.191 E4.85343
G1 X86.922 Y80.943 E4.92254
G1 X86.483 Y81.687 E4.99325
G1 X85.997 Y82.402 E5.06396
G1 X85.472 Y83.076 E5.13387
G1 X84.914 Y83.710 E5.20298
G1 X84.317 Y84.307 E5.27208
G1 X83.669 Y84.879 E5.34279
G1 X82.994 Y85.403 E5.41270
G1 X82.279 Y85.888 E5.48341
G1 X81.552 Y86.318 E5.55252
G1 X80.799 Y86.701 E5.62163
G1 X80.006 Y87.045 E5.69234
G1 X79.193 Y87.337 E5.76305
G1 X78.382 Y87.573 E5.83216
G1 X77.558 Y87.757 E5.90126
G1 X76.695 Y87.894 E5.97277
G1 X75.854 Y87.973 E6.04188
G1 X75.010 Y88.000 E6.11099
G1 X74.146 Y87.973 E6.18170
G1 X73.295 Y87.893 E6.25161
G1 X72.452 Y87.759 E6.32152
G1 X71.639 Y87.577 E6.38968
G1 X70.849 Y87.375 E6.45634
G1 X70.513 Y86.914 E6.50308
G1 Z0.350 F7800.000
M104 S200 ; set temperature
G1 Z0.600 F7800.000
G1 E4.50308 F2400.00000
G92 E0
G1 X49.140 Y86.896 F7800.000
G1 E2.00000 F2400.00000
G1 F3600
G1 X49.140 Y84.836 E2.08272
G1 X48.300 Y84.836 E2.11645
G1 X48.300 Y86.896 E2.19918
G1 X49.140 Y86.896 E2.23291
G1 E0.23291 F2400.00000
G92 E0
G1 X49.140 Y79.941 F7800.000
G1 E2.00000 F2400.00000
G1 F3600
G1 X49.140 Y79.321 E2.02490
G1 X48.300 Y79.321 E2.05863
G1 X48.300 Y82.363 E2.18078
G1 X49.140 Y82.363 E2.21452
G1 X49.140 Y79.941 E2.31178
G1 E0.31178 F2400.00000
G92 E0
G1 X68.500 Y56.896 F7800.000
G1 E2.00000 F2400.00000
G1 F3600
G1 X68.500 Y54.836 E2.08272
G1 X68.300 Y54.836 E2.09075
G1 X68.300 Y56.896 E2.17348
G1 X68.500 Y56.896 E2.18151
G1 E0.18151 F2400.00000
G92 E0
G1 X82.340 Y55.456 F7800.000
G1 E2.00000 F2400.00000
G1 F3600
G1 X82.340 Y54.836 E2.02490
G1 X81.500 Y54.836 E2.05863
G1 X81.500 Y60.764 E2.29671
G1 X82.340 Y60.764 E2.33044
G1 X82.340 Y55.456 E2.54363
G1 E0.54363 F2400.00000
G92 E0
G1 X89.300 Y60.764 F7800.000
G1 E2.00000 F2400.00000
G1 F3600
G1 X89.300 Y54.836 E2.23808
G1 X88.460 Y54.836 E2.27182
G1 X88.460 Y60.764 E2.50990
G1 X89.300 Y60.764 E2.54363
