; generated by Slic3r 1.3.0 on 2022-07-01 at 15:18:23

; external perimeters extrusion width = 0.44mm (3.38mm^3/s)
; perimeters extrusion width = 0.48mm (7.54mm^3/s)
; infill extrusion width = 0.48mm (10.05mm^3/s)
; solid infill extrusion width = 0.48mm (2.51mm^3/s)
; top infill extrusion width = 0.48mm (1.88mm^3/s)

M107
M104 S205 ; set temperature
G28 ; home all axes
G1 Z5 F5000 ; lift nozzle

; Filament gcode

M109 S205 ; set temperature and wait for it to be reached
G21 ; set units to millimeters
G90 ; use absolute coordinates
M82 ; use absolute distances for extrusion
G92 E0
G1 Z0.350 F7800.000
G1 E-2.00000 F2400.00000
G92 E0
G1 X55.434 Y45.773 F7800.000
G1 E2.00000 F2400.00000
G1 F1800
G1 X57.164 Y44.268 E2.20854
G1 X59.304 Y43.443 E2.41708
G1 X60.581 Y43.319 E2.53376
G1 X84.181 Y43.319 E4.67970
G1 X86.440 Y43.716 E4.88824
G1 X88.428 Y44.859 E5.09678
G1 X89.907 Y46.612 E5.30533
G1 X90.771 Y49.265 E5.55905
G1 X93.149 Y72.429 E7.67642
G1 X93.203 Y73.736 E7.79531
G1 X93.175 Y75.030 E7.91308
G1 X93.149 Y75.459 E7.95210
G1 X93.013 Y76.760 E8.07105
G1 X92.795 Y78.050 E8.19000
G1 X92.600 Y78.920 E8.27111
G1 X92.248 Y80.181 E8.39012
G1 X91.817 Y81.415 E8.50900
G1 X91.664 Y81.802 E8.54684
G1 X91.133 Y82.997 E8.66579
G1 X90.527 Y84.157 E8.78473
G1 X89.850 Y85.276 E8.90368
G1 X89.104 Y86.351 E9.02263
G1 X88.557 Y87.056 E9.10375
G1 X87.702 Y88.045 E9.22269
G1 X86.786 Y88.980 E9.34163
G1 X85.814 Y89.854 E9.46058
G1 X85.493 Y90.120 E9.49842
G1 X84.452 Y90.911 E9.61737
G1 X83.363 Y91.635 E9.73624
G1 X82.231 Y92.290 E9.85518
G1 X81.435 Y92.695 E9.93638
G1 X81.059 Y92.872 E9.97420
G1 X79.854 Y93.379 E10.09308
G1 X78.618 Y93.811 E10.21211
G1 X77.761 Y94.059 E10.29323
G1 X76.487 Y94.358 E10.41217
G1 X63.497 Y96.586 E11.61059
G1 X61.204 Y96.576 E11.81914
G1 X58.832 Y95.650 E12.05069
G1 X57.664 Y94.909 E12.17649
G1 X56.990 Y94.420 E12.25214
G1 X55.152 Y92.899 E12.46911
G1 X54.546 Y92.329 E12.54476
G1 X52.912 Y90.590 E12.76172
G1 X52.382 Y89.949 E12.83737
G1 X51.000 Y88.047 E13.05116
G1 X50.534 Y87.316 E13.12997
G1 X49.384 Y85.225 E13.34693
G1 X49.030 Y84.472 E13.42258
G1 X48.164 Y82.286 E13.63639
G1 X47.894 Y81.463 E13.71519
G1 X47.301 Y79.151 E13.93218
G1 X47.145 Y78.334 E14.00780
G1 X46.846 Y75.967 E14.22478
G1 X46.794 Y75.137 E14.30041
G1 X46.794 Y72.751 E14.51737
G1 X46.846 Y71.920 E14.59302
G1 X47.145 Y69.553 E14.80999
G1 X47.301 Y68.736 E14.88564
G1 X47.894 Y66.425 E15.10262
G1 X48.050 Y65.907 E15.15177
G1 X54.320 Y47.778 E16.89602
G1 X55.405 Y45.826 E17.09910
G1 E15.09910 F2400.00000
G92 E0
G1 X62.181 Y64.919 F7800.000
G1 E2.00000 F2400.00000
G1 F1800
G1 X62.181 Y51.544 E3.21626
G1 X62.781 Y51.544 E3.27086
G1 X62.781 Y64.319 E4.43252
G1 X62.223 Y64.877 E4.50427
G1 E2.50427 F2400.00000
G92 E0
G1 X61.556 Y60.720 F7800.000
G1 E2.00000 F2400.00000
G1 F1800
G1 X59.300 Y63.122 E2.29963
G1 X58.047 Y64.847 E2.49349
G1 X57.020 Y66.715 E2.68735
G1 X56.235 Y68.698 E2.88121
G1 X55.705 Y70.763 E3.07507
G1 X55.438 Y72.878 E3.26893
G1 X55.438 Y75.010 E3.46279
G1 X55.705 Y77.125 E3.65665
G1 X56.235 Y79.190 E3.85051
G1 X57.020 Y81.172 E4.04436
G1 X58.047 Y83.040 E4.23822
G1 X59.300 Y84.765 E4.43208
G1 X60.760 Y86.319 E4.62594
G1 X61.406 Y86.854 E4.70224
G1 X61.406 Y88.210 E4.82548
G1 X60.044 Y87.082 E4.98631
G1 X58.494 Y85.432 E5.19212
G1 X57.164 Y83.601 E5.39792
G1 X56.073 Y81.618 E5.60373
G1 X55.240 Y79.513 E5.80954
G1 X54.677 Y77.321 E6.01535
G1 X54.398 Y75.109 E6.21807
G1 X54.394 Y72.811 E6.42702
G1 X54.677 Y70.567 E6.63274
G1 X55.240 Y68.374 E6.83855
G1 X56.073 Y66.270 E7.04436
G1 X57.164 Y64.286 E7.25017
G1 X58.494 Y62.455 E7.45597
G1 X60.044 Y60.805 E7.66178
G1 X61.556 Y59.554 E7.84029
G1 X61.556 Y50.919 E8.62550
G1 X63.406 Y50.919 E8.79374
G1 X63.406 Y64.578 E10.03576
G1 X62.923 Y65.061 E10.09797
G1 X62.384 Y65.673 E10.17209
G1 X61.810 Y66.413 E10.25723
G1 X61.556 Y66.326 E10.28160
G1 X61.556 Y60.780 E10.78588
G1 E8.78588 F2400.00000
G92 E0
G1 X82.581 Y64.919 F7800.000
G1 E2.00000 F2400.00000
G1 F1800
G1 X81.981 Y64.319 E2.07721
G1 X81.981 Y51.544 E3.23887
G1 X82.581 Y51.544 E3.29347
G1 X82.581 Y64.859 E4.50427
G1 X82.953 Y66.413 F7800.000
G1 F1800
G1 X82.379 Y65.673 E4.58942
G1 X81.840 Y65.061 E4.66354
G1 X81.356 Y64.578 E4.72575
G1 X81.356 Y50.919 E5.96777
G1 X83.206 Y50.919 E6.13601
G1 X83.206 Y66.326 E7.53700
G1 X83.010 Y66.393 E7.55590
G1 E5.55590 F2400.00000
G92 E0
G1 X60.931 Y62.298 F7800.000
G1 E2.00000 F2400.00000
G1 F1800
G1 X59.783 Y63.521 E2.15255
G1 X58.576 Y65.183 E2.33926
G1 X57.587 Y66.982 E2.52596
G1 X56.831 Y68.891 E2.71267
G1 X56.320 Y70.880 E2.89938
G1 X56.063 Y72.917 E3.08609
G1 X56.063 Y74.970 E3.27280
G1 X56.320 Y77.008 E3.45951
G1 X56.831 Y78.996 E3.64622
G1 X57.587 Y80.906 E3.83293
G1 X58.576 Y82.705 E4.01964
G1 X59.783 Y84.366 E4.20635
G1 X61.188 Y85.863 E4.39306
G1 X62.031 Y86.560 E4.49252
G1 X62.031 Y89.420 E4.75253
G1 X61.419 Y89.031 E4.81842
G1 X59.615 Y87.539 E5.03137
G1 X58.012 Y85.831 E5.24433
G1 X56.635 Y83.937 E5.45729
G1 X55.507 Y81.884 E5.67024
G1 X54.645 Y79.707 E5.88320
G1 X54.062 Y77.438 E6.09616
G1 X53.773 Y75.149 E6.30598
G1 X53.769 Y72.772 E6.52208
G1 X54.062 Y70.449 E6.73500
G1 X54.645 Y68.181 E6.94796
G1 X55.507 Y66.003 E7.16092
G1 X56.635 Y63.951 E7.37388
G1 X58.012 Y62.056 E7.58683
G1 X59.615 Y60.349 E7.79979
G1 X60.931 Y59.260 E7.95513
G1 X60.931 Y50.294 E8.77043
G1 X64.031 Y50.294 E9.05231
G1 X64.031 Y64.849 E10.37581
G1 X63.378 Y65.489 E10.45898
G1 X62.865 Y66.071 E10.52953
G1 X62.390 Y66.684 E10.60007
G1 X61.954 Y67.326 E10.67062
G1 X61.564 Y67.984 E10.74016
G1 X61.207 Y68.685 E10.81170
G1 X60.898 Y69.397 E10.88227
G1 X60.636 Y70.127 E10.95281
G1 X60.419 Y70.872 E11.02336
G1 X60.250 Y71.630 E11.09391
G1 X60.128 Y72.396 E11.16446
G1 X60.055 Y73.168 E11.23501
G1 X60.031 Y73.944 E11.30556
G1 X60.055 Y74.719 E11.37610
G1 X60.128 Y75.492 E11.44665
G1 X60.250 Y76.258 E11.51720
G1 X60.419 Y77.015 E11.58775
G1 X60.636 Y77.760 E11.65830
G1 X60.898 Y78.490 E11.72885
G1 X61.202 Y79.192 E11.79838
G1 X61.559 Y79.893 E11.86993
G1 X61.954 Y80.561 E11.94049
G1 X62.383 Y81.194 E12.01002
G1 X62.865 Y81.816 E12.08157
G1 X63.378 Y82.398 E12.15213
G1 X63.927 Y82.947 E12.22268
G1 X64.509 Y83.460 E12.29323
G1 X65.122 Y83.935 E12.36378
G1 X65.764 Y84.371 E12.43432
G1 X66.432 Y84.766 E12.50487
G1 X67.123 Y85.119 E12.57542
G1 X67.835 Y85.427 E12.64597
G1 X68.565 Y85.690 E12.71653
G1 X69.321 Y85.908 E12.78808
G1 X70.067 Y86.075 E12.85761
G1 X70.833 Y86.197 E12.92816
G1 X71.606 Y86.270 E12.99871
G1 X72.381 Y86.294 E13.06926
G1 X73.157 Y86.270 E13.13981
G1 X73.929 Y86.197 E13.21035
G1 X74.695 Y86.075 E13.28090
G1 X75.453 Y85.906 E13.35145
G1 X76.198 Y85.689 E13.42200
G1 X76.928 Y85.427 E13.49255
G1 X77.640 Y85.119 E13.56310
G1 X78.331 Y84.766 E13.63364
G1 X78.999 Y84.371 E13.70419
G1 X79.641 Y83.935 E13.77474
G1 X80.254 Y83.460 E13.84529
G1 X80.836 Y82.947 E13.91584
G1 X81.384 Y82.398 E13.98639
G1 X81.897 Y81.816 E14.05693
G1 X82.373 Y81.203 E14.12748
G1 X82.809 Y80.561 E14.19803
G1 X83.204 Y79.893 E14.26858
G1 X83.556 Y79.202 E14.33913
G1 X83.864 Y78.490 E14.40968
G1 X84.127 Y77.760 E14.48022
G1 X84.343 Y77.015 E14.55077
G1 X84.513 Y76.258 E14.62132
G1 X84.634 Y75.492 E14.69187
G1 X84.707 Y74.719 E14.76242
G1 X84.731 Y73.944 E14.83296
G1 X84.707 Y73.168 E14.90351
G1 X84.634 Y72.396 E14.97406
G1 X84.513 Y71.630 E15.04461
G1 X84.343 Y70.872 E15.11516
G1 X84.127 Y70.127 E15.18571
G1 X83.864 Y69.397 E15.25625
G1 X83.556 Y68.685 E15.32680
G1 X83.204 Y67.994 E15.39735
G1 X82.809 Y67.326 E15.46790
G1 X82.373 Y66.684 E15.53845
G1 X81.897 Y66.071 E15.60900
G1 X81.384 Y65.489 E15.67954
G1 X80.731 Y64.849 E15.76271
G1 X80.731 Y50.294 E17.08621
G1 X83.831 Y50.294 E17.36809
G1 X83.831 Y66.164 E18.81116
G1 X84.075 Y66.523 E18.85060
G1 X84.518 Y67.272 E18.92971
G1 X84.913 Y68.047 E19.00883
G1 X85.258 Y68.845 E19.08794
G1 X85.553 Y69.664 E19.16706
G1 X85.796 Y70.499 E19.24617
G1 X85.986 Y71.349 E19.32529
G1 X86.122 Y72.208 E19.40440
G1 X86.204 Y73.074 E19.48352
G1 X86.231 Y73.931 E19.56146
G1 X86.204 Y74.814 E19.64176
G1 X86.122 Y75.680 E19.72086
G1 X85.986 Y76.539 E19.79997
G1 X85.796 Y77.388 E19.87909
G1 X85.553 Y78.224 E19.95820
G1 X85.258 Y79.042 E20.03732
G1 X84.913 Y79.841 E20.11643
G1 X84.518 Y80.616 E20.19555
G1 X84.075 Y81.365 E20.27466
G1 X83.586 Y82.084 E20.35378
G1 X83.053 Y82.772 E20.43289
G1 X82.477 Y83.425 E20.51201
G1 X81.862 Y84.040 E20.59112
G1 X81.209 Y84.615 E20.67024
G1 X80.522 Y85.148 E20.74935
G1 X79.802 Y85.637 E20.82845
G1 X79.042 Y86.086 E20.90875
G1 X78.278 Y86.475 E20.98669
G1 X77.480 Y86.821 E21.06581
G1 X76.661 Y87.116 E21.14492
G1 X75.826 Y87.358 E21.22404
G1 X74.976 Y87.548 E21.30315
G1 X74.117 Y87.684 E21.38227
G1 X73.251 Y87.766 E21.46138
G1 X72.381 Y87.794 E21.54050
G1 X71.512 Y87.766 E21.61961
G1 X70.645 Y87.684 E21.69873
G1 X69.786 Y87.548 E21.77783
G1 X68.925 Y87.355 E21.85812
G1 X68.101 Y87.116 E21.93607
G1 X67.283 Y86.821 E22.01518
G1 X66.484 Y86.475 E22.09430
G1 X65.709 Y86.080 E22.17341
G1 X64.960 Y85.638 E22.25253
G1 X64.241 Y85.148 E22.33164
G1 X63.553 Y84.615 E22.41076
G1 X62.900 Y84.040 E22.48987
G1 X62.285 Y83.425 E22.56899
G1 X61.710 Y82.772 E22.64810
G1 X61.177 Y82.084 E22.72722
G1 X60.687 Y81.365 E22.80633
G1 X60.245 Y80.616 E22.88545
G1 X59.855 Y79.852 E22.96339
G1 X59.504 Y79.042 E23.04369
G1 X59.209 Y78.224 E23.12279
G1 X58.967 Y77.388 E23.20190
G1 X58.780 Y76.551 E23.27985
G1 X58.641 Y75.679 E23.36015
G1 X58.559 Y74.813 E23.43925
G1 X58.531 Y73.944 E23.51836
G1 X58.559 Y73.074 E23.59748
G1 X58.641 Y72.208 E23.67659
G1 X58.777 Y71.349 E23.75571
G1 X58.967 Y70.499 E23.83482
G1 X59.206 Y69.676 E23.91277
G1 X59.504 Y68.845 E23.99306
G1 X59.850 Y68.047 E24.07216
G1 X60.245 Y67.272 E24.15128
G1 X60.687 Y66.523 E24.23039
G1 X60.931 Y66.164 E24.26983
G1 X60.931 Y62.358 E24.61586
G1 X60.731 Y61.952 F7800.000
G1 X60.695 Y60.911 F7800.000
G1 F1800
G1 X60.402 Y61.187 E24.63602
G1 X58.890 Y62.799 E24.74678
G1 X57.606 Y64.567 E24.85623
G1 X56.542 Y66.505 E24.96699
G1 X55.738 Y68.536 E25.07643
G1 X55.191 Y70.665 E25.18654
G1 X54.916 Y72.844 E25.29658
G1 X54.918 Y75.029 E25.40609
G1 X55.195 Y77.236 E25.51749
G1 X55.738 Y79.351 E25.62694
G1 X56.547 Y81.395 E25.73704
G1 X57.606 Y83.321 E25.84715
G1 X58.897 Y85.099 E25.95725
G1 X60.402 Y86.701 E26.06736
G1 X61.094 Y87.273 E26.11237
G1 E24.11237 F2400.00000
G92 E0
G1 X61.492 Y66.634 F7800.000
G1 E2.00000 F2400.00000
G1 F1800
G1 X60.902 Y67.633 E2.13484
G1 X60.528 Y68.366 E2.23051
G1 X60.201 Y69.121 E2.32613
G1 X59.919 Y69.908 E2.42331
G1 X59.693 Y70.686 E2.51752
G1 X59.513 Y71.489 E2.61319
G1 X59.385 Y72.302 E2.70886
G1 X59.307 Y73.121 E2.80454
G1 X59.281 Y73.944 E2.90021
G1 X59.307 Y74.766 E2.99588
G1 X59.385 Y75.585 E3.09149
G1 X59.516 Y76.411 E3.18867
G1 X59.697 Y77.215 E3.28448
G1 X59.923 Y77.992 E3.37856
G1 X60.197 Y78.753 E3.47263
G1 X60.530 Y79.523 E3.57013
G1 X60.902 Y80.255 E3.66556
G1 X61.321 Y80.963 E3.76123
G1 X61.783 Y81.644 E3.85690
G1 X62.288 Y82.294 E3.95257
G1 X62.832 Y82.911 E4.04824
G1 X63.414 Y83.493 E4.14392
G1 X64.031 Y84.037 E4.23959
G1 X64.681 Y84.542 E4.33526
G1 X65.374 Y85.011 E4.43252
G1 X66.083 Y85.430 E4.52819
G1 X66.804 Y85.797 E4.62227
G1 X67.546 Y86.118 E4.71634
G1 X68.333 Y86.402 E4.81361
G1 X69.111 Y86.628 E4.90782
G1 X69.927 Y86.812 E5.00500
G1 X70.739 Y86.940 E5.10061
G1 X71.559 Y87.018 E5.19628
G1 X72.381 Y87.044 E5.29196
G1 X73.204 Y87.018 E5.38763
G1 X74.023 Y86.940 E5.48330
G1 X74.836 Y86.812 E5.57897
G1 X75.652 Y86.628 E5.67623
G1 X76.429 Y86.402 E5.77031
G1 X77.216 Y86.118 E5.86757
G1 X77.959 Y85.797 E5.96165
G1 X78.680 Y85.430 E6.05572
G1 X79.389 Y85.011 E6.15139
G1 X80.081 Y84.542 E6.24866
G1 X80.731 Y84.037 E6.34433
G1 X81.349 Y83.493 E6.44000
G1 X81.931 Y82.911 E6.53567
G1 X82.475 Y82.294 E6.63134
G1 X82.979 Y81.644 E6.72701
G1 X83.442 Y80.963 E6.82268
G1 X83.861 Y80.255 E6.91835
G1 X84.234 Y79.521 E7.01402
G1 X84.566 Y78.753 E7.11129
G1 X84.844 Y77.979 E7.20696
G1 X85.070 Y77.202 E7.30103
G1 X85.246 Y76.412 E7.39511
G1 X85.378 Y75.586 E7.49237
G1 X85.455 Y74.767 E7.58798
G1 X85.481 Y73.931 E7.68517
G1 X85.455 Y73.121 E7.77938
G1 X85.378 Y72.302 E7.87505
G1 X85.249 Y71.489 E7.97072
G1 X85.070 Y70.686 E8.06639
G1 X84.840 Y69.896 E8.16207
G1 X84.561 Y69.121 E8.25774
G1 X84.234 Y68.366 E8.35341
G1 X83.861 Y67.633 E8.44908
G1 X83.270 Y66.634 E8.58392
G1 E6.58392 F2400.00000
G92 E0
G1 X61.869 Y59.809 F7800.000
G1 E2.00000 F2400.00000
G1 F1800
G1 X61.282 Y60.360 E2.01812
G1 F1800
G1 X60.695 Y60.911 E2.04735
M104 S200 ; set temperature
G1 Z0.650 F7800.000
G1 X61.617 Y60.566 F7800.000
G1 F3600
G1 X59.253 Y63.083 E2.22779
G1 X57.995 Y64.814 E2.33957
G1 X56.965 Y66.689 E2.45136
G1 X56.177 Y68.679 E2.56315
G1 X55.645 Y70.751 E2.67493
G1 X55.377 Y72.874 E2.78672
G1 X55.377 Y75.014 E2.89851
G1 X55.645 Y77.136 E3.01030
G1 X56.177 Y79.209 E3.12208
G1 X56.965 Y81.198 E3.23387
G1 X57.995 Y83.073 E3.34566
G1 X59.253 Y84.804 E3.45744
G1 X60.718 Y86.364 E3.56923
G1 X61.345 Y86.883 E3.61177
G1 X61.345 Y88.079 E3.67427
G1 X60.086 Y87.037 E3.75968
G1 X58.541 Y85.393 E3.87752
G1 X57.216 Y83.568 E3.99537
G1 X56.129 Y81.592 E4.11322
G1 X55.299 Y79.494 E4.23106
G1 X54.738 Y77.309 E4.34891
G1 X54.467 Y75.168 E4.46170
G1 X54.455 Y72.813 E4.58470
G1 X54.738 Y70.578 E4.70241
G1 X55.299 Y68.393 E4.82026
G1 X56.129 Y66.296 E4.93811
G1 X57.216 Y64.319 E5.05595
G1 X58.541 Y62.494 E5.17380
G1 X60.086 Y60.850 E5.29165
G1 X61.617 Y59.583 E5.39552
G1 X61.617 Y50.980 E5.84498
G1 X63.345 Y50.980 E5.93524
G1 X63.345 Y64.552 E6.64434
G1 X62.878 Y65.020 E6.67886
G1 X62.336 Y65.634 E6.72164
G1 X61.787 Y66.342 E6.76845
G1 X61.617 Y66.284 E6.77783
G1 X61.617 Y60.626 E7.07343
G1 E5.07343 F2400.00000
G92 E0
G1 X81.417 Y50.980 F7800.000
G1 E2.00000 F2400.00000
G1 F900
G1 X83.145 Y50.980 E2.09027
G1 X83.145 Y66.284 E2.88980
G1 X82.975 Y66.342 E2.89919
G1 X82.426 Y65.634 E2.94599
G1 X81.885 Y65.020 E2.98878
G1 X81.417 Y64.552 E3.02329
G1 X81.417 Y51.040 E3.72925
G1 E1.72925 F2400.00000
G92 E0
G1 X61.199 Y61.623 F7800.000
G1 E2.00000 F2400.00000
G1 F3600
G1 X59.577 Y63.351 E2.12379
G1 X58.350 Y65.039 E2.23282
G1 X57.344 Y66.868 E2.34186
G1 X56.576 Y68.808 E2.45089
G1 X56.057 Y70.830 E2.55992
G1 X55.796 Y72.900 E2.66896
G1 X55.796 Y74.987 E2.77799
G1 X56.057 Y77.058 E2.88702
G1 X56.576 Y79.079 E2.99606
G1 X57.344 Y81.020 E3.10509
G1 X58.350 Y82.848 E3.21412
G1 X59.577 Y84.537 E3.32316
G1 X61.005 Y86.058 E3.43219
G1 X61.764 Y86.686 E3.48365
G1 X61.764 Y88.970 E3.60296
G1 X59.798 Y87.343 E3.73625
G1 X58.218 Y85.661 E3.85685
G1 X56.861 Y83.793 E3.97745
G1 X55.749 Y81.770 E4.09805
G1 X54.899 Y79.624 E4.21865
G1 X54.325 Y77.388 E4.33925
G1 X54.048 Y75.195 E4.45474
G1 X54.036 Y72.788 E4.58049
G1 X54.325 Y70.499 E4.70101
G1 X54.899 Y68.264 E4.82161
G1 X55.749 Y66.117 E4.94221
G1 X56.861 Y64.094 E5.06281
G1 X58.218 Y62.227 E5.18341
G1 X59.798 Y60.544 E5.30401
G1 X61.199 Y59.386 E5.39896
G1 X61.199 Y50.561 E5.86001
G1 X63.764 Y50.561 E5.99405
G1 X63.764 Y64.726 E6.73409
G1 X63.183 Y65.306 E6.77698
G1 X62.659 Y65.901 E6.81840
G1 X62.173 Y66.527 E6.85981
G1 X61.728 Y67.183 E6.90122
G1 X61.341 Y67.837 E6.94095
G1 X60.965 Y68.571 E6.98400
G1 X60.650 Y69.299 E7.02545
G1 X60.392 Y70.014 E7.06518
G1 X60.160 Y70.805 E7.10823
G1 X59.987 Y71.579 E7.14969
G1 X59.863 Y72.362 E7.19110
G1 X59.789 Y73.151 E7.23251
G1 X59.764 Y73.944 E7.27392
G1 X59.789 Y74.736 E7.31533
G1 X59.863 Y75.525 E7.35675
G1 X59.987 Y76.308 E7.39816
G1 X60.160 Y77.082 E7.43957
G1 X60.381 Y77.843 E7.48098
G1 X60.650 Y78.589 E7.52239
G1 X60.965 Y79.317 E7.56388
G1 X61.324 Y80.022 E7.60522
G1 X61.728 Y80.705 E7.64663
G1 X62.173 Y81.360 E7.68804
G1 X62.659 Y81.986 E7.72946
G1 X63.183 Y82.581 E7.77087
G1 X63.744 Y83.142 E7.81228
G1 X64.339 Y83.666 E7.85373
G1 X64.991 Y84.170 E7.89678
G1 X65.620 Y84.597 E7.93651
G1 X66.303 Y85.001 E7.97793
G1 X67.009 Y85.360 E8.01934
G1 X67.736 Y85.675 E8.06075
G1 X68.482 Y85.944 E8.10216
G1 X69.243 Y86.165 E8.14357
G1 X70.017 Y86.338 E8.18499
G1 X70.800 Y86.462 E8.22640
G1 X71.589 Y86.536 E8.26781
G1 X72.381 Y86.561 E8.30919
G1 X73.150 Y86.539 E8.34938
G1 X73.963 Y86.462 E8.39205
G1 X74.746 Y86.338 E8.43346
G1 X75.519 Y86.165 E8.47487
