; generated by Slic3r 1.3.0 on 2022-06-02 at 11:02:03

; external perimeters extrusion width = 0.44mm (3.38mm^3/s)
; perimeters extrusion width = 0.48mm (7.54mm^3/s)
; infill extrusion width = 0.48mm (10.05mm^3/s)
; solid infill extrusion width = 0.48mm (2.51mm^3/s)
; top infill extrusion width = 0.48mm (1.88mm^3/s)

M107
M104 S245 ; set temperature
G28 ; home all axes
G1 Z5 F5000 ; lift nozzle

; Filament gcode

M109 S245 ; set temperature and wait for it to be reached
G21 ; set units to millimeters
G90 ; use absolute coordinates
M82 ; use absolute distances for extrusion
G92 E0
G1 Z0.350 F7800.000
G1 E-2.00000 F2400.00000
G92 E0
G1 X56.717 Y56.956 F7800.000
G1 E2.00000 F2400.00000
G1 F1800
G1 X57.816 Y55.925 E2.13703
G1 X58.457 Y55.394 E2.21268
G1 X59.676 Y54.508 E2.34971
G1 X60.378 Y54.063 E2.42535
G1 X61.699 Y53.337 E2.56238
G1 X62.452 Y52.982 E2.63803
G1 X63.853 Y52.428 E2.77506
G1 X64.644 Y52.171 E2.85071
G1 X66.104 Y51.796 E2.98774
G1 X66.921 Y51.640 E3.06339
G1 X67.183 Y51.607 E3.08737
G1 X68.416 Y51.451 E3.20042
G1 X69.247 Y51.399 E3.27607
G1 X70.753 Y51.399 E3.41310
G1 X71.584 Y51.451 E3.48874
G1 X73.079 Y51.640 E3.62578
G1 X73.896 Y51.796 E3.70143
G1 X75.356 Y52.171 E3.83845
G1 X76.147 Y52.428 E3.91410
G1 X77.548 Y52.982 E4.05113
G1 X78.301 Y53.337 E4.12678
G1 X79.621 Y54.063 E4.26381
G1 X80.324 Y54.508 E4.33946
G1 X81.543 Y55.394 E4.47649
G1 X82.184 Y55.924 E4.55214
G1 X83.283 Y56.956 E4.68917
G1 X83.852 Y57.563 E4.76482
G1 X84.813 Y58.724 E4.90185
G1 X85.302 Y59.397 E4.97749
G1 X86.109 Y60.669 E5.11452
G1 X86.510 Y61.398 E5.19017
G1 X87.152 Y62.762 E5.32720
G1 X87.458 Y63.535 E5.40285
G1 X87.924 Y64.969 E5.53988
G1 X88.131 Y65.774 E5.61553
G1 X88.413 Y67.255 E5.75256
G1 X88.517 Y68.080 E5.82821
G1 X88.612 Y69.584 E5.96524
G1 X88.612 Y70.416 E6.04089
G1 X88.517 Y71.920 E6.17792
G1 X88.413 Y72.745 E6.25356
G1 X88.131 Y74.226 E6.39059
G1 X87.924 Y75.031 E6.46624
G1 X87.458 Y76.465 E6.60327
G1 X87.152 Y77.238 E6.67892
G1 X86.510 Y78.602 E6.81595
G1 X86.109 Y79.331 E6.89160
G1 X85.302 Y80.603 E7.02863
G1 X84.813 Y81.276 E7.10428
G1 X83.852 Y82.437 E7.24131
G1 X83.283 Y83.044 E7.31696
G1 X82.184 Y84.075 E7.45398
G1 X81.543 Y84.606 E7.52963
G1 X80.324 Y85.492 E7.66666
G1 X79.621 Y85.937 E7.74231
G1 X78.301 Y86.663 E7.87934
G1 X77.548 Y87.018 E7.95499
G1 X76.147 Y87.572 E8.09202
G1 X75.356 Y87.829 E8.16767
G1 X73.896 Y88.204 E8.30470
G1 X73.079 Y88.360 E8.38035
G1 X71.584 Y88.549 E8.51737
G1 X70.753 Y88.601 E8.59302
G1 X69.247 Y88.601 E8.73005
G1 X68.416 Y88.549 E8.80570
G1 X66.921 Y88.360 E8.94273
G1 X66.104 Y88.204 E9.01838
G1 X64.644 Y87.829 E9.15541
G1 X63.853 Y87.572 E9.23106
G1 X62.452 Y87.018 E9.36809
G1 X61.699 Y86.663 E9.44374
G1 X60.379 Y85.937 E9.58077
G1 X59.676 Y85.492 E9.65641
G1 X58.457 Y84.606 E9.79344
G1 X57.816 Y84.076 E9.86909
G1 X56.717 Y83.044 E10.00612
G1 X56.148 Y82.437 E10.08177
G1 X55.355 Y81.479 E10.19482
G1 X55.187 Y81.276 E10.21880
G1 X54.698 Y80.603 E10.29445
G1 X53.891 Y79.331 E10.43148
G1 X53.490 Y78.602 E10.50713
G1 X52.848 Y77.238 E10.64416
G1 X52.542 Y76.465 E10.71981
G1 X52.158 Y75.282 E10.83286
G1 X52.076 Y75.031 E10.85684
G1 X51.869 Y74.226 E10.93248
G1 X51.587 Y72.745 E11.06951
G1 X51.483 Y71.920 E11.14516
G1 X51.388 Y70.416 E11.28219
G1 X51.388 Y69.584 E11.35784
G1 X51.483 Y68.080 E11.49487
G1 X51.587 Y67.255 E11.57052
G1 X51.869 Y65.774 E11.70755
G1 X52.076 Y64.969 E11.78320
G1 X52.542 Y63.535 E11.92023
G1 X52.848 Y62.762 E11.99587
G1 X53.490 Y61.398 E12.13290
G1 X53.891 Y60.669 E12.20855
G1 X54.698 Y59.397 E12.34558
G1 X55.187 Y58.724 E12.42123
G1 X56.148 Y57.563 E12.55826
G1 X56.676 Y57.000 E12.62845
G1 E10.62845 F2400.00000
G92 E0
G1 X77.579 Y77.117 F7800.000
G1 E2.00000 F2400.00000
G1 F1800
G1 X76.627 Y78.011 E2.11872
G1 X75.571 Y78.779 E2.23745
G1 X74.427 Y79.408 E2.35617
G1 X73.213 Y79.888 E2.47490
G1 X71.948 Y80.213 E2.59362
G1 X70.653 Y80.377 E2.71235
G1 X69.347 Y80.377 E2.83107
G1 X68.052 Y80.213 E2.94979
G1 X66.787 Y79.888 E3.06852
G1 X65.573 Y79.408 E3.18724
G1 X64.429 Y78.779 E3.30597
G1 X63.373 Y78.011 E3.42469
G1 X62.421 Y77.117 E3.54342
G1 X61.589 Y76.111 E3.66214
G1 X60.889 Y75.009 E3.78087
G1 X60.333 Y73.827 E3.89959
G1 X59.930 Y72.586 E4.01831
G1 X59.685 Y71.303 E4.13704
G1 X59.603 Y70.000 E4.25576
G1 X59.685 Y68.697 E4.37449
G1 X59.930 Y67.414 E4.49321
G1 X60.333 Y66.173 E4.61194
G1 X60.889 Y64.991 E4.73066
G1 X61.589 Y63.889 E4.84938
G1 X62.421 Y62.883 E4.96811
G1 X63.373 Y61.989 E5.08683
G1 X64.429 Y61.221 E5.20556
G1 X65.573 Y60.592 E5.32428
G1 X66.787 Y60.112 E5.44301
G1 X68.052 Y59.787 E5.56173
G1 X69.347 Y59.623 E5.68045
G1 X70.653 Y59.623 E5.79918
G1 X70.815 Y59.644 E5.81401
G1 X71.948 Y59.787 E5.91790
G1 X73.213 Y60.112 E6.03663
G1 X74.427 Y60.592 E6.15535
G1 X75.571 Y61.221 E6.27408
G1 X76.627 Y61.989 E6.39280
G1 X77.579 Y62.883 E6.51153
G1 X78.411 Y63.889 E6.63025
G1 X79.111 Y64.991 E6.74897
G1 X79.667 Y66.173 E6.86770
G1 X80.070 Y67.414 E6.98642
G1 X80.315 Y68.697 E7.10515
G1 X80.397 Y70.000 E7.22387
G1 X80.315 Y71.303 E7.34260
G1 X80.070 Y72.586 E7.46132
G1 X79.667 Y73.827 E7.58004
G1 X79.111 Y75.009 E7.69877
G1 X78.411 Y76.111 E7.81749
G1 X77.617 Y77.071 E7.93076
G1 X78.061 Y77.516 F7800.000
G1 F1800
G1 X77.026 Y78.494 E8.06018
G1 X75.907 Y79.307 E8.18606
G1 X74.693 Y79.974 E8.31193
G1 X73.406 Y80.484 E8.43781
G1 X72.066 Y80.828 E8.56368
G1 X70.692 Y81.001 E8.68955
G1 X69.308 Y81.001 E8.81543
G1 X67.934 Y80.828 E8.94130
G1 X66.594 Y80.484 E9.06718
G1 X65.307 Y79.974 E9.19305
G1 X64.093 Y79.307 E9.31892
G1 X62.974 Y78.494 E9.44480
G1 X61.964 Y77.546 E9.57067
G1 X61.082 Y76.479 E9.69655
G1 X60.340 Y75.310 E9.82242
G1 X59.751 Y74.058 E9.94829
G1 X59.323 Y72.741 E10.07417
G1 X59.064 Y71.382 E10.20004
G1 X58.977 Y70.000 E10.32592
G1 X59.064 Y68.618 E10.45179
G1 X59.323 Y67.259 E10.57766
G1 X59.751 Y65.942 E10.70354
G1 X60.340 Y64.690 E10.82941
G1 X61.082 Y63.521 E10.95529
G1 X61.964 Y62.454 E11.08116
G1 X62.974 Y61.506 E11.20704
G1 X64.093 Y60.693 E11.33291
G1 X65.307 Y60.026 E11.45878
G1 X66.594 Y59.516 E11.58466
G1 X67.934 Y59.172 E11.71053
G1 X69.308 Y58.999 E11.83641
G1 X70.692 Y58.999 E11.96228
G1 X70.893 Y59.024 E11.98068
G1 X72.066 Y59.172 E12.08815
G1 X73.406 Y59.516 E12.21403
G1 X74.693 Y60.026 E12.33990
G1 X75.907 Y60.693 E12.46578
G1 X77.026 Y61.506 E12.59165
G1 X78.036 Y62.454 E12.71752
G1 X78.918 Y63.521 E12.84340
G1 X79.660 Y64.690 E12.96927
G1 X80.249 Y65.942 E13.09515
G1 X80.677 Y67.259 E13.22102
G1 X80.936 Y68.618 E13.34689
G1 X81.023 Y70.000 E13.47277
G1 X80.936 Y71.382 E13.59864
G1 X80.677 Y72.741 E13.72452
G1 X80.249 Y74.058 E13.85039
G1 X79.660 Y75.310 E13.97626
G1 X78.918 Y76.479 E14.10214
G1 X78.099 Y77.469 E14.21898
G1 X78.542 Y77.914 F7800.000
G1 F1800
G1 X77.426 Y78.976 E14.35910
G1 X76.242 Y79.836 E14.49213
G1 X74.960 Y80.541 E14.62515
G1 X73.600 Y81.079 E14.75817
G1 X72.183 Y81.443 E14.89120
G1 X70.731 Y81.626 E15.02422
G1 X69.269 Y81.626 E15.15725
G1 X67.817 Y81.443 E15.29027
G1 X66.400 Y81.079 E15.42329
G1 X65.040 Y80.541 E15.55632
G1 X63.758 Y79.836 E15.68934
G1 X62.574 Y78.976 E15.82236
G1 X61.508 Y77.974 E15.95539
G1 X60.576 Y76.847 E16.08841
G1 X59.792 Y75.612 E16.22144
G1 X59.169 Y74.288 E16.35446
G1 X58.717 Y72.897 E16.48748
G1 X58.443 Y71.460 E16.62051
G1 X58.351 Y70.000 E16.75353
G1 X58.443 Y68.540 E16.88655
G1 X58.717 Y67.103 E17.01958
G1 X59.169 Y65.712 E17.15260
G1 X59.792 Y64.388 E17.28563
G1 X60.576 Y63.153 E17.41865
G1 X61.508 Y62.026 E17.55167
G1 X62.574 Y61.024 E17.68470
G1 X63.758 Y60.164 E17.81772
G1 X65.040 Y59.459 E17.95075
G1 X66.400 Y58.921 E18.08377
G1 X67.817 Y58.557 E18.21679
G1 X69.269 Y58.374 E18.34982
G1 X70.731 Y58.374 E18.48284
G1 X70.971 Y58.404 E18.50482
G1 X72.183 Y58.557 E18.61586
G1 X73.600 Y58.921 E18.74889
G1 X74.960 Y59.459 E18.88191
G1 X76.242 Y60.164 E19.01494
G1 X77.426 Y61.024 E19.14796
G1 X78.492 Y62.025 E19.28098
G1 X79.424 Y63.153 E19.41401
G1 X80.208 Y64.388 E19.54703
G1 X80.831 Y65.712 E19.68006
G1 X81.283 Y67.103 E19.81308
G1 X81.557 Y68.540 E19.94610
G1 X81.649 Y70.000 E20.07913
G1 X81.557 Y71.460 E20.21215
G1 X81.283 Y72.897 E20.34517
G1 X80.831 Y74.288 E20.47820
G1 X80.208 Y75.612 E20.61122
G1 X79.424 Y76.847 E20.74425
G1 X78.580 Y77.868 E20.86466
G1 X78.464 Y77.902 F7800.000
G1 X76.877 Y76.934 F7800.000
G1 F1800
G1 X77.366 Y76.445 E20.92807
G1 X78.148 Y75.500 E21.04047
G1 X78.805 Y74.464 E21.15297
G1 X79.116 Y73.804 E21.21983
G1 X73.783 Y79.137 E21.91128
G1 X72.776 Y79.536 E22.01055
G1 X72.396 Y79.634 E22.04658
G1 X79.642 Y72.387 E22.98613
G1 X79.707 Y72.187 E23.00544
G1 X79.885 Y71.253 E23.09261
G1 X71.255 Y79.883 E24.21157
G1 X70.370 Y79.995 E24.29332
G1 X70.252 Y79.995 E24.30416
G1 X79.982 Y70.265 E25.56569
G1 X80.014 Y69.757 E25.61237
G1 X79.989 Y69.367 E25.64823
G1 X69.361 Y79.995 E27.02626
G1 X69.143 Y79.995 E27.04624
G1 X68.546 Y79.919 E27.10147
G1 X79.936 Y68.529 E28.57835
G1 X79.793 Y67.780 E28.64819
G1 X67.772 Y79.801 E30.20683
G1 X67.063 Y79.619 E30.27394
G1 X79.621 Y67.062 E31.90213
G1 X79.402 Y66.389 E31.96696
G1 X66.393 Y79.399 E33.65379
G1 X65.754 Y79.146 E33.71673
G1 X79.140 Y65.761 E35.45230
G1 X78.855 Y65.155 E35.51370
G1 X65.164 Y78.846 E37.28888
G1 X64.589 Y78.530 E37.34903
G1 X78.519 Y64.599 E39.15527
G1 X78.174 Y64.054 E39.21446
G1 X64.066 Y78.162 E41.04366
G1 X63.550 Y77.787 E41.10215
G1 X77.774 Y63.562 E42.94651
G1 X77.371 Y63.075 E43.00453
G1 X63.088 Y77.358 E44.85646
G1 X62.629 Y76.925 E44.91425
G1 X76.912 Y62.642 E46.76619
G1 X76.450 Y62.213 E46.82399
G1 X62.226 Y76.438 E48.66835
G1 X61.826 Y75.946 E48.72643
G1 X75.934 Y61.838 E50.55562
G1 X75.411 Y61.470 E50.61426
G1 X61.481 Y75.401 E52.42050
G1 X61.145 Y74.845 E52.48001
G1 X74.836 Y61.154 E54.25519
G1 X74.403 Y60.916 E54.30049
G1 X74.246 Y60.854 E54.31603
G1 X60.860 Y74.239 E56.05160
G1 X60.672 Y73.840 E56.09206
G1 X60.598 Y73.611 E56.11417
G1 X73.607 Y60.601 E57.80100
G1 X73.262 Y60.464 E57.83502
G1 X72.937 Y60.381 E57.86586
G1 X60.379 Y72.938 E59.49405
G1 X60.293 Y72.673 E59.51960
G1 X60.207 Y72.220 E59.56192
G1 X72.228 Y60.199 E61.12056
G1 X72.074 Y60.159 E61.13510
G1 X71.454 Y60.081 E61.19237
G1 X60.064 Y71.471 E62.66925
G1 X60.011 Y70.633 E62.74622
G1 X70.639 Y60.005 E64.12425
G1 X69.748 Y60.005 E64.20595
G1 X60.018 Y69.735 E65.46749
G1 X60.063 Y69.018 E65.53332
G1 X60.115 Y68.747 E65.55864
G1 X68.745 Y60.117 E66.67760
G1 X68.412 Y60.159 E66.70835
G1 X67.604 Y60.366 E66.78481
G1 X60.358 Y67.613 E67.72436
G1 X60.672 Y66.646 E67.81755
G1 X60.884 Y66.196 E67.86319
G1 X66.217 Y60.863 E68.55465
G1 X66.083 Y60.916 E68.56789
G1 X65.007 Y61.507 E68.68039
G1 X64.015 Y62.228 E68.79289
G1 X63.123 Y63.066 E68.90503
G1 X62.637 Y63.552 E68.96805
M104 S240 ; set temperature
G1 Z0.650 F7800.000
G1 X78.013 Y77.477 F7800.000
G1 F3600
G1 X76.987 Y78.446 E69.04181
G1 X75.874 Y79.255 E69.11373
G1 X74.667 Y79.919 E69.18565
G1 X73.387 Y80.425 E69.25757
G1 X72.054 Y80.768 E69.32949
G1 X70.688 Y80.940 E69.40141
G1 X69.312 Y80.940 E69.47333
G1 X67.946 Y80.768 E69.54525
G1 X66.613 Y80.425 E69.61717
G1 X65.333 Y79.919 E69.68909
G1 X64.126 Y79.255 E69.76101
G1 X63.013 Y78.446 E69.83293
G1 X62.009 Y77.504 E69.90485
G1 X61.132 Y76.443 E69.97677
G1 X60.394 Y75.281 E70.04869
G1 X59.808 Y74.035 E70.12061
G1 X59.383 Y72.726 E70.19253
G1 X59.125 Y71.374 E70.26445
G1 X59.038 Y70.000 E70.33637
G1 X59.125 Y68.626 E70.40829
G1 X59.383 Y67.274 E70.48021
G1 X59.808 Y65.965 E70.55213
G1 X60.394 Y64.719 E70.62405
G1 X61.132 Y63.557 E70.69597
G1 X62.009 Y62.496 E70.76789
G1 X63.013 Y61.554 E70.83981
G1 X64.126 Y60.745 E70.91173
G1 X65.333 Y60.081 E70.98365
G1 X66.613 Y59.575 E71.05557
G1 X67.946 Y59.232 E71.12749
G1 X69.312 Y59.060 E71.19941
G1 X70.688 Y59.060 E71.27133
G1 X71.244 Y59.130 E71.30062
G1 X72.054 Y59.232 E71.34325
G1 X73.387 Y59.575 E71.41517
G1 X74.667 Y60.081 E71.48710
G1 X75.874 Y60.745 E71.55902
G1 X76.987 Y61.554 E71.63094
G1 X77.991 Y62.496 E71.70286
G1 X78.868 Y63.557 E71.77478
G1 X79.606 Y64.719 E71.84670
G1 X80.192 Y65.965 E71.91862
G1 X80.617 Y67.274 E71.99054
G1 X80.875 Y68.626 E72.06246
G1 X80.962 Y70.000 E72.13438
G1 X80.875 Y71.374 E72.20630
G1 X80.617 Y72.726 E72.27822
G1 X80.192 Y74.035 E72.35014
G1 X79.606 Y75.281 E72.42206
G1 X78.868 Y76.443 E72.49398
G1 X78.052 Y77.430 E72.56091
G1 X78.336 Y77.744 F7800.000
G1 F3600
G1 X77.255 Y78.770 E72.63879
G1 X76.099 Y79.610 E72.71346
G1 X74.846 Y80.298 E72.78814
G1 X73.517 Y80.824 E72.86281
G1 X72.133 Y81.180 E72.93749
G1 X70.715 Y81.359 E73.01216
G1 X69.285 Y81.359 E73.08683
G1 X67.867 Y81.180 E73.16151
G1 X66.483 Y80.824 E73.23618
G1 X65.154 Y80.298 E73.31085
G1 X63.901 Y79.610 E73.38553
G1 X62.745 Y78.770 E73.46020
G1 X61.703 Y77.791 E73.53488
G1 X60.792 Y76.690 E73.60955
G1 X60.026 Y75.483 E73.68422
G1 X59.418 Y74.190 E73.75890
G1 X58.976 Y72.830 E73.83357
G1 X58.708 Y71.426 E73.90825
G1 X58.618 Y70.000 E73.98292
G1 X58.708 Y68.574 E74.05759
G1 X58.976 Y67.170 E74.13227
G1 X59.418 Y65.810 E74.20694
G1 X60.026 Y64.517 E74.28161
G1 X60.792 Y63.310 E74.35629
G1 X61.703 Y62.209 E74.43096
G1 X62.745 Y61.230 E74.50564
G1 X63.901 Y60.390 E74.58031
G1 X65.154 Y59.702 E74.65498
G1 X66.483 Y59.176 E74.72966
G1 X67.867 Y58.820 E74.80433
G1 X69.285 Y58.641 E74.87901
G1 X70.715 Y58.641 E74.95368
G1 X71.297 Y58.714 E74.98434
G1 X72.133 Y58.820 E75.02835
G1 X73.517 Y59.176 E75.10303
G1 X74.846 Y59.702 E75.17770
G1 X76.099 Y60.390 E75.25238
G1 X77.255 Y61.230 E75.32705
G1 X78.297 Y62.209 E75.40172
G1 X79.208 Y63.310 E75.47640
G1 X79.974 Y64.517 E75.55107
G1 X80.582 Y65.810 E75.62574
G1 X81.024 Y67.170 E75.70042
G1 X81.292 Y68.574 E75.77509
G1 X81.382 Y70.000 E75.84977
G1 X81.292 Y71.426 E75.92444
G1 X81.024 Y72.830 E75.99911
G1 X80.582 Y74.190 E76.07379
G1 X79.974 Y75.483 E76.14846
G1 X79.208 Y76.690 E76.22314
G1 X78.374 Y77.697 E76.29145
G1 X78.642 Y77.997 F7800.000
G1 F1800
G1 X77.509 Y79.076 E76.36479
G1 X76.312 Y79.946 E76.43409
G1 X75.015 Y80.658 E76.50339
G1 X73.640 Y81.203 E76.57270
G1 X72.207 Y81.571 E76.64200
G1 X70.740 Y81.756 E76.71130
G1 X69.260 Y81.756 E76.78061
G1 X67.793 Y81.571 E76.84991
G1 X66.360 Y81.203 E76.91922
G1 X64.985 Y80.658 E76.98852
G1 X63.688 Y79.946 E77.05782
G1 X62.491 Y79.076 E77.12713
G1 X61.413 Y78.064 E77.19643
G1 X60.470 Y76.924 E77.26573
G1 X59.677 Y75.675 E77.33504
G1 X59.048 Y74.336 E77.40434
G1 X58.591 Y72.929 E77.47365
G1 X58.313 Y71.476 E77.54295
G1 X58.267 Y70.738 E77.57760
G1 X58.220 Y70.000 E77.61225
G1 X58.313 Y68.524 E77.68156
G1 X58.591 Y67.071 E77.75086
G1 X59.048 Y65.664 E77.82016
G1 X59.677 Y64.325 E77.88947
G1 X60.470 Y63.076 E77.95877
G1 X61.413 Y61.936 E78.02808
G1 X62.491 Y60.924 E78.09738
G1 X63.688 Y60.054 E78.16668
G1 X64.985 Y59.342 E78.23599
G1 X66.360 Y58.797 E78.30529
G1 X67.793 Y58.429 E78.37459
G1 X69.260 Y58.244 E78.44390
G1 X70.740 Y58.244 E78.51320
G1 X71.347 Y58.320 E78.54187
G1 X72.207 Y58.429 E78.58251
G1 X73.640 Y58.797 E78.65181
G1 X75.015 Y59.342 E78.72111
G1 X76.312 Y60.054 E78.79042
G1 X77.509 Y60.924 E78.85972
G1 X78.587 Y61.936 E78.92902
G1 X79.530 Y63.076 E78.99833
G1 X80.323 Y64.325 E79.06763
G1 X80.952 Y65.664 E79.13694
G1 X81.409 Y67.071 E79.20624
G1 X81.687 Y68.524 E79.27554
G1 X81.780 Y70.000 E79.34485
G1 X81.687 Y71.476 E79.41415
G1 X81.409 Y72.929 E79.48345
G1 X80.952 Y74.336 E79.55276
G1 X80.323 Y75.675 E79.62206
G1 X79.530 Y76.924 E79.69137
G1 X78.681 Y77.951 E79.75379
G1 X78.556 Y77.984 F7800.000
G1 X77.848 Y62.947 F7800.000
G1 F1200
G1 X76.557 Y61.714 E79.84765
G1 X75.486 Y60.936 E79.91725
G1 X74.943 Y60.638 E79.94983
G1 X79.411 Y65.106 E80.28203
G1 X79.941 Y66.232 E80.34744
G1 X73.799 Y60.090 E80.80406
G1 X73.095 Y59.811 E80.84388
G1 X72.865 Y59.752 E80.85634
G1 X80.239 Y67.126 E81.40452
G1 X80.374 Y67.541 E81.42749
G1 X80.448 Y67.931 E81.44836
G1 X72.063 Y59.546 E82.07173
G1 X71.812 Y59.482 E82.08533
G1 X71.344 Y59.422 E82.11018
G1 X80.589 Y68.668 E82.79750
G1 X80.622 Y68.842 E82.80681
G1 X80.652 Y69.327 E82.83240
G1 X70.661 Y59.336 E83.57518
G1 X70.499 Y59.316 E83.58377
G1 X70.045 Y59.316 E83.60766
G1 X80.693 Y69.964 E84.39924
G1 X80.705 Y70.163 E84.40974
G1 X80.681 Y70.548 E84.43002
G1 X69.449 Y59.316 E85.26506
G1 X69.175 Y59.316 E85.27943
