; generated by Slic3r 1.3.0 on 2021-10-01 at 21:52:48

; external perimeters extrusion width = 0.44mm (2.78mm^3/s)
; perimeters extrusion width = 0.40mm (7.14mm^3/s)
; infill extrusion width = 0.50mm (10.97mm^3/s)
; solid infill extrusion width = 0.60mm (6.68mm^3/s)
; top infill extrusion width = 0.40mm (2.14mm^3/s)

M107
M190 S80 ; set bed temperature and wait for it to be reached
M104 S210 ; set temperature
G28 ; home all axes
G1 Z5 F5000 ; lift nozzle

; Filament gcode

M109 S210 ; set temperature and wait for it to be reached
G21 ; set units to millimeters
G90 ; use absolute coordinates
M82 ; use absolute distances for extrusion
G92 E0
G1 Z0.300 F30000.000
G1 E-2.00000 F2400.00000
G92 E0
G1 X41.808 Y37.904 F30000.000
G1 E2.00000 F2400.00000
G1 F2100
G1 X42.008 Y37.743 E2.01717
G1 X42.500 Y37.403 E2.05713
G1 X42.772 Y37.243 E2.07818
G1 X43.277 Y36.992 E2.11586
G1 X43.981 Y36.700 E2.16682
G1 X44.506 Y36.525 E2.20377
G1 X45.310 Y36.318 E2.25925
G1 X45.726 Y36.235 E2.28756
G1 X46.500 Y36.141 E2.33963
G1 X82.910 Y35.728 E4.77221
G1 X83.500 Y35.744 E4.81164
G1 X84.274 Y35.838 E4.86371
G1 X84.690 Y35.921 E4.89202
G1 X85.494 Y36.129 E4.94750
G1 X86.018 Y36.303 E4.98439
G1 X86.723 Y36.595 E5.03541
G1 X87.228 Y36.846 E5.07309
G1 X87.500 Y37.006 E5.09414
G1 X87.992 Y37.346 E5.13410
G1 X88.192 Y37.507 E5.15127
G1 X89.035 Y38.434 E5.23496
G1 X89.377 Y38.999 E5.27908
G1 X92.753 Y45.656 E5.77774
G1 X93.088 Y46.400 E5.83224
G1 X93.382 Y47.176 E5.88767
G1 X93.621 Y47.948 E5.94167
G1 X93.848 Y48.911 E6.00776
G1 X100.679 Y86.614 E8.56753
G1 X100.930 Y88.113 E8.66907
G1 X100.985 Y88.784 E8.71404
G1 X100.985 Y89.813 E8.78277
G1 X100.590 Y91.562 E8.90259
G1 X99.482 Y92.972 E9.02241
G1 X97.875 Y93.769 E9.14224
G1 X96.959 Y93.884 E9.20389
G1 X61.013 Y94.281 E11.60545
G1 X33.086 Y94.281 E13.47110
G1 X31.336 Y93.886 E13.59092
G1 X29.926 Y92.777 E13.71074
G1 X29.130 Y91.170 E13.83056
G1 X29.015 Y90.210 E13.89520
G1 X29.015 Y89.181 E13.96393
G1 X29.070 Y88.510 E14.00889
G1 X29.321 Y87.011 E14.11044
G1 X36.192 Y49.114 E16.68344
G1 X36.379 Y48.345 E16.73630
G1 X36.618 Y47.573 E16.79030
G1 X36.912 Y46.797 E16.84573
G1 X37.247 Y46.053 E16.90023
G1 X40.623 Y39.396 E17.39889
G1 X40.965 Y38.831 E17.44301
G1 X41.767 Y37.948 E17.52269
G1 X42.144 Y38.321 F30000.000
G1 F2100
G1 X42.344 Y38.160 E17.53986
G1 X42.771 Y37.865 E17.57457
G1 X43.043 Y37.705 E17.59561
G1 X43.482 Y37.487 E17.62834
G1 X44.185 Y37.196 E17.67917
G1 X44.640 Y37.044 E17.71127
G1 X45.442 Y36.837 E17.76658
G1 X46.031 Y36.732 E17.80654
G1 X46.568 Y36.674 E17.84263
G1 X82.915 Y36.263 E20.27094
G1 X83.473 Y36.279 E20.30825
G1 X84.197 Y36.368 E20.35698
G1 X84.558 Y36.440 E20.38157
G1 X85.360 Y36.647 E20.43687
G1 X85.815 Y36.798 E20.46891
G1 X86.518 Y37.090 E20.51980
G1 X86.957 Y37.308 E20.55253
G1 X87.229 Y37.468 E20.57357
G1 X87.656 Y37.763 E20.60828
G1 X87.856 Y37.924 E20.62545
G1 X88.588 Y38.729 E20.69813
G1 X88.899 Y39.241 E20.73816
G1 X92.275 Y45.898 E21.23683
G1 X92.598 Y46.616 E21.28940
G1 X92.879 Y47.361 E21.34258
G1 X93.108 Y48.102 E21.39435
G1 X93.321 Y49.007 E21.45647
G1 X100.152 Y86.710 E24.01623
G1 X100.401 Y88.202 E24.11729
G1 X100.450 Y88.784 E24.15634
G1 X100.450 Y89.813 E24.22507
G1 X100.055 Y91.435 E24.33663
G1 X98.960 Y92.696 E24.44818
G1 X96.953 Y93.348 E24.58917
G1 X61.007 Y93.745 E26.99073
G1 X33.086 Y93.745 E28.85599
G1 X31.463 Y93.351 E28.96754
G1 X30.203 Y92.256 E29.07910
G1 X29.550 Y90.210 E29.22258
G1 X29.550 Y89.181 E29.29130
G1 X29.599 Y88.598 E29.33035
G1 X29.848 Y87.106 E29.43141
G1 X36.714 Y49.235 E32.00267
G1 X36.892 Y48.498 E32.05330
G1 X37.121 Y47.758 E32.10507
G1 X37.402 Y47.013 E32.15825
G1 X37.724 Y46.295 E32.21082
G1 X41.101 Y39.638 E32.70948
G1 X41.412 Y39.126 E32.74952
G1 X42.103 Y38.365 E32.81819
G1 E30.81819 F2400.00000
G92 E0
G1 X76.196 Y66.044 F30000.000
G1 E2.00000 F2400.00000
G1 F2100
G1 X76.070 Y65.863 E2.01653
G1 X75.111 Y65.568 E2.09163
G1 X74.089 Y65.152 E2.17420
G1 X73.325 Y64.727 E2.23965
G1 X72.744 Y64.293 E2.29395
G1 X72.578 Y64.139 E2.31085
G1 X72.225 Y63.753 E2.34998
G1 X72.036 Y63.489 E2.37427
G1 X71.747 Y62.966 E2.41897
G1 X71.598 Y62.549 E2.45212
G1 X71.477 Y61.896 E2.50181
G1 X71.476 Y61.400 E2.53898
G1 X71.574 Y60.851 E2.58071
G1 X71.696 Y60.482 E2.60977
G1 X71.923 Y60.023 E2.64811
G1 X72.128 Y59.719 E2.67551
G1 X72.572 Y59.217 E2.72570
G1 X72.769 Y59.035 E2.74573
G1 X73.289 Y58.639 E2.79465
G1 X73.958 Y58.228 E2.85347
G1 X74.577 Y57.912 E2.90546
G1 X74.653 Y57.834 E2.91359
G1 X74.878 Y57.331 E2.95479
G1 X74.891 Y57.251 E2.96085
G1 X74.854 Y56.840 E2.99174
G1 X74.823 Y56.760 E2.99819
G1 X74.681 Y56.548 E3.01727
G1 X74.243 Y55.770 E3.08409
G1 X73.757 Y54.608 E3.17835
G1 X73.443 Y53.496 E3.26485
G1 X73.268 Y52.460 E3.34348
G1 X73.197 Y51.089 E3.44617
G1 X73.222 Y50.496 E3.49065
G1 X73.289 Y49.825 E3.54109
G1 X73.417 Y49.058 E3.59930
G1 X73.580 Y48.368 E3.65234
G1 X73.763 Y47.754 E3.70028
G1 X74.051 Y46.973 E3.76256
G1 X74.362 Y46.274 E3.81981
G1 X74.724 Y45.578 E3.87855
G1 X75.139 Y44.884 E3.93909
G1 X75.608 Y44.195 E4.00141
G1 X76.131 Y43.515 E4.06561
G1 X76.709 Y42.843 E4.13192
G1 X77.507 Y42.026 E4.21738
G1 X77.555 Y41.863 E4.23015
G1 X77.447 Y41.433 E4.26328
G1 X77.418 Y40.916 E4.30201
G1 X77.515 Y40.173 E4.35814
G1 X77.734 Y39.587 E4.40495
G1 X78.132 Y38.985 E4.45894
G1 X78.418 Y38.670 E4.49078
G1 X79.029 Y38.197 E4.54861
G1 X79.641 Y37.853 E4.60114
G1 X80.693 Y37.432 E4.68598
G1 X81.792 Y37.156 E4.77071
G1 X82.456 Y37.067 E4.82090
G1 X82.977 Y37.049 E4.85989
G1 X83.490 Y37.067 E4.89832
G1 X84.295 Y37.184 E4.95921
G1 X85.253 Y37.432 E5.03322
G1 X86.306 Y37.853 E5.11808
G1 X86.918 Y38.197 E5.17061
G1 X87.084 Y38.312 E5.18575
G1 X87.528 Y38.670 E5.22846
G1 X87.815 Y38.985 E5.26031
G1 X88.212 Y39.587 E5.31430
G1 X88.431 Y40.173 E5.36110
G1 X88.529 Y40.917 E5.41725
G1 X88.499 Y41.433 E5.45597
G1 X88.392 Y41.863 E5.48910
G1 X88.440 Y42.026 E5.50187
G1 X89.238 Y42.844 E5.58733
G1 X90.443 Y44.248 E5.72587
G1 X90.442 Y44.288 E5.72883
G1 X90.594 Y44.473 E5.74677
G1 X90.660 Y44.483 E5.75180
G1 X91.585 Y46.274 E5.90262
G1 X91.896 Y46.973 E5.95986
G1 X92.156 Y47.673 E6.01574
G1 X92.389 Y48.451 E6.07652
G1 X92.530 Y49.058 E6.12312
G1 X92.646 Y49.740 E6.17490
G1 X92.724 Y50.496 E6.23177
G1 X92.749 Y51.214 E6.28556
G1 X92.678 Y52.460 E6.37894
G1 X92.503 Y53.496 E6.45758
G1 X92.190 Y54.608 E6.54408
G1 X91.703 Y55.770 E6.63834
G1 X91.266 Y56.548 E6.70515
G1 X91.123 Y56.760 E6.72424
G1 X91.092 Y56.840 E6.73068
G1 X91.055 Y57.251 E6.76157
G1 X91.069 Y57.331 E6.76763
G1 X91.294 Y57.834 E6.80883
G1 X91.369 Y57.912 E6.81697
G1 X91.988 Y58.228 E6.86896
G1 X92.658 Y58.639 E6.92778
G1 X93.178 Y59.035 E6.97669
G1 X93.374 Y59.217 E6.99672
G1 X93.819 Y59.719 E7.04692
G1 X94.023 Y60.023 E7.07431
G1 X94.250 Y60.482 E7.11265
G1 X94.372 Y60.851 E7.14170
G1 X94.470 Y61.400 E7.18345
G1 X94.469 Y61.896 E7.22062
G1 X94.348 Y62.549 E7.27030
G1 X94.199 Y62.966 E7.30346
G1 X93.910 Y63.489 E7.34816
G1 X93.721 Y63.753 E7.37245
G1 X93.368 Y64.139 E7.41157
G1 X93.203 Y64.293 E7.42848
G1 X92.622 Y64.727 E7.48278
G1 X91.857 Y65.152 E7.54823
G1 X90.836 Y65.568 E7.63079
G1 X89.876 Y65.863 E7.70590
G1 X89.751 Y66.044 E7.72242
G1 X90.015 Y68.717 E7.92338
G1 X90.174 Y69.909 E8.01343
G1 X90.367 Y71.124 E8.10547
G1 X90.590 Y72.307 E8.19552
G1 X90.844 Y73.416 E8.28070
G1 X91.127 Y74.418 E8.35858
G1 X91.421 Y75.242 E8.42410
G1 X91.782 Y75.986 E8.48598
G1 X91.875 Y76.058 E8.49479
G1 X92.460 Y76.235 E8.54053
G1 X93.538 Y77.637 E8.67282
G1 X93.593 Y79.310 E8.79816
G1 X93.663 Y79.963 E8.84729
G1 X93.762 Y80.495 E8.88774
G1 X93.889 Y80.952 E8.92328
G1 X94.033 Y81.334 E8.95382
G1 X94.190 Y81.653 E8.98043
G1 X94.358 Y81.924 E9.00430
G1 X94.547 Y82.170 E9.02751
G1 X94.741 Y82.379 E9.04882
G1 X95.178 Y82.743 E9.09139
G1 X95.420 Y82.904 E9.11316
G1 X96.042 Y83.248 E9.16633
G1 X96.775 Y83.590 E9.22687
G1 X97.359 Y83.892 E9.27610
G1 X97.599 Y84.050 E9.29758
G1 X98.114 Y84.474 E9.34747
G1 X98.319 Y84.683 E9.36938
G1 X98.715 Y85.183 E9.41716
G1 X98.873 Y85.434 E9.43935
G1 X99.144 Y85.989 E9.48554
G1 X99.247 Y86.277 E9.50848
G1 X99.387 Y86.869 E9.55400
G1 X99.422 Y87.335 E9.58894
G1 X99.470 Y87.452 E9.59841
G1 X99.663 Y87.645 E9.61885
G1 X99.663 Y90.952 E9.86629
G1 X98.053 Y92.562 E10.03674
G1 X67.894 Y92.562 E12.29372
G1 X66.283 Y90.952 E12.46417
G1 X66.283 Y87.645 E12.71161
G1 X66.476 Y87.452 E12.73205
G1 X66.524 Y87.335 E12.74153
G1 X66.560 Y86.869 E12.77648
G1 X66.699 Y86.278 E12.82197
G1 X66.802 Y85.989 E12.84491
G1 X67.073 Y85.434 E12.89113
G1 X67.232 Y85.183 E12.91333
G1 X67.628 Y84.683 E12.96107
G1 X67.833 Y84.474 E12.98296
G1 X68.348 Y84.050 E13.03289
G1 X68.587 Y83.892 E13.05436
G1 X69.171 Y83.590 E13.10360
G1 X69.905 Y83.248 E13.16413
G1 X70.537 Y82.897 E13.21827
G1 X70.993 Y82.570 E13.26026
G1 X71.206 Y82.379 E13.28166
G1 X71.400 Y82.170 E13.30296
G1 X71.580 Y81.937 E13.32503
G1 X71.756 Y81.653 E13.35005
G1 X71.913 Y81.334 E13.37664
G1 X72.058 Y80.952 E13.40720
G1 X72.184 Y80.495 E13.44273
G1 X72.286 Y79.951 E13.48412
G1 X72.352 Y79.322 E13.53146
G1 X72.409 Y77.637 E13.65765
G1 X72.594 Y77.396 E13.68039
G1 X72.604 Y77.334 E13.68509
G1 X72.717 Y77.235 E13.69633
G1 X73.486 Y76.235 E13.79074
G1 X74.071 Y76.058 E13.83649
G1 X74.164 Y75.986 E13.84529
G1 X74.532 Y75.228 E13.90830
G1 X74.823 Y74.408 E13.97348
G1 X75.100 Y73.423 E14.05000
G1 X75.356 Y72.307 E14.13575
G1 X75.579 Y71.129 E14.22545
G1 X75.772 Y69.913 E14.31755
G1 X75.932 Y68.717 E14.40789
G1 X76.191 Y66.104 E14.60436
G1 X76.830 Y65.584 F30000.000
G1 F2100
G1 X76.692 Y65.398 E14.62172
G1 X76.273 Y65.297 E14.65397
G1 X75.405 Y65.035 E14.72184
G1 X74.363 Y64.618 E14.80581
G1 X73.637 Y64.214 E14.86800
G1 X73.134 Y63.836 E14.91510
G1 X72.692 Y63.374 E14.96291
G1 X72.544 Y63.168 E14.98190
G1 X72.296 Y62.719 E15.02033
G1 X72.179 Y62.393 E15.04625
G1 X72.077 Y61.841 E15.08826
G1 X72.076 Y61.452 E15.11732
G1 X72.157 Y60.998 E15.15183
G1 X72.252 Y60.710 E15.17454
G1 X72.443 Y60.325 E15.20672
G1 X72.603 Y60.087 E15.22814
G1 X73.002 Y59.637 E15.27316
G1 X73.155 Y59.495 E15.28882
G1 X73.639 Y59.126 E15.33431
G1 X74.327 Y58.710 E15.39452
G1 X75.023 Y58.369 E15.45253
G1 X75.107 Y58.286 E15.46137
G1 X75.490 Y57.434 E15.53125
G1 X75.503 Y57.354 E15.53732
G1 X75.436 Y56.620 E15.59246
G1 X75.406 Y56.539 E15.59890
G1 X75.195 Y56.239 E15.62639
G1 X74.775 Y55.491 E15.69054
G1 X74.328 Y54.425 E15.77709
G1 X74.032 Y53.379 E15.85843
G1 X73.863 Y52.377 E15.93444
G1 X73.797 Y51.101 E16.03009
G1 X73.821 Y50.530 E16.07287
G1 X73.885 Y49.896 E16.12055
G1 X74.003 Y49.184 E16.17455
G1 X74.157 Y48.531 E16.22478
G1 X74.335 Y47.935 E16.27132
G1 X74.603 Y47.207 E16.32939
G1 X74.899 Y46.541 E16.38388
G1 X75.244 Y45.877 E16.43992
G1 X75.641 Y45.213 E16.49780
G1 X76.090 Y44.553 E16.55752
G1 X76.592 Y43.899 E16.61921
G1 X77.149 Y43.252 E16.68310
G1 X77.722 Y42.651 E16.74523
G1 X78.190 Y42.206 E16.79361
G1 X78.233 Y42.019 E16.80791
G1 X78.173 Y41.862 E16.82049
G1 X78.043 Y41.343 E16.86059
G1 X78.020 Y40.939 E16.89087
G1 X78.101 Y40.319 E16.93767
G1 X78.272 Y39.860 E16.97426
G1 X78.607 Y39.354 E17.01967
G1 X78.831 Y39.108 E17.04456
G1 X79.352 Y38.703 E17.09396
G1 X79.889 Y38.399 E17.14017
G1 X80.863 Y38.007 E17.21874
G1 X81.893 Y37.748 E17.29822
G1 X82.499 Y37.666 E17.34400
G1 X82.970 Y37.649 E17.37925
G1 X83.447 Y37.666 E17.41495
G1 X84.163 Y37.770 E17.46909
G1 X85.083 Y38.007 E17.54020
G1 X86.057 Y38.399 E17.61877
G1 X86.725 Y38.793 E17.67677
G1 X87.116 Y39.108 E17.71436
G1 X87.340 Y39.354 E17.73926
G1 X87.674 Y39.860 E17.78467
G1 X87.845 Y40.319 E17.82126
G1 X87.926 Y40.939 E17.86807
G1 X87.903 Y41.343 E17.89834
G1 X87.774 Y41.862 E17.93843
G1 X87.714 Y42.019 E17.95102
G1 X87.756 Y42.206 E17.96531
G1 X88.225 Y42.651 E18.01370
G1 X88.798 Y43.252 E18.07582
G1 X89.835 Y44.460 E18.19498
G1 X89.822 Y44.798 E18.22032
G1 X89.974 Y44.984 E18.23826
G1 X90.267 Y45.029 E18.26046
G1 X91.047 Y46.541 E18.38779
G1 X91.343 Y47.207 E18.44228
G1 X91.590 Y47.871 E18.49534
G1 X91.806 Y48.596 E18.55192
G1 X91.956 Y49.250 E18.60215
G1 X92.053 Y49.829 E18.64610
G1 X92.121 Y50.464 E18.69388
G1 X92.149 Y51.198 E18.74885
G1 X92.084 Y52.377 E18.83723
G1 X91.914 Y53.379 E18.91324
G1 X91.618 Y54.425 E18.99458
G1 X91.171 Y55.491 E19.08113
G1 X90.751 Y56.239 E19.14528
G1 X90.540 Y56.539 E19.17277
G1 X90.510 Y56.620 E19.17921
G1 X90.444 Y57.354 E19.23435
G1 X90.457 Y57.434 E19.24042
G1 X90.839 Y58.286 E19.31030
G1 X90.923 Y58.369 E19.31914
G1 X91.619 Y58.710 E19.37715
G1 X92.307 Y59.126 E19.43736
G1 X92.791 Y59.495 E19.48285
G1 X92.944 Y59.637 E19.49851
G1 X93.343 Y60.087 E19.54353
G1 X93.503 Y60.325 E19.56495
G1 X93.694 Y60.710 E19.59712
G1 X93.789 Y60.998 E19.61983
G1 X93.870 Y61.452 E19.65436
G1 X93.869 Y61.841 E19.68341
G1 X93.767 Y62.392 E19.72541
G1 X93.650 Y62.719 E19.75134
G1 X93.402 Y63.168 E19.78977
G1 X93.254 Y63.374 E19.80876
G1 X92.813 Y63.836 E19.85657
G1 X92.310 Y64.214 E19.90367
G1 X91.583 Y64.618 E19.96586
G1 X90.542 Y65.035 E20.04983
G1 X89.673 Y65.297 E20.11770
G1 X89.254 Y65.398 E20.14995
G1 X89.117 Y65.584 E20.16731
G1 X89.182 Y66.504 E20.23628
G1 X89.418 Y68.783 E20.40776
G1 X89.580 Y69.996 E20.49937
G1 X89.775 Y71.227 E20.59263
G1 X90.003 Y72.429 E20.68421
G1 X90.263 Y73.564 E20.77134
G1 X90.551 Y74.590 E20.85105
G1 X90.865 Y75.470 E20.92101
G1 X91.183 Y76.151 E20.97726
G1 X91.417 Y76.512 E21.00947
G1 X91.501 Y76.572 E21.01720
G1 X92.102 Y76.754 E21.06416
G1 X92.944 Y77.849 E21.16758
G1 X92.995 Y79.352 E21.28010
G1 X93.069 Y80.050 E21.33264
G1 X93.177 Y80.631 E21.37682
G1 X93.318 Y81.140 E21.41635
G1 X93.482 Y81.574 E21.45112
G1 X93.665 Y81.945 E21.48208
G1 X93.864 Y82.266 E21.51033
G1 X94.088 Y82.558 E21.53783
G1 X94.319 Y82.806 E21.56321
G1 X94.568 Y83.031 E21.58834
G1 X94.828 Y83.231 E21.61289
G1 X95.108 Y83.417 E21.63806
G1 X95.770 Y83.783 E21.69463
G1 X96.516 Y84.131 E21.75623
G1 X97.055 Y84.410 E21.80164
G1 X97.242 Y84.534 E21.81843
G1 X97.708 Y84.917 E21.86359
G1 X97.868 Y85.080 E21.88071
G1 X98.225 Y85.530 E21.92368
G1 X98.348 Y85.726 E21.94103
G1 X98.590 Y86.222 E21.98229
G1 X98.671 Y86.448 E22.00023
G1 X98.794 Y86.972 E22.04056
G1 X98.823 Y87.228 E22.05983
G1 X98.820 Y87.581 E22.08628
G1 X98.868 Y87.699 E22.09575
G1 X99.063 Y87.894 E22.11640
G1 X99.063 Y90.703 E22.32664
G1 X97.804 Y91.962 E22.45989
G1 X68.142 Y91.962 E24.67968
G1 X66.883 Y90.703 E24.81293
G1 X66.883 Y87.894 E25.02318
G1 X67.078 Y87.699 E25.04382
G1 X67.126 Y87.581 E25.05330
G1 X67.123 Y87.228 E25.07975
G1 X67.152 Y86.972 E25.09903
G1 X67.276 Y86.448 E25.13933
G1 X67.356 Y86.222 E25.15727
G1 X67.598 Y85.726 E25.19856
G1 X67.722 Y85.530 E25.21592
G1 X68.078 Y85.080 E25.25884
G1 X68.238 Y84.917 E25.27596
G1 X68.705 Y84.534 E25.32115
G1 X68.892 Y84.410 E25.33794
G1 X69.388 Y84.152 E25.37980
G1 X70.177 Y83.783 E25.44495
G1 X70.838 Y83.417 E25.50152
G1 X71.109 Y83.238 E25.52586
G1 X71.388 Y83.023 E25.55217
G1 X71.637 Y82.796 E25.57740
G1 X71.868 Y82.547 E25.60285
G1 X72.074 Y82.279 E25.62810
G1 X72.281 Y81.945 E25.65749
G1 X72.464 Y81.574 E25.68845
G1 X72.628 Y81.140 E25.72323
G1 X72.769 Y80.630 E25.76276
G1 X72.880 Y80.038 E25.80788
G1 X72.951 Y79.363 E25.85863
G1 X73.002 Y77.849 E25.97200
G1 X73.844 Y76.754 E26.07542
G1 X74.445 Y76.572 E26.12238
G1 X74.529 Y76.512 E26.13010
G1 X74.763 Y76.151 E26.16232
G1 X75.087 Y75.456 E26.21969
G1 X75.395 Y74.590 E26.28853
G1 X75.682 Y73.572 E26.36766
G1 X75.943 Y72.429 E26.45537
G1 X76.170 Y71.232 E26.54660
G1 X76.366 Y70.000 E26.63992
G1 X76.528 Y68.783 E26.73181
G1 X76.765 Y66.504 E26.90329
G1 X76.826 Y65.644 E26.96777
G1 X77.464 Y65.117 F30000.000
G1 F2100
G1 X77.327 Y64.930 E26.98513
G1 X76.437 Y64.720 E27.05353
G1 X75.590 Y64.464 E27.11976
G1 X74.729 Y64.127 E27.18898
G1 X73.846 Y63.633 E27.26468
G1 X73.431 Y63.293 E27.30485
G1 X73.159 Y62.996 E27.33498
G1 X73.052 Y62.847 E27.34867
G1 X72.845 Y62.471 E27.38084
G1 X72.760 Y62.236 E27.39952
G1 X72.677 Y61.785 E27.43385
G1 X72.676 Y61.505 E27.45480
G1 X72.741 Y61.146 E27.48208
G1 X72.809 Y60.938 E27.49846
G1 X72.963 Y60.626 E27.52448
G1 X73.078 Y60.455 E27.53992
G1 X73.432 Y60.057 E27.57976
G1 X73.542 Y59.954 E27.59105
G1 X74.060 Y59.566 E27.63952
G1 X74.607 Y59.241 E27.68709
