; generated by Slic3r 1.3.0 on 2021-10-01 at 22:22:49

; external perimeters extrusion width = 0.44mm (2.78mm^3/s)
; perimeters extrusion width = 0.40mm (7.14mm^3/s)
; infill extrusion width = 0.50mm (10.97mm^3/s)
; solid infill extrusion width = 0.60mm (6.68mm^3/s)
; top infill extrusion width = 0.40mm (2.14mm^3/s)

M107
M190 S80 ; set bed temperature and wait for it to be reached
M104 S210 ; set temperature
G28 ; home all axes
G1 Z5 F5000 ; lift nozzle

; Filament gcode

M109 S210 ; set temperature and wait for it to be reached
G21 ; set units to millimeters
G90 ; use absolute coordinates
M82 ; use absolute distances for extrusion
G92 E0
G1 Z0.300 F30000.000
G1 E-2.00000 F2400.00000
G92 E0
G1 X37.975 Y31.005 F30000.000
G1 E2.00000 F2400.00000
G1 F2100
G1 X38.818 Y30.078 E2.08369
G1 X39.081 Y29.866 E2.10624
G1 X39.573 Y29.526 E2.14620
G1 X39.928 Y29.318 E2.17371
G1 X40.433 Y29.066 E2.21139
G1 X41.335 Y28.693 E2.27659
G1 X41.863 Y28.516 E2.31382
G1 X42.890 Y28.249 E2.38470
G1 X43.313 Y28.163 E2.41353
G1 X43.848 Y28.085 E2.44961
G1 X44.199 Y28.051 E2.47321
G1 X44.824 Y28.028 E2.51499
G1 X85.801 Y28.811 E5.25294
G1 X86.687 Y28.923 E5.31261
G1 X87.110 Y29.009 E5.34143
G1 X88.137 Y29.276 E5.41232
G1 X88.665 Y29.453 E5.44954
G1 X89.567 Y29.826 E5.51475
G1 X90.072 Y30.078 E5.55243
G1 X90.427 Y30.286 E5.57993
G1 X90.919 Y30.626 E5.61990
G1 X91.182 Y30.838 E5.64244
G1 X92.024 Y31.765 E5.72613
G1 X92.402 Y32.384 E5.77458
G1 X96.790 Y41.037 E6.42274
G1 X97.197 Y41.946 E6.48924
G1 X97.551 Y42.884 E6.55625
G1 X97.838 Y43.817 E6.62143
G1 X98.062 Y44.743 E6.68512
G1 X106.982 Y93.952 E10.02613
G1 X107.305 Y95.867 E10.15583
G1 X107.361 Y96.542 E10.20111
G1 X107.361 Y97.910 E10.29246
G1 X106.966 Y99.659 E10.41228
G1 X105.858 Y101.069 E10.53210
G1 X104.251 Y101.866 E10.65193
G1 X103.290 Y101.981 E10.71656
G1 X66.933 Y101.980 E13.14543
G1 X26.633 Y101.220 E15.83813
G1 X24.891 Y100.792 E15.95796
G1 X23.503 Y99.657 E16.07778
G1 X22.639 Y97.150 E16.25496
G1 X22.639 Y95.782 E16.34631
G1 X22.695 Y95.107 E16.39159
G1 X23.018 Y93.192 E16.52129
G1 X31.938 Y43.983 E19.86230
G1 X32.162 Y43.056 E19.92599
G1 X32.449 Y42.124 E19.99117
G1 X32.803 Y41.185 E20.05817
G1 X33.116 Y40.476 E20.11000
G1 X37.598 Y31.624 E20.77284
G1 X37.942 Y31.055 E20.81727
G1 X38.422 Y31.300 F30000.000
G1 F2100
G1 X39.154 Y30.495 E20.88995
G1 X39.417 Y30.283 E20.91250
G1 X39.845 Y29.988 E20.94721
G1 X40.200 Y29.779 E20.97471
G1 X40.638 Y29.561 E21.00744
G1 X41.540 Y29.188 E21.07264
G1 X41.999 Y29.034 E21.10497
G1 X43.024 Y28.767 E21.17577
G1 X43.922 Y28.615 E21.23661
G1 X44.840 Y28.563 E21.29802
G1 X85.772 Y29.346 E24.03300
G1 X86.608 Y29.453 E24.08931
G1 X86.976 Y29.527 E24.11434
G1 X88.001 Y29.794 E24.18514
G1 X88.460 Y29.948 E24.21747
G1 X89.362 Y30.321 E24.28267
G1 X89.800 Y30.540 E24.31540
G1 X90.155 Y30.748 E24.34290
G1 X90.583 Y31.044 E24.37761
G1 X90.845 Y31.255 E24.40016
G1 X91.578 Y32.060 E24.47284
G1 X91.924 Y32.626 E24.51719
G1 X96.313 Y41.280 E25.16536
G1 X96.707 Y42.162 E25.22993
G1 X97.049 Y43.069 E25.29469
G1 X97.325 Y43.970 E25.35765
G1 X97.540 Y44.864 E25.41910
G1 X106.455 Y94.048 E28.75836
G1 X106.777 Y95.956 E28.88762
G1 X106.826 Y96.542 E28.92694
G1 X106.826 Y97.910 E29.01829
G1 X106.431 Y99.532 E29.12985
G1 X105.336 Y100.793 E29.24141
G1 X103.290 Y101.445 E29.38488
G1 X67.009 Y101.445 E31.80862
G1 X26.643 Y100.685 E34.50578
G1 X25.028 Y100.260 E34.61734
G1 X23.789 Y99.141 E34.72889
G1 X23.174 Y97.150 E34.86812
G1 X23.174 Y95.782 E34.95947
G1 X23.223 Y95.196 E34.99879
G1 X23.545 Y93.288 E35.12805
G1 X32.460 Y44.104 E38.46731
G1 X32.675 Y43.210 E38.52876
G1 X32.951 Y42.309 E38.59172
G1 X33.293 Y41.402 E38.65648
G1 X33.606 Y40.692 E38.70831
G1 X38.076 Y31.866 E39.36922
G1 X38.389 Y31.350 E39.40957
G1 E37.40957 F2400.00000
G92 E0
G1 X35.821 Y38.863 F30000.000
G1 E2.00000 F2400.00000
G1 F2100
G1 X35.973 Y38.678 E2.01795
G1 X35.954 Y38.192 E2.05440
G1 X37.298 Y36.626 E2.20881
G1 X38.042 Y35.845 E2.28954
G1 X38.690 Y35.230 E2.35640
G1 X38.733 Y35.043 E2.37070
G1 X38.636 Y34.791 E2.39092
G1 X38.468 Y34.117 E2.44288
G1 X38.439 Y33.601 E2.48161
G1 X38.544 Y32.797 E2.54223
G1 X38.763 Y32.211 E2.58904
G1 X39.196 Y31.556 E2.64786
G1 X39.482 Y31.241 E2.67970
G1 X40.156 Y30.717 E2.74355
G1 X40.851 Y30.324 E2.80331
G1 X42.106 Y29.818 E2.90461
G1 X43.435 Y29.481 E3.00718
G1 X44.210 Y29.374 E3.06574
G1 X44.846 Y29.349 E3.11339
G1 X45.490 Y29.374 E3.16163
G1 X46.266 Y29.481 E3.22019
G1 X47.773 Y29.878 E3.33682
G1 X49.020 Y30.409 E3.43829
G1 X49.711 Y30.832 E3.49891
G1 X50.218 Y31.241 E3.54766
G1 X50.505 Y31.556 E3.57950
G1 X50.938 Y32.211 E3.63832
G1 X51.156 Y32.797 E3.68513
G1 X51.262 Y33.601 E3.74575
G1 X51.232 Y34.117 E3.78448
G1 X51.064 Y34.791 E3.83643
G1 X50.968 Y35.043 E3.85667
G1 X51.010 Y35.230 E3.87096
G1 X51.658 Y35.845 E3.93782
G1 X52.403 Y36.626 E4.01855
G1 X53.173 Y37.525 E4.10718
G1 X53.823 Y38.379 E4.18746
G1 X54.360 Y39.171 E4.25907
G1 X54.874 Y40.033 E4.33418
G1 X55.358 Y40.971 E4.41318
G1 X55.706 Y41.758 E4.47760
G1 X56.026 Y42.621 E4.54645
G1 X56.307 Y43.559 E4.61975
G1 X56.484 Y44.324 E4.67848
G1 X56.627 Y45.161 E4.74201
G1 X56.720 Y46.068 E4.81028
G1 X56.751 Y46.934 E4.87516
G1 X56.684 Y48.302 E4.97762
G1 X56.447 Y49.765 E5.08855
G1 X56.063 Y51.121 E5.19403
G1 X55.554 Y52.360 E5.29424
G1 X54.938 Y53.473 E5.38943
G1 X54.663 Y53.866 E5.42533
G1 X54.632 Y53.946 E5.43177
G1 X54.527 Y55.102 E5.51865
G1 X54.671 Y55.294 E5.53658
G1 X55.075 Y56.195 E5.61043
G1 X55.159 Y56.277 E5.61927
G1 X56.079 Y56.727 E5.69586
G1 X56.969 Y57.266 E5.77378
G1 X57.597 Y57.744 E5.83282
G1 X57.793 Y57.926 E5.85286
G1 X58.311 Y58.510 E5.91125
G1 X58.515 Y58.814 E5.93866
G1 X58.762 Y59.313 E5.98033
G1 X58.884 Y59.682 E6.00939
G1 X58.989 Y60.270 E6.05408
G1 X58.988 Y60.767 E6.09125
G1 X58.856 Y61.481 E6.14566
G1 X58.706 Y61.899 E6.17882
G1 X58.384 Y62.481 E6.22863
G1 X58.195 Y62.745 E6.25292
G1 X57.790 Y63.188 E6.29783
G1 X57.625 Y63.342 E6.31474
G1 X57.157 Y63.709 E6.35925
G1 X56.975 Y63.831 E6.37564
G1 X55.869 Y64.431 E6.46980
G1 X54.682 Y64.895 E6.56516
G1 X53.554 Y65.235 E6.65335
G1 X52.942 Y65.382 E6.70048
G1 X52.804 Y65.569 E6.71783
G1 X52.894 Y66.834 E6.81280
G1 X53.202 Y69.800 E7.03590
G1 X53.412 Y71.378 E7.15504
G1 X53.666 Y72.979 E7.27635
G1 X53.962 Y74.543 E7.39549
G1 X54.300 Y76.020 E7.50888
G1 X54.676 Y77.355 E7.61266
G1 X55.077 Y78.485 E7.70238
G1 X55.500 Y79.391 E7.77719
G1 X55.659 Y79.659 E7.80053
G1 X55.821 Y79.883 E7.82122
G1 X55.905 Y79.943 E7.82895
G1 X56.708 Y80.185 E7.89170
G1 X57.785 Y81.587 E8.02399
G1 X57.851 Y83.551 E8.17105
G1 X57.945 Y84.433 E8.23747
G1 X58.089 Y85.206 E8.29631
G1 X58.273 Y85.871 E8.34791
G1 X58.488 Y86.438 E8.39334
G1 X58.727 Y86.924 E8.43381
G1 X58.987 Y87.343 E8.47075
G1 X59.267 Y87.709 E8.50527
G1 X59.569 Y88.036 E8.53855
G1 X59.896 Y88.332 E8.57151
G1 X60.257 Y88.610 E8.60562
G1 X60.611 Y88.845 E8.63741
G1 X61.476 Y89.323 E8.71139
G1 X62.499 Y89.802 E8.79595
G1 X63.144 Y90.137 E8.85031
G1 X63.383 Y90.295 E8.87179
G1 X63.988 Y90.792 E8.93038
G1 X64.193 Y91.001 E8.95228
G1 X64.655 Y91.585 E9.00802
G1 X64.813 Y91.836 E9.03020
G1 X65.027 Y92.273 E9.06657
G1 X65.372 Y92.310 E9.09260
G1 X65.807 Y91.762 E9.14495
G1 X66.012 Y91.553 E9.16685
G1 X66.617 Y91.055 E9.22548
G1 X66.856 Y90.897 E9.24696
G1 X67.555 Y90.535 E9.30583
G1 X68.524 Y90.084 E9.38586
G1 X69.389 Y89.605 E9.45984
G1 X69.743 Y89.370 E9.49164
G1 X70.095 Y89.100 E9.52480
G1 X70.431 Y88.796 E9.55871
G1 X70.733 Y88.470 E9.59198
G1 X71.013 Y88.103 E9.62650
G1 X71.265 Y87.697 E9.66229
G1 X71.512 Y87.199 E9.70392
G1 X71.727 Y86.631 E9.74935
G1 X71.911 Y85.966 E9.80094
G1 X72.054 Y85.206 E9.85885
G1 X72.150 Y84.300 E9.92705
G1 X72.215 Y82.347 E10.07327
G1 X73.292 Y80.945 E10.20556
G1 X74.095 Y80.703 E10.26830
G1 X74.179 Y80.643 E10.27603
G1 X74.341 Y80.419 E10.29673
G1 X74.500 Y80.151 E10.32006
G1 X74.923 Y79.245 E10.39487
G1 X75.324 Y78.115 E10.48459
G1 X75.700 Y76.780 E10.58838
G1 X76.038 Y75.303 E10.70177
G1 X76.333 Y73.744 E10.82056
G1 X76.587 Y72.142 E10.94192
G1 X76.798 Y70.560 E11.06135
G1 X77.106 Y67.595 E11.28446
G1 X77.196 Y66.329 E11.37942
G1 X77.058 Y66.142 E11.39678
G1 X76.446 Y65.996 E11.44390
G1 X75.318 Y65.655 E11.53209
G1 X74.131 Y65.191 E11.62745
G1 X73.025 Y64.591 E11.72161
G1 X72.843 Y64.469 E11.73801
G1 X72.375 Y64.102 E11.78251
G1 X72.210 Y63.948 E11.79942
G1 X71.805 Y63.505 E11.84433
G1 X71.616 Y63.242 E11.86862
G1 X71.294 Y62.659 E11.91843
G1 X71.145 Y62.242 E11.95158
G1 X71.012 Y61.527 E12.00601
G1 X71.011 Y61.030 E12.04318
G1 X71.116 Y60.442 E12.08786
G1 X71.238 Y60.073 E12.11692
G1 X71.485 Y59.574 E12.15861
G1 X71.689 Y59.270 E12.18600
G1 X72.207 Y58.687 E12.24440
G1 X72.403 Y58.504 E12.26443
G1 X73.031 Y58.026 E12.32348
G1 X73.921 Y57.487 E12.40140
G1 X74.841 Y57.038 E12.47798
G1 X74.925 Y56.955 E12.48683
G1 X75.329 Y56.054 E12.56067
G1 X75.473 Y55.863 E12.57861
G1 X75.368 Y54.706 E12.66548
G1 X75.337 Y54.626 E12.67192
G1 X75.062 Y54.233 E12.70783
G1 X74.516 Y53.263 E12.79116
G1 X73.937 Y51.881 E12.90322
G1 X73.553 Y50.525 E13.00870
G1 X73.316 Y49.062 E13.11962
G1 X73.249 Y47.570 E13.23140
G1 X73.286 Y46.744 E13.29326
G1 X73.373 Y45.921 E13.35523
G1 X73.516 Y45.084 E13.41877
G1 X73.715 Y44.236 E13.48392
G1 X73.974 Y43.381 E13.55080
G1 X74.294 Y42.518 E13.61965
G1 X74.678 Y41.655 E13.69035
G1 X75.126 Y40.793 E13.76307
G1 X75.640 Y39.931 E13.83818
G1 X76.177 Y39.139 E13.90979
G1 X76.827 Y38.285 E13.99007
G1 X77.548 Y37.440 E14.07319
G1 X78.342 Y36.605 E14.15943
G1 X78.990 Y35.990 E14.22629
G1 X79.032 Y35.804 E14.24059
G1 X78.936 Y35.551 E14.26081
G1 X78.768 Y34.877 E14.31277
G1 X78.738 Y34.361 E14.35150
G1 X78.844 Y33.558 E14.41212
G1 X79.062 Y32.972 E14.45893
G1 X79.495 Y32.316 E14.51775
G1 X79.782 Y32.001 E14.54959
G1 X80.455 Y31.477 E14.61344
G1 X81.150 Y31.084 E14.67320
G1 X82.227 Y30.638 E14.76043
G1 X82.946 Y30.437 E14.81628
G1 X83.734 Y30.241 E14.87707
G1 X84.391 Y30.146 E14.92671
G1 X85.064 Y30.110 E14.97715
G1 X85.651 Y30.127 E15.02113
G1 X85.909 Y30.146 E15.04045
G1 X86.708 Y30.270 E15.10099
G1 X88.072 Y30.638 E15.20673
G1 X89.320 Y31.169 E15.30820
G1 X90.011 Y31.592 E15.36882
G1 X90.518 Y32.001 E15.41756
G1 X90.804 Y32.316 E15.44940
G1 X91.237 Y32.972 E15.50823
G1 X91.456 Y33.558 E15.55503
G1 X91.561 Y34.361 E15.61566
G1 X91.532 Y34.878 E15.65439
G1 X91.364 Y35.551 E15.70634
G1 X91.267 Y35.804 E15.72657
G1 X91.310 Y35.990 E15.74086
G1 X91.958 Y36.605 E15.80772
G1 X92.702 Y37.386 E15.88846
G1 X94.046 Y38.952 E16.04286
G1 X94.027 Y39.438 E16.07931
G1 X94.179 Y39.624 E16.09726
G1 X94.608 Y39.690 E16.12970
G1 X95.622 Y41.655 E16.29517
G1 X96.038 Y42.598 E16.37231
G1 X96.326 Y43.381 E16.43472
G1 X96.584 Y44.236 E16.50159
G1 X96.800 Y45.168 E16.57318
G1 X96.926 Y45.921 E16.63028
G1 X97.014 Y46.744 E16.69225
G1 X97.050 Y47.695 E16.76343
G1 X96.984 Y49.062 E16.86589
G1 X96.746 Y50.525 E16.97681
G1 X96.362 Y51.881 E17.08230
G1 X95.853 Y53.120 E17.18251
G1 X95.238 Y54.233 E17.27769
G1 X94.962 Y54.626 E17.31359
G1 X94.932 Y54.706 E17.32004
G1 X94.827 Y55.863 E17.40691
G1 X94.971 Y56.054 E17.42485
G1 X95.375 Y56.955 E17.49870
G1 X95.459 Y57.038 E17.50754
G1 X96.378 Y57.487 E17.58412
G1 X97.269 Y58.026 E17.66204
G1 X97.896 Y58.504 E17.72109
G1 X98.093 Y58.687 E17.74112
G1 X98.610 Y59.270 E17.79952
G1 X98.815 Y59.574 E17.82693
G1 X99.062 Y60.073 E17.86859
G1 X99.183 Y60.442 E17.89766
G1 X99.289 Y61.030 E17.94235
G1 X99.287 Y61.527 E17.97952
G1 X99.155 Y62.242 E18.03393
G1 X99.006 Y62.659 E18.06709
G1 X98.684 Y63.242 E18.11690
G1 X98.495 Y63.505 E18.14119
G1 X98.090 Y63.948 E18.18610
G1 X97.924 Y64.102 E18.20300
G1 X97.457 Y64.469 E18.24751
G1 X97.274 Y64.591 E18.26391
G1 X96.169 Y65.191 E18.35807
G1 X94.982 Y65.655 E18.45343
G1 X93.854 Y65.996 E18.54162
G1 X93.241 Y66.142 E18.58874
G1 X93.104 Y66.329 E18.60610
G1 X93.193 Y67.595 E18.70106
G1 X93.501 Y70.560 E18.92417
G1 X93.712 Y72.138 E19.04331
G1 X93.966 Y73.739 E19.16461
G1 X94.262 Y75.303 E19.28375
G1 X94.600 Y76.780 E19.39714
G1 X94.975 Y78.115 E19.50093
G1 X95.377 Y79.245 E19.59065
G1 X95.799 Y80.151 E19.66546
G1 X95.959 Y80.419 E19.68879
G1 X96.121 Y80.643 E19.70949
G1 X96.205 Y80.703 E19.71722
G1 X97.007 Y80.945 E19.77997
G1 X98.085 Y82.347 E19.91225
G1 X98.151 Y84.311 E20.05932
G1 X98.244 Y85.193 E20.12573
G1 X98.388 Y85.966 E20.18458
G1 X98.573 Y86.631 E20.23618
G1 X98.787 Y87.199 E20.28160
G1 X99.027 Y87.684 E20.32208
G1 X99.287 Y88.103 E20.35902
G1 X99.567 Y88.470 E20.39354
G1 X99.869 Y88.796 E20.42682
G1 X100.195 Y89.092 E20.45978
G1 X100.556 Y89.370 E20.49388
G1 X100.910 Y89.605 E20.52568
G1 X101.775 Y90.084 E20.59966
G1 X102.799 Y90.562 E20.68422
G1 X103.443 Y90.897 E20.73857
G1 X103.683 Y91.055 E20.76006
G1 X104.287 Y91.553 E20.81865
G1 X104.493 Y91.761 E20.84055
G1 X104.955 Y92.345 E20.89628
G1 X105.113 Y92.596 E20.91847
G1 X105.427 Y93.239 E20.97200
G1 X105.530 Y93.528 E20.99495
G1 X105.690 Y94.208 E21.04725
G1 X105.727 Y94.536 E21.07192
G1 X105.723 Y95.018 E21.10803
G1 X105.771 Y95.135 E21.11751
G1 X106.039 Y95.404 E21.14589
G1 X106.039 Y99.049 E21.41868
G1 X104.429 Y100.659 E21.58913
G1 X65.871 Y100.659 E24.47464
G1 X64.750 Y99.539 E24.59320
G1 X64.489 Y99.539 E24.61273
G1 X64.129 Y99.899 E24.65084
G1 X25.571 Y99.899 E27.53636
G1 X23.961 Y98.288 E27.70681
G1 X23.961 Y94.643 E27.97959
G1 X24.229 Y94.375 E28.00798
G1 X24.277 Y94.258 E28.01745
G1 X24.273 Y93.775 E28.05359
G1 X24.310 Y93.447 E28.07826
G1 X24.470 Y92.768 E28.13052
G1 X24.573 Y92.479 E28.15347
G1 X24.887 Y91.836 E28.20702
G1 X25.045 Y91.585 E28.22923
G1 X25.507 Y91.002 E28.28491
G1 X25.712 Y90.793 E28.30681
G1 X26.317 Y90.295 E28.36545
G1 X26.557 Y90.137 E28.38693
G1 X27.255 Y89.775 E28.44580
G1 X28.225 Y89.323 E28.52582
G1 X29.090 Y88.845 E28.59981
G1 X29.453 Y88.604 E28.63242
G1 X29.795 Y88.340 E28.66477
G1 X30.121 Y88.045 E28.69764
G1 X30.423 Y87.721 E28.73084
G1 X30.713 Y87.343 E28.76646
G1 X30.966 Y86.937 E28.80225
G1 X31.213 Y86.438 E28.84388
G1 X31.427 Y85.871 E28.88931
G1 X31.612 Y85.206 E28.94090
G1 X31.754 Y84.446 E28.99882
G1 X31.850 Y83.539 E29.06701
G1 X31.915 Y81.587 E29.21323
G1 X32.993 Y80.185 E29.34552
G1 X33.795 Y79.943 E29.40827
G1 X33.879 Y79.883 E29.41599
G1 X34.041 Y79.659 E29.43669
G1 X34.201 Y79.391 E29.46002
G1 X34.623 Y78.485 E29.53483
G1 X35.025 Y77.355 E29.62455
G1 X35.400 Y76.020 E29.72834
G1 X35.738 Y74.543 E29.84173
G1 X36.034 Y72.979 E29.96087
G1 X36.288 Y71.382 E30.08189
G1 X36.499 Y69.800 E30.20132
G1 X36.807 Y66.834 E30.42442
G1 X36.896 Y65.569 E30.51938
G1 X36.759 Y65.382 E30.53674
G1 X36.146 Y65.235 E30.58387
G1 X35.018 Y64.895 E30.67206
G1 X33.831 Y64.431 E30.76741
G1 X32.726 Y63.831 E30.86158
G1 X32.543 Y63.709 E30.87798
G1 X32.076 Y63.342 E30.92248
G1 X31.910 Y63.188 E30.93938
G1 X31.505 Y62.745 E30.98429
G1 X31.316 Y62.481 E31.00858
G1 X30.994 Y61.899 E31.05839
G1 X30.845 Y61.482 E31.09155
G1 X30.713 Y60.766 E31.14597
G1 X30.711 Y60.270 E31.18314
G1 X30.817 Y59.682 E31.22783
G1 X30.938 Y59.313 E31.25689
G1 X31.185 Y58.814 E31.29857
G1 X31.390 Y58.510 E31.32596
G1 X31.907 Y57.926 E31.38436
G1 X32.104 Y57.744 E31.40439
G1 X32.731 Y57.266 E31.46344
G1 X33.622 Y56.727 E31.54136
G1 X34.541 Y56.277 E31.61795
G1 X34.626 Y56.195 E31.62679
G1 X35.029 Y55.294 E31.70064
G1 X35.173 Y55.102 E31.71857
G1 X35.068 Y53.946 E31.80544
G1 X35.038 Y53.866 E31.81189
G1 X34.762 Y53.473 E31.84779
G1 X34.147 Y52.360 E31.94297
G1 X33.638 Y51.121 E32.04318
G1 X33.289 Y49.920 E32.13683
G1 X33.034 Y48.464 E32.24742
G1 X32.949 Y46.810 E32.37136
G1 X32.986 Y45.984 E32.43323
G1 X33.062 Y45.246 E32.48877
G1 X33.200 Y44.408 E32.55231
G1 X33.416 Y43.476 E32.62389
G1 X33.674 Y42.621 E32.69076
G1 X33.995 Y41.758 E32.75961
G1 X34.342 Y40.971 E32.82403
G1 X35.392 Y38.930 E32.99577
G1 X35.761 Y38.873 E33.02373
G1 X36.441 Y39.374 F30000.000
G1 F2100
G1 X36.593 Y39.189 E33.04168
G1 X36.563 Y38.403 E33.10052
G1 X37.738 Y37.034 E33.23553
G1 X38.510 Y36.226 E33.31922
G1 X39.423 Y35.367 E33.41298
G1 X39.461 Y35.155 E33.42914
G1 X39.301 Y34.851 E33.45480
G1 X39.210 Y34.611 E33.47405
G1 X39.064 Y34.027 E33.51910
G1 X39.041 Y33.623 E33.54938
G1 X39.130 Y32.943 E33.60066
G1 X39.301 Y32.485 E33.63726
