; generated by Slic3r 1.3.0 on 2021-07-29 at 12:48:14

; external perimeters extrusion width = 0.44mm (2.78mm^3/s)
; perimeters extrusion width = 0.40mm (7.14mm^3/s)
; infill extrusion width = 0.50mm (10.97mm^3/s)
; solid infill extrusion width = 0.60mm (6.68mm^3/s)
; top infill extrusion width = 0.40mm (2.14mm^3/s)

M107
M190 S80 ; set bed temperature and wait for it to be reached
M104 S210 ; set temperature
G28 ; home all axes
G1 Z5 F5000 ; lift nozzle

; Filament gcode

M109 S210 ; set temperature and wait for it to be reached
G21 ; set units to millimeters
G90 ; use absolute coordinates
M82 ; use absolute distances for extrusion
G92 E0
G1 Z0.300 F30000.000
G1 E-2.00000 F2400.00000
G92 E0
G1 X52.663 Y52.464 F30000.000
G1 E2.00000 F2400.00000
G1 F2100
G1 X53.281 Y51.909 E2.05546
G1 X54.154 Y51.257 E2.12823
G1 X55.100 Y50.694 E2.20178
G1 X56.099 Y50.232 E2.27532
G1 X57.142 Y49.878 E2.34888
G1 X58.215 Y49.635 E2.42244
G1 X59.308 Y49.505 E2.49596
G1 X60.409 Y49.490 E2.56947
G1 X61.505 Y49.590 E2.64300
G1 X62.585 Y49.805 E2.71661
G1 X63.636 Y50.131 E2.79011
G1 X64.648 Y50.565 E2.86365
G1 X64.900 Y50.694 E2.88259
G1 X65.846 Y51.257 E2.95612
G1 X66.728 Y51.916 E3.02968
G1 X67.536 Y52.663 E3.10323
G1 X68.262 Y53.492 E3.17680
G1 X68.897 Y54.391 E3.25032
G1 X69.435 Y55.352 E3.32392
G1 X69.869 Y56.363 E3.39740
G1 X70.122 Y57.142 E3.45210
G1 X70.365 Y58.215 E3.52566
G1 X70.495 Y59.308 E3.59918
G1 X70.510 Y60.409 E3.67275
G1 X70.409 Y61.505 E3.74627
G1 X70.195 Y62.585 E3.81983
G1 X70.122 Y62.858 E3.83871
G1 X69.768 Y63.901 E3.91226
G1 X69.306 Y64.900 E3.98581
G1 X68.743 Y65.846 E4.05935
G1 X68.084 Y66.728 E4.13291
G1 X67.337 Y67.536 E4.20645
G1 X66.509 Y68.262 E4.27999
G1 X65.609 Y68.897 E4.35355
G1 X64.649 Y69.435 E4.42708
G1 X63.637 Y69.869 E4.50063
G1 X62.858 Y70.122 E4.55532
G1 X61.785 Y70.365 E4.62886
G1 X60.692 Y70.495 E4.70241
G1 X59.591 Y70.510 E4.77597
G1 X58.495 Y70.409 E4.84950
G1 X57.415 Y70.195 E4.92305
G1 X56.363 Y69.869 E4.99661
G1 X55.352 Y69.435 E5.07010
G1 X55.100 Y69.306 E5.08903
G1 X54.154 Y68.743 E5.16258
G1 X53.272 Y68.084 E5.23613
G1 X52.464 Y67.337 E5.30967
G1 X51.738 Y66.509 E5.38322
G1 X51.103 Y65.609 E5.45678
G1 X50.565 Y64.648 E5.53037
G1 X50.131 Y63.637 E5.60385
G1 X49.805 Y62.585 E5.67741
G1 X49.635 Y61.785 E5.73211
G1 X49.505 Y60.692 E5.80563
G1 X49.490 Y59.591 E5.87920
G1 X49.591 Y58.495 E5.95272
G1 X49.805 Y57.415 E6.02628
G1 X49.878 Y57.141 E6.04521
G1 X50.232 Y56.099 E6.11871
G1 X50.694 Y55.100 E6.19226
G1 X51.257 Y54.154 E6.26580
G1 X51.916 Y53.272 E6.33936
G1 X52.621 Y52.506 E6.40889
G1 X53.042 Y52.842 F30000.000
G1 F2100
G1 X53.609 Y52.332 E6.45982
G1 X54.445 Y51.706 E6.52963
G1 X55.343 Y51.171 E6.59944
G1 X56.291 Y50.732 E6.66923
G1 X57.280 Y50.395 E6.73904
G1 X58.299 Y50.164 E6.80886
G1 X59.336 Y50.040 E6.87864
G1 X60.381 Y50.025 E6.94841
G1 X61.421 Y50.119 E7.01819
G1 X62.447 Y50.322 E7.08805
G1 X63.444 Y50.631 E7.15781
G1 X64.405 Y51.042 E7.22760
G1 X64.657 Y51.171 E7.24654
G1 X65.555 Y51.706 E7.31633
G1 X66.391 Y52.332 E7.38614
G1 X67.158 Y53.042 E7.45594
G1 X67.846 Y53.829 E7.52577
G1 X68.448 Y54.682 E7.59555
G1 X68.958 Y55.595 E7.66540
G1 X69.369 Y56.555 E7.73514
G1 X69.605 Y57.280 E7.78609
G1 X69.836 Y58.299 E7.85591
G1 X69.960 Y59.336 E7.92568
G1 X69.975 Y60.381 E7.99550
G1 X69.880 Y61.422 E8.06528
G1 X69.678 Y62.447 E8.13510
G1 X69.605 Y62.720 E8.15398
G1 X69.268 Y63.709 E8.22378
G1 X68.829 Y64.657 E8.29359
G1 X68.294 Y65.555 E8.36338
G1 X67.668 Y66.391 E8.43320
G1 X66.958 Y67.158 E8.50299
G1 X66.172 Y67.846 E8.57279
G1 X65.318 Y68.448 E8.64260
G1 X64.406 Y68.957 E8.71239
G1 X63.445 Y69.369 E8.78219
G1 X62.720 Y69.605 E8.83314
G1 X61.701 Y69.836 E8.90293
G1 X60.664 Y69.960 E8.97273
G1 X59.619 Y69.975 E9.04255
G1 X58.578 Y69.880 E9.11233
G1 X57.553 Y69.678 E9.18214
G1 X56.555 Y69.369 E9.25196
G1 X55.595 Y68.958 E9.32170
G1 X55.343 Y68.829 E9.34063
G1 X54.445 Y68.294 E9.41043
G1 X53.609 Y67.668 E9.48024
G1 X52.842 Y66.958 E9.55004
G1 X52.154 Y66.172 E9.61984
G1 X51.552 Y65.318 E9.68965
G1 X51.042 Y64.405 E9.75949
G1 X50.631 Y63.445 E9.82924
G1 X50.395 Y62.720 E9.88019
G1 X50.164 Y61.701 E9.95000
G1 X50.040 Y60.664 E10.01978
G1 X50.025 Y59.619 E10.08960
G1 X50.120 Y58.578 E10.15938
G1 X50.322 Y57.553 E10.22919
G1 X50.396 Y57.280 E10.24812
G1 X50.732 Y56.291 E10.31788
G1 X51.171 Y55.343 E10.38768
G1 X51.706 Y54.445 E10.45748
G1 X52.332 Y53.609 E10.52729
G1 X53.000 Y52.885 E10.59308
G1 X53.421 Y53.221 F30000.000
G1 F2100
G1 X54.166 Y52.570 E10.65914
G1 X54.747 Y52.149 E10.70712
G1 X55.586 Y51.648 E10.77239
G1 X56.483 Y51.232 E10.83844
G1 X57.419 Y50.913 E10.90451
G1 X58.383 Y50.693 E10.97057
G1 X59.364 Y50.575 E11.03661
G1 X60.353 Y50.560 E11.10264
G1 X61.337 Y50.648 E11.16867
G1 X62.308 Y50.840 E11.23479
G1 X63.253 Y51.131 E11.30081
G1 X64.162 Y51.519 E11.36685
G1 X64.414 Y51.648 E11.38578
G1 X65.263 Y52.155 E11.45183
G1 X66.054 Y52.748 E11.51790
G1 X66.779 Y53.421 E11.58395
G1 X67.430 Y54.166 E11.65003
G1 X67.999 Y54.974 E11.71607
G1 X68.481 Y55.838 E11.78217
G1 X68.869 Y56.747 E11.84817
G1 X69.087 Y57.419 E11.89538
G1 X69.307 Y58.383 E11.96145
G1 X69.425 Y59.364 E12.02748
G1 X69.440 Y60.353 E12.09356
G1 X69.351 Y61.338 E12.15959
G1 X69.160 Y62.308 E12.22566
G1 X69.087 Y62.581 E12.24454
G1 X68.768 Y63.517 E12.31060
G1 X68.352 Y64.414 E12.37666
G1 X67.845 Y65.263 E12.44271
G1 X67.252 Y66.054 E12.50878
G1 X66.579 Y66.779 E12.57483
G1 X65.835 Y67.429 E12.64088
G1 X65.026 Y67.999 E12.70695
G1 X64.162 Y68.480 E12.77299
G1 X63.253 Y68.869 E12.83905
G1 X62.581 Y69.087 E12.88625
G1 X61.617 Y69.307 E12.95229
G1 X60.636 Y69.425 E13.01835
G1 X59.647 Y69.440 E13.08443
G1 X58.662 Y69.351 E13.15046
G1 X57.692 Y69.160 E13.21653
G1 X56.747 Y68.869 E13.28260
G1 X55.838 Y68.481 E13.34860
G1 X55.586 Y68.352 E13.36753
G1 X54.737 Y67.845 E13.43358
G1 X53.946 Y67.252 E13.49965
G1 X53.221 Y66.579 E13.56570
G1 X52.571 Y65.835 E13.63175
G1 X52.001 Y65.026 E13.69782
G1 X51.519 Y64.162 E13.76392
G1 X51.131 Y63.253 E13.82992
G1 X50.913 Y62.581 E13.87712
G1 X50.693 Y61.617 E13.94319
G1 X50.575 Y60.636 E14.00923
G1 X50.560 Y59.647 E14.07530
G1 X50.649 Y58.662 E14.14134
G1 X50.840 Y57.692 E14.20740
G1 X50.913 Y57.418 E14.22633
G1 X51.232 Y56.483 E14.29235
G1 X51.648 Y55.586 E14.35840
G1 X52.155 Y54.737 E14.42446
G1 X52.748 Y53.946 E14.49052
G1 X53.378 Y53.263 E14.55257
G1 X53.800 Y53.600 F30000.000
G1 F2100
G1 X54.283 Y53.165 E14.59601
G1 X55.029 Y52.604 E14.65833
G1 X55.829 Y52.125 E14.72064
G1 X56.675 Y51.733 E14.78295
G1 X57.557 Y51.430 E14.84527
G1 X58.467 Y51.222 E14.90759
G1 X59.392 Y51.110 E14.96988
G1 X60.325 Y51.095 E15.03217
G1 X61.253 Y51.178 E15.09446
G1 X62.170 Y51.357 E15.15682
G1 X63.061 Y51.631 E15.21910
G1 X63.919 Y51.997 E15.28140
G1 X64.171 Y52.125 E15.30033
G1 X64.971 Y52.604 E15.36264
G1 X65.717 Y53.165 E15.42496
G1 X66.400 Y53.800 E15.48727
G1 X67.013 Y54.503 E15.54960
G1 X67.549 Y55.266 E15.61189
G1 X68.003 Y56.081 E15.67425
G1 X68.369 Y56.939 E15.73651
G1 X68.643 Y57.830 E15.79883
G1 X68.778 Y58.467 E15.84229
G1 X68.890 Y59.392 E15.90458
G1 X68.905 Y60.325 E15.96691
G1 X68.822 Y61.254 E16.02920
G1 X68.643 Y62.170 E16.09152
G1 X68.570 Y62.443 E16.11040
G1 X68.267 Y63.325 E16.17272
G1 X67.875 Y64.171 E16.23503
G1 X67.396 Y64.971 E16.29733
G1 X66.835 Y65.717 E16.35966
G1 X66.200 Y66.400 E16.42196
G1 X65.497 Y67.013 E16.48427
G1 X64.734 Y67.550 E16.54659
G1 X63.919 Y68.003 E16.60889
G1 X63.061 Y68.369 E16.67121
G1 X62.170 Y68.643 E16.73352
G1 X61.522 Y68.780 E16.77775
G1 X60.608 Y68.890 E16.83928
G1 X59.675 Y68.905 E16.90160
G1 X58.746 Y68.822 E16.96390
G1 X57.830 Y68.643 E17.02622
G1 X56.939 Y68.369 E17.08854
G1 X56.081 Y68.003 E17.15080
G1 X55.829 Y67.875 E17.16973
G1 X55.029 Y67.396 E17.23203
G1 X54.283 Y66.835 E17.29435
G1 X53.600 Y66.200 E17.35666
G1 X52.987 Y65.497 E17.41897
G1 X52.450 Y64.734 E17.48129
G1 X51.997 Y63.919 E17.54364
G1 X51.631 Y63.061 E17.60590
G1 X51.430 Y62.443 E17.64936
G1 X51.222 Y61.533 E17.71168
G1 X51.110 Y60.608 E17.77397
G1 X51.095 Y59.675 E17.83630
G1 X51.178 Y58.746 E17.89859
G1 X51.357 Y57.830 E17.96092
G1 X51.430 Y57.557 E17.97984
G1 X51.733 Y56.675 E18.04211
G1 X52.125 Y55.829 E18.10442
G1 X52.604 Y55.029 E18.16674
G1 X53.165 Y54.283 E18.22905
G1 X53.757 Y53.642 E18.28735
G1 X54.178 Y53.979 F30000.000
G1 F2100
G1 X54.620 Y53.581 E18.32705
G1 X55.320 Y53.054 E18.38562
G1 X56.072 Y52.603 E18.44419
G1 X56.867 Y52.233 E18.50275
G1 X57.696 Y51.948 E18.56133
G1 X58.551 Y51.751 E18.61991
G1 X59.421 Y51.645 E18.67845
G1 X60.297 Y51.630 E18.73700
G1 X61.170 Y51.707 E18.79555
G1 X62.031 Y51.874 E18.85416
G1 X62.869 Y52.131 E18.91270
G1 X63.675 Y52.474 E18.97126
G1 X63.928 Y52.603 E18.99018
G1 X64.679 Y53.054 E19.04874
G1 X65.380 Y53.581 E19.10731
G1 X66.021 Y54.178 E19.16588
G1 X66.597 Y54.840 E19.22446
G1 X67.100 Y55.558 E19.28301
G1 X67.526 Y56.325 E19.34162
G1 X67.869 Y57.131 E19.40014
G1 X68.052 Y57.696 E19.43985
G1 X68.249 Y58.551 E19.49843
G1 X68.355 Y59.421 E19.55698
G1 X68.370 Y60.297 E19.61556
G1 X68.293 Y61.170 E19.67411
G1 X68.126 Y62.031 E19.73269
G1 X68.052 Y62.304 E19.75156
G1 X67.767 Y63.133 E19.81014
G1 X67.397 Y63.928 E19.86870
G1 X66.946 Y64.679 E19.92726
G1 X66.419 Y65.380 E19.98584
G1 X65.822 Y66.021 E20.04440
G1 X65.160 Y66.597 E20.10297
G1 X64.442 Y67.100 E20.16154
G1 X63.676 Y67.526 E20.22010
G1 X62.869 Y67.869 E20.27867
G1 X62.031 Y68.126 E20.33724
G1 X61.438 Y68.251 E20.37774
G1 X60.579 Y68.355 E20.43550
G1 X59.703 Y68.370 E20.49408
G1 X58.830 Y68.293 E20.55263
G1 X57.969 Y68.126 E20.61121
G1 X57.131 Y67.869 E20.66978
G1 X56.325 Y67.526 E20.72830
G1 X56.072 Y67.397 E20.74722
G1 X55.321 Y66.946 E20.80579
G1 X54.620 Y66.419 E20.86436
G1 X53.979 Y65.822 E20.92292
G1 X53.403 Y65.160 E20.98149
G1 X52.900 Y64.442 E21.04007
G1 X52.474 Y63.675 E21.09867
G1 X52.131 Y62.869 E21.15719
G1 X51.948 Y62.304 E21.19690
G1 X51.751 Y61.449 E21.25548
G1 X51.645 Y60.580 E21.31402
G1 X51.630 Y59.703 E21.37260
G1 X51.707 Y58.830 E21.43116
G1 X51.874 Y57.969 E21.48973
G1 X51.948 Y57.696 E21.50865
G1 X52.233 Y56.867 E21.56718
G1 X52.603 Y56.072 E21.62575
G1 X53.054 Y55.320 E21.68432
G1 X53.581 Y54.620 E21.74289
G1 X54.136 Y54.021 E21.79744
G1 X54.557 Y54.357 F30000.000
G1 F2100
G1 X54.966 Y53.990 E21.83419
G1 X55.612 Y53.503 E21.88822
G1 X56.315 Y53.080 E21.94305
G1 X57.059 Y52.733 E21.99786
G1 X57.835 Y52.465 E22.05269
G1 X58.634 Y52.280 E22.10752
G1 X59.449 Y52.179 E22.16233
G1 X60.269 Y52.165 E22.21713
G1 X61.086 Y52.236 E22.27194
G1 X61.892 Y52.392 E22.32680
G1 X62.677 Y52.631 E22.38160
G1 X63.432 Y52.951 E22.43641
G1 X63.685 Y53.080 E22.45533
G1 X64.388 Y53.503 E22.51015
G1 X65.043 Y53.997 E22.56497
G1 X65.643 Y54.557 E22.61979
G1 X66.181 Y55.177 E22.67463
G1 X66.651 Y55.849 E22.72944
G1 X67.049 Y56.568 E22.78430
G1 X67.369 Y57.323 E22.83908
G1 X67.535 Y57.835 E22.87504
G1 X67.720 Y58.634 E22.92988
G1 X67.821 Y59.449 E22.98468
G1 X67.835 Y60.269 E23.03952
G1 X67.764 Y61.087 E23.09432
G1 X67.608 Y61.892 E23.14915
G1 X67.535 Y62.165 E23.16803
G1 X67.267 Y62.941 E23.22286
G1 X66.920 Y63.685 E23.27768
G1 X66.497 Y64.388 E23.33250
G1 X66.003 Y65.043 E23.38733
G1 X65.443 Y65.643 E23.44214
G1 X64.823 Y66.181 E23.49697
G1 X64.151 Y66.651 E23.55179
G1 X63.433 Y67.048 E23.60661
G1 X62.677 Y67.369 E23.66143
G1 X61.892 Y67.608 E23.71626
G1 X61.354 Y67.722 E23.75299
G1 X60.551 Y67.821 E23.80703
G1 X59.731 Y67.835 E23.86187
G1 X58.913 Y67.764 E23.91667
G1 X58.108 Y67.608 E23.97150
G1 X57.323 Y67.369 E24.02633
G1 X56.568 Y67.049 E24.08111
G1 X56.315 Y66.920 E24.10003
G1 X55.612 Y66.497 E24.15485
G1 X54.957 Y66.003 E24.20968
G1 X54.357 Y65.443 E24.26450
G1 X53.819 Y64.823 E24.31932
G1 X53.349 Y64.151 E24.37415
G1 X52.951 Y63.432 E24.42900
G1 X52.631 Y62.677 E24.48378
G1 X52.392 Y61.892 E24.53861
G1 X52.280 Y61.366 E24.57458
G1 X52.179 Y60.551 E24.62938
G1 X52.165 Y59.731 E24.68422
G1 X52.236 Y58.913 E24.73902
G1 X52.392 Y58.108 E24.79385
G1 X52.465 Y57.834 E24.81277
G1 X52.733 Y57.059 E24.86756
G1 X53.080 Y56.315 E24.92238
G1 X53.503 Y55.612 E24.97720
G1 X53.997 Y54.957 E25.03203
G1 X54.515 Y54.400 E25.08284
G1 X54.936 Y54.736 F30000.000
G1 F2100
G1 X55.303 Y54.406 E25.11583
G1 X55.904 Y53.952 E25.16613
G1 X56.559 Y53.557 E25.21721
G1 X57.251 Y53.233 E25.26828
G1 X57.973 Y52.982 E25.31937
G1 X58.718 Y52.809 E25.37045
G1 X59.477 Y52.714 E25.42151
G1 X60.241 Y52.700 E25.47257
G1 X61.002 Y52.765 E25.52364
G1 X61.754 Y52.909 E25.57475
G1 X62.485 Y53.131 E25.62580
G1 X63.189 Y53.429 E25.67687
G1 X63.441 Y53.557 E25.69579
G1 X64.096 Y53.952 E25.74686
G1 X64.706 Y54.413 E25.79794
G1 X65.264 Y54.936 E25.84902
G1 X65.765 Y55.514 E25.90011
G1 X66.202 Y56.141 E25.95118
G1 X66.571 Y56.811 E26.00229
G1 X66.869 Y57.515 E26.05332
G1 X67.091 Y58.246 E26.10441
G1 X67.191 Y58.718 E26.13663
G1 X67.286 Y59.477 E26.18769
G1 X67.300 Y60.241 E26.23878
G1 X67.235 Y61.003 E26.28985
G1 X67.091 Y61.754 E26.34093
G1 X67.018 Y62.027 E26.35981
G1 X66.767 Y62.749 E26.41089
G1 X66.443 Y63.441 E26.46197
G1 X66.048 Y64.096 E26.51304
G1 X65.587 Y64.706 E26.56413
G1 X65.064 Y65.264 E26.61520
G1 X64.486 Y65.764 E26.66627
G1 X63.859 Y66.202 E26.71736
G1 X63.190 Y66.571 E26.76843
G1 X62.485 Y66.869 E26.81951
G1 X62.027 Y67.018 E26.85172
G1 X61.282 Y67.191 E26.90279
G1 X60.523 Y67.286 E26.95387
G1 X59.759 Y67.300 E27.00496
G1 X58.997 Y67.235 E27.05602
G1 X58.246 Y67.091 E27.10711
G1 X57.515 Y66.869 E27.15819
G1 X56.811 Y66.571 E27.20923
G1 X56.559 Y66.443 E27.22815
G1 X55.904 Y66.048 E27.27922
G1 X55.294 Y65.587 E27.33030
G1 X54.736 Y65.064 E27.38138
G1 X54.236 Y64.486 E27.43245
G1 X53.798 Y63.859 E27.48354
G1 X53.429 Y63.189 E27.53464
G1 X53.131 Y62.485 E27.58568
G1 X52.982 Y62.027 E27.61790
G1 X52.809 Y61.282 E27.66899
G1 X52.714 Y60.523 E27.72005
G1 X52.700 Y59.759 E27.77114
G1 X52.765 Y58.997 E27.82220
G1 X52.909 Y58.246 E27.87329
G1 X52.982 Y57.973 E27.89220
G1 X53.233 Y57.251 E27.94325
G1 X53.557 Y56.559 E27.99432
G1 X53.952 Y55.904 E28.04540
G1 X54.413 Y55.294 E28.09649
G1 X54.893 Y54.778 E28.14355
G1 X55.315 Y55.115 F30000.000
G1 F2100
G1 X55.631 Y54.830 E28.17201
G1 X56.196 Y54.401 E28.21935
G1 X56.802 Y54.034 E28.26669
G1 X57.443 Y53.733 E28.31402
G1 X58.112 Y53.500 E28.36135
G1 X58.802 Y53.338 E28.40869
G1 X59.505 Y53.249 E28.45601
G1 X60.213 Y53.234 E28.50333
G1 X60.919 Y53.294 E28.55065
G1 X61.615 Y53.427 E28.59802
G1 X62.293 Y53.631 E28.64533
G1 X62.946 Y53.906 E28.69265
G1 X63.198 Y54.034 E28.71156
G1 X63.804 Y54.401 E28.75889
G1 X64.369 Y54.830 E28.80623
G1 X64.885 Y55.315 E28.85356
G1 X65.348 Y55.851 E28.90091
G1 X65.753 Y56.433 E28.94823
G1 X66.094 Y57.054 E28.99559
G1 X66.369 Y57.707 E29.04289
G1 X66.500 Y58.112 E29.07136
G1 X66.662 Y58.802 E29.11870
G1 X66.751 Y59.505 E29.16602
G1 X66.766 Y60.213 E29.21336
G1 X66.706 Y60.919 E29.26068
G1 X66.573 Y61.615 E29.30802
G1 X66.500 Y61.888 E29.32690
G1 X66.267 Y62.557 E29.37424
G1 X65.966 Y63.198 E29.42157
G1 X65.599 Y63.804 E29.46890
G1 X65.170 Y64.369 E29.51624
G1 X64.685 Y64.885 E29.56357
G1 X64.149 Y65.348 E29.61090
G1 X63.567 Y65.753 E29.65824
G1 X62.947 Y66.094 E29.70556
G1 X62.293 Y66.369 E29.75290
G1 X61.888 Y66.500 E29.78137
G1 X61.198 Y66.662 E29.82870
G1 X60.495 Y66.751 E29.87603
G1 X59.787 Y66.766 E29.92337
G1 X59.081 Y66.706 E29.97069
G1 X58.385 Y66.573 E30.01803
G1 X57.707 Y66.369 E30.06537
G1 X57.054 Y66.094 E30.11267
G1 X56.802 Y65.966 E30.13158
G1 X56.196 Y65.599 E30.17891
G1 X55.631 Y65.170 E30.22625
G1 X55.115 Y64.685 E30.27358
G1 X54.652 Y64.149 E30.32091
G1 X54.247 Y63.567 E30.36825
G1 X53.906 Y62.946 E30.41561
G1 X53.631 Y62.293 E30.46291
G1 X53.500 Y61.888 E30.49138
G1 X53.338 Y61.198 E30.53872
G1 X53.249 Y60.495 E30.58604
G1 X53.234 Y59.787 E30.63338
G1 X53.294 Y59.081 E30.68070
G1 X53.427 Y58.385 E30.72804
G1 X53.500 Y58.112 E30.74695
G1 X53.733 Y57.443 E30.79426
G1 X54.034 Y56.802 E30.84159
G1 X54.401 Y56.196 E30.88892
G1 X54.830 Y55.631 E30.93626
G1 X55.272 Y55.157 E30.97958
G1 X55.693 Y55.493 F30000.000
G1 F2100
G1 X55.968 Y55.246 E31.00430
G1 X56.487 Y54.850 E31.04789
G1 X57.045 Y54.512 E31.09148
G1 X57.635 Y54.233 E31.13507
G1 X58.251 Y54.017 E31.17866
G1 X58.886 Y53.867 E31.22225
