; generated by Slic3r 1.3.0 on 2021-07-29 at 02:58:45

; external perimeters extrusion width = 0.44mm (2.78mm^3/s)
; perimeters extrusion width = 0.40mm (7.14mm^3/s)
; infill extrusion width = 0.50mm (10.97mm^3/s)
; solid infill extrusion width = 0.60mm (6.68mm^3/s)
; top infill extrusion width = 0.40mm (2.14mm^3/s)

M107
M190 S80 ; set bed temperature and wait for it to be reached
M104 S210 ; set temperature
G28 ; home all axes
G1 Z5 F5000 ; lift nozzle

; Filament gcode

M109 S210 ; set temperature and wait for it to be reached
G21 ; set units to millimeters
G90 ; use absolute coordinates
M82 ; use absolute distances for extrusion
G92 E0
G1 Z0.300 F30000.000
G1 E-2.00000 F2400.00000
G92 E0
G1 X52.038 Y51.728 F30000.000
G1 E2.00000 F2400.00000
G1 F2100
G1 X52.605 Y51.218 E2.05092
G1 X52.947 Y50.941 E2.08031
G1 X53.564 Y50.493 E2.13125
G1 X53.932 Y50.253 E2.16062
G1 X54.592 Y49.872 E2.21154
G1 X54.984 Y49.672 E2.24093
G1 X55.681 Y49.362 E2.29187
G1 X56.092 Y49.205 E2.32124
G1 X56.816 Y48.969 E2.37217
G1 X57.241 Y48.855 E2.40154
G1 X57.987 Y48.697 E2.45249
G1 X58.421 Y48.628 E2.48186
G1 X59.179 Y48.548 E2.53277
G1 X59.619 Y48.525 E2.56217
G1 X60.380 Y48.525 E2.61305
G1 X60.820 Y48.548 E2.64248
G1 X61.578 Y48.628 E2.69335
G1 X62.013 Y48.697 E2.72279
G1 X62.758 Y48.855 E2.77370
G1 X63.183 Y48.969 E2.80310
G1 X63.908 Y49.204 E2.85399
G1 X64.319 Y49.362 E2.88340
G1 X65.016 Y49.672 E2.93435
G1 X65.407 Y49.872 E2.96372
G1 X66.068 Y50.253 E3.01466
G1 X66.436 Y50.493 E3.04403
G1 X67.053 Y50.941 E3.09497
G1 X67.395 Y51.217 E3.12434
G1 X67.962 Y51.728 E3.17528
G1 X68.272 Y52.038 E3.20465
G1 X68.783 Y52.605 E3.25559
G1 X69.059 Y52.947 E3.28497
G1 X69.507 Y53.564 E3.33590
G1 X69.741 Y53.923 E3.36455
G1 X70.128 Y54.593 E3.41621
G1 X70.328 Y54.984 E3.44557
G1 X70.638 Y55.681 E3.49652
G1 X70.795 Y56.091 E3.52589
G1 X71.031 Y56.817 E3.57682
G1 X71.145 Y57.241 E3.60619
G1 X71.303 Y57.987 E3.65714
G1 X71.372 Y58.421 E3.68650
G1 X71.452 Y59.180 E3.73745
G1 X71.475 Y59.619 E3.76682
G1 X71.475 Y60.381 E3.81775
G1 X71.452 Y60.820 E3.84712
G1 X71.372 Y61.579 E3.89807
G1 X71.303 Y62.013 E3.92743
G1 X71.145 Y62.759 E3.97838
G1 X71.031 Y63.184 E4.00777
G1 X70.795 Y63.909 E4.05868
G1 X70.638 Y64.319 E4.08805
G1 X70.328 Y65.016 E4.13900
G1 X70.128 Y65.407 E4.16836
G1 X69.747 Y66.068 E4.21931
G1 X69.507 Y66.436 E4.24868
G1 X69.059 Y67.053 E4.29962
G1 X68.783 Y67.395 E4.32898
G1 X68.272 Y67.962 E4.37992
G1 X67.962 Y68.272 E4.40929
G1 X67.395 Y68.783 E4.46023
G1 X67.053 Y69.059 E4.48960
G1 X66.436 Y69.507 E4.54054
G1 X66.068 Y69.747 E4.56991
G1 X65.407 Y70.128 E4.62085
G1 X65.016 Y70.328 E4.65022
G1 X64.319 Y70.638 E4.70117
G1 X63.908 Y70.795 E4.73054
G1 X63.184 Y71.031 E4.78145
G1 X62.759 Y71.145 E4.81084
G1 X62.013 Y71.303 E4.86178
G1 X61.579 Y71.372 E4.89115
G1 X60.820 Y71.452 E4.94210
G1 X60.381 Y71.475 E4.97146
G1 X59.619 Y71.475 E5.02240
G1 X59.180 Y71.452 E5.05177
G1 X58.421 Y71.372 E5.10271
G1 X57.987 Y71.303 E5.13208
G1 X57.241 Y71.145 E5.18302
G1 X56.817 Y71.031 E5.21239
G1 X56.091 Y70.795 E5.26333
G1 X55.681 Y70.638 E5.29270
G1 X54.984 Y70.328 E5.34364
G1 X54.593 Y70.128 E5.37301
G1 X53.933 Y69.747 E5.42394
G1 X53.564 Y69.507 E5.45332
G1 X52.947 Y69.059 E5.50424
G1 X52.605 Y68.783 E5.53363
G1 X52.038 Y68.272 E5.58457
G1 X51.728 Y67.962 E5.61394
G1 X51.217 Y67.395 E5.66488
G1 X50.941 Y67.053 E5.69426
G1 X50.493 Y66.436 E5.74519
G1 X50.253 Y66.068 E5.77456
G1 X49.872 Y65.407 E5.82550
G1 X49.672 Y65.016 E5.85487
G1 X49.362 Y64.319 E5.90581
G1 X49.204 Y63.908 E5.93523
G1 X48.969 Y63.183 E5.98612
G1 X48.855 Y62.758 E6.01552
G1 X48.697 Y62.013 E6.06643
G1 X48.628 Y61.578 E6.09586
G1 X48.548 Y60.820 E6.14674
G1 X48.525 Y60.380 E6.17616
G1 X48.525 Y59.619 E6.22705
G1 X48.548 Y59.179 E6.25645
G1 X48.628 Y58.421 E6.30736
G1 X48.697 Y57.987 E6.33673
G1 X48.855 Y57.241 E6.38767
G1 X48.969 Y56.816 E6.41705
G1 X49.205 Y56.092 E6.46798
G1 X49.362 Y55.681 E6.49734
G1 X49.672 Y54.984 E6.54829
G1 X49.872 Y54.592 E6.57768
G1 X50.253 Y53.932 E6.62860
G1 X50.493 Y53.564 E6.65797
G1 X50.941 Y52.947 E6.70891
G1 X51.218 Y52.605 E6.73829
G1 X51.728 Y52.038 E6.78922
G1 X51.996 Y51.770 E6.81458
G1 X52.417 Y52.106 F30000.000
G1 F2100
G1 X52.942 Y51.634 E6.86175
G1 X53.284 Y51.357 E6.89114
G1 X53.855 Y50.942 E6.93834
G1 X54.224 Y50.702 E6.96771
G1 X54.845 Y50.344 E7.01560
G1 X55.228 Y50.149 E7.04427
G1 X55.873 Y49.862 E7.09147
G1 X56.283 Y49.705 E7.12084
G1 X56.955 Y49.486 E7.16802
G1 X57.380 Y49.373 E7.19740
G1 X58.071 Y49.226 E7.24460
G1 X58.505 Y49.157 E7.27397
G1 X59.207 Y49.083 E7.32113
G1 X59.647 Y49.060 E7.35053
G1 X60.352 Y49.060 E7.39767
G1 X60.792 Y49.083 E7.42709
G1 X61.494 Y49.157 E7.47423
G1 X61.929 Y49.226 E7.50366
G1 X62.620 Y49.372 E7.55083
G1 X63.045 Y49.486 E7.58023
G1 X63.716 Y49.704 E7.62737
G1 X64.127 Y49.862 E7.65678
G1 X64.772 Y50.149 E7.70398
G1 X65.164 Y50.349 E7.73335
G1 X65.776 Y50.702 E7.78055
G1 X66.145 Y50.942 E7.80992
G1 X66.716 Y51.357 E7.85711
G1 X67.058 Y51.634 E7.88648
G1 X67.583 Y52.106 E7.93368
G1 X67.894 Y52.417 E7.96305
G1 X68.366 Y52.942 E8.01024
G1 X68.643 Y53.284 E8.03962
G1 X69.058 Y53.855 E8.08680
G1 X69.292 Y54.215 E8.11546
G1 X69.651 Y54.836 E8.16337
G1 X69.851 Y55.228 E8.19274
G1 X70.138 Y55.873 E8.23994
G1 X70.295 Y56.283 E8.26930
G1 X70.514 Y56.955 E8.31650
G1 X70.628 Y57.380 E8.34586
G1 X70.774 Y58.071 E8.39306
G1 X70.843 Y58.505 E8.42243
G1 X70.917 Y59.208 E8.46963
G1 X70.940 Y59.647 E8.49900
G1 X70.940 Y60.353 E8.54619
G1 X70.917 Y60.792 E8.57556
G1 X70.843 Y61.495 E8.62276
G1 X70.774 Y61.929 E8.65212
G1 X70.628 Y62.620 E8.69932
G1 X70.514 Y63.045 E8.72871
G1 X70.295 Y63.717 E8.77588
G1 X70.138 Y64.127 E8.80525
G1 X69.851 Y64.772 E8.85245
G1 X69.651 Y65.164 E8.88182
G1 X69.298 Y65.776 E8.92901
G1 X69.058 Y66.145 E8.95838
G1 X68.643 Y66.716 E9.00558
G1 X68.366 Y67.058 E9.03495
G1 X67.894 Y67.583 E9.08214
G1 X67.583 Y67.894 E9.11151
G1 X67.058 Y68.366 E9.15871
G1 X66.716 Y68.643 E9.18807
G1 X66.145 Y69.058 E9.23527
G1 X65.776 Y69.298 E9.26464
G1 X65.164 Y69.651 E9.31183
G1 X64.772 Y69.851 E9.34120
G1 X64.127 Y70.138 E9.38840
G1 X63.717 Y70.295 E9.41777
G1 X63.045 Y70.514 E9.46494
G1 X62.620 Y70.628 E9.49433
G1 X61.929 Y70.774 E9.54153
G1 X61.495 Y70.843 E9.57090
G1 X60.792 Y70.917 E9.61809
G1 X60.353 Y70.940 E9.64746
G1 X59.647 Y70.940 E9.69466
G1 X59.208 Y70.917 E9.72402
G1 X58.505 Y70.843 E9.77122
G1 X58.071 Y70.774 E9.80059
G1 X57.380 Y70.628 E9.84779
G1 X56.955 Y70.514 E9.87716
G1 X56.283 Y70.295 E9.92435
G1 X55.873 Y70.138 E9.95372
G1 X55.228 Y69.851 E10.00091
G1 X54.836 Y69.651 E10.03028
G1 X54.224 Y69.298 E10.07746
G1 X53.855 Y69.058 E10.10685
G1 X53.284 Y68.643 E10.15403
G1 X52.942 Y68.366 E10.18341
G1 X52.417 Y67.894 E10.23061
G1 X52.106 Y67.583 E10.25998
G1 X51.634 Y67.058 E10.30717
G1 X51.357 Y66.716 E10.33655
G1 X50.942 Y66.145 E10.38373
G1 X50.702 Y65.776 E10.41310
G1 X50.349 Y65.164 E10.46030
G1 X50.149 Y64.772 E10.48967
G1 X49.862 Y64.127 E10.53687
G1 X49.704 Y63.716 E10.56628
G1 X49.486 Y63.045 E10.61343
G1 X49.372 Y62.620 E10.64283
G1 X49.226 Y61.929 E10.68999
G1 X49.157 Y61.494 E10.71942
G1 X49.083 Y60.792 E10.76656
G1 X49.060 Y60.352 E10.79598
G1 X49.060 Y59.647 E10.84312
G1 X49.083 Y59.207 E10.87252
G1 X49.157 Y58.505 E10.91969
G1 X49.226 Y58.071 E10.94905
G1 X49.373 Y57.380 E10.99626
G1 X49.486 Y56.955 E11.02563
G1 X49.705 Y56.283 E11.07281
G1 X49.862 Y55.873 E11.10218
G1 X50.149 Y55.228 E11.14938
G1 X50.349 Y54.836 E11.17877
G1 X50.702 Y54.224 E11.22595
G1 X50.942 Y53.855 E11.25532
G1 X51.357 Y53.284 E11.30251
G1 X51.634 Y52.942 E11.33189
G1 X52.106 Y52.417 E11.37907
G1 X52.375 Y52.149 E11.40443
G1 X52.796 Y52.485 F30000.000
G1 F2100
G1 X53.279 Y52.050 E11.44787
G1 X53.621 Y51.773 E11.47725
G1 X54.147 Y51.391 E11.52070
G1 X54.516 Y51.152 E11.55007
G1 X55.079 Y50.826 E11.59351
G1 X55.471 Y50.627 E11.62289
G1 X56.065 Y50.362 E11.66635
G1 X56.475 Y50.205 E11.69571
G1 X57.094 Y50.004 E11.73915
G1 X57.518 Y49.890 E11.76853
G1 X58.155 Y49.755 E11.81198
G1 X58.589 Y49.686 E11.84135
G1 X59.235 Y49.618 E11.88477
G1 X59.675 Y49.595 E11.91417
G1 X60.324 Y49.595 E11.95757
G1 X60.764 Y49.618 E11.98699
G1 X61.410 Y49.686 E12.03038
G1 X61.845 Y49.755 E12.05981
G1 X62.481 Y49.890 E12.10323
G1 X62.906 Y50.004 E12.13263
G1 X63.524 Y50.204 E12.17603
G1 X63.935 Y50.362 E12.20544
G1 X64.529 Y50.627 E12.24889
G1 X64.921 Y50.826 E12.27826
G1 X65.484 Y51.152 E12.32172
G1 X65.853 Y51.391 E12.35108
G1 X66.379 Y51.773 E12.39453
G1 X66.721 Y52.050 E12.42390
G1 X67.204 Y52.485 E12.46735
G1 X67.515 Y52.796 E12.49672
G1 X67.950 Y53.279 E12.54017
G1 X68.227 Y53.621 E12.56955
G1 X68.609 Y54.147 E12.61299
G1 X68.843 Y54.507 E12.64164
G1 X69.174 Y55.079 E12.68581
G1 X69.373 Y55.471 E12.71518
G1 X69.638 Y56.065 E12.75863
G1 X69.795 Y56.475 E12.78800
G1 X69.996 Y57.094 E12.83144
G1 X70.110 Y57.519 E12.86081
G1 X70.245 Y58.155 E12.90426
G1 X70.314 Y58.589 E12.93363
G1 X70.382 Y59.236 E12.97708
G1 X70.405 Y59.675 E13.00645
G1 X70.405 Y60.325 E13.04990
G1 X70.382 Y60.764 E13.07927
G1 X70.314 Y61.411 E13.12272
G1 X70.245 Y61.845 E13.15209
G1 X70.110 Y62.481 E13.19554
G1 X69.996 Y62.906 E13.22493
G1 X69.795 Y63.525 E13.26836
G1 X69.638 Y63.935 E13.29773
G1 X69.373 Y64.529 E13.34118
G1 X69.174 Y64.921 E13.37055
G1 X68.848 Y65.484 E13.41400
G1 X68.609 Y65.853 E13.44337
G1 X68.227 Y66.379 E13.48682
G1 X67.950 Y66.721 E13.51618
G1 X67.515 Y67.204 E13.55963
G1 X67.204 Y67.515 E13.58900
G1 X66.721 Y67.950 E13.63245
G1 X66.379 Y68.227 E13.66182
G1 X65.853 Y68.609 E13.70527
G1 X65.484 Y68.848 E13.73464
G1 X64.921 Y69.174 E13.77809
G1 X64.529 Y69.373 E13.80746
G1 X63.935 Y69.638 E13.85091
G1 X63.525 Y69.795 E13.88028
G1 X62.906 Y69.996 E13.92371
G1 X62.481 Y70.110 E13.95310
G1 X61.845 Y70.245 E13.99655
G1 X61.411 Y70.314 E14.02592
G1 X60.764 Y70.382 E14.06937
G1 X60.325 Y70.405 E14.09874
G1 X59.675 Y70.405 E14.14219
G1 X59.236 Y70.382 E14.17155
G1 X58.589 Y70.314 E14.21501
G1 X58.155 Y70.245 E14.24438
G1 X57.519 Y70.110 E14.28783
G1 X57.094 Y69.996 E14.31720
G1 X56.475 Y69.795 E14.36064
G1 X56.065 Y69.638 E14.39001
G1 X55.471 Y69.373 E14.43346
G1 X55.079 Y69.174 E14.46283
G1 X54.516 Y68.849 E14.50627
G1 X54.147 Y68.609 E14.53565
G1 X53.621 Y68.227 E14.57909
G1 X53.279 Y67.950 E14.60847
G1 X52.796 Y67.515 E14.65192
G1 X52.485 Y67.204 E14.68129
G1 X52.050 Y66.721 E14.72474
G1 X51.773 Y66.379 E14.75412
G1 X51.391 Y65.853 E14.79756
G1 X51.152 Y65.484 E14.82693
G1 X50.826 Y64.921 E14.87038
G1 X50.627 Y64.529 E14.89975
G1 X50.362 Y63.935 E14.94320
G1 X50.204 Y63.524 E14.97261
G1 X50.004 Y62.906 E15.01601
G1 X49.890 Y62.481 E15.04541
G1 X49.755 Y61.845 E15.08883
G1 X49.686 Y61.410 E15.11826
G1 X49.618 Y60.764 E15.16165
G1 X49.595 Y60.324 E15.19107
G1 X49.595 Y59.675 E15.23447
G1 X49.618 Y59.235 E15.26387
G1 X49.686 Y58.589 E15.30729
G1 X49.755 Y58.155 E15.33666
G1 X49.890 Y57.518 E15.38011
G1 X50.004 Y57.094 E15.40949
G1 X50.205 Y56.475 E15.45293
G1 X50.362 Y56.065 E15.48229
G1 X50.627 Y55.471 E15.52575
G1 X50.826 Y55.079 E15.55513
G1 X51.152 Y54.516 E15.59857
G1 X51.391 Y54.147 E15.62794
G1 X51.773 Y53.621 E15.67139
G1 X52.050 Y53.279 E15.70077
G1 X52.485 Y52.796 E15.74421
G1 X52.754 Y52.528 E15.76957
G1 X53.175 Y52.864 F30000.000
G1 F2100
G1 X53.616 Y52.466 E15.80925
G1 X53.958 Y52.189 E15.83864
G1 X54.439 Y51.840 E15.87834
G1 X54.807 Y51.601 E15.90771
G1 X55.322 Y51.304 E15.94740
G1 X55.714 Y51.104 E15.97679
G1 X56.257 Y50.862 E16.01650
G1 X56.667 Y50.705 E16.04586
G1 X57.232 Y50.521 E16.08555
G1 X57.657 Y50.407 E16.11493
G1 X58.239 Y50.284 E16.15464
G1 X58.673 Y50.215 E16.18401
G1 X59.263 Y50.153 E16.22369
G1 X59.703 Y50.130 E16.25308
G1 X60.297 Y50.130 E16.29274
G1 X60.736 Y50.153 E16.32215
G1 X61.327 Y50.215 E16.36181
G1 X61.761 Y50.284 E16.39123
G1 X62.342 Y50.407 E16.43091
G1 X62.768 Y50.521 E16.46031
G1 X63.332 Y50.704 E16.49997
G1 X63.743 Y50.862 E16.52937
G1 X64.286 Y51.104 E16.56908
G1 X64.678 Y51.304 E16.59845
G1 X65.193 Y51.601 E16.63816
G1 X65.561 Y51.840 E16.66753
G1 X66.042 Y52.189 E16.70723
G1 X66.384 Y52.466 E16.73660
G1 X66.825 Y52.864 E16.77630
G1 X67.136 Y53.175 E16.80567
G1 X67.534 Y53.616 E16.84538
G1 X67.811 Y53.958 E16.87475
G1 X68.160 Y54.439 E16.91445
G1 X68.393 Y54.799 E16.94310
G1 X68.696 Y55.322 E16.98352
G1 X68.896 Y55.714 E17.01289
G1 X69.138 Y56.257 E17.05260
G1 X69.295 Y56.667 E17.08197
G1 X69.479 Y57.233 E17.12167
G1 X69.593 Y57.657 E17.15104
G1 X69.716 Y58.239 E17.19074
G1 X69.785 Y58.673 E17.22011
G1 X69.847 Y59.264 E17.25982
G1 X69.870 Y59.703 E17.28919
G1 X69.870 Y60.297 E17.32889
G1 X69.847 Y60.736 E17.35826
G1 X69.785 Y61.327 E17.39796
G1 X69.716 Y61.761 E17.42733
G1 X69.593 Y62.343 E17.46704
G1 X69.479 Y62.768 E17.49642
G1 X69.295 Y63.333 E17.53611
G1 X69.138 Y63.743 E17.56548
G1 X68.896 Y64.286 E17.60518
G1 X68.696 Y64.678 E17.63455
G1 X68.399 Y65.192 E17.67426
G1 X68.160 Y65.561 E17.70363
G1 X67.811 Y66.042 E17.74333
G1 X67.534 Y66.384 E17.77270
G1 X67.136 Y66.825 E17.81240
G1 X66.825 Y67.136 E17.84177
G1 X66.384 Y67.534 E17.88148
G1 X66.042 Y67.811 E17.91085
G1 X65.561 Y68.160 E17.95055
G1 X65.192 Y68.399 E17.97992
G1 X64.678 Y68.696 E18.01963
G1 X64.286 Y68.896 E18.04899
G1 X63.743 Y69.138 E18.08870
G1 X63.333 Y69.295 E18.11807
G1 X62.768 Y69.479 E18.15776
G1 X62.343 Y69.593 E18.18714
G1 X61.761 Y69.716 E18.22685
G1 X61.327 Y69.785 E18.25622
G1 X60.736 Y69.847 E18.29592
G1 X60.297 Y69.870 E18.32529
G1 X59.703 Y69.870 E18.36499
G1 X59.264 Y69.847 E18.39436
G1 X58.673 Y69.785 E18.43407
G1 X58.239 Y69.716 E18.46344
G1 X57.657 Y69.593 E18.50314
G1 X57.233 Y69.479 E18.53251
G1 X56.667 Y69.295 E18.57221
G1 X56.257 Y69.138 E18.60158
G1 X55.714 Y68.896 E18.64129
G1 X55.322 Y68.696 E18.67066
G1 X54.808 Y68.399 E18.71035
G1 X54.439 Y68.160 E18.73973
G1 X53.958 Y67.811 E18.77942
G1 X53.616 Y67.534 E18.80880
G1 X53.175 Y67.136 E18.84851
G1 X52.864 Y66.825 E18.87788
G1 X52.466 Y66.384 E18.91758
G1 X52.189 Y66.042 E18.94696
G1 X51.840 Y65.561 E18.98665
G1 X51.601 Y65.193 E19.01602
G1 X51.304 Y64.678 E19.05573
G1 X51.104 Y64.286 E19.08510
G1 X50.862 Y63.743 E19.12481
G1 X50.704 Y63.332 E19.15421
G1 X50.521 Y62.768 E19.19387
G1 X50.407 Y62.342 E19.22327
G1 X50.284 Y61.761 E19.26295
G1 X50.215 Y61.327 E19.29237
G1 X50.153 Y60.736 E19.33202
G1 X50.130 Y60.297 E19.36144
G1 X50.130 Y59.703 E19.40110
G1 X50.153 Y59.263 E19.43049
G1 X50.215 Y58.673 E19.47017
G1 X50.284 Y58.239 E19.49954
G1 X50.407 Y57.657 E19.53925
G1 X50.521 Y57.232 E19.56862
G1 X50.705 Y56.667 E19.60832
G1 X50.862 Y56.257 E19.63768
G1 X51.104 Y55.714 E19.67739
G1 X51.304 Y55.322 E19.70678
G1 X51.601 Y54.807 E19.74647
G1 X51.840 Y54.439 E19.77584
G1 X52.189 Y53.958 E19.81554
G1 X52.466 Y53.616 E19.84492
G1 X53.132 Y52.906 E19.90995
G1 X53.553 Y53.243 F30000.000
G1 F2100
G1 X53.953 Y52.883 E19.94590
G1 X54.295 Y52.606 E19.97528
G1 X54.731 Y52.289 E20.01124
G1 X55.099 Y52.050 E20.04061
G1 X55.575 Y51.776 E20.07728
G1 X56.449 Y51.362 E20.14188
G1 X56.859 Y51.205 E20.17125
G1 X57.371 Y51.038 E20.20719
G1 X57.796 Y50.925 E20.23657
G1 X58.322 Y50.813 E20.27253
G1 X58.757 Y50.744 E20.30190
G1 X59.292 Y50.688 E20.33784
G1 X59.731 Y50.665 E20.36723
G1 X60.269 Y50.665 E20.40315
G1 X60.708 Y50.688 E20.43256
G1 X61.243 Y50.744 E20.46847
G1 X61.678 Y50.813 E20.49788
G1 X62.204 Y50.925 E20.53382
G1 X62.629 Y51.038 E20.56322
G1 X63.140 Y51.205 E20.59913
G1 X63.551 Y51.362 E20.62854
G1 X64.043 Y51.581 E20.66450
G1 X64.435 Y51.781 E20.69387
G1 X64.901 Y52.050 E20.72983
G1 X65.269 Y52.289 E20.75920
G1 X65.705 Y52.606 E20.79516
G1 X66.047 Y52.882 E20.82452
G1 X66.447 Y53.243 E20.86048
G1 X66.757 Y53.553 E20.88985
G1 X67.118 Y53.953 E20.92581
G1 X67.394 Y54.295 E20.95519
G1 X67.944 Y55.090 E21.01977
G1 X68.219 Y55.565 E21.05645
G1 X68.419 Y55.957 E21.08581
G1 X68.638 Y56.449 E21.12178
G1 X68.795 Y56.859 E21.15115
G1 X68.962 Y57.371 E21.18710
G1 X69.075 Y57.796 E21.21647
G1 X69.187 Y58.322 E21.25243
G1 X69.256 Y58.757 E21.28180
G1 X69.312 Y59.292 E21.31776
G1 X69.335 Y59.731 E21.34713
G1 X69.335 Y60.269 E21.38309
G1 X69.312 Y60.708 E21.41245
G1 X69.256 Y61.243 E21.44842
G1 X69.187 Y61.678 E21.47778
G1 X69.075 Y62.204 E21.51375
