; generated by Slic3r 1.3.0 on 2021-07-29 at 13:04:26

; external perimeters extrusion width = 0.44mm (2.78mm^3/s)
; perimeters extrusion width = 0.40mm (7.14mm^3/s)
; infill extrusion width = 0.50mm (10.97mm^3/s)
; solid infill extrusion width = 0.60mm (6.68mm^3/s)
; top infill extrusion width = 0.40mm (2.14mm^3/s)

M107
M190 S80 ; set bed temperature and wait for it to be reached
M104 S210 ; set temperature
G28 ; home all axes
G1 Z5 F5000 ; lift nozzle

; Filament gcode

M109 S210 ; set temperature and wait for it to be reached
G21 ; set units to millimeters
G90 ; use absolute coordinates
M82 ; use absolute distances for extrusion
G92 E0
G1 Z0.300 F30000.000
G1 E-2.00000 F2400.00000
G92 E0
G1 X52.162 Y51.906 F30000.000
G1 E2.00000 F2400.00000
G1 F2100
G1 X52.770 Y51.358 E2.05469
G1 X53.051 Y51.131 E2.07882
G1 X53.722 Y50.644 E2.13424
G1 X54.016 Y50.453 E2.15762
G1 X54.724 Y50.044 E2.21228
G1 X55.046 Y49.880 E2.23643
G1 X55.794 Y49.547 E2.29110
G1 X56.131 Y49.418 E2.31524
G1 X56.910 Y49.165 E2.36993
G1 X57.259 Y49.071 E2.39405
G1 X58.059 Y48.901 E2.44874
G1 X58.416 Y48.845 E2.47287
G1 X59.229 Y48.759 E2.52750
G1 X59.591 Y48.740 E2.55168
G1 X60.409 Y48.740 E2.60632
G1 X60.770 Y48.759 E2.63048
G1 X61.584 Y48.845 E2.68516
G1 X61.941 Y48.901 E2.70930
G1 X62.741 Y49.071 E2.76398
G1 X63.090 Y49.165 E2.78811
G1 X63.869 Y49.418 E2.84279
G1 X64.206 Y49.547 E2.86692
G1 X64.954 Y49.880 E2.92160
G1 X65.275 Y50.044 E2.94573
G1 X65.984 Y50.453 E3.00041
G1 X66.287 Y50.650 E3.02454
G1 X66.949 Y51.131 E3.07921
G1 X67.230 Y51.358 E3.10334
G1 X67.838 Y51.906 E3.15804
G1 X68.094 Y52.162 E3.18219
G1 X68.642 Y52.770 E3.23685
G1 X68.869 Y53.051 E3.26098
G1 X69.350 Y53.713 E3.31566
G1 X69.547 Y54.016 E3.33978
G1 X69.956 Y54.725 E3.39447
G1 X70.120 Y55.046 E3.41859
G1 X70.453 Y55.794 E3.47328
G1 X70.582 Y56.131 E3.49740
G1 X70.835 Y56.910 E3.55209
G1 X70.929 Y57.259 E3.57621
G1 X71.099 Y58.059 E3.63090
G1 X71.155 Y58.416 E3.65502
G1 X71.241 Y59.230 E3.70972
G1 X71.260 Y59.591 E3.73384
G1 X71.260 Y60.409 E3.78852
G1 X71.241 Y60.771 E3.81270
G1 X71.155 Y61.584 E3.86733
G1 X71.099 Y61.941 E3.89146
G1 X70.929 Y62.741 E3.94615
G1 X70.835 Y63.090 E3.97027
G1 X70.582 Y63.869 E4.02495
G1 X70.453 Y64.206 E4.04910
G1 X70.120 Y64.954 E4.10377
G1 X69.956 Y65.276 E4.12789
G1 X69.547 Y65.984 E4.18257
G1 X69.350 Y66.287 E4.20670
G1 X68.869 Y66.949 E4.26138
G1 X68.642 Y67.230 E4.28551
G1 X68.094 Y67.838 E4.34020
G1 X67.838 Y68.094 E4.36432
G1 X67.222 Y68.648 E4.41973
G1 X66.949 Y68.869 E4.44313
G1 X66.287 Y69.350 E4.49782
G1 X65.984 Y69.547 E4.52194
G1 X65.275 Y69.956 E4.57663
G1 X64.954 Y70.120 E4.60075
G1 X64.206 Y70.453 E4.65544
G1 X63.869 Y70.582 E4.67956
G1 X63.090 Y70.835 E4.73425
G1 X62.741 Y70.929 E4.75837
G1 X61.941 Y71.099 E4.81302
G1 X61.584 Y71.155 E4.83719
G1 X60.771 Y71.241 E4.89182
G1 X60.409 Y71.260 E4.91600
G1 X59.591 Y71.260 E4.97068
G1 X59.230 Y71.241 E4.99480
G1 X58.416 Y71.155 E5.04949
G1 X58.059 Y71.099 E5.07362
G1 X57.259 Y70.929 E5.12830
G1 X56.910 Y70.835 E5.15243
G1 X56.131 Y70.582 E5.20712
G1 X55.794 Y70.453 E5.23124
G1 X55.046 Y70.120 E5.28593
G1 X54.725 Y69.956 E5.31005
G1 X54.016 Y69.547 E5.36473
G1 X53.713 Y69.350 E5.38886
G1 X53.051 Y68.869 E5.44353
G1 X52.770 Y68.642 E5.46767
G1 X52.162 Y68.094 E5.52236
G1 X51.906 Y67.838 E5.54648
G1 X51.358 Y67.230 E5.60117
G1 X51.131 Y66.949 E5.62530
G1 X50.650 Y66.287 E5.67998
G1 X50.453 Y65.984 E5.70410
G1 X50.044 Y65.275 E5.75879
G1 X49.880 Y64.954 E5.78291
G1 X49.547 Y64.206 E5.83760
G1 X49.418 Y63.869 E5.86172
G1 X49.165 Y63.090 E5.91641
G1 X49.071 Y62.741 E5.94053
G1 X48.901 Y61.941 E5.99522
G1 X48.845 Y61.584 E6.01936
G1 X48.759 Y60.770 E6.07404
G1 X48.740 Y60.409 E6.09820
G1 X48.740 Y59.591 E6.15284
G1 X48.759 Y59.229 E6.17702
G1 X48.845 Y58.416 E6.23165
G1 X48.901 Y58.059 E6.25578
G1 X49.071 Y57.259 E6.31047
G1 X49.165 Y56.910 E6.33459
G1 X49.418 Y56.131 E6.38928
G1 X49.547 Y55.794 E6.41342
G1 X49.880 Y55.046 E6.46809
G1 X50.044 Y54.724 E6.49224
G1 X50.453 Y54.016 E6.54690
G1 X50.651 Y53.712 E6.57110
G1 X51.131 Y53.051 E6.62570
G1 X51.358 Y52.770 E6.64983
G1 X52.119 Y51.949 E6.72461
G1 X52.540 Y52.285 F30000.000
G1 F2100
G1 X53.107 Y51.775 E6.77556
G1 X53.388 Y51.547 E6.79969
G1 X54.013 Y51.094 E6.85129
G1 X54.307 Y50.903 E6.87474
G1 X54.967 Y50.521 E6.92566
G1 X55.289 Y50.357 E6.94981
G1 X55.986 Y50.047 E7.00073
G1 X56.323 Y49.918 E7.02487
G1 X57.048 Y49.682 E7.07581
G1 X57.397 Y49.589 E7.09994
G1 X58.143 Y49.430 E7.15088
G1 X58.500 Y49.374 E7.17501
G1 X59.257 Y49.294 E7.22590
G1 X59.619 Y49.275 E7.25008
G1 X60.381 Y49.275 E7.30097
G1 X60.742 Y49.294 E7.32513
G1 X61.500 Y49.374 E7.37607
G1 X61.857 Y49.430 E7.40020
G1 X62.603 Y49.589 E7.45114
G1 X62.952 Y49.682 E7.47527
G1 X63.677 Y49.918 E7.52621
G1 X64.014 Y50.047 E7.55033
G1 X64.711 Y50.357 E7.60127
G1 X65.032 Y50.521 E7.62540
G1 X65.693 Y50.903 E7.67634
G1 X65.995 Y51.099 E7.70046
G1 X66.612 Y51.547 E7.75139
G1 X66.893 Y51.775 E7.77552
G1 X67.460 Y52.285 E7.82647
G1 X67.715 Y52.541 E7.85062
G1 X68.225 Y53.107 E7.90154
G1 X68.453 Y53.388 E7.92567
G1 X68.901 Y54.005 E7.97660
G1 X69.097 Y54.307 E8.00073
G1 X69.479 Y54.968 E8.05166
G1 X69.643 Y55.289 E8.07579
G1 X69.953 Y55.986 E8.12673
G1 X70.082 Y56.323 E8.15085
G1 X70.318 Y57.048 E8.20180
G1 X70.411 Y57.397 E8.22592
G1 X70.570 Y58.143 E8.27686
G1 X70.626 Y58.500 E8.30099
G1 X70.706 Y59.258 E8.35193
G1 X70.725 Y59.619 E8.37605
G1 X70.725 Y60.381 E8.42699
G1 X70.706 Y60.743 E8.45116
G1 X70.626 Y61.500 E8.50206
G1 X70.570 Y61.857 E8.52618
G1 X70.411 Y62.603 E8.57712
G1 X70.318 Y62.952 E8.60125
G1 X70.082 Y63.677 E8.65219
G1 X69.953 Y64.014 E8.67633
G1 X69.643 Y64.711 E8.72725
G1 X69.479 Y65.032 E8.75138
G1 X69.097 Y65.693 E8.80232
G1 X68.901 Y65.995 E8.82644
G1 X68.453 Y66.612 E8.87738
G1 X68.225 Y66.893 E8.90151
G1 X67.715 Y67.460 E8.95245
G1 X67.460 Y67.715 E8.97657
G1 X66.893 Y68.225 E9.02750
G1 X66.612 Y68.453 E9.05164
G1 X65.995 Y68.901 E9.10258
G1 X65.693 Y69.097 E9.12671
G1 X65.032 Y69.479 E9.17764
G1 X64.711 Y69.643 E9.20177
G1 X64.014 Y69.953 E9.25271
G1 X63.677 Y70.082 E9.27683
G1 X62.952 Y70.318 E9.32778
G1 X62.603 Y70.411 E9.35190
G1 X61.857 Y70.570 E9.40281
G1 X61.500 Y70.626 E9.42697
G1 X60.743 Y70.706 E9.47786
G1 X60.381 Y70.725 E9.50203
G1 X59.619 Y70.725 E9.55297
G1 X59.258 Y70.706 E9.57709
G1 X58.500 Y70.626 E9.62804
G1 X58.143 Y70.570 E9.65216
G1 X57.397 Y70.411 E9.70310
G1 X57.048 Y70.318 E9.72723
G1 X56.323 Y70.082 E9.77817
G1 X55.986 Y69.953 E9.80229
G1 X55.289 Y69.643 E9.85323
G1 X54.968 Y69.479 E9.87736
G1 X54.307 Y69.097 E9.92830
G1 X54.005 Y68.901 E9.95242
G1 X53.388 Y68.453 E10.00335
G1 X53.107 Y68.225 E10.02748
G1 X52.540 Y67.715 E10.07843
G1 X52.285 Y67.460 E10.10255
G1 X51.775 Y66.893 E10.15350
G1 X51.547 Y66.612 E10.17763
G1 X51.099 Y65.995 E10.22856
G1 X50.903 Y65.693 E10.25268
G1 X50.521 Y65.032 E10.30362
G1 X50.357 Y64.711 E10.32775
G1 X50.047 Y64.014 E10.37869
G1 X49.918 Y63.677 E10.40281
G1 X49.682 Y62.952 E10.45376
G1 X49.589 Y62.603 E10.47788
G1 X49.430 Y61.857 E10.52882
G1 X49.374 Y61.500 E10.55295
G1 X49.294 Y60.742 E10.60389
G1 X49.275 Y60.381 E10.62805
G1 X49.275 Y59.619 E10.67895
G1 X49.294 Y59.257 E10.70313
G1 X49.374 Y58.500 E10.75401
G1 X49.430 Y58.143 E10.77814
G1 X49.589 Y57.397 E10.82908
G1 X49.682 Y57.048 E10.85321
G1 X49.918 Y56.323 E10.90415
G1 X50.047 Y55.986 E10.92829
G1 X50.357 Y55.289 E10.97921
G1 X50.521 Y54.967 E11.00336
G1 X50.903 Y54.307 E11.05428
G1 X51.100 Y54.004 E11.07847
G1 X51.547 Y53.388 E11.12934
G1 X51.775 Y53.107 E11.15346
G1 X52.498 Y52.327 E11.22451
G1 X52.919 Y52.664 F30000.000
G1 F2100
G1 X53.444 Y52.191 E11.27171
G1 X53.725 Y51.964 E11.29583
G1 X54.305 Y51.543 E11.34370
G1 X55.211 Y50.999 E11.41430
G1 X55.533 Y50.835 E11.43844
G1 X56.178 Y50.547 E11.48562
G1 X56.515 Y50.418 E11.50976
G1 X57.187 Y50.200 E11.55696
G1 X57.536 Y50.106 E11.58108
G1 X58.227 Y49.959 E11.62828
G1 X59.285 Y49.829 E11.69953
G1 X59.647 Y49.810 E11.72371
G1 X60.353 Y49.810 E11.77086
G1 X60.714 Y49.829 E11.79502
G1 X61.416 Y49.903 E11.84221
G1 X61.773 Y49.959 E11.86634
G1 X62.464 Y50.106 E11.91354
G1 X62.813 Y50.200 E11.93766
G1 X63.485 Y50.418 E11.98486
G1 X63.822 Y50.547 E12.00898
G1 X64.467 Y50.835 E12.05618
G1 X64.789 Y50.999 E12.08030
G1 X65.401 Y51.352 E12.12750
G1 X65.704 Y51.548 E12.15162
G1 X66.275 Y51.964 E12.19881
G1 X66.556 Y52.191 E12.22294
G1 X67.081 Y52.664 E12.27014
G1 X67.337 Y52.919 E12.29429
G1 X67.809 Y53.444 E12.34146
G1 X68.036 Y53.725 E12.36559
G1 X68.452 Y54.296 E12.41278
G1 X68.648 Y54.599 E12.43690
G1 X69.001 Y55.211 E12.48409
G1 X69.165 Y55.533 E12.50822
G1 X69.453 Y56.178 E12.55541
G1 X69.582 Y56.515 E12.57954
G1 X69.800 Y57.187 E12.62674
G1 X69.894 Y57.536 E12.65086
G1 X70.041 Y58.227 E12.69806
G1 X70.097 Y58.584 E12.72218
G1 X70.171 Y59.286 E12.76938
G1 X70.190 Y59.647 E12.79350
G1 X70.190 Y60.353 E12.84069
G1 X70.171 Y60.714 E12.86486
G1 X70.097 Y61.416 E12.91201
G1 X70.041 Y61.773 E12.93614
G1 X69.894 Y62.464 E12.98334
G1 X69.800 Y62.813 E13.00746
G1 X69.582 Y63.485 E13.05466
G1 X69.453 Y63.822 E13.07880
G1 X69.165 Y64.467 E13.12598
G1 X69.001 Y64.789 E13.15010
G1 X68.648 Y65.401 E13.19729
G1 X68.452 Y65.704 E13.22142
G1 X68.036 Y66.275 E13.26861
G1 X67.809 Y66.556 E13.29274
G1 X67.336 Y67.081 E13.33994
G1 X67.081 Y67.336 E13.36406
G1 X66.556 Y67.809 E13.41124
G1 X66.275 Y68.036 E13.43538
G1 X65.704 Y68.452 E13.48258
G1 X65.401 Y68.648 E13.50670
G1 X64.789 Y69.001 E13.55389
G1 X64.467 Y69.165 E13.57802
G1 X63.822 Y69.453 E13.62521
G1 X63.485 Y69.582 E13.64934
G1 X62.813 Y69.800 E13.69654
G1 X61.774 Y70.041 E13.76780
G1 X61.416 Y70.097 E13.79196
G1 X60.714 Y70.171 E13.83911
G1 X60.353 Y70.190 E13.86328
G1 X59.647 Y70.190 E13.91047
G1 X59.286 Y70.171 E13.93459
G1 X58.584 Y70.097 E13.98179
G1 X58.227 Y70.041 E14.00592
G1 X57.536 Y69.894 E14.05311
G1 X57.187 Y69.800 E14.07724
G1 X56.515 Y69.582 E14.12443
G1 X56.178 Y69.453 E14.14856
G1 X55.533 Y69.165 E14.19575
G1 X55.211 Y69.001 E14.21988
G1 X54.599 Y68.648 E14.26707
G1 X54.296 Y68.452 E14.29120
G1 X53.725 Y68.036 E14.33838
G1 X53.444 Y67.809 E14.36251
G1 X52.919 Y67.336 E14.40971
G1 X52.664 Y67.081 E14.43384
G1 X52.191 Y66.556 E14.48104
G1 X51.964 Y66.275 E14.50517
G1 X51.548 Y65.704 E14.55235
G1 X51.352 Y65.401 E14.57648
G1 X50.999 Y64.789 E14.62367
G1 X50.835 Y64.467 E14.64780
G1 X50.547 Y63.822 E14.69499
G1 X50.418 Y63.485 E14.71912
G1 X50.200 Y62.813 E14.76631
G1 X50.106 Y62.464 E14.79044
G1 X49.959 Y61.773 E14.83763
G1 X49.903 Y61.416 E14.86177
G1 X49.829 Y60.714 E14.90896
G1 X49.810 Y60.353 E14.93311
G1 X49.810 Y59.647 E14.98027
G1 X49.829 Y59.285 E15.00444
G1 X49.903 Y58.584 E15.05159
G1 X49.959 Y58.227 E15.07571
G1 X50.106 Y57.536 E15.12291
G1 X50.200 Y57.187 E15.14704
G1 X50.418 Y56.515 E15.19423
G1 X50.547 Y56.178 E15.21837
G1 X50.835 Y55.533 E15.26555
G1 X50.999 Y55.211 E15.28970
G1 X51.352 Y54.599 E15.33687
G1 X51.549 Y54.295 E15.36106
G1 X52.191 Y53.444 E15.43229
G1 X52.877 Y52.706 E15.49959
G1 X53.298 Y53.042 F30000.000
G1 F2100
G1 X54.062 Y52.380 E15.56715
G1 X54.597 Y51.992 E15.61133
G1 X55.454 Y51.476 E15.67812
G1 X56.370 Y51.047 E15.74568
G1 X57.326 Y50.717 E15.81325
G1 X58.311 Y50.488 E15.88080
G1 X59.314 Y50.364 E15.94831
G1 X60.325 Y50.345 E16.01588
G1 X60.686 Y50.364 E16.04003
G1 X61.689 Y50.488 E16.10759
G1 X62.674 Y50.717 E16.17514
G1 X63.630 Y51.047 E16.24269
G1 X64.546 Y51.476 E16.31025
G1 X65.412 Y51.998 E16.37780
G1 X66.219 Y52.607 E16.44535
G1 X66.958 Y53.298 E16.51293
G1 X67.620 Y54.062 E16.58047
G1 X68.199 Y54.891 E16.64801
G1 X68.688 Y55.776 E16.71557
G1 X69.082 Y56.707 E16.78312
G1 X69.283 Y57.326 E16.82657
G1 X69.512 Y58.311 E16.89412
G1 X69.636 Y59.314 E16.96168
G1 X69.655 Y60.325 E17.02923
G1 X69.568 Y61.333 E17.09678
G1 X69.377 Y62.326 E17.16434
G1 X69.082 Y63.293 E17.23189
G1 X68.953 Y63.630 E17.25603
G1 X68.524 Y64.546 E17.32357
G1 X68.002 Y65.412 E17.39112
G1 X67.393 Y66.219 E17.45867
G1 X66.702 Y66.958 E17.52623
G1 X66.219 Y67.393 E17.56966
G1 X65.412 Y68.002 E17.63723
G1 X64.546 Y68.524 E17.70478
G1 X63.630 Y68.953 E17.77234
G1 X62.674 Y69.283 E17.83989
G1 X61.690 Y69.512 E17.90741
G1 X60.686 Y69.636 E17.97496
G1 X59.675 Y69.655 E18.04255
G1 X59.314 Y69.636 E18.06667
G1 X58.311 Y69.512 E18.13423
G1 X57.326 Y69.283 E18.20178
G1 X56.370 Y68.953 E18.26934
G1 X55.454 Y68.524 E18.33689
G1 X54.588 Y68.002 E18.40444
G1 X53.781 Y67.393 E18.47199
G1 X53.042 Y66.702 E18.53955
G1 X52.607 Y66.219 E18.58300
G1 X51.998 Y65.412 E18.65055
G1 X51.476 Y64.546 E18.71810
G1 X51.047 Y63.630 E18.78566
G1 X50.717 Y62.674 E18.85321
G1 X50.488 Y61.689 E18.92076
G1 X50.364 Y60.686 E18.98832
G1 X50.345 Y59.675 E19.05587
G1 X50.432 Y58.667 E19.12342
G1 X50.623 Y57.674 E19.19098
G1 X50.918 Y56.707 E19.25853
G1 X51.047 Y56.370 E19.28267
G1 X51.476 Y55.454 E19.35023
G1 X51.998 Y54.587 E19.41782
G1 X52.607 Y53.781 E19.48531
G1 X53.255 Y53.085 E19.54886
G1 X53.677 Y53.421 F30000.000
G1 F2100
G1 X54.399 Y52.796 E19.61268
G1 X54.889 Y52.441 E19.65312
G1 X55.697 Y51.953 E19.71616
G1 X56.562 Y51.547 E19.77998
G1 X57.464 Y51.234 E19.84380
G1 X58.394 Y51.017 E19.90761
G1 X59.342 Y50.899 E19.97138
G1 X60.297 Y50.880 E20.03520
G1 X60.658 Y50.899 E20.05935
G1 X61.606 Y51.017 E20.12316
G1 X62.536 Y51.234 E20.18697
G1 X63.438 Y51.547 E20.25078
G1 X64.303 Y51.953 E20.31459
G1 X65.120 Y52.447 E20.37839
G1 X65.882 Y53.023 E20.44220
G1 X66.579 Y53.677 E20.50603
G1 X67.204 Y54.399 E20.56983
G1 X67.750 Y55.183 E20.63363
G1 X68.211 Y56.019 E20.69744
G1 X68.582 Y56.899 E20.76124
G1 X68.766 Y57.464 E20.80095
G1 X68.983 Y58.394 E20.86476
G1 X69.101 Y59.342 E20.92857
G1 X69.120 Y60.297 E20.99237
G1 X69.039 Y61.249 E21.05618
G1 X68.859 Y62.187 E21.11999
G1 X68.582 Y63.101 E21.18380
G1 X68.453 Y63.438 E21.20794
G1 X68.047 Y64.303 E21.27174
G1 X67.553 Y65.120 E21.33554
G1 X66.977 Y65.882 E21.39935
G1 X66.323 Y66.579 E21.46316
G1 X65.873 Y66.983 E21.50359
G1 X65.120 Y67.553 E21.56667
G1 X64.303 Y68.047 E21.63048
G1 X63.438 Y68.453 E21.69429
G1 X62.536 Y68.766 E21.75810
G1 X61.606 Y68.983 E21.82188
G1 X60.658 Y69.101 E21.88568
G1 X59.703 Y69.120 E21.94952
G1 X59.342 Y69.101 E21.97364
G1 X58.394 Y68.983 E22.03746
G1 X57.464 Y68.766 E22.10127
G1 X56.562 Y68.453 E22.16508
G1 X55.697 Y68.047 E22.22888
G1 X54.880 Y67.553 E22.29269
G1 X54.118 Y66.977 E22.35650
G1 X53.421 Y66.323 E22.42031
G1 X53.023 Y65.882 E22.46002
G1 X52.447 Y65.120 E22.52382
G1 X51.953 Y64.303 E22.58763
G1 X51.547 Y63.438 E22.65144
G1 X51.234 Y62.536 E22.71525
G1 X51.017 Y61.606 E22.77906
G1 X50.899 Y60.658 E22.84287
G1 X50.880 Y59.703 E22.90667
G1 X50.961 Y58.751 E22.97048
G1 X51.141 Y57.813 E23.03429
G1 X51.418 Y56.899 E23.09810
G1 X51.547 Y56.562 E23.12224
G1 X51.953 Y55.697 E23.18605
G1 X52.447 Y54.879 E23.24989
G1 X53.023 Y54.118 E23.31364
G1 X53.634 Y53.464 E23.37345
G1 X54.055 Y53.800 F30000.000
G1 F2100
G1 X54.736 Y53.212 E23.43352
G1 X55.180 Y52.890 E23.47017
G1 X55.940 Y52.430 E23.52952
G1 X56.754 Y52.047 E23.58959
G1 X57.603 Y51.752 E23.64966
G1 X58.478 Y51.546 E23.70973
G1 X59.370 Y51.434 E23.76976
G1 X60.269 Y51.415 E23.82983
G1 X60.630 Y51.434 E23.85398
G1 X61.522 Y51.546 E23.91405
G1 X62.397 Y51.752 E23.97411
G1 X63.246 Y52.047 E24.03417
G1 X64.060 Y52.430 E24.09424
G1 X64.829 Y52.896 E24.15430
G1 X65.545 Y53.440 E24.21436
G1 X66.200 Y54.055 E24.27445
G1 X66.788 Y54.736 E24.33450
G1 X67.301 Y55.474 E24.39456
G1 X67.734 Y56.262 E24.45462
G1 X68.082 Y57.091 E24.51468
G1 X68.248 Y57.603 E24.55064
G1 X68.454 Y58.478 E24.61071
G1 X68.566 Y59.370 E24.67078
G1 X68.585 Y60.269 E24.73083
G1 X68.510 Y61.165 E24.79090
G1 X68.342 Y62.048 E24.85097
G1 X68.082 Y62.909 E24.91103
G1 X67.953 Y63.246 E24.93517
G1 X67.570 Y64.060 E24.99522
G1 X67.104 Y64.829 E25.05528
G1 X66.560 Y65.545 E25.11534
G1 X65.945 Y66.200 E25.17541
G1 X65.536 Y66.567 E25.21210
G1 X64.829 Y67.104 E25.27143
G1 X64.060 Y67.570 E25.33149
G1 X63.246 Y67.953 E25.39156
G1 X62.397 Y68.248 E25.45162
G1 X61.522 Y68.454 E25.51166
G1 X60.630 Y68.566 E25.57172
G1 X59.731 Y68.585 E25.63181
G1 X59.370 Y68.566 E25.65594
G1 X58.478 Y68.454 E25.71600
G1 X57.603 Y68.248 E25.77607
G1 X56.754 Y67.953 E25.83613
