; generated by Slic3r 1.3.0 on 2021-07-29 at 02:40:53

; external perimeters extrusion width = 0.44mm (2.78mm^3/s)
; perimeters extrusion width = 0.40mm (7.14mm^3/s)
; infill extrusion width = 0.50mm (10.97mm^3/s)
; solid infill extrusion width = 0.60mm (6.68mm^3/s)
; top infill extrusion width = 0.40mm (2.14mm^3/s)

M107
M190 S80 ; set bed temperature and wait for it to be reached
M104 S210 ; set temperature
G28 ; home all axes
G1 Z5 F5000 ; lift nozzle

; Filament gcode

M109 S210 ; set temperature and wait for it to be reached
G21 ; set units to millimeters
G90 ; use absolute coordinates
M82 ; use absolute distances for extrusion
G92 E0
G1 Z0.300 F30000.000
G1 E-2.00000 F2400.00000
G92 E0
G1 X51.529 Y51.178 F30000.000
G1 E2.00000 F2400.00000
G1 F2100
G1 X52.103 Y50.660 E2.05163
G1 X52.506 Y50.334 E2.08625
G1 X53.123 Y49.886 E2.13719
G1 X53.557 Y49.604 E2.17180
G1 X54.218 Y49.222 E2.22275
G1 X54.679 Y48.987 E2.25737
G1 X55.375 Y48.677 E2.30824
G1 X55.860 Y48.491 E2.34292
G1 X56.585 Y48.256 E2.39385
G1 X57.085 Y48.122 E2.42847
G1 X57.831 Y47.963 E2.47941
G1 X58.343 Y47.882 E2.51403
G1 X59.101 Y47.802 E2.56495
G1 X59.619 Y47.775 E2.59958
G1 X60.381 Y47.775 E2.65049
G1 X60.899 Y47.802 E2.68513
G1 X61.656 Y47.882 E2.73603
G1 X62.169 Y47.963 E2.77069
G1 X62.915 Y48.121 E2.82162
G1 X63.415 Y48.256 E2.85625
G1 X64.140 Y48.491 E2.90718
G1 X64.624 Y48.677 E2.94179
G1 X65.320 Y48.987 E2.99270
G1 X65.782 Y49.222 E3.02735
G1 X66.443 Y49.604 E3.07830
G1 X66.877 Y49.886 E3.11291
G1 X67.494 Y50.334 E3.16385
G1 X67.897 Y50.660 E3.19846
G1 X68.463 Y51.170 E3.24940
G1 X68.830 Y51.537 E3.28401
G1 X69.340 Y52.103 E3.33495
G1 X69.666 Y52.506 E3.36956
G1 X70.114 Y53.123 E3.42050
G1 X70.396 Y53.557 E3.45512
G1 X70.778 Y54.218 E3.50607
G1 X71.013 Y54.679 E3.54068
G1 X71.323 Y55.376 E3.59162
G1 X71.509 Y55.860 E3.62623
G1 X71.744 Y56.585 E3.67717
G1 X71.878 Y57.085 E3.71178
G1 X72.037 Y57.831 E3.76273
G1 X72.118 Y58.343 E3.79734
G1 X72.198 Y59.101 E3.84828
G1 X72.225 Y59.619 E3.88289
G1 X72.225 Y60.381 E3.93383
G1 X72.198 Y60.899 E3.96846
G1 X72.118 Y61.657 E4.01939
G1 X72.037 Y62.169 E4.05400
G1 X71.878 Y62.915 E4.10495
G1 X71.744 Y63.415 E4.13956
G1 X71.509 Y64.140 E4.19049
G1 X71.323 Y64.624 E4.22510
G1 X71.013 Y65.321 E4.27605
G1 X70.778 Y65.782 E4.31066
G1 X70.396 Y66.443 E4.36161
G1 X70.114 Y66.877 E4.39622
G1 X69.666 Y67.494 E4.44716
G1 X69.340 Y67.897 E4.48178
G1 X68.830 Y68.463 E4.53271
G1 X68.463 Y68.830 E4.56733
G1 X67.897 Y69.340 E4.61827
G1 X67.494 Y69.666 E4.65288
G1 X66.877 Y70.114 E4.70382
G1 X66.443 Y70.396 E4.73843
G1 X65.782 Y70.778 E4.78938
G1 X65.321 Y71.013 E4.82399
G1 X64.624 Y71.323 E4.87494
G1 X64.140 Y71.509 E4.90955
G1 X63.415 Y71.744 E4.96048
G1 X62.915 Y71.878 E4.99509
G1 X62.169 Y72.037 E5.04604
G1 X61.657 Y72.118 E5.08065
G1 X60.899 Y72.198 E5.13158
G1 X60.381 Y72.225 E5.16621
G1 X59.619 Y72.225 E5.21715
G1 X59.101 Y72.198 E5.25176
G1 X58.343 Y72.118 E5.30270
G1 X57.831 Y72.037 E5.33731
G1 X57.085 Y71.878 E5.38826
G1 X56.585 Y71.744 E5.42287
G1 X55.860 Y71.509 E5.47381
G1 X55.376 Y71.323 E5.50842
G1 X54.679 Y71.013 E5.55936
G1 X54.218 Y70.778 E5.59398
G1 X53.557 Y70.396 E5.64493
G1 X53.123 Y70.114 E5.67954
G1 X52.506 Y69.666 E5.73048
G1 X52.103 Y69.340 E5.76509
G1 X51.537 Y68.830 E5.81603
G1 X51.170 Y68.463 E5.85064
G1 X50.660 Y67.897 E5.90158
G1 X50.334 Y67.494 E5.93621
G1 X49.886 Y66.877 E5.98713
G1 X49.609 Y66.451 E6.02105
G1 X49.222 Y65.782 E6.07269
G1 X48.987 Y65.320 E6.10734
G1 X48.677 Y64.624 E6.15825
G1 X48.491 Y64.140 E6.19286
G1 X48.256 Y63.415 E6.24380
G1 X48.121 Y62.915 E6.27842
G1 X47.963 Y62.169 E6.32935
G1 X47.882 Y61.656 E6.36402
G1 X47.802 Y60.899 E6.41491
G1 X47.775 Y60.381 E6.44955
G1 X47.775 Y59.619 E6.50046
G1 X47.802 Y59.101 E6.53509
G1 X47.882 Y58.343 E6.58601
G1 X47.963 Y57.831 E6.62063
G1 X48.122 Y57.085 E6.67158
G1 X48.256 Y56.585 E6.70619
G1 X48.491 Y55.860 E6.75712
G1 X48.677 Y55.375 E6.79180
G1 X48.987 Y54.679 E6.84268
G1 X49.222 Y54.218 E6.87730
G1 X49.604 Y53.557 E6.92824
G1 X49.886 Y53.123 E6.96285
G1 X50.334 Y52.506 E7.01379
G1 X50.660 Y52.103 E7.04841
G1 X51.170 Y51.537 E7.09934
G1 X51.487 Y51.220 E7.12925
G1 X51.908 Y51.556 F30000.000
G1 F2100
G1 X52.440 Y51.076 E7.17713
G1 X52.843 Y50.750 E7.21175
G1 X53.414 Y50.335 E7.25895
G1 X53.849 Y50.053 E7.29356
G1 X54.461 Y49.700 E7.34076
G1 X54.923 Y49.464 E7.37538
G1 X55.567 Y49.177 E7.42251
G1 X56.052 Y48.991 E7.45719
G1 X56.723 Y48.773 E7.50437
G1 X57.224 Y48.639 E7.53899
G1 X57.915 Y48.492 E7.58619
G1 X58.427 Y48.411 E7.62080
G1 X59.129 Y48.337 E7.66798
G1 X59.647 Y48.310 E7.70261
G1 X60.353 Y48.310 E7.74978
G1 X60.871 Y48.337 E7.78442
G1 X61.573 Y48.411 E7.83157
G1 X62.085 Y48.492 E7.86623
G1 X62.776 Y48.639 E7.91342
G1 X63.277 Y48.773 E7.94804
G1 X63.948 Y48.991 E7.99523
G1 X64.432 Y49.177 E8.02984
G1 X65.077 Y49.464 E8.07701
G1 X65.539 Y49.700 E8.11165
G1 X66.151 Y50.053 E8.15885
G1 X66.585 Y50.335 E8.19347
G1 X67.157 Y50.750 E8.24066
G1 X67.560 Y51.076 E8.27528
G1 X68.085 Y51.549 E8.32247
G1 X68.451 Y51.915 E8.35708
G1 X68.924 Y52.440 E8.40427
G1 X69.250 Y52.843 E8.43888
G1 X69.665 Y53.414 E8.48608
G1 X69.947 Y53.849 E8.52069
G1 X70.300 Y54.461 E8.56790
G1 X70.536 Y54.923 E8.60251
G1 X70.823 Y55.568 E8.64971
G1 X71.009 Y56.052 E8.68432
G1 X71.227 Y56.723 E8.73151
G1 X71.361 Y57.224 E8.76612
G1 X71.508 Y57.915 E8.81332
G1 X71.589 Y58.427 E8.84793
G1 X71.663 Y59.129 E8.89513
G1 X71.690 Y59.647 E8.92974
G1 X71.690 Y60.353 E8.97694
G1 X71.663 Y60.871 E9.01156
G1 X71.589 Y61.573 E9.05875
G1 X71.508 Y62.085 E9.09336
G1 X71.361 Y62.776 E9.14056
G1 X71.227 Y63.277 E9.17517
G1 X71.009 Y63.948 E9.22236
G1 X70.823 Y64.432 E9.25697
G1 X70.536 Y65.077 E9.30417
G1 X70.300 Y65.539 E9.33878
G1 X69.947 Y66.151 E9.38599
G1 X69.665 Y66.586 E9.42060
G1 X69.250 Y67.157 E9.46780
G1 X68.924 Y67.560 E9.50241
G1 X68.451 Y68.085 E9.54960
G1 X68.085 Y68.451 E9.58421
G1 X67.560 Y68.924 E9.63141
G1 X67.157 Y69.250 E9.66602
G1 X66.586 Y69.665 E9.71321
G1 X66.151 Y69.947 E9.74783
G1 X65.539 Y70.300 E9.79503
G1 X65.077 Y70.536 E9.82964
G1 X64.432 Y70.823 E9.87684
G1 X63.948 Y71.009 E9.91145
G1 X63.277 Y71.227 E9.95864
G1 X62.776 Y71.361 E9.99325
G1 X62.085 Y71.508 E10.04045
G1 X61.573 Y71.589 E10.07507
G1 X60.871 Y71.663 E10.12225
G1 X60.353 Y71.690 E10.15688
G1 X59.647 Y71.690 E10.20407
G1 X59.129 Y71.663 E10.23868
G1 X58.427 Y71.589 E10.28588
G1 X57.915 Y71.508 E10.32049
G1 X57.224 Y71.361 E10.36769
G1 X56.723 Y71.227 E10.40231
G1 X56.052 Y71.009 E10.44949
G1 X55.568 Y70.823 E10.48411
G1 X54.923 Y70.536 E10.53130
G1 X54.461 Y70.300 E10.56592
G1 X53.849 Y69.947 E10.61312
G1 X53.414 Y69.665 E10.64773
G1 X52.843 Y69.250 E10.69493
G1 X52.440 Y68.924 E10.72954
G1 X51.915 Y68.451 E10.77673
G1 X51.549 Y68.085 E10.81135
G1 X51.076 Y67.560 E10.85854
G1 X50.750 Y67.157 E10.89317
G1 X50.335 Y66.585 E10.94035
G1 X50.058 Y66.160 E10.97426
G1 X49.700 Y65.539 E11.02216
G1 X49.464 Y65.077 E11.05680
G1 X49.177 Y64.432 E11.10397
G1 X48.991 Y63.948 E11.13858
G1 X48.773 Y63.277 E11.18577
G1 X48.639 Y62.776 E11.22040
G1 X48.492 Y62.085 E11.26759
G1 X48.411 Y61.573 E11.30224
G1 X48.337 Y60.871 E11.34939
G1 X48.310 Y60.353 E11.38403
G1 X48.310 Y59.647 E11.43120
G1 X48.337 Y59.129 E11.46583
G1 X48.411 Y58.427 E11.51301
G1 X48.492 Y57.915 E11.54762
G1 X48.639 Y57.224 E11.59483
G1 X48.773 Y56.723 E11.62944
G1 X48.991 Y56.052 E11.67663
G1 X49.177 Y55.567 E11.71130
G1 X49.464 Y54.923 E11.75844
G1 X49.700 Y54.461 E11.79306
G1 X50.053 Y53.849 E11.84025
G1 X50.335 Y53.414 E11.87487
G1 X50.750 Y52.843 E11.92206
G1 X51.076 Y52.440 E11.95667
G1 X51.549 Y51.915 E12.00387
G1 X51.866 Y51.599 E12.03377
G1 X52.287 Y51.935 F30000.000
G1 F2100
G1 X52.777 Y51.493 E12.07791
G1 X53.180 Y51.166 E12.11253
G1 X53.706 Y50.784 E12.15598
G1 X54.141 Y50.502 E12.19059
G1 X54.704 Y50.177 E12.23405
G1 X55.166 Y49.942 E12.26866
G1 X55.759 Y49.677 E12.31206
G1 X56.244 Y49.491 E12.34673
G1 X56.862 Y49.290 E12.39017
G1 X57.363 Y49.156 E12.42478
G1 X57.999 Y49.021 E12.46824
G1 X58.511 Y48.940 E12.50285
G1 X59.157 Y48.872 E12.54629
G1 X59.675 Y48.845 E12.58092
G1 X60.325 Y48.845 E12.62434
G1 X60.843 Y48.872 E12.65898
G1 X61.489 Y48.940 E12.70239
G1 X62.001 Y49.021 E12.73704
G1 X62.637 Y49.156 E12.78049
G1 X63.138 Y49.290 E12.81511
G1 X63.756 Y49.491 E12.85855
G1 X64.240 Y49.677 E12.89316
G1 X64.834 Y49.941 E12.93659
G1 X65.296 Y50.177 E12.97123
G1 X65.859 Y50.502 E13.01468
G1 X66.294 Y50.784 E13.04930
G1 X66.820 Y51.166 E13.09275
G1 X67.223 Y51.493 E13.12736
G1 X67.706 Y51.928 E13.17081
G1 X68.072 Y52.294 E13.20542
G1 X68.507 Y52.777 E13.24887
G1 X68.834 Y53.180 E13.28348
G1 X69.216 Y53.706 E13.32693
G1 X69.498 Y54.141 E13.36154
G1 X69.823 Y54.704 E13.40500
G1 X70.058 Y55.166 E13.43962
G1 X70.323 Y55.760 E13.48307
G1 X70.509 Y56.244 E13.51768
G1 X70.710 Y56.862 E13.56112
G1 X70.844 Y57.363 E13.59574
G1 X70.979 Y57.999 E13.63919
G1 X71.060 Y58.511 E13.67380
G1 X71.128 Y59.157 E13.71725
G1 X71.155 Y59.675 E13.75187
G1 X71.155 Y60.325 E13.79532
G1 X71.128 Y60.843 E13.82994
G1 X71.060 Y61.489 E13.87338
G1 X70.979 Y62.001 E13.90799
G1 X70.844 Y62.637 E13.95145
G1 X70.710 Y63.138 E13.98606
G1 X70.509 Y63.756 E14.02950
G1 X70.323 Y64.240 E14.06412
G1 X70.058 Y64.834 E14.10757
G1 X69.823 Y65.296 E14.14218
G1 X69.498 Y65.859 E14.18564
G1 X69.216 Y66.294 E14.22025
G1 X68.834 Y66.820 E14.26370
G1 X68.507 Y67.223 E14.29831
G1 X68.072 Y67.706 E14.34176
G1 X67.706 Y68.072 E14.37637
G1 X67.223 Y68.507 E14.41982
G1 X66.820 Y68.834 E14.45443
G1 X66.294 Y69.216 E14.49788
G1 X65.859 Y69.498 E14.53250
G1 X65.296 Y69.823 E14.57595
G1 X64.834 Y70.058 E14.61057
G1 X64.240 Y70.323 E14.65402
G1 X63.756 Y70.509 E14.68863
G1 X63.138 Y70.710 E14.73207
G1 X62.637 Y70.844 E14.76669
G1 X62.001 Y70.979 E14.81014
G1 X61.489 Y71.060 E14.84476
G1 X60.843 Y71.128 E14.88819
G1 X60.325 Y71.155 E14.92282
G1 X59.675 Y71.155 E14.96627
G1 X59.157 Y71.128 E15.00088
G1 X58.511 Y71.060 E15.04433
G1 X57.999 Y70.979 E15.07894
G1 X57.363 Y70.844 E15.12240
G1 X56.862 Y70.710 E15.15701
G1 X56.244 Y70.509 E15.20046
G1 X55.760 Y70.323 E15.23507
G1 X55.166 Y70.058 E15.27852
G1 X54.704 Y69.823 E15.31313
G1 X54.141 Y69.498 E15.35659
G1 X53.706 Y69.216 E15.39120
G1 X53.180 Y68.834 E15.43465
G1 X52.777 Y68.507 E15.46927
G1 X52.294 Y68.072 E15.51271
G1 X51.928 Y67.706 E15.54733
G1 X51.493 Y67.223 E15.59077
G1 X51.166 Y66.820 E15.62540
G1 X50.784 Y66.294 E15.66884
G1 X50.508 Y65.868 E15.70275
G1 X50.177 Y65.296 E15.74690
G1 X49.941 Y64.834 E15.78154
G1 X49.677 Y64.240 E15.82497
G1 X49.491 Y63.756 E15.85958
G1 X49.290 Y63.138 E15.90303
G1 X49.156 Y62.637 E15.93765
G1 X49.021 Y62.001 E15.98109
G1 X48.940 Y61.489 E16.01575
G1 X48.872 Y60.843 E16.05916
G1 X48.845 Y60.325 E16.09379
G1 X48.845 Y59.675 E16.13722
G1 X48.872 Y59.157 E16.17184
G1 X48.940 Y58.511 E16.21528
G1 X49.021 Y57.999 E16.24990
G1 X49.156 Y57.363 E16.29335
G1 X49.290 Y56.862 E16.32796
G1 X49.491 Y56.244 E16.37141
G1 X49.677 Y55.759 E16.40608
G1 X49.942 Y55.166 E16.44947
G1 X50.177 Y54.704 E16.48409
G1 X50.502 Y54.141 E16.52754
G1 X50.784 Y53.706 E16.56215
G1 X51.166 Y53.180 E16.60561
G1 X51.493 Y52.777 E16.64022
G1 X51.928 Y52.294 E16.68366
G1 X52.244 Y51.978 E16.71357
G1 X52.665 Y52.314 F30000.000
G1 F2100
G1 X53.114 Y51.909 E16.75397
G1 X53.517 Y51.583 E16.78858
G1 X53.998 Y51.233 E16.82829
G1 X54.432 Y50.951 E16.86290
G1 X54.947 Y50.654 E16.90261
G1 X55.409 Y50.419 E16.93723
G1 X55.951 Y50.177 E16.97688
G1 X56.436 Y49.991 E17.01155
G1 X57.001 Y49.808 E17.05124
G1 X57.501 Y49.674 E17.08586
G1 X58.083 Y49.550 E17.12557
G1 X58.594 Y49.469 E17.16018
G1 X59.185 Y49.407 E17.19987
G1 X59.703 Y49.380 E17.23450
G1 X60.297 Y49.380 E17.27418
G1 X60.815 Y49.407 E17.30881
G1 X61.405 Y49.469 E17.34848
G1 X61.917 Y49.550 E17.38313
G1 X62.499 Y49.674 E17.42283
G1 X62.999 Y49.808 E17.45745
G1 X63.564 Y49.991 E17.49715
G1 X64.048 Y50.177 E17.53176
G1 X64.591 Y50.419 E17.57145
G1 X65.053 Y50.654 E17.60608
G1 X65.568 Y50.951 E17.64579
G1 X66.002 Y51.233 E17.68041
G1 X66.483 Y51.583 E17.72011
G1 X66.886 Y51.909 E17.75473
G1 X67.327 Y52.306 E17.79443
G1 X67.694 Y52.673 E17.82904
G1 X68.091 Y53.114 E17.86874
G1 X68.417 Y53.517 E17.90335
G1 X68.767 Y53.998 E17.94306
G1 X69.049 Y54.432 E17.97767
G1 X69.346 Y54.947 E18.01738
G1 X69.581 Y55.409 E18.05200
G1 X69.823 Y55.952 E18.09170
G1 X70.009 Y56.436 E18.12632
G1 X70.192 Y57.001 E18.16601
G1 X70.326 Y57.501 E18.20063
G1 X70.450 Y58.083 E18.24034
G1 X70.531 Y58.594 E18.27495
G1 X70.593 Y59.185 E18.31465
G1 X70.620 Y59.703 E18.34927
G1 X70.620 Y60.297 E18.38897
G1 X70.593 Y60.815 E18.42360
G1 X70.531 Y61.406 E18.46329
G1 X70.450 Y61.917 E18.49790
G1 X70.326 Y62.499 E18.53761
G1 X70.192 Y62.999 E18.57222
G1 X70.009 Y63.564 E18.61192
G1 X69.823 Y64.048 E18.64653
G1 X69.581 Y64.591 E18.68624
G1 X69.346 Y65.053 E18.72086
G1 X69.049 Y65.568 E18.76057
G1 X68.767 Y66.002 E18.79518
G1 X68.417 Y66.483 E18.83488
G1 X68.091 Y66.886 E18.86950
G1 X67.694 Y67.327 E18.90920
G1 X67.327 Y67.694 E18.94381
G1 X66.886 Y68.091 E18.98351
G1 X66.483 Y68.417 E19.01813
G1 X66.002 Y68.767 E19.05783
G1 X65.568 Y69.049 E19.09244
G1 X65.053 Y69.346 E19.13215
G1 X64.591 Y69.581 E19.16677
G1 X64.048 Y69.823 E19.20648
G1 X63.564 Y70.009 E19.24109
G1 X62.999 Y70.192 E19.28079
G1 X62.499 Y70.326 E19.31540
G1 X61.917 Y70.450 E19.35511
G1 X61.406 Y70.531 E19.38972
G1 X60.815 Y70.593 E19.42941
G1 X60.297 Y70.620 E19.46404
G1 X59.703 Y70.620 E19.50374
G1 X59.185 Y70.593 E19.53836
G1 X58.594 Y70.531 E19.57806
G1 X58.083 Y70.450 E19.61267
G1 X57.501 Y70.326 E19.65238
G1 X57.001 Y70.192 E19.68700
G1 X56.436 Y70.009 E19.72669
G1 X55.952 Y69.823 E19.76131
G1 X55.409 Y69.581 E19.80101
G1 X54.947 Y69.346 E19.83563
G1 X54.432 Y69.049 E19.87534
G1 X53.998 Y68.767 E19.90995
G1 X53.517 Y68.417 E19.94965
G1 X53.114 Y68.091 E19.98427
G1 X52.673 Y67.694 E20.02397
G1 X52.306 Y67.327 E20.05858
G1 X51.909 Y66.886 E20.09828
G1 X51.583 Y66.483 E20.13291
G1 X51.233 Y66.002 E20.17260
G1 X50.957 Y65.576 E20.20652
G1 X50.654 Y65.053 E20.24692
G1 X50.419 Y64.591 E20.28156
G1 X50.177 Y64.048 E20.32124
G1 X49.991 Y63.564 E20.35586
G1 X49.808 Y62.999 E20.39556
G1 X49.674 Y62.499 E20.43018
G1 X49.550 Y61.917 E20.46988
G1 X49.469 Y61.405 E20.50453
G1 X49.407 Y60.815 E20.54419
G1 X49.380 Y60.297 E20.57883
G1 X49.380 Y59.703 E20.61851
G1 X49.407 Y59.185 E20.65314
G1 X49.469 Y58.594 E20.69283
G1 X49.550 Y58.083 E20.72744
G1 X49.674 Y57.501 E20.76715
G1 X49.808 Y57.001 E20.80177
G1 X49.991 Y56.436 E20.84146
G1 X50.177 Y55.951 E20.87613
G1 X50.419 Y55.409 E20.91578
G1 X50.654 Y54.947 E20.95040
G1 X50.951 Y54.432 E20.99011
G1 X51.233 Y53.998 E21.02472
G1 X51.583 Y53.517 E21.06443
G1 X51.909 Y53.114 E21.09904
G1 X52.306 Y52.673 E21.13874
G1 X52.623 Y52.356 E21.16865
G1 X53.044 Y52.693 F30000.000
G1 F2100
G1 X53.452 Y52.325 E21.20530
G1 X53.854 Y51.999 E21.23991
G1 X54.290 Y51.683 E21.27587
G1 X54.724 Y51.400 E21.31049
G1 X55.190 Y51.131 E21.34645
G1 X55.652 Y50.896 E21.38106
G1 X56.143 Y50.677 E21.41698
G1 X56.628 Y50.491 E21.45164
G1 X57.139 Y50.325 E21.48759
G1 X57.640 Y50.191 E21.52220
G1 X58.166 Y50.079 E21.55817
G1 X58.678 Y49.998 E21.59278
G1 X59.213 Y49.942 E21.62873
G1 X59.731 Y49.915 E21.66335
G1 X60.269 Y49.915 E21.69929
G1 X60.787 Y49.942 E21.73393
G1 X61.321 Y49.998 E21.76985
G1 X61.834 Y50.079 E21.80450
G1 X62.360 Y50.191 E21.84045
G1 X62.861 Y50.325 E21.87507
G1 X63.372 Y50.491 E21.91103
G1 X63.856 Y50.677 E21.94564
G1 X64.348 Y50.896 E21.98158
G1 X64.810 Y51.131 E22.01622
G1 X65.276 Y51.400 E22.05218
G1 X65.710 Y51.683 E22.08679
G1 X66.146 Y51.999 E22.12275
G1 X66.548 Y52.325 E22.15736
G1 X66.948 Y52.685 E22.19332
G1 X67.315 Y53.052 E22.22793
G1 X67.675 Y53.452 E22.26389
G1 X68.001 Y53.854 E22.29850
G1 X68.317 Y54.290 E22.33446
G1 X68.600 Y54.724 E22.36908
G1 X68.869 Y55.190 E22.40504
G1 X69.104 Y55.652 E22.43965
G1 X69.323 Y56.144 E22.47561
G1 X69.509 Y56.628 E22.51023
G1 X69.675 Y57.139 E22.54618
G1 X69.809 Y57.640 E22.58079
G1 X69.921 Y58.166 E22.61676
G1 X70.002 Y58.678 E22.65137
G1 X70.058 Y59.213 E22.68733
G1 X70.085 Y59.731 E22.72194
G1 X70.085 Y60.269 E22.75790
G1 X70.058 Y60.787 E22.79252
