; generated by Slic3r 1.3.0 on 2020-12-18 at 09:32:10

; external perimeters extrusion width = 0.44mm (2.78mm^3/s)
; perimeters extrusion width = 0.40mm (7.14mm^3/s)
; infill extrusion width = 0.50mm (10.97mm^3/s)
; solid infill extrusion width = 0.60mm (6.68mm^3/s)
; top infill extrusion width = 0.40mm (2.14mm^3/s)

M107
M190 S80 ; set bed temperature and wait for it to be reached
M104 S210 ; set temperature
G28 ; home all axes
G1 Z5 F5000 ; lift nozzle

; Filament gcode

M109 S210 ; set temperature and wait for it to be reached
G21 ; set units to millimeters
G90 ; use absolute coordinates
M82 ; use absolute distances for extrusion
G92 E0
G1 Z0.300 F30000.000
G1 E-2.00000 F2400.00000
G92 E0
G1 X58.735 Y53.125 F30000.000
G1 E2.00000 F2400.00000
G1 F2100
G1 X59.086 Y52.743 E2.03467
G1 X59.529 Y52.316 E2.07574
G1 X59.867 Y52.006 E2.10638
G1 X60.269 Y51.678 E2.14104
G1 X61.728 Y50.592 E2.26255
G1 X62.163 Y50.298 E2.29763
G1 X62.999 Y49.813 E2.36223
G1 X63.554 Y49.538 E2.40357
G1 X65.224 Y48.817 E2.52508
G1 X65.728 Y48.627 E2.56109
G1 X66.737 Y48.326 E2.63143
G1 X67.244 Y48.212 E2.66611
G1 X69.035 Y47.897 E2.78762
G1 X69.549 Y47.830 E2.82229
G1 X70.007 Y47.796 E2.85295
G1 X70.620 Y47.768 E2.89396
G1 X71.140 Y47.774 E2.92866
G1 X72.955 Y47.880 E3.05017
G1 X73.472 Y47.934 E3.08484
G1 X74.508 Y48.116 E3.15514
G1 X75.032 Y48.246 E3.19120
G1 X76.774 Y48.768 E3.31271
G1 X77.264 Y48.939 E3.34739
G1 X77.688 Y49.114 E3.37803
G1 X78.249 Y49.364 E3.41907
G1 X78.710 Y49.603 E3.45375
G1 X80.286 Y50.512 E3.57525
G1 X80.723 Y50.792 E3.60993
G1 X81.567 Y51.420 E3.68021
G1 X81.977 Y51.771 E3.71628
G1 X83.300 Y53.019 E3.83779
G1 X83.674 Y53.408 E3.87381
G1 X84.350 Y54.214 E3.94415
G1 X84.655 Y54.635 E3.97882
G1 X85.655 Y56.154 E4.10033
G1 X85.920 Y56.600 E4.13501
G1 X86.365 Y57.483 E4.20107
G1 X86.601 Y58.038 E4.24136
G1 X87.223 Y59.748 E4.36287
G1 X87.378 Y60.243 E4.39752
G1 X87.491 Y60.688 E4.42820
G1 X87.626 Y61.287 E4.46925
G1 X87.709 Y61.799 E4.50391
G1 X87.920 Y63.606 E4.62542
G1 X87.957 Y64.124 E4.66010
G1 X87.958 Y65.176 E4.73037
G1 X87.920 Y65.714 E4.76645
G1 X87.709 Y67.521 E4.88796
G1 X87.625 Y68.033 E4.92264
G1 X87.383 Y69.057 E4.99295
G1 X87.223 Y69.572 E5.02899
G1 X86.601 Y71.282 E5.15049
G1 X86.401 Y71.761 E5.18517
G1 X86.202 Y72.174 E5.21582
G1 X85.920 Y72.720 E5.25686
G1 X85.655 Y73.166 E5.29153
G1 X84.655 Y74.685 E5.41304
G1 X84.338 Y75.121 E5.44907
G1 X83.661 Y75.928 E5.51941
G1 X83.300 Y76.301 E5.55407
G1 X81.977 Y77.549 E5.67558
G1 X81.583 Y77.887 E5.71026
G1 X81.094 Y78.260 E5.75133
G1 X80.723 Y78.528 E5.78195
G1 X80.286 Y78.808 E5.81662
G1 X78.710 Y79.717 E5.93813
G1 X78.173 Y79.991 E5.97838
G1 X77.264 Y80.381 E6.04449
G1 X76.774 Y80.553 E6.07915
G1 X75.032 Y81.074 E6.20066
G1 X74.529 Y81.200 E6.23533
G1 X73.492 Y81.383 E6.30562
G1 X72.955 Y81.440 E6.34169
G1 X71.140 Y81.546 E6.46320
G1 X70.601 Y81.552 E6.49922
G1 X69.549 Y81.490 E6.56957
G1 X69.035 Y81.423 E6.60423
G1 X67.244 Y81.108 E6.72574
G1 X66.737 Y80.994 E6.76040
G1 X66.296 Y80.869 E6.79107
G1 X65.709 Y80.686 E6.83212
G1 X65.224 Y80.503 E6.86678
G1 X63.554 Y79.782 E6.98829
G1 X63.087 Y79.555 E7.02297
G1 X62.230 Y79.062 E7.08902
G1 X61.728 Y78.728 E7.12932
G1 X60.269 Y77.642 E7.25082
G1 X59.805 Y77.257 E7.29108
G1 X59.086 Y76.577 E7.35718
G1 X58.735 Y76.195 E7.39185
G1 X57.566 Y74.802 E7.51336
G1 X57.251 Y74.389 E7.54805
G1 X56.672 Y73.510 E7.61836
G1 X56.407 Y73.040 E7.65439
G1 X55.591 Y71.415 E7.77590
G1 X55.379 Y70.941 E7.81055
G1 X55.163 Y70.366 E7.85164
G1 X55.012 Y69.932 E7.88227
G1 X54.869 Y69.433 E7.91701
G1 X54.450 Y67.663 E8.03848
G1 X54.352 Y67.140 E8.07401
G1 X54.231 Y66.101 E8.14390
G1 X54.206 Y65.570 E8.17944
G1 X54.205 Y63.752 E8.30091
G1 X54.231 Y63.212 E8.33701
G1 X54.354 Y62.167 E8.40732
G1 X54.450 Y61.656 E8.44201
G1 X54.870 Y59.887 E8.56352
G1 X55.012 Y59.388 E8.59817
G1 X55.163 Y58.954 E8.62884
G1 X55.380 Y58.379 E8.66990
G1 X55.591 Y57.905 E8.70456
G1 X56.407 Y56.280 E8.82606
G1 X56.661 Y55.827 E8.86073
G1 X57.239 Y54.948 E8.93104
G1 X57.566 Y54.518 E8.96710
G1 X58.696 Y53.171 E9.08460
G1 X59.145 Y53.469 F30000.000
G1 F2100
G1 X59.464 Y53.123 E9.11600
G1 X59.788 Y52.808 E9.14625
G1 X60.225 Y52.405 E9.18592
G1 X60.589 Y52.108 E9.21731
G1 X62.047 Y51.021 E9.33882
G1 X62.442 Y50.755 E9.37059
G1 X63.256 Y50.283 E9.43349
G1 X63.766 Y50.029 E9.47152
G1 X65.436 Y49.309 E9.59303
G1 X65.895 Y49.137 E9.62577
G1 X66.878 Y48.843 E9.69433
G1 X67.337 Y48.740 E9.72574
G1 X69.128 Y48.424 E9.84724
G1 X69.594 Y48.364 E9.87864
G1 X70.046 Y48.331 E9.90890
G1 X70.638 Y48.303 E9.94853
G1 X71.109 Y48.309 E9.97996
G1 X72.924 Y48.414 E10.10147
G1 X73.392 Y48.463 E10.13287
G1 X74.402 Y48.641 E10.20139
G1 X74.878 Y48.759 E10.23417
G1 X76.621 Y49.281 E10.35568
G1 X77.065 Y49.436 E10.38709
G1 X77.483 Y49.609 E10.41733
G1 X78.025 Y49.850 E10.45699
G1 X78.443 Y50.067 E10.48839
G1 X80.018 Y50.976 E10.60990
G1 X80.414 Y51.229 E10.64131
G1 X81.237 Y51.841 E10.70981
G1 X81.609 Y52.161 E10.74261
G1 X82.932 Y53.409 E10.86412
G1 X83.272 Y53.762 E10.89687
G1 X83.932 Y54.548 E10.96542
G1 X84.208 Y54.929 E10.99682
G1 X85.207 Y56.449 E11.11833
G1 X85.447 Y56.853 E11.14974
G1 X85.720 Y57.380 E11.18942
G1 X85.917 Y57.788 E11.21965
G1 X86.098 Y58.222 E11.25105
G1 X86.720 Y59.931 E11.37256
G1 X86.880 Y60.455 E11.40914
G1 X87.097 Y61.378 E11.47249
G1 X87.177 Y61.861 E11.50526
G1 X87.388 Y63.668 E11.62677
G1 X87.422 Y64.137 E11.65818
G1 X87.422 Y65.162 E11.72667
G1 X87.388 Y65.652 E11.75947
G1 X87.177 Y67.459 E11.88098
G1 X87.101 Y67.923 E11.91239
G1 X86.865 Y68.921 E11.98092
G1 X86.720 Y69.389 E12.01369
G1 X86.098 Y71.098 E12.13520
G1 X85.917 Y71.532 E12.16660
G1 X85.720 Y71.940 E12.19685
G1 X85.447 Y72.467 E12.23651
G1 X85.207 Y72.872 E12.26791
G1 X84.208 Y74.391 E12.38942
G1 X83.919 Y74.788 E12.42217
G1 X83.259 Y75.573 E12.49073
G1 X82.932 Y75.911 E12.52212
G1 X81.609 Y77.159 E12.64363
G1 X81.237 Y77.478 E12.67639
G1 X80.477 Y78.045 E12.73972
G1 X80.018 Y78.344 E12.77633
G1 X78.443 Y79.254 E12.89784
G1 X78.025 Y79.470 E12.92926
G1 X77.612 Y79.655 E12.95950
G1 X77.064 Y79.884 E12.99916
G1 X76.621 Y80.039 E13.03056
G1 X74.878 Y80.561 E13.15207
G1 X74.422 Y80.675 E13.18346
G1 X73.413 Y80.854 E13.25197
G1 X72.924 Y80.906 E13.28477
G1 X71.109 Y81.011 E13.40628
G1 X70.618 Y81.017 E13.43903
G1 X69.594 Y80.956 E13.50759
G1 X69.128 Y80.896 E13.53899
G1 X67.337 Y80.580 E13.66050
G1 X66.878 Y80.477 E13.69189
G1 X66.442 Y80.354 E13.72215
G1 X65.875 Y80.177 E13.76182
G1 X65.436 Y80.011 E13.79321
G1 X63.766 Y79.291 E13.91472
G1 X63.325 Y79.075 E13.94748
G1 X62.504 Y78.602 E14.01080
G1 X62.047 Y78.299 E14.04742
G1 X60.588 Y77.212 E14.16893
G1 X60.167 Y76.863 E14.20551
G1 X59.478 Y76.211 E14.26885
G1 X59.145 Y75.851 E14.30163
G1 X57.976 Y74.458 E14.42314
G1 X57.691 Y74.084 E14.45456
G1 X57.127 Y73.227 E14.52308
G1 X56.886 Y72.800 E14.55585
G1 X56.070 Y71.174 E14.67735
G1 X55.878 Y70.745 E14.70874
G1 X55.668 Y70.189 E14.74844
G1 X55.520 Y69.762 E14.77867
G1 X55.391 Y69.309 E14.81013
G1 X54.972 Y67.540 E14.93160
G1 X54.883 Y67.066 E14.96378
G1 X54.769 Y66.101 E15.02872
G1 X54.741 Y65.570 E15.06425
G1 X54.741 Y63.752 E15.18572
G1 X54.764 Y63.261 E15.21854
G1 X54.884 Y62.242 E15.28708
G1 X54.971 Y61.780 E15.31849
G1 X55.391 Y60.010 E15.44000
G1 X55.520 Y59.558 E15.47138
G1 X55.669 Y59.130 E15.50165
G1 X55.878 Y58.575 E15.54133
G1 X56.070 Y58.146 E15.57271
G1 X56.886 Y56.520 E15.69422
G1 X57.116 Y56.110 E15.72562
G1 X57.679 Y55.253 E15.79414
G1 X57.976 Y54.863 E15.82693
G1 X59.107 Y53.515 E15.94443
G1 X59.556 Y53.813 F30000.000
G1 F2100
G1 X60.161 Y53.192 E16.00239
G1 X60.582 Y52.804 E16.04067
G1 X60.908 Y52.537 E16.06880
G1 X62.367 Y51.451 E16.19030
G1 X62.720 Y51.213 E16.21877
G1 X63.513 Y50.753 E16.27995
G1 X63.978 Y50.521 E16.31468
G1 X65.648 Y49.801 E16.43619
G1 X66.061 Y49.646 E16.46566
G1 X67.019 Y49.359 E16.53243
G1 X67.430 Y49.267 E16.56057
G1 X69.221 Y48.952 E16.68208
G1 X70.084 Y48.865 E16.74004
G1 X70.656 Y48.838 E16.77829
G1 X71.077 Y48.843 E16.80645
G1 X72.893 Y48.949 E16.92795
G1 X73.312 Y48.993 E16.95609
G1 X74.296 Y49.166 E17.02282
G1 X74.725 Y49.272 E17.05234
G1 X76.467 Y49.794 E17.17385
G1 X76.865 Y49.933 E17.20198
G1 X77.394 Y50.154 E17.24028
G1 X78.175 Y50.530 E17.29821
G1 X79.750 Y51.440 E17.41972
G1 X80.105 Y51.667 E17.44785
G1 X80.906 Y52.263 E17.51458
G1 X81.242 Y52.550 E17.54410
G1 X82.565 Y53.799 E17.66561
G1 X82.871 Y54.116 E17.69509
G1 X83.513 Y54.882 E17.76186
G1 X83.760 Y55.223 E17.78999
G1 X84.760 Y56.743 E17.91150
G1 X85.181 Y57.501 E17.96946
G1 X85.432 Y58.016 E18.00774
G1 X85.594 Y58.405 E18.03587
G1 X86.216 Y60.114 E18.15738
G1 X86.342 Y60.516 E18.18549
G1 X86.573 Y61.488 E18.25226
G1 X86.645 Y61.924 E18.28176
G1 X86.856 Y63.730 E18.40327
G1 X86.893 Y64.597 E18.46123
G1 X86.886 Y65.170 E18.49948
G1 X86.856 Y65.590 E18.52763
G1 X86.645 Y67.396 E18.64914
G1 X86.577 Y67.812 E18.67728
G1 X86.347 Y68.784 E18.74402
G1 X86.216 Y69.206 E18.77352
G1 X85.594 Y70.915 E18.89503
G1 X85.424 Y71.322 E18.92451
G1 X84.975 Y72.215 E18.99129
G1 X84.760 Y72.577 E19.01941
G1 X83.760 Y74.097 E19.14092
G1 X83.500 Y74.454 E19.17041
G1 X82.857 Y75.219 E19.23718
G1 X82.565 Y75.522 E19.26531
G1 X81.242 Y76.770 E19.38681
G1 X80.907 Y77.057 E19.41630
G1 X80.163 Y77.611 E19.47824
G1 X79.750 Y77.880 E19.51119
G1 X78.175 Y78.790 E19.63270
G1 X77.393 Y79.166 E19.69066
G1 X76.865 Y79.387 E19.72894
G1 X76.467 Y79.526 E19.75707
G1 X74.725 Y80.048 E19.87858
G1 X74.316 Y80.150 E19.90670
G1 X73.333 Y80.324 E19.97343
G1 X72.893 Y80.371 E20.00296
G1 X71.077 Y80.477 E20.12447
G1 X70.636 Y80.481 E20.15394
G1 X69.638 Y80.423 E20.22072
G1 X69.221 Y80.369 E20.24885
G1 X67.430 Y80.053 E20.37036
G1 X66.589 Y79.839 E20.42832
G1 X66.042 Y79.668 E20.46660
G1 X65.648 Y79.519 E20.49472
G1 X63.978 Y78.799 E20.61623
G1 X63.581 Y78.605 E20.64572
G1 X62.778 Y78.142 E20.70766
G1 X62.367 Y77.869 E20.74061
G1 X60.908 Y76.783 E20.86212
G1 X60.529 Y76.468 E20.89503
G1 X59.855 Y75.831 E20.95698
G1 X59.556 Y75.507 E20.98650
G1 X58.386 Y74.113 E21.10800
G1 X58.131 Y73.778 E21.13615
G1 X57.581 Y72.944 E21.20289
G1 X57.364 Y72.559 E21.23239
G1 X56.548 Y70.934 E21.35390
G1 X56.377 Y70.550 E21.38201
G1 X56.174 Y70.013 E21.42033
G1 X55.912 Y69.186 E21.47832
G1 X55.493 Y67.416 E21.59979
G1 X55.413 Y66.992 E21.62861
G1 X55.302 Y66.051 E21.69195
G1 X55.277 Y65.570 E21.72413
G1 X55.277 Y63.751 E21.84560
G1 X55.298 Y63.310 E21.87514
G1 X55.414 Y62.317 E21.94189
G1 X55.493 Y61.903 E21.97003
G1 X55.912 Y60.134 E22.09154
G1 X56.174 Y59.307 E22.14950
G1 X56.377 Y58.770 E22.18780
G1 X56.548 Y58.386 E22.21591
G1 X57.364 Y56.761 E22.33742
G1 X57.570 Y56.393 E22.36554
G1 X58.119 Y55.558 E22.43228
G1 X58.386 Y55.207 E22.46180
G1 X59.517 Y53.859 E22.57930
G1 X59.966 Y54.158 F30000.000
G1 F2100
G1 X60.218 Y53.884 E22.60416
G1 X60.615 Y53.500 E22.64108
G1 X61.228 Y52.967 E22.69535
G1 X62.687 Y51.881 E22.81685
G1 X62.999 Y51.670 E22.84201
G1 X63.769 Y51.223 E22.90149
G1 X64.190 Y51.013 E22.93290
G1 X65.860 Y50.293 E23.05441
G1 X66.271 Y50.141 E23.08366
G1 X67.159 Y49.876 E23.14560
G1 X67.523 Y49.795 E23.17047
G1 X69.314 Y49.479 E23.29198
G1 X70.123 Y49.399 E23.34627
G1 X70.674 Y49.374 E23.38314
G1 X71.046 Y49.378 E23.40802
G1 X72.862 Y49.484 E23.52953
G1 X73.232 Y49.523 E23.55439
G1 X74.145 Y49.682 E23.61631
G1 X74.571 Y49.785 E23.64559
G1 X76.314 Y50.307 E23.76709
G1 X77.072 Y50.598 E23.82138
G1 X77.576 Y50.823 E23.85827
G1 X77.907 Y50.994 E23.88314
G1 X79.482 Y51.904 E24.00465
G1 X79.796 Y52.104 E24.02951
G1 X80.540 Y52.657 E24.09142
G1 X80.874 Y52.940 E24.12070
G1 X82.197 Y54.188 E24.24221
G1 X82.499 Y54.505 E24.27146
G1 X83.094 Y55.216 E24.33341
G1 X83.313 Y55.518 E24.35826
G1 X84.312 Y57.037 E24.47977
G1 X84.502 Y57.357 E24.50463
G1 X84.756 Y57.848 E24.54156
G1 X85.091 Y58.588 E24.59582
G1 X85.713 Y60.297 E24.71733
G1 X85.824 Y60.652 E24.74217
G1 X86.039 Y61.554 E24.80410
G1 X86.113 Y61.986 E24.83338
G1 X86.324 Y63.792 E24.95489
G1 X86.357 Y64.604 E25.00918
G1 X86.351 Y65.156 E25.04606
G1 X86.324 Y65.528 E25.07093
G1 X86.113 Y67.334 E25.19244
G1 X86.053 Y67.702 E25.21731
G1 X85.841 Y68.604 E25.27922
G1 X85.713 Y69.023 E25.30850
G1 X85.091 Y70.732 E25.43000
G1 X84.920 Y71.135 E25.45925
G1 X84.502 Y71.963 E25.52120
G1 X84.312 Y72.283 E25.54606
G1 X83.313 Y73.803 E25.66757
G1 X83.053 Y74.155 E25.69681
G1 X82.456 Y74.864 E25.75877
G1 X82.197 Y75.132 E25.78362
G1 X80.874 Y76.380 E25.90513
G1 X80.576 Y76.635 E25.93134
G1 X79.849 Y77.177 E25.99191
G1 X79.482 Y77.416 E26.02118
G1 X77.907 Y78.326 E26.14269
G1 X77.174 Y78.678 E26.19698
G1 X76.665 Y78.890 E26.23388
G1 X76.314 Y79.013 E26.25874
G1 X74.571 Y79.535 E26.38025
G1 X74.210 Y79.625 E26.40510
G1 X73.298 Y79.787 E26.46702
G1 X72.862 Y79.836 E26.49630
G1 X71.046 Y79.942 E26.61781
G1 X70.609 Y79.944 E26.64705
G1 X69.683 Y79.889 E26.70901
G1 X69.314 Y79.841 E26.73386
G1 X67.523 Y79.525 E26.85537
G1 X67.160 Y79.444 E26.88023
G1 X66.628 Y79.292 E26.91716
G1 X65.860 Y79.027 E26.97142
G1 X64.190 Y78.307 E27.09292
G1 X63.855 Y78.144 E27.11779
G1 X63.374 Y77.874 E27.15471
G1 X62.687 Y77.439 E27.20897
G1 X61.228 Y76.353 E27.33048
G1 X60.891 Y76.074 E27.35972
G1 X60.233 Y75.451 E27.42029
G1 X59.966 Y75.162 E27.44653
G1 X58.797 Y73.769 E27.56804
G1 X58.571 Y73.473 E27.59291
G1 X58.060 Y72.700 E27.65482
G1 X57.843 Y72.319 E27.68409
G1 X57.027 Y70.694 E27.80560
G1 X56.875 Y70.354 E27.83045
G1 X56.680 Y69.837 E27.86739
G1 X56.433 Y69.062 E27.92170
G1 X56.014 Y67.293 E28.04317
G1 X55.944 Y66.918 E28.06864
G1 X55.835 Y66.001 E28.13037
G1 X55.813 Y65.570 E28.15919
G1 X55.812 Y63.751 E28.28066
G1 X55.831 Y63.359 E28.30693
G1 X55.945 Y62.393 E28.37190
G1 X56.014 Y62.027 E28.39677
G1 X56.433 Y60.257 E28.51828
G1 X56.680 Y59.483 E28.57257
G1 X56.875 Y58.966 E28.60948
G1 X57.027 Y58.626 E28.63432
G1 X57.843 Y57.001 E28.75583
G1 X58.025 Y56.676 E28.78069
G1 X58.533 Y55.901 E28.84261
G1 X58.797 Y55.551 E28.87189
G1 X59.927 Y54.204 E28.98939
G1 X60.376 Y54.502 F30000.000
G1 F2100
G1 X60.907 Y53.961 E29.04001
G1 X61.548 Y53.396 E29.09709
G1 X63.007 Y52.310 E29.21859
G1 X63.278 Y52.127 E29.24044
G1 X63.997 Y51.709 E29.29605
G1 X64.402 Y51.505 E29.32632
G1 X66.072 Y50.784 E29.44783
G1 X66.431 Y50.652 E29.47340
G1 X67.280 Y50.398 E29.53259
G1 X67.616 Y50.322 E29.55556
G1 X69.407 Y50.007 E29.67707
G1 X70.161 Y49.933 E29.72769
G1 X71.015 Y49.913 E29.78477
G1 X72.831 Y50.019 E29.90627
G1 X73.152 Y50.052 E29.92786
G1 X74.045 Y50.208 E29.98840
G1 X74.417 Y50.298 E30.01400
G1 X76.160 Y50.820 E30.13551
G1 X76.867 Y51.093 E30.18613
G1 X77.639 Y51.458 E30.24321
G1 X79.214 Y52.368 E30.36472
G1 X79.487 Y52.542 E30.38631
G1 X80.214 Y53.082 E30.44684
G1 X80.507 Y53.330 E30.47245
G1 X81.830 Y54.578 E30.59396
G1 X82.094 Y54.855 E30.61954
G1 X82.675 Y55.550 E30.68010
G1 X82.865 Y55.812 E30.70169
G1 X83.865 Y57.332 E30.82320
G1 X84.274 Y58.082 E30.88030
G1 X84.588 Y58.771 E30.93090
G1 X85.210 Y60.480 E31.05241
G1 X85.311 Y60.808 E31.07533
G1 X85.516 Y61.670 E31.13453
G1 X85.581 Y62.048 E31.16013
G1 X85.792 Y63.855 E31.28164
G1 X85.822 Y64.612 E31.33226
G1 X85.792 Y65.466 E31.38934
G1 X85.581 Y67.272 E31.51085
G1 X85.529 Y67.591 E31.53244
G1 X85.321 Y68.473 E31.59297
G1 X85.210 Y68.840 E31.61858
G1 X84.588 Y70.549 E31.74009
G1 X84.438 Y70.901 E31.76567
G1 X84.030 Y71.711 E31.82623
G1 X83.865 Y71.989 E31.84782
G1 X82.865 Y73.508 E31.96933
G1 X82.638 Y73.816 E31.99490
G1 X82.054 Y74.510 E32.05547
G1 X81.830 Y74.742 E32.07706
G1 X80.507 Y75.990 E32.19857
G1 X80.246 Y76.214 E32.22151
G1 X79.536 Y76.743 E32.28069
G1 X79.214 Y76.953 E32.30630
G1 X77.639 Y77.862 E32.42781
G1 X76.956 Y78.189 E32.47843
G1 X76.160 Y78.500 E32.53550
G1 X74.417 Y79.022 E32.65701
G1 X74.104 Y79.100 E32.67860
G1 X73.212 Y79.259 E32.73914
G1 X72.831 Y79.301 E32.76474
G1 X71.015 Y79.407 E32.88625
G1 X70.632 Y79.409 E32.91183
G1 X69.727 Y79.355 E32.97240
G1 X69.407 Y79.314 E32.99398
G1 X67.616 Y78.998 E33.11549
G1 X66.882 Y78.809 E33.16611
G1 X66.072 Y78.536 E33.22319
G1 X64.402 Y77.815 E33.34470
G1 X64.059 Y77.645 E33.37027
G1 X63.292 Y77.201 E33.42946
G1 X63.007 Y77.010 E33.45243
G1 X61.548 Y75.924 E33.57394
G1 X60.977 Y75.425 E33.62456
