; generated by Slic3r 1.3.0 on 2021-08-22 at 01:33:58

; external perimeters extrusion width = 0.44mm (2.78mm^3/s)
; perimeters extrusion width = 0.40mm (7.14mm^3/s)
; infill extrusion width = 0.50mm (10.97mm^3/s)
; solid infill extrusion width = 0.60mm (6.68mm^3/s)
; top infill extrusion width = 0.40mm (2.14mm^3/s)

M107
M190 S80 ; set bed temperature and wait for it to be reached
M104 S210 ; set temperature
G28 ; home all axes
G1 Z5 F5000 ; lift nozzle

; Filament gcode

M109 S210 ; set temperature and wait for it to be reached
G21 ; set units to millimeters
G90 ; use absolute coordinates
M82 ; use absolute distances for extrusion
G92 E0
G1 Z0.300 F30000.000
G1 E-2.00000 F2400.00000
G92 E0
G1 X50.904 Y50.441 F30000.000
G1 E2.00000 F2400.00000
G1 F2100
G1 X51.436 Y49.962 E2.04783
G1 X51.961 Y49.537 E2.09298
G1 X52.533 Y49.122 E2.14014
G1 X53.099 Y48.754 E2.18527
G1 X53.710 Y48.401 E2.23239
G1 X54.312 Y48.094 E2.27757
G1 X54.958 Y47.807 E2.32476
G1 X55.588 Y47.565 E2.36986
G1 X56.259 Y47.347 E2.41700
G1 X56.912 Y47.172 E2.46217
G1 X57.603 Y47.025 E2.50936
G1 X58.270 Y46.919 E2.55447
G1 X58.972 Y46.845 E2.60164
G1 X59.647 Y46.810 E2.64676
G1 X60.352 Y46.810 E2.69389
G1 X61.027 Y46.845 E2.73906
G1 X61.729 Y46.919 E2.78619
G1 X62.397 Y47.025 E2.83136
G1 X63.088 Y47.172 E2.87855
G1 X63.740 Y47.346 E2.92366
G1 X64.412 Y47.565 E2.97086
G1 X65.042 Y47.807 E3.01596
G1 X65.688 Y48.094 E3.06315
G1 X66.289 Y48.401 E3.10825
G1 X66.900 Y48.753 E3.15541
G1 X67.467 Y49.121 E3.20055
G1 X68.039 Y49.537 E3.24774
G1 X68.563 Y49.962 E3.29285
G1 X69.088 Y50.434 E3.34004
G1 X69.566 Y50.912 E3.38518
G1 X70.038 Y51.437 E3.43234
G1 X70.464 Y51.962 E3.47747
G1 X70.879 Y52.533 E3.52464
G1 X71.246 Y53.099 E3.56974
G1 X71.600 Y53.711 E3.61694
G1 X71.906 Y54.312 E3.66204
G1 X72.193 Y54.958 E3.70923
G1 X72.432 Y55.579 E3.75370
G1 X72.654 Y56.260 E3.80153
G1 X72.828 Y56.912 E3.84663
G1 X72.975 Y57.603 E3.89383
G1 X73.081 Y58.270 E3.93896
G1 X73.155 Y58.973 E3.98612
G1 X73.190 Y59.647 E4.03123
G1 X73.190 Y60.353 E4.07843
G1 X73.155 Y61.027 E4.12353
G1 X73.081 Y61.730 E4.17072
G1 X72.975 Y62.397 E4.21582
G1 X72.828 Y63.088 E4.26302
G1 X72.654 Y63.740 E4.30812
G1 X72.435 Y64.412 E4.35532
G1 X72.193 Y65.043 E4.40047
G1 X71.906 Y65.688 E4.44762
G1 X71.600 Y66.289 E4.49272
G1 X71.246 Y66.901 E4.53991
G1 X70.878 Y67.467 E4.58503
G1 X70.463 Y68.039 E4.63221
G1 X70.038 Y68.563 E4.67733
G1 X69.566 Y69.088 E4.72451
G1 X69.088 Y69.566 E4.76961
G1 X68.564 Y70.038 E4.81679
G1 X68.039 Y70.463 E4.86191
G1 X67.467 Y70.878 E4.90909
G1 X66.901 Y71.246 E4.95421
G1 X66.289 Y71.600 E5.00140
G1 X65.688 Y71.906 E5.04651
G1 X65.043 Y72.193 E5.09366
G1 X64.412 Y72.435 E5.13880
G1 X63.740 Y72.654 E5.18600
G1 X63.088 Y72.828 E5.23110
G1 X62.397 Y72.975 E5.27830
G1 X61.730 Y73.081 E5.32340
G1 X61.027 Y73.155 E5.37059
G1 X60.353 Y73.190 E5.41570
G1 X59.647 Y73.190 E5.46290
G1 X58.973 Y73.155 E5.50800
G1 X58.270 Y73.081 E5.55517
G1 X57.603 Y72.975 E5.60029
G1 X56.912 Y72.828 E5.64749
G1 X56.260 Y72.654 E5.69259
G1 X55.588 Y72.435 E5.73977
G1 X54.958 Y72.193 E5.78489
G1 X54.312 Y71.906 E5.83209
G1 X53.711 Y71.600 E5.87719
G1 X53.099 Y71.246 E5.92438
G1 X52.533 Y70.879 E5.96948
G1 X51.962 Y70.464 E6.01666
G1 X51.437 Y70.038 E6.06178
G1 X50.912 Y69.566 E6.10898
G1 X50.434 Y69.088 E6.15408
G1 X49.962 Y68.563 E6.20128
G1 X49.537 Y68.039 E6.24639
G1 X49.121 Y67.467 E6.29358
G1 X48.753 Y66.900 E6.33871
G1 X48.401 Y66.289 E6.38587
G1 X48.094 Y65.688 E6.43097
G1 X47.807 Y65.042 E6.47817
G1 X47.565 Y64.412 E6.52327
G1 X47.346 Y63.740 E6.57047
G1 X47.172 Y63.088 E6.61557
G1 X47.025 Y62.397 E6.66277
G1 X46.919 Y61.729 E6.70794
G1 X46.845 Y61.027 E6.75506
G1 X46.810 Y60.352 E6.80023
G1 X46.810 Y59.647 E6.84736
G1 X46.845 Y58.972 E6.89248
G1 X46.919 Y58.270 E6.93966
G1 X47.025 Y57.603 E6.98476
G1 X47.172 Y56.912 E7.03196
G1 X47.347 Y56.259 E7.07712
G1 X47.565 Y55.588 E7.12426
G1 X47.807 Y54.958 E7.16936
G1 X48.094 Y54.312 E7.21655
G1 X48.401 Y53.710 E7.26173
G1 X48.754 Y53.099 E7.30885
G1 X49.122 Y52.533 E7.35398
G1 X49.537 Y51.961 E7.40115
G1 X49.962 Y51.436 E7.44628
G1 X50.434 Y50.912 E7.49345
G1 X50.862 Y50.484 E7.53386
G1 X51.283 Y50.820 F30000.000
G1 F2100
G1 X51.773 Y50.378 E7.57795
G1 X52.298 Y49.953 E7.62309
G1 X52.824 Y49.571 E7.66652
G1 X53.391 Y49.203 E7.71165
G1 X53.953 Y48.878 E7.75502
G1 X54.556 Y48.571 E7.80020
G1 X55.150 Y48.307 E7.84364
G1 X55.780 Y48.065 E7.88875
G1 X56.398 Y47.864 E7.93214
G1 X57.051 Y47.689 E7.97730
G1 X57.687 Y47.554 E8.02075
G1 X58.354 Y47.448 E8.06586
G1 X59.000 Y47.380 E8.10929
G1 X59.675 Y47.345 E8.15441
G1 X60.324 Y47.345 E8.19780
G1 X60.999 Y47.380 E8.24296
G1 X61.645 Y47.448 E8.28635
G1 X62.313 Y47.554 E8.33151
G1 X62.949 Y47.689 E8.37496
G1 X63.601 Y47.864 E8.42006
G1 X64.220 Y48.065 E8.46352
G1 X64.850 Y48.307 E8.50862
G1 X65.444 Y48.571 E8.55207
G1 X66.046 Y48.878 E8.59717
G1 X66.609 Y49.203 E8.64059
G1 X67.175 Y49.571 E8.68572
G1 X67.701 Y49.953 E8.72916
G1 X68.226 Y50.378 E8.77427
G1 X68.710 Y50.813 E8.81772
G1 X69.187 Y51.291 E8.86286
G1 X69.622 Y51.774 E8.90628
G1 X70.047 Y52.299 E8.95140
G1 X70.429 Y52.825 E8.99483
G1 X70.797 Y53.391 E9.03993
G1 X71.122 Y53.954 E9.08338
G1 X71.429 Y54.556 E9.12848
G1 X71.693 Y55.150 E9.17193
G1 X71.932 Y55.771 E9.21636
G1 X72.136 Y56.399 E9.26049
G1 X72.311 Y57.051 E9.30559
G1 X72.446 Y57.687 E9.34904
G1 X72.552 Y58.354 E9.39416
G1 X72.620 Y59.001 E9.43759
G1 X72.655 Y59.675 E9.48269
G1 X72.655 Y60.325 E9.52615
G1 X72.620 Y60.999 E9.57125
G1 X72.552 Y61.646 E9.61469
G1 X72.446 Y62.313 E9.65980
G1 X72.311 Y62.949 E9.70325
G1 X72.136 Y63.601 E9.74835
G1 X71.935 Y64.220 E9.79180
G1 X71.693 Y64.851 E9.83695
G1 X71.429 Y65.444 E9.88035
G1 X71.122 Y66.046 E9.92546
G1 X70.797 Y66.609 E9.96890
G1 X70.429 Y67.176 E10.01402
G1 X70.047 Y67.702 E10.05746
G1 X69.622 Y68.226 E10.10257
G1 X69.187 Y68.710 E10.14601
G1 X68.710 Y69.187 E10.19111
G1 X68.226 Y69.622 E10.23455
G1 X67.702 Y70.047 E10.27967
G1 X67.176 Y70.429 E10.32310
G1 X66.609 Y70.797 E10.36822
G1 X66.046 Y71.122 E10.41167
G1 X65.444 Y71.429 E10.45677
G1 X64.851 Y71.693 E10.50018
G1 X64.220 Y71.935 E10.54532
G1 X63.601 Y72.136 E10.58877
G1 X62.949 Y72.311 E10.63388
G1 X62.313 Y72.446 E10.67733
G1 X61.646 Y72.552 E10.72243
G1 X60.999 Y72.620 E10.76588
G1 X60.325 Y72.655 E10.81098
G1 X59.675 Y72.655 E10.85443
G1 X59.001 Y72.620 E10.89953
G1 X58.354 Y72.552 E10.94296
G1 X57.687 Y72.446 E10.98808
G1 X57.051 Y72.311 E11.03154
G1 X56.399 Y72.136 E11.07664
G1 X55.780 Y71.935 E11.12007
G1 X55.150 Y71.693 E11.16519
G1 X54.556 Y71.429 E11.20864
G1 X53.954 Y71.122 E11.25374
G1 X53.391 Y70.797 E11.29719
G1 X52.825 Y70.429 E11.34229
G1 X52.299 Y70.047 E11.38572
G1 X51.774 Y69.622 E11.43085
G1 X51.290 Y69.187 E11.47430
G1 X50.813 Y68.710 E11.51940
G1 X50.378 Y68.226 E11.56285
G1 X49.953 Y67.701 E11.60796
G1 X49.571 Y67.175 E11.65140
G1 X49.203 Y66.609 E11.69654
G1 X48.878 Y66.046 E11.73995
G1 X48.571 Y65.444 E11.78506
G1 X48.307 Y64.850 E11.82850
G1 X48.065 Y64.220 E11.87361
G1 X47.864 Y63.601 E11.91706
G1 X47.689 Y62.949 E11.96216
G1 X47.554 Y62.313 E12.00561
G1 X47.448 Y61.645 E12.05078
G1 X47.380 Y60.999 E12.09416
G1 X47.345 Y60.324 E12.13933
G1 X47.345 Y59.675 E12.18272
G1 X47.380 Y59.000 E12.22784
G1 X47.448 Y58.354 E12.27127
G1 X47.554 Y57.687 E12.31637
G1 X47.689 Y57.051 E12.35982
G1 X47.864 Y56.398 E12.40498
G1 X48.065 Y55.780 E12.44838
G1 X48.307 Y55.150 E12.49348
G1 X48.571 Y54.556 E12.53693
G1 X48.878 Y53.953 E12.58210
G1 X49.203 Y53.391 E12.62548
G1 X49.571 Y52.824 E12.67061
G1 X49.953 Y52.298 E12.71403
G1 X50.378 Y51.773 E12.75916
G1 X50.813 Y51.290 E12.80258
G1 X51.241 Y50.863 E12.84300
G1 X51.662 Y51.199 F30000.000
G1 F2100
G1 X52.110 Y50.794 E12.88334
G1 X52.636 Y50.369 E12.92849
G1 X53.116 Y50.020 E12.96817
G1 X53.683 Y49.652 E13.01329
G1 X54.196 Y49.355 E13.05293
G1 X54.799 Y49.048 E13.09810
G1 X55.342 Y48.807 E13.13780
G1 X55.972 Y48.565 E13.18290
G1 X56.536 Y48.381 E13.22256
G1 X57.189 Y48.206 E13.26771
G1 X57.771 Y48.083 E13.30742
G1 X58.438 Y47.977 E13.35252
G1 X59.028 Y47.915 E13.39221
G1 X59.703 Y47.880 E13.43733
G1 X60.296 Y47.880 E13.47698
G1 X60.971 Y47.915 E13.52214
G1 X61.562 Y47.977 E13.56178
G1 X62.229 Y48.083 E13.60694
G1 X62.811 Y48.206 E13.64665
G1 X63.463 Y48.381 E13.69175
G1 X64.028 Y48.565 E13.73146
G1 X64.658 Y48.807 E13.77656
G1 X65.201 Y49.048 E13.81626
G1 X65.803 Y49.355 E13.86136
G1 X66.317 Y49.652 E13.90104
G1 X66.884 Y50.020 E13.94617
G1 X67.364 Y50.369 E13.98587
G1 X67.889 Y50.794 E14.03098
G1 X68.331 Y51.192 E14.07068
G1 X68.809 Y51.669 E14.11581
G1 X69.206 Y52.111 E14.15549
G1 X69.631 Y52.636 E14.20061
G1 X69.980 Y53.116 E14.24030
G1 X70.348 Y53.683 E14.28540
G1 X70.645 Y54.197 E14.32510
G1 X70.952 Y54.799 E14.37020
G1 X71.193 Y55.342 E14.40991
G1 X71.432 Y55.962 E14.45433
G1 X71.619 Y56.537 E14.49472
G1 X71.794 Y57.189 E14.53982
G1 X71.917 Y57.771 E14.57952
G1 X72.023 Y58.438 E14.62465
G1 X72.085 Y59.029 E14.66433
G1 X72.120 Y59.703 E14.70943
G1 X72.120 Y60.297 E14.74914
G1 X72.085 Y60.971 E14.79424
G1 X72.023 Y61.562 E14.83394
G1 X71.917 Y62.229 E14.87904
G1 X71.794 Y62.811 E14.91875
G1 X71.619 Y63.463 E14.96385
G1 X71.435 Y64.028 E15.00356
G1 X71.193 Y64.659 E15.04870
G1 X70.952 Y65.201 E15.08837
G1 X70.645 Y65.803 E15.13347
G1 X70.348 Y66.317 E15.17317
G1 X69.980 Y66.884 E15.21829
G1 X69.631 Y67.364 E15.25798
G1 X69.206 Y67.889 E15.30309
G1 X68.808 Y68.331 E15.34279
G1 X68.331 Y68.808 E15.38789
G1 X67.889 Y69.206 E15.42758
G1 X67.364 Y69.631 E15.47270
G1 X66.884 Y69.980 E15.51239
G1 X66.317 Y70.348 E15.55750
G1 X65.803 Y70.645 E15.59721
G1 X65.201 Y70.952 E15.64231
G1 X64.659 Y71.193 E15.68198
G1 X64.028 Y71.435 E15.72711
G1 X63.463 Y71.619 E15.76682
G1 X62.811 Y71.794 E15.81192
G1 X62.229 Y71.917 E15.85163
G1 X61.562 Y72.023 E15.89673
G1 X60.971 Y72.085 E15.93643
G1 X60.297 Y72.120 E15.98154
G1 X59.703 Y72.120 E16.02125
G1 X59.029 Y72.085 E16.06635
G1 X58.438 Y72.023 E16.10603
G1 X57.771 Y71.917 E16.15115
G1 X57.189 Y71.794 E16.19086
G1 X56.537 Y71.619 E16.23596
G1 X55.972 Y71.435 E16.27565
G1 X55.342 Y71.193 E16.32077
G1 X54.799 Y70.952 E16.36047
G1 X54.197 Y70.645 E16.40557
G1 X53.683 Y70.348 E16.44528
G1 X53.116 Y69.980 E16.49038
G1 X52.636 Y69.631 E16.53007
G1 X52.111 Y69.206 E16.57519
G1 X51.669 Y68.808 E16.61489
G1 X51.192 Y68.331 E16.66000
G1 X50.794 Y67.889 E16.69970
G1 X50.369 Y67.364 E16.74481
G1 X50.020 Y66.884 E16.78451
G1 X49.652 Y66.317 E16.82964
G1 X49.355 Y65.803 E16.86931
G1 X49.048 Y65.201 E16.91442
G1 X48.807 Y64.658 E16.95412
G1 X48.565 Y64.028 E16.99922
G1 X48.381 Y63.463 E17.03893
G1 X48.206 Y62.811 E17.08403
G1 X48.083 Y62.229 E17.12374
G1 X47.977 Y61.562 E17.16890
G1 X47.915 Y60.971 E17.20854
G1 X47.880 Y60.296 E17.25370
G1 X47.880 Y59.703 E17.29335
G1 X47.915 Y59.028 E17.33847
G1 X47.977 Y58.438 E17.37815
G1 X48.083 Y57.771 E17.42326
G1 X48.206 Y57.189 E17.46296
G1 X48.381 Y56.536 E17.50812
G1 X48.565 Y55.972 E17.54777
G1 X48.807 Y55.342 E17.59288
G1 X49.048 Y54.799 E17.63258
G1 X49.355 Y54.196 E17.67775
G1 X49.652 Y53.683 E17.71738
G1 X50.020 Y53.116 E17.76251
G1 X50.369 Y52.636 E17.80219
G1 X50.794 Y52.111 E17.84731
G1 X51.192 Y51.669 E17.88700
G1 X51.620 Y51.241 E17.92742
G1 X52.041 Y51.578 F30000.000
G1 F2100
G1 X52.447 Y51.211 E17.96402
G1 X52.973 Y50.785 E18.00916
G1 X53.408 Y50.469 E18.04509
G1 X53.974 Y50.101 E18.09022
G1 X54.440 Y49.833 E18.12612
G1 X55.042 Y49.526 E18.17128
G1 X55.534 Y49.307 E18.20723
G1 X56.164 Y49.065 E18.25234
G1 X56.675 Y48.899 E18.28825
G1 X57.328 Y48.724 E18.33340
G1 X57.855 Y48.612 E18.36936
G1 X58.521 Y48.506 E18.41446
G1 X59.056 Y48.450 E18.45041
G1 X59.731 Y48.415 E18.49552
G1 X60.268 Y48.415 E18.53143
G1 X60.943 Y48.450 E18.57659
G1 X61.478 Y48.506 E18.61249
G1 X62.145 Y48.612 E18.65765
G1 X62.672 Y48.724 E18.69361
G1 X63.324 Y48.898 E18.73871
G1 X63.836 Y49.065 E18.77467
G1 X64.466 Y49.307 E18.81977
G1 X64.958 Y49.526 E18.85573
G1 X65.560 Y49.832 E18.90083
G1 X66.025 Y50.101 E18.93676
G1 X66.592 Y50.469 E18.98189
G1 X67.027 Y50.785 E19.01785
G1 X67.552 Y51.210 E19.06295
G1 X67.952 Y51.570 E19.09891
G1 X68.430 Y52.048 E19.14404
G1 X68.790 Y52.448 E19.17998
G1 X69.215 Y52.973 E19.22510
G1 X69.531 Y53.408 E19.26104
G1 X69.899 Y53.974 E19.30614
G1 X70.168 Y54.440 E19.34210
G1 X70.474 Y55.042 E19.38720
G1 X70.693 Y55.534 E19.42316
G1 X70.932 Y56.154 E19.46758
G1 X71.102 Y56.676 E19.50422
G1 X71.276 Y57.328 E19.54932
G1 X71.388 Y57.855 E19.58529
G1 X71.494 Y58.522 E19.63041
G1 X71.550 Y59.057 E19.66634
G1 X71.585 Y59.731 E19.71145
G1 X71.585 Y60.269 E19.74741
G1 X71.550 Y60.943 E19.79251
G1 X71.494 Y61.479 E19.82847
G1 X71.388 Y62.145 E19.87357
G1 X71.276 Y62.672 E19.90953
G1 X71.102 Y63.324 E19.95463
G1 X70.935 Y63.836 E19.99060
G1 X70.693 Y64.467 E20.03573
G1 X70.474 Y64.958 E20.07165
G1 X70.168 Y65.560 E20.11676
G1 X69.899 Y66.026 E20.15272
G1 X69.531 Y66.592 E20.19783
G1 X69.215 Y67.027 E20.23378
G1 X68.790 Y67.552 E20.27889
G1 X68.430 Y67.952 E20.31484
G1 X67.952 Y68.430 E20.35994
G1 X67.552 Y68.790 E20.39589
G1 X67.027 Y69.215 E20.44100
G1 X66.592 Y69.531 E20.47695
G1 X66.026 Y69.899 E20.52207
G1 X65.560 Y70.168 E20.55802
G1 X64.958 Y70.474 E20.60313
G1 X64.467 Y70.693 E20.63905
G1 X63.836 Y70.935 E20.68418
G1 X63.324 Y71.102 E20.72015
G1 X62.672 Y71.276 E20.76525
G1 X62.145 Y71.388 E20.80121
G1 X61.479 Y71.494 E20.84631
G1 X60.943 Y71.550 E20.88227
G1 X60.269 Y71.585 E20.92737
G1 X59.731 Y71.585 E20.96333
G1 X59.057 Y71.550 E21.00844
G1 X58.522 Y71.494 E21.04437
G1 X57.855 Y71.388 E21.08950
G1 X57.328 Y71.276 E21.12546
G1 X56.676 Y71.102 E21.17056
G1 X56.164 Y70.935 E21.20650
G1 X55.534 Y70.693 E21.25162
G1 X55.042 Y70.474 E21.28758
G1 X54.440 Y70.168 E21.33268
G1 X53.974 Y69.899 E21.36864
G1 X53.408 Y69.531 E21.41374
G1 X52.973 Y69.215 E21.44968
G1 X52.448 Y68.790 E21.49480
G1 X52.048 Y68.430 E21.53076
G1 X51.570 Y67.952 E21.57587
G1 X51.210 Y67.552 E21.61183
G1 X50.785 Y67.027 E21.65694
G1 X50.469 Y66.592 E21.69289
G1 X50.101 Y66.025 E21.73802
G1 X49.832 Y65.560 E21.77395
G1 X49.526 Y64.958 E21.81905
G1 X49.307 Y64.466 E21.85501
G1 X49.065 Y63.836 E21.90011
G1 X48.898 Y63.324 E21.93607
G1 X48.724 Y62.672 E21.98117
G1 X48.612 Y62.145 E22.01714
G1 X48.506 Y61.478 E22.06229
G1 X48.450 Y60.943 E22.09819
G1 X48.415 Y60.268 E22.14335
G1 X48.415 Y59.731 E22.17926
G1 X48.450 Y59.056 E22.22438
G1 X48.506 Y58.521 E22.26032
G1 X48.612 Y57.855 E22.30542
G1 X48.724 Y57.328 E22.34138
G1 X48.899 Y56.675 E22.38653
G1 X49.065 Y56.164 E22.42245
G1 X49.307 Y55.534 E22.46755
G1 X49.526 Y55.042 E22.50350
G1 X49.833 Y54.440 E22.54867
G1 X50.101 Y53.974 E22.58456
G1 X50.469 Y53.408 E22.62969
G1 X50.785 Y52.973 E22.66563
G1 X51.210 Y52.448 E22.71075
G1 X51.570 Y52.048 E22.74669
G1 X51.998 Y51.620 E22.78711
G1 X52.420 Y51.956 F30000.000
G1 F2100
G1 X52.785 Y51.627 E22.81994
G1 X53.310 Y51.202 E22.86508
G1 X53.700 Y50.918 E22.89727
G1 X54.266 Y50.551 E22.94239
G1 X54.683 Y50.310 E22.97455
G1 X55.285 Y50.003 E23.01971
G1 X55.726 Y49.807 E23.05192
G1 X56.356 Y49.565 E23.09702
G1 X56.814 Y49.416 E23.12920
G1 X57.467 Y49.241 E23.17434
G1 X57.938 Y49.141 E23.20656
G1 X58.605 Y49.035 E23.25166
G1 X59.084 Y48.985 E23.28386
G1 X59.759 Y48.950 E23.32897
G1 X60.240 Y48.949 E23.36114
G1 X60.915 Y48.985 E23.40629
G1 X61.394 Y49.035 E23.43846
G1 X62.062 Y49.141 E23.48361
G1 X62.533 Y49.241 E23.51582
G1 X63.185 Y49.416 E23.56092
G1 X63.644 Y49.565 E23.59314
G1 X64.274 Y49.807 E23.63824
G1 X64.715 Y50.003 E23.67045
G1 X65.316 Y50.309 E23.71556
G1 X65.734 Y50.550 E23.74775
G1 X66.300 Y50.918 E23.79287
G1 X66.690 Y51.202 E23.82508
G1 X67.215 Y51.627 E23.87019
G1 X67.573 Y51.949 E23.90240
G1 X68.051 Y52.427 E23.94753
G1 X68.373 Y52.785 E23.97972
G1 X68.798 Y53.310 E24.02484
G1 X69.082 Y53.700 E24.05704
G1 X69.449 Y54.266 E24.10214
G1 X69.691 Y54.684 E24.13435
G1 X69.997 Y55.285 E24.17945
G1 X70.193 Y55.726 E24.21166
G1 X70.431 Y56.346 E24.25609
G1 X70.584 Y56.815 E24.28898
G1 X70.759 Y57.467 E24.33408
G1 X70.859 Y57.938 E24.36630
G1 X70.965 Y58.605 E24.41142
G1 X71.015 Y59.085 E24.44361
G1 X71.050 Y59.759 E24.48872
G1 X71.050 Y60.241 E24.52093
G1 X71.015 Y60.915 E24.56603
