; generated by PrusaSlicer 2.7.4+MacOS-arm64 on 2024-06-11 at 10:39:35 UTC

; 

; external perimeters extrusion width = 0.45mm
; perimeters extrusion width = 0.45mm
; infill extrusion width = 0.45mm
; solid infill extrusion width = 0.45mm
; top infill extrusion width = 0.40mm
; first layer extrusion width = 0.42mm

M104 S200 ; set temperature
;TYPE:Custom
G28 ; home all axes
G1 Z5 F5000 ; lift nozzle
M109 S200 ; set temperature and wait for it to be reached
G21 ; set units to millimeters
G90 ; use absolute coordinates
M82 ; use absolute distances for extrusion
G92 E0
; Filament gcode
M107
;LAYER_CHANGE
;Z:0.35
;HEIGHT:0.35
G1 E-2 F2400
G1 Z.35 F7800
G1 X66.111 Y51.355
G1 E0 F2400
;TYPE:Skirt/Brim
;WIDTH:0.42
G1 F1800
G1 X66.139 Y51.32 E.00225
G1 X99.894 Y15.686 E2.46555
G1 X101.701 Y14.355 E2.57818
G1 X104.5 Y13.704 E2.7224
G1 X107.5 Y13.704 E2.87296
G1 X109.709 Y14.101 E2.9856
G1 X111.641 Y15.242 E3.09821
G1 X113.056 Y16.984 E3.21084
G1 X113.845 Y20.049 E3.36967
G1 X113.845 Y55.683 E5.15799
G1 X113.448 Y57.892 E5.27063
G1 X112.307 Y59.824 E5.38324
G1 X110.565 Y61.238 E5.49584
G1 X107.5 Y62.028 E5.65469
G1 X70.745 Y62.028 E7.49927
G1 X68.536 Y61.631 E7.61191
G1 X66.604 Y60.49 E7.72452
G1 X65.19 Y58.748 E7.83712
G1 X64.47 Y56.622 E7.94977
G1 X64.536 Y54.379 E8.06239
G1 X65.378 Y52.299 E8.17501
G1 X66.074 Y51.402 E8.23199
G1 E6.23199 F2400
G92 E0
G1 X66.074 Y51.402 F7800
G92 E0
G1 X104.439 Y25.229
G1 E2 F2400
;TYPE:Perimeter
;WIDTH:0.42
G1 F1800
G1 X104.417 Y25.226 E2.00111
G1 X103.928 Y25.47 E2.02854
G1 X74.615 Y54.783 E4.10899
G1 X72.917 Y54.783 E4.19421
G1 X105.147 Y22.553 E6.48169
G1 X105.329 Y22.286 E6.49791
G1 X105.4 Y21.943 E6.51549
G1 X105.4 Y20.949 E6.56537
G1 X106.6 Y20.949 E6.62559
G1 X106.6 Y21.549 E6.6557
G1 X106.6 Y54.783 E8.32358
G1 X105.4 Y54.783 E8.3838
G1 X105.4 Y26.08 E9.82428
G1 X105.227 Y25.561 E9.85174
G1 X104.868 Y25.283 E9.87453
G1 X104.498 Y25.236 E9.89325
G1 X104.498 Y25.236 F7800
G1 X104.476 Y25.569
G1 F1800
G1 X104.465 Y25.567 E9.89381
G1 X104.172 Y25.714 E9.91026
G1 X74.758 Y55.128 E11.99788
G1 X72.085 Y55.128 E12.13203
G1 X104.903 Y22.309 E14.46127
G1 X105.012 Y22.149 E14.47099
G1 X105.055 Y21.943 E14.48155
G1 X105.055 Y20.604 E14.54875
G1 X106.945 Y20.604 E14.6436
G1 X106.945 Y21.549 E14.69103
G1 X106.945 Y55.128 E16.37622
G1 X105.055 Y55.128 E16.47107
G1 X105.055 Y26.08 E17.92887
G1 X104.951 Y25.769 E17.94533
G1 X104.736 Y25.602 E17.95899
G1 X104.536 Y25.576 E17.96911
G1 X104.536 Y25.576 F7800
G1 X104.513 Y25.909
;TYPE:External perimeter
G1 F1800
G1 X104.416 Y25.958 E17.97456
G1 X74.901 Y55.473 E20.06934
G1 X71.252 Y55.473 E20.25247
G1 X104.659 Y22.065 E22.62352
G1 X104.71 Y21.943 E22.63016
G1 X104.71 Y20.259 E22.71467
G1 X107.29 Y20.259 E22.84415
G1 X107.29 Y21.549 E22.90889
G1 X107.29 Y55.473 E24.6114
G1 X104.71 Y55.473 E24.74088
G1 X104.71 Y26.08 E26.21599
G1 X104.675 Y25.976 E26.2215
G1 X104.569 Y25.932 E26.22726
G1 X104.233 Y26.149 F7800
G1 E24.22726 F2400
G92 E0
G1 X105.797 Y21.052 F7800
G1 E2 F2400
;TYPE:Solid infill
;WIDTH:0.421182
G1 F1800
G1 X106.342 Y21.597 E2.03881
G1 X106.342 Y22.086 E2.06343
G1 X105.658 Y21.403 E2.11211
G1 X105.658 Y21.892 E2.13673
G1 X106.342 Y22.576 E2.18544
G1 X106.342 Y23.065 E2.21006
G1 X105.589 Y22.313 E2.26365
G1 X105.566 Y22.392 E2.26779
G1 X105.409 Y22.622 E2.28181
G1 X106.342 Y23.554 E2.34822
G1 X106.342 Y24.044 E2.3729
G1 X105.182 Y22.884 E2.45551
G1 X104.937 Y23.129 E2.47296
G1 X106.342 Y24.533 E2.57298
G1 X106.342 Y25.023 E2.59766
G1 X104.692 Y23.373 E2.71517
G1 X104.448 Y23.618 E2.73258
G1 X106.342 Y25.512 E2.86746
G1 X106.342 Y26.001 E2.89208
G1 X104.203 Y23.863 E3.04438
G1 X103.958 Y24.108 E3.06183
G1 X106.342 Y26.491 E3.23158
G1 X106.342 Y26.98 E3.2562
G1 X105.658 Y26.297 E3.30488
G1 X105.658 Y26.787 E3.32956
G1 X106.342 Y27.47 E3.37824
G1 X106.342 Y27.959 E3.40286
G1 X105.658 Y27.276 E3.45154
G1 X105.658 Y27.765 E3.47616
G1 X106.342 Y28.449 E3.52487
G1 X106.342 Y28.938 E3.54949
G1 X105.658 Y28.255 E3.59817
G1 X105.658 Y28.744 E3.62279
G1 X106.342 Y29.427 E3.67147
G1 X106.342 Y29.917 E3.69615
G1 X105.658 Y29.234 E3.74483
G1 X105.658 Y29.723 E3.76945
G1 X106.342 Y30.406 E3.81813
G1 X106.342 Y30.896 E3.84281
G1 X105.658 Y30.213 E3.89149
G1 X105.658 Y30.702 E3.91611
G1 X106.342 Y31.385 E3.96479
G1 X106.342 Y31.874 E3.98941
G1 X105.658 Y31.191 E4.03809
G1 X105.658 Y31.681 E4.06277
G1 X106.342 Y32.364 E4.11145
G1 X106.342 Y32.853 E4.13607
G1 X105.658 Y32.17 E4.18475
G1 X105.658 Y32.66 E4.20943
G1 X106.342 Y33.343 E4.25811
G1 X106.342 Y33.832 E4.28273
G1 X105.658 Y33.149 E4.33141
G1 X105.658 Y33.638 E4.35603
G1 X106.342 Y34.322 E4.40474
G1 X106.342 Y34.811 E4.42936
G1 X105.658 Y34.128 E4.47804
G1 X105.658 Y34.617 E4.50266
G1 X106.342 Y35.3 E4.55134
G1 X106.342 Y35.79 E4.57602
G1 X105.658 Y35.107 E4.6247
G1 X105.658 Y35.596 E4.64932
G1 X106.342 Y36.279 E4.698
G1 X106.342 Y36.769 E4.72268
G1 X105.658 Y36.086 E4.77136
G1 X105.658 Y36.575 E4.79598
G1 X106.342 Y37.258 E4.84466
G1 X106.342 Y37.747 E4.86928
G1 X105.658 Y37.064 E4.91796
G1 X105.658 Y37.554 E4.94264
G1 X106.342 Y38.237 E4.99132
G1 X106.342 Y38.726 E5.01594
G1 X105.658 Y38.043 E5.06462
G1 X105.658 Y38.533 E5.0893
G1 X106.342 Y39.216 E5.13798
G1 X106.342 Y39.705 E5.1626
G1 X105.658 Y39.022 E5.21128
G1 X105.658 Y39.511 E5.2359
G1 X106.342 Y40.195 E5.28461
G1 X106.342 Y40.684 E5.30923
G1 X105.658 Y40.001 E5.35791
G1 X105.658 Y40.49 E5.38253
G1 X106.342 Y41.173 E5.43121
G1 X106.342 Y41.663 E5.45589
G1 X105.658 Y40.98 E5.50457
G1 X105.658 Y41.469 E5.52919
G1 X106.342 Y42.152 E5.57787
G1 X106.342 Y42.642 E5.60255
G1 X105.658 Y41.959 E5.65123
G1 X105.658 Y42.448 E5.67585
G1 X106.342 Y43.131 E5.72453
G1 X106.342 Y43.62 E5.74915
G1 X105.658 Y42.937 E5.79783
G1 X105.658 Y43.427 E5.82251
G1 X106.342 Y44.11 E5.87119
G1 X106.342 Y44.599 E5.89581
G1 X105.658 Y43.916 E5.94449
G1 X105.658 Y44.406 E5.96917
G1 X106.342 Y45.089 E6.01785
G1 X106.342 Y45.578 E6.04247
G1 X105.658 Y44.895 E6.09115
G1 X105.658 Y45.384 E6.11577
G1 X106.342 Y46.068 E6.16448
G1 X106.342 Y46.557 E6.1891
G1 X105.658 Y45.874 E6.23778
G1 X105.658 Y46.363 E6.2624
G1 X106.342 Y47.046 E6.31108
G1 X106.342 Y47.536 E6.33576
G1 X105.658 Y46.853 E6.38444
G1 X105.658 Y47.342 E6.40906
G1 X106.342 Y48.025 E6.45774
G1 X106.342 Y48.515 E6.48242
G1 X105.658 Y47.832 E6.5311
G1 X105.658 Y48.321 E6.55572
G1 X106.342 Y49.004 E6.6044
G1 X106.342 Y49.494 E6.62908
G1 X105.658 Y48.81 E6.67779
G1 X105.658 Y49.3 E6.70247
G1 X106.342 Y49.983 E6.75115
G1 X106.342 Y50.472 E6.77577
G1 X105.658 Y49.789 E6.82445
G1 X105.658 Y50.279 E6.84913
G1 X106.342 Y50.962 E6.89781
G1 X106.342 Y51.451 E6.92243
G1 X105.658 Y50.768 E6.97111
G1 X105.658 Y51.257 E6.99573
G1 X106.342 Y51.941 E7.04444
G1 X106.342 Y52.43 E7.06906
G1 X105.658 Y51.747 E7.11774
G1 X105.658 Y52.236 E7.14236
G1 X106.342 Y52.919 E7.19104
G1 X106.342 Y53.409 E7.21572
G1 X105.658 Y52.726 E7.2644
G1 X105.658 Y53.215 E7.28902
G1 X106.342 Y53.898 E7.3377
G1 X106.342 Y54.388 E7.36238
G1 X105.658 Y53.705 E7.41106
G1 X105.658 Y54.194 E7.43568
G1 X106.144 Y54.68 E7.47029
G1 E5.47029 F2400
G92 E0
G1 X106.144 Y54.68 F7800
G1 X104.5 Y25.138
G1 E2 F2400
G1 F1800
G1 X103.714 Y24.352 E2.05598
G1 X103.469 Y24.597 E2.07343
G1 X104.018 Y25.146 E2.11253
G1 X103.755 Y25.277 E2.12733
G1 X103.707 Y25.325 E2.13075
G1 X103.224 Y24.842 E2.16515
G1 X102.979 Y25.086 E2.18256
G1 X103.463 Y25.57 E2.21703
G1 X103.218 Y25.814 E2.23444
G1 X102.735 Y25.331 E2.26884
G1 X102.49 Y25.576 E2.28629
G1 X102.973 Y26.059 E2.32069
G1 X102.728 Y26.304 E2.33814
G1 X102.245 Y25.821 E2.37254
G1 X102.001 Y26.065 E2.38992
G1 X102.484 Y26.548 E2.42432
G1 X102.239 Y26.793 E2.44177
G1 X101.756 Y26.31 E2.47617
G1 X101.511 Y26.555 E2.49362
G1 X101.994 Y27.038 E2.52802
G1 X101.75 Y27.282 E2.5454
G1 X101.267 Y26.799 E2.5798
G1 X101.022 Y27.044 E2.59725
G1 X101.505 Y27.527 E2.63165
G1 X101.26 Y27.772 E2.6491
G1 X100.777 Y27.289 E2.6835
G1 X100.532 Y27.534 E2.70095
G1 X101.015 Y28.017 E2.73535
G1 X100.771 Y28.261 E2.75273
G1 X100.288 Y27.778 E2.78713
G1 X100.043 Y28.023 E2.80458
G1 X100.526 Y28.506 E2.83898
G1 X100.281 Y28.751 E2.85643
G1 X99.798 Y28.268 E2.89083
G1 X99.554 Y28.512 E2.90821
G1 X100.037 Y28.995 E2.94261
G1 X99.792 Y29.24 E2.96006
G1 X99.309 Y28.757 E2.99446
G1 X99.064 Y29.002 E3.01191
G1 X99.547 Y29.485 E3.04631
G1 X99.302 Y29.73 E3.06376
G1 X98.819 Y29.247 E3.09816
G1 X98.575 Y29.491 E3.11554
G1 X99.058 Y29.974 E3.14994
G1 X98.813 Y30.219 E3.16739
G1 X98.33 Y29.736 E3.20179
G1 X98.085 Y29.981 E3.21924
G1 X98.568 Y30.464 E3.25364
G1 X98.324 Y30.708 E3.27102
G1 X97.841 Y30.225 E3.30542
G1 X97.596 Y30.47 E3.32287
G1 X98.079 Y30.953 E3.35727
G1 X97.834 Y31.198 E3.37472
G1 X97.351 Y30.715 E3.40912
G1 X97.106 Y30.96 E3.42657
G1 X97.59 Y31.443 E3.461
G1 X97.345 Y31.687 E3.47841
G1 X96.862 Y31.204 E3.51281
G1 X96.617 Y31.449 E3.53026
G1 X97.1 Y31.932 E3.56466
G1 X96.855 Y32.177 E3.58211
G1 X96.372 Y31.694 E3.61651
G1 X96.128 Y31.938 E3.63389
G1 X96.611 Y32.421 E3.66829
G1 X96.366 Y32.666 E3.68574
G1 X95.883 Y32.183 E3.72014
G1 X95.638 Y32.428 E3.73759
G1 X96.121 Y32.911 E3.77199
G1 X95.877 Y33.156 E3.7894
G1 X95.394 Y32.672 E3.82383
G1 X95.149 Y32.917 E3.84128
G1 X95.632 Y33.4 E3.87568
G1 X95.387 Y33.645 E3.89313
G1 X94.904 Y33.162 E3.92753
G1 X94.659 Y33.407 E3.94498
G1 X95.142 Y33.89 E3.97938
G1 X94.898 Y34.134 E3.99676
G1 X94.415 Y33.651 E4.03116
G1 X94.17 Y33.896 E4.04861
G1 X94.653 Y34.379 E4.08301
G1 X94.408 Y34.624 E4.10046
G1 X93.925 Y34.141 E4.13486
G1 X93.681 Y34.385 E4.15224
G1 X94.164 Y34.869 E4.18667
G1 X93.919 Y35.113 E4.20408
G1 X93.436 Y34.63 E4.23848
G1 X93.191 Y34.875 E4.25593
G1 X93.674 Y35.358 E4.29033
G1 X93.43 Y35.603 E4.30774
G1 X92.946 Y35.12 E4.34217
G1 X92.702 Y35.364 E4.35955
G1 X93.185 Y35.847 E4.39395
G1 X92.94 Y36.092 E4.4114
G1 X92.457 Y35.609 E4.4458
G1 X92.212 Y35.854 E4.46325
G1 X92.695 Y36.337 E4.49765
G1 X92.451 Y36.581 E4.51503
G1 X91.968 Y36.098 E4.54943
G1 X91.723 Y36.343 E4.56688
G1 X92.206 Y36.826 E4.60128
G1 X91.961 Y37.071 E4.61873
G1 X91.478 Y36.588 E4.65313
G1 X91.234 Y36.833 E4.67054
G1 X91.717 Y37.316 E4.70494
G1 X91.472 Y37.56 E4.72235
G1 X90.989 Y37.077 E4.75675
G1 X90.744 Y37.322 E4.7742
G1 X91.227 Y37.805 E4.8086
G1 X90.982 Y38.05 E4.82605
G1 X90.499 Y37.567 E4.86045
G1 X90.255 Y37.811 E4.87783
G1 X90.738 Y38.294 E4.91223
G1 X90.493 Y38.539 E4.92968
G1 X90.01 Y38.056 E4.96408
G1 X89.765 Y38.301 E4.98153
G1 X90.248 Y38.784 E5.01593
G1 X90.004 Y39.029 E5.03334
G1 X89.521 Y38.546 E5.06774
G1 X89.276 Y38.79 E5.08515
G1 X89.759 Y39.273 E5.11955
G1 X89.514 Y39.518 E5.137
G1 X89.031 Y39.035 E5.1714
G1 X88.786 Y39.28 E5.18885
G1 X89.269 Y39.763 E5.22325
G1 X89.025 Y40.007 E5.24063
G1 X88.542 Y39.524 E5.27503
G1 X88.297 Y39.769 E5.29248
G1 X88.78 Y40.252 E5.32688
G1 X88.535 Y40.497 E5.34433
G1 X88.052 Y40.014 E5.37873
G1 X87.808 Y40.259 E5.39614
G1 X88.291 Y40.742 E5.43054
G1 X88.046 Y40.986 E5.44795
G1 X87.563 Y40.503 E5.48235
G1 X87.318 Y40.748 E5.4998
G1 X87.801 Y41.231 E5.5342
G1 X87.557 Y41.476 E5.55161
G1 X87.073 Y40.993 E5.58604
G1 X86.829 Y41.237 E5.60342
G1 X87.312 Y41.72 E5.63782
G1 X87.067 Y41.965 E5.65527
G1 X86.584 Y41.482 E5.68967
G1 X86.339 Y41.727 E5.70712
G1 X86.822 Y42.21 E5.74152
G1 X86.578 Y42.455 E5.75893
G1 X86.095 Y41.971 E5.79336
G1 X85.85 Y42.216 E5.81081
G1 X86.333 Y42.699 E5.84521
G1 X86.088 Y42.944 E5.86266
G1 X85.605 Y42.461 E5.89706
G1 X85.361 Y42.706 E5.91447
G1 X85.844 Y43.189 E5.94887
G1 X85.599 Y43.433 E5.96628
G1 X85.116 Y42.95 E6.00068
G1 X84.871 Y43.195 E6.01813
G1 X85.354 Y43.678 E6.05253
G1 X85.109 Y43.923 E6.06998
G1 X84.626 Y43.44 E6.10438
G1 X84.382 Y43.684 E6.12176
G1 X84.865 Y44.168 E6.15619
G1 X84.62 Y44.412 E6.1736
G1 X84.137 Y43.929 E6.208
G1 X83.892 Y44.174 E6.22545
G1 X84.375 Y44.657 E6.25985
G1 X84.131 Y44.902 E6.27726
G1 X83.648 Y44.419 E6.31166
G1 X83.403 Y44.663 E6.32907
G1 X83.886 Y45.146 E6.36347
G1 X83.641 Y45.391 E6.38092
G1 X83.158 Y44.908 E6.41532
G1 X82.913 Y45.153 E6.43277
G1 X83.396 Y45.636 E6.46717
G1 X83.152 Y45.88 E6.48455
G1 X82.669 Y45.397 E6.51895
G1 X82.424 Y45.642 E6.5364
G1 X82.907 Y46.125 E6.5708
G1 X82.662 Y46.37 E6.58825
G1 X82.179 Y45.887 E6.62265
G1 X81.935 Y46.132 E6.64006
G1 X82.418 Y46.615 E6.67446
G1 X82.173 Y46.859 E6.69187
G1 X81.69 Y46.376 E6.72627
G1 X81.445 Y46.621 E6.74372
G1 X81.928 Y47.104 E6.77812
G1 X81.684 Y47.349 E6.79553
G1 X81.2 Y46.866 E6.82996
G1 X80.956 Y47.11 E6.84734
G1 X81.439 Y47.593 E6.88174
G1 X81.194 Y47.838 E6.89919
G1 X80.711 Y47.355 E6.93359
G1 X80.466 Y47.6 E6.95104
G1 X80.949 Y48.083 E6.98544
G1 X80.705 Y48.328 E7.00285
G1 X80.222 Y47.845 E7.03725
G1 X79.977 Y48.089 E7.05466
G1 X80.46 Y48.572 E7.08906
G1 X80.215 Y48.817 E7.10651
G1 X79.732 Y48.334 E7.14091
G1 X79.488 Y48.579 E7.15832
G1 X79.971 Y49.062 E7.19272
G1 X79.726 Y49.306 E7.21013
G1 X79.243 Y48.823 E7.24453
G1 X78.998 Y49.068 E7.26198
G1 X79.481 Y49.551 E7.29638
G1 X79.236 Y49.796 E7.31383
G1 X78.753 Y49.313 E7.34823
G1 X78.509 Y49.558 E7.36564
G1 X78.992 Y50.041 E7.40004
G1 X78.747 Y50.285 E7.41745
G1 X78.264 Y49.802 E7.45185
G1 X78.019 Y50.047 E7.4693
G1 X78.502 Y50.53 E7.5037
G1 X78.258 Y50.775 E7.52111
G1 X77.775 Y50.292 E7.55551
G1 X77.53 Y50.536 E7.57292
G1 X78.013 Y51.019 E7.60732
G1 X77.768 Y51.264 E7.62477
G1 X77.285 Y50.781 E7.65917
G1 X77.04 Y51.026 E7.67662
G1 X77.524 Y51.509 E7.71105
G1 X77.279 Y51.754 E7.7285
G1 X76.796 Y51.27 E7.76293
G1 X76.551 Y51.515 E7.78038
G1 X77.034 Y51.998 E7.81478
G1 X76.789 Y52.243 E7.83223
G1 X76.306 Y51.76 E7.86663
G1 X76.062 Y52.005 E7.88404
G1 X76.545 Y52.488 E7.91844
G1 X76.3 Y52.732 E7.93585
G1 X75.817 Y52.249 E7.97025
G1 X75.572 Y52.494 E7.9877
G1 X76.055 Y52.977 E8.0221
G1 X75.811 Y53.222 E8.03951
G1 X75.328 Y52.739 E8.07391
G1 X75.083 Y52.983 E8.09132
G1 X75.566 Y53.467 E8.12575
G1 X75.321 Y53.711 E8.14316
G1 X74.838 Y53.228 E8.17756
G1 X74.593 Y53.473 E8.19501
G1 X75.076 Y53.956 E8.22941
G1 X74.832 Y54.201 E8.24682
G1 X74.349 Y53.718 E8.28122
G1 X74.104 Y53.962 E8.29863
G1 X74.587 Y54.445 E8.33303
G1 X74.508 Y54.524 E8.33866
G1 X74.177 Y54.524 E8.35533
G1 X73.859 Y54.207 E8.37794
G1 X73.615 Y54.452 E8.39535
G1 X73.842 Y54.68 E8.41155
;LAYER_CHANGE
;Z:0.65
;HEIGHT:0.3
G1 Z.65 F7800
G1 E6.41155 F2400
G92 E0
G1 X73.842 Y54.68 Z.65 F7800
G1 X105.465 Y22.091
G1 E2 F2400
G92 E0
;TYPE:Perimeter
;WIDTH:0.45
G1 F3600
G1 X105.496 Y21.939 E.00746
G1 X105.496 Y21.044 E.05051
G1 X106.504 Y21.044 E.09899
G1 X106.504 Y21.547 E.12318
G1 X106.504 Y55.883 E1.77462
;TYPE:Overhang perimeter
;WIDTH:0.4
;HEIGHT:0.4
G1 X106.504 Y120.862 E5.16944
G1 X105.496 Y120.862 E5.2221
G1 X105.496 Y91.516 E6.75528
G1 X105.383 Y91.062 E6.77972
G1 X105.111 Y90.745 E6.80154
G1 X104.802 Y90.591 E6.81958
G1 X104.532 Y90.552 E6.83383
G1 X43.496 Y90.552 E10.02265
G1 X43.496 Y84.339 E10.34725
G1 X71.952 Y55.883 E12.44973
;TYPE:Perimeter
;WIDTH:0.45
;HEIGHT:0.3
G1 X105.214 Y22.621 E14.71217
G1 X105.417 Y22.322 E14.72955
G1 X105.453 Y22.15 E14.738
G1 X105.453 Y22.15 F7800
G1 X105.095 Y22.015
G1 F3600
G1 X105.111 Y21.939 E14.74174
G1 X105.111 Y20.658 E14.80335
G1 X106.889 Y20.658 E14.88887
G1 X106.889 Y21.547 E14.93163
G1 X106.889 Y55.883 E16.58307
;TYPE:Overhang perimeter
;WIDTH:0.4
;HEIGHT:0.4
G1 X106.889 Y121.248 E19.99806
G1 X105.111 Y121.248 E20.09095
G1 X105.111 Y91.516 E21.6443
G1 X105.043 Y91.244 E21.65895
G1 X104.879 Y91.053 E21.6721
G1 X104.694 Y90.961 E21.68289
G1 X104.532 Y90.938 E21.69144
G1 X43.111 Y90.938 E24.90037
G1 X43.111 Y84.18 E25.25344
G1 X71.407 Y55.883 E27.34414
;TYPE:Perimeter
;WIDTH:0.45
;HEIGHT:0.3
G1 X104.941 Y22.348 E29.62512
G1 X105.063 Y22.169 E29.63554
G1 X105.083 Y22.074 E29.64021
G1 X105.083 Y22.074 F7800
G1 X104.725 Y21.939
;TYPE:External perimeter
G1 F1800
G1 X104.725 Y20.272 E29.72039
G1 X107.275 Y20.272 E29.84304
G1 X107.275 Y21.547 E29.90436
G1 X107.275 Y55.883 E31.5558
;TYPE:Overhang perimeter
;WIDTH:0.4
;HEIGHT:0.4
G1 F3600
G1 X107.275 Y121.633 E34.9909
G1 X104.725 Y121.633 E35.12412
G1 X104.725 Y91.516 E36.69758
G1 X104.648 Y91.362 E36.70658
G1 X104.532 Y91.323 E36.71297
G1 X42.725 Y91.323 E39.94207
G1 X42.725 Y84.02 E40.32361
G1 X70.862 Y55.883 E42.40252
