; generated by Slic3r 1.3.0 on 2023-10-07 at 19:38:58

; external perimeters extrusion width = 0.44mm (2.78mm^3/s)
; perimeters extrusion width = 0.40mm (7.14mm^3/s)
; infill extrusion width = 0.50mm (10.97mm^3/s)
; solid infill extrusion width = 0.60mm (6.68mm^3/s)
; top infill extrusion width = 0.40mm (2.14mm^3/s)

M107
M190 S80 ; set bed temperature and wait for it to be reached
M104 S210 ; set temperature
G28 ; home all axes
G1 Z5 F5000 ; lift nozzle

; Filament gcode

M109 S210 ; set temperature and wait for it to be reached
G21 ; set units to millimeters
G90 ; use absolute coordinates
M82 ; use absolute distances for extrusion
G92 E0
G1 Z0.300 F30000.000
G1 E-2.00000 F2400.00000
G92 E0
G1 X70.506 Y70.175 F30000.000
G1 E2.00000 F2400.00000
G1 F2100
G1 X71.443 Y69.350 E2.08339
G1 X71.813 Y69.063 E2.11467
G1 X72.515 Y68.571 E2.17200
G1 X73.248 Y68.123 E2.22934
G1 X73.610 Y67.925 E2.25688
G1 X74.360 Y67.556 E2.31274
G1 X75.152 Y67.227 E2.37006
G1 X75.593 Y67.068 E2.40136
G1 X76.414 Y66.817 E2.45869
G1 X77.632 Y66.545 E2.54208
G1 X78.481 Y66.423 E2.59941
G1 X78.947 Y66.379 E2.63069
G1 X80.195 Y66.339 E2.71406
G1 X80.663 Y66.354 E2.74535
G1 X81.518 Y66.423 E2.80269
G1 X82.751 Y66.618 E2.88609
G1 X83.586 Y66.817 E2.94342
G1 X84.036 Y66.948 E2.97469
G1 X84.847 Y67.227 E3.03203
G1 X85.230 Y67.379 E3.05956
G1 X85.993 Y67.723 E3.11544
G1 X86.752 Y68.123 E3.17278
G1 X87.155 Y68.361 E3.20404
G1 X87.872 Y68.834 E3.26138
G1 X88.858 Y69.599 E3.34478
G1 X89.209 Y69.908 E3.37605
G1 X89.825 Y70.506 E3.43338
G1 X90.650 Y71.443 E3.51678
G1 X90.937 Y71.813 E3.54805
G1 X91.429 Y72.516 E3.60538
G1 X92.065 Y73.590 E3.68878
G1 X92.444 Y74.360 E3.74611
G1 X92.630 Y74.790 E3.77741
G1 X92.932 Y75.593 E3.83473
G1 X93.183 Y76.414 E3.89205
G1 X93.455 Y77.632 E3.97545
G1 X93.528 Y78.094 E4.00672
G1 X93.621 Y78.947 E4.06405
G1 X93.661 Y80.195 E4.14745
G1 X93.646 Y80.663 E4.17872
G1 X93.577 Y81.518 E4.23605
G1 X93.382 Y82.751 E4.31945
G1 X93.183 Y83.586 E4.37679
G1 X93.052 Y84.036 E4.40807
G1 X92.629 Y85.210 E4.49145
G1 X92.277 Y85.993 E4.54878
G1 X92.065 Y86.410 E4.58006
G1 X91.639 Y87.155 E4.63740
G1 X91.179 Y87.853 E4.69325
G1 X90.937 Y88.187 E4.72080
G1 X90.401 Y88.858 E4.77814
G1 X90.092 Y89.209 E4.80941
G1 X89.494 Y89.825 E4.86675
G1 X88.557 Y90.650 E4.95014
G1 X87.872 Y91.166 E5.00746
G1 X87.155 Y91.639 E5.06480
G1 X86.410 Y92.065 E5.12214
G1 X85.993 Y92.277 E5.15342
G1 X84.847 Y92.773 E5.23681
G1 X84.036 Y93.052 E5.29413
G1 X83.586 Y93.183 E5.32541
G1 X82.368 Y93.455 E5.40880
G1 X81.906 Y93.528 E5.44008
G1 X81.053 Y93.621 E5.49742
G1 X79.805 Y93.661 E5.58081
G1 X79.337 Y93.646 E5.61208
G1 X78.482 Y93.577 E5.66941
G1 X77.249 Y93.382 E5.75281
G1 X76.792 Y93.280 E5.78407
G1 X75.964 Y93.052 E5.84142
G1 X74.790 Y92.629 E5.92481
G1 X74.007 Y92.277 E5.98214
G1 X73.590 Y92.065 E6.01341
G1 X72.845 Y91.639 E6.07075
G1 X72.128 Y91.166 E6.12809
G1 X71.142 Y90.401 E6.21148
G1 X70.791 Y90.092 E6.24275
G1 X70.175 Y89.494 E6.30009
G1 X69.350 Y88.557 E6.38348
G1 X69.063 Y88.187 E6.41475
G1 X68.571 Y87.485 E6.47209
G1 X67.935 Y86.410 E6.55548
G1 X67.556 Y85.640 E6.61282
G1 X67.370 Y85.210 E6.64411
G1 X66.948 Y84.036 E6.72748
G1 X66.817 Y83.586 E6.75878
G1 X66.618 Y82.751 E6.81610
G1 X66.472 Y81.906 E6.87343
G1 X66.381 Y81.074 E6.92929
G1 X66.354 Y80.663 E6.95683
G1 X66.339 Y79.805 E7.01417
G1 X66.354 Y79.337 E7.04546
G1 X66.423 Y78.481 E7.10279
G1 X66.618 Y77.249 E7.18617
G1 X66.720 Y76.792 E7.21744
G1 X66.948 Y75.964 E7.27479
G1 X67.371 Y74.790 E7.35817
G1 X67.556 Y74.360 E7.38944
G1 X67.935 Y73.590 E7.44678
G1 X68.571 Y72.515 E7.53017
G1 X68.834 Y72.128 E7.56146
G1 X69.350 Y71.443 E7.61877
G1 X69.908 Y70.791 E7.67612
G1 X70.464 Y70.218 E7.72944
G1 X70.885 Y70.554 F30000.000
G1 F2100
G1 X71.771 Y69.773 E7.80833
G1 X72.141 Y69.486 E7.83961
G1 X72.817 Y69.014 E7.89470
G1 X73.853 Y68.402 E7.97507
G1 X74.573 Y68.048 E8.02867
G1 X75.334 Y67.731 E8.08375
G1 X75.774 Y67.572 E8.11504
G1 X76.563 Y67.331 E8.17013
G1 X77.716 Y67.074 E8.24903
G1 X78.532 Y66.956 E8.30411
G1 X78.998 Y66.912 E8.33539
G1 X80.178 Y66.875 E8.41427
G1 X80.646 Y66.889 E8.44556
G1 X81.468 Y66.956 E8.50065
G1 X82.635 Y67.141 E8.57955
G1 X83.437 Y67.331 E8.63463
G1 X83.886 Y67.462 E8.66591
G1 X84.997 Y67.862 E8.74480
G1 X85.427 Y68.048 E8.77607
G1 X86.167 Y68.412 E8.83117
G1 X87.183 Y69.014 E8.91007
G1 X87.859 Y69.486 E8.96514
G1 X88.229 Y69.773 E8.99642
G1 X88.855 Y70.310 E9.05151
G1 X89.446 Y70.885 E9.10660
G1 X90.227 Y71.771 E9.18551
G1 X90.723 Y72.429 E9.24059
G1 X90.986 Y72.817 E9.27186
G1 X91.588 Y73.833 E9.35076
G1 X91.952 Y74.573 E9.40585
G1 X92.138 Y75.003 E9.43715
G1 X92.428 Y75.775 E9.49222
G1 X92.669 Y76.563 E9.54730
G1 X92.926 Y77.716 E9.62620
G1 X92.999 Y78.178 E9.65747
G1 X93.088 Y78.998 E9.71256
G1 X93.125 Y80.178 E9.79146
G1 X93.088 Y81.002 E9.84655
G1 X93.044 Y81.468 E9.87781
G1 X92.859 Y82.635 E9.95672
G1 X92.669 Y83.437 E10.01181
G1 X92.538 Y83.887 E10.04309
G1 X92.138 Y84.998 E10.12198
G1 X91.800 Y85.750 E10.17706
G1 X91.588 Y86.167 E10.20834
G1 X91.178 Y86.882 E10.26343
G1 X90.736 Y87.552 E10.31704
G1 X90.000 Y88.504 E10.39741
G1 X89.690 Y88.855 E10.42868
G1 X89.115 Y89.446 E10.48377
G1 X88.229 Y90.227 E10.56267
G1 X87.571 Y90.723 E10.61774
G1 X86.882 Y91.178 E10.67283
G1 X86.167 Y91.588 E10.72793
G1 X85.750 Y91.800 E10.75920
G1 X84.666 Y92.269 E10.83811
G1 X83.887 Y92.538 E10.89318
G1 X83.437 Y92.669 E10.92446
G1 X82.284 Y92.926 E11.00336
G1 X81.822 Y92.999 E11.03463
G1 X81.002 Y93.088 E11.08972
G1 X79.822 Y93.125 E11.16862
G1 X78.998 Y93.088 E11.22371
G1 X78.532 Y93.044 E11.25497
G1 X77.365 Y92.859 E11.33388
G1 X76.909 Y92.757 E11.36514
G1 X76.114 Y92.538 E11.42024
G1 X75.002 Y92.138 E11.49914
G1 X74.250 Y91.800 E11.55422
G1 X73.833 Y91.588 E11.58549
G1 X72.798 Y90.974 E11.66586
G1 X72.141 Y90.514 E11.71948
G1 X71.496 Y90.000 E11.77457
G1 X71.145 Y89.690 E11.80584
G1 X70.554 Y89.115 E11.86093
G1 X69.773 Y88.229 E11.93983
G1 X69.486 Y87.859 E11.97109
G1 X69.014 Y87.183 E12.02619
G1 X68.412 Y86.167 E12.10509
G1 X68.048 Y85.427 E12.16018
G1 X67.862 Y84.997 E12.19146
G1 X67.462 Y83.886 E12.27034
G1 X67.331 Y83.436 E12.30164
G1 X67.141 Y82.634 E12.35672
G1 X67.001 Y81.822 E12.41180
G1 X66.914 Y81.024 E12.46541
G1 X66.875 Y79.822 E12.54578
G1 X66.889 Y79.353 E12.57707
G1 X66.956 Y78.532 E12.63215
G1 X67.141 Y77.365 E12.71104
G1 X67.243 Y76.909 E12.74231
G1 X67.462 Y76.113 E12.79741
G1 X67.862 Y75.002 E12.87629
G1 X68.048 Y74.573 E12.90757
G1 X68.412 Y73.833 E12.96265
G1 X69.014 Y72.817 E13.04155
G1 X69.277 Y72.429 E13.07284
G1 X69.773 Y71.771 E13.12791
G1 X70.310 Y71.145 E13.18300
G1 X70.843 Y70.597 E13.23408
G1 X71.264 Y70.933 F30000.000
G1 F2100
G1 X72.099 Y70.196 E13.30848
G1 X72.469 Y69.909 E13.33976
G1 X73.118 Y69.457 E13.39260
G1 X74.096 Y68.880 E13.46845
G1 X74.785 Y68.540 E13.51984
G1 X75.515 Y68.235 E13.57267
G1 X75.956 Y68.076 E13.60396
G1 X76.713 Y67.846 E13.65680
G1 X77.799 Y67.603 E13.73120
G1 X78.582 Y67.489 E13.78404
G1 X79.048 Y67.445 E13.81531
G1 X80.161 Y67.410 E13.88970
G1 X80.629 Y67.425 E13.92099
G1 X81.418 Y67.489 E13.97383
G1 X82.518 Y67.663 E14.04824
G1 X83.287 Y67.846 E14.10107
G1 X83.737 Y67.976 E14.13235
G1 X84.785 Y68.354 E14.20675
G1 X85.214 Y68.540 E14.23802
G1 X85.924 Y68.890 E14.29087
G1 X86.882 Y69.457 E14.36527
G1 X87.531 Y69.909 E14.41810
G1 X87.901 Y70.196 E14.44938
G1 X88.501 Y70.712 E14.50222
G1 X89.067 Y71.264 E14.55507
G1 X89.804 Y72.099 E14.62948
G1 X90.091 Y72.469 E14.66074
G1 X90.543 Y73.118 E14.71358
G1 X91.110 Y74.076 E14.78799
G1 X91.460 Y74.786 E14.84083
G1 X91.646 Y75.216 E14.87213
G1 X91.924 Y75.956 E14.92495
G1 X92.154 Y76.713 E14.97778
G1 X92.397 Y77.800 E15.05219
G1 X92.470 Y78.262 E15.08346
G1 X92.555 Y79.048 E15.13630
G1 X92.590 Y80.162 E15.21071
G1 X92.575 Y80.629 E15.24198
G1 X92.511 Y81.418 E15.29482
G1 X92.337 Y82.518 E15.36923
G1 X92.154 Y83.287 E15.42207
G1 X92.024 Y83.737 E15.45335
G1 X91.646 Y84.785 E15.52775
G1 X91.323 Y85.507 E15.58058
G1 X91.110 Y85.924 E15.61186
G1 X90.716 Y86.610 E15.66470
G1 X90.293 Y87.251 E15.71608
G1 X89.598 Y88.150 E15.79194
G1 X89.288 Y88.501 E15.82321
G1 X88.736 Y89.067 E15.87605
G1 X87.901 Y89.804 E15.95046
G1 X87.270 Y90.280 E16.00329
G1 X86.882 Y90.543 E16.03457
G1 X85.924 Y91.110 E16.10897
G1 X85.507 Y91.323 E16.14024
G1 X84.785 Y91.646 E16.19308
G1 X83.716 Y92.030 E16.26895
G1 X82.975 Y92.235 E16.32032
G1 X82.201 Y92.397 E16.37317
G1 X81.738 Y92.470 E16.40444
G1 X80.952 Y92.555 E16.45728
G1 X79.838 Y92.590 E16.53169
G1 X79.371 Y92.575 E16.56296
G1 X78.582 Y92.511 E16.61580
G1 X77.482 Y92.337 E16.69021
G1 X76.713 Y92.154 E16.74305
G1 X76.263 Y92.024 E16.77432
G1 X75.215 Y91.646 E16.84873
G1 X74.493 Y91.323 E16.90156
G1 X73.793 Y90.955 E16.95441
G1 X73.118 Y90.543 E17.00725
G1 X72.731 Y90.280 E17.03852
G1 X71.850 Y89.598 E17.11293
G1 X71.499 Y89.288 E17.14419
G1 X70.933 Y88.736 E17.19703
G1 X70.196 Y87.901 E17.27144
G1 X69.910 Y87.531 E17.30271
G1 X69.457 Y86.882 E17.35555
G1 X68.890 Y85.924 E17.42996
G1 X68.540 Y85.214 E17.48280
G1 X68.354 Y84.785 E17.51409
G1 X67.976 Y83.737 E17.58847
G1 X67.846 Y83.287 E17.61977
G1 X67.663 Y82.518 E17.67260
G1 X67.530 Y81.738 E17.72543
G1 X67.447 Y80.974 E17.77680
G1 X67.410 Y79.838 E17.85268
G1 X67.425 Y79.370 E17.88396
G1 X67.489 Y78.582 E17.93680
G1 X67.663 Y77.482 E18.01119
G1 X67.765 Y77.025 E18.04246
G1 X67.976 Y76.263 E18.09532
G1 X68.354 Y75.215 E18.16971
G1 X68.540 Y74.786 E18.20098
G1 X68.890 Y74.076 E18.25382
G1 X69.457 Y73.118 E18.32823
G1 X69.720 Y72.730 E18.35951
G1 X70.196 Y72.099 E18.41234
G1 X70.712 Y71.499 E18.46518
G1 X71.221 Y70.975 E18.51401
G1 X71.643 Y71.312 F30000.000
G1 F2100
G1 X72.428 Y70.620 E18.58392
G1 X72.797 Y70.333 E18.61519
G1 X73.419 Y69.900 E18.66579
G1 X74.339 Y69.357 E18.73715
G1 X74.998 Y69.031 E18.78628
G1 X75.697 Y68.739 E18.83687
G1 X76.137 Y68.580 E18.86816
G1 X76.862 Y68.360 E18.91875
G1 X77.883 Y68.132 E18.98866
G1 X78.633 Y68.022 E19.03925
G1 X79.099 Y67.978 E19.07053
G1 X80.144 Y67.945 E19.14042
G1 X80.612 Y67.960 E19.17171
G1 X81.367 Y68.022 E19.22230
G1 X82.401 Y68.186 E19.29222
G1 X83.138 Y68.360 E19.34281
G1 X83.587 Y68.491 E19.37408
G1 X84.592 Y68.854 E19.44545
G1 X85.264 Y69.154 E19.49459
G1 X85.934 Y69.506 E19.54518
G1 X86.337 Y69.744 E19.57644
G1 X86.968 Y70.163 E19.62704
G1 X87.795 Y70.804 E19.69696
G1 X88.146 Y71.114 E19.72822
G1 X88.688 Y71.643 E19.77882
G1 X89.380 Y72.428 E19.84873
G1 X89.667 Y72.797 E19.88000
G1 X90.100 Y73.419 E19.93059
G1 X90.633 Y74.319 E20.00051
G1 X90.846 Y74.737 E20.03178
G1 X91.155 Y75.428 E20.08239
G1 X91.420 Y76.137 E20.13297
G1 X91.640 Y76.862 E20.18356
G1 X91.868 Y77.883 E20.25347
G1 X91.941 Y78.346 E20.28474
G1 X92.022 Y79.099 E20.33533
G1 X92.055 Y80.145 E20.40525
G1 X92.040 Y80.613 E20.43652
G1 X91.978 Y81.367 E20.48711
G1 X91.814 Y82.401 E20.55703
G1 X91.640 Y83.138 E20.60762
G1 X91.509 Y83.588 E20.63890
G1 X91.155 Y84.572 E20.70880
G1 X90.846 Y85.263 E20.75939
G1 X90.633 Y85.681 E20.79067
G1 X90.255 Y86.337 E20.84126
G1 X89.850 Y86.950 E20.89039
G1 X89.196 Y87.795 E20.96176
G1 X88.886 Y88.146 E20.99303
G1 X88.357 Y88.688 E21.04363
G1 X87.572 Y89.380 E21.11354
G1 X86.969 Y89.837 E21.16412
G1 X86.581 Y90.100 E21.19540
G1 X85.681 Y90.633 E21.26531
G1 X85.264 Y90.846 E21.29658
G1 X84.572 Y91.155 E21.34717
G1 X83.588 Y91.509 E21.41708
G1 X82.858 Y91.712 E21.46767
G1 X82.117 Y91.868 E21.51827
G1 X81.654 Y91.941 E21.54954
G1 X80.901 Y92.022 E21.60014
G1 X79.855 Y92.055 E21.67006
G1 X79.099 Y92.022 E21.72065
G1 X78.633 Y91.978 E21.75191
G1 X77.599 Y91.814 E21.82183
G1 X77.142 Y91.712 E21.85310
G1 X76.413 Y91.509 E21.90369
G1 X75.428 Y91.155 E21.97361
G1 X74.737 Y90.846 E22.02419
G1 X74.066 Y90.494 E22.07480
G1 X73.419 Y90.100 E22.12539
G1 X73.032 Y89.837 E22.15666
G1 X72.205 Y89.196 E22.22657
G1 X71.854 Y88.886 E22.25784
G1 X71.312 Y88.357 E22.30843
G1 X70.620 Y87.572 E22.37835
G1 X70.333 Y87.203 E22.40961
G1 X69.900 Y86.581 E22.46021
G1 X69.367 Y85.681 E22.53012
G1 X69.154 Y85.263 E22.56139
G1 X68.845 Y84.572 E22.61200
G1 X68.491 Y83.587 E22.68190
G1 X68.360 Y83.138 E22.71319
G1 X68.186 Y82.401 E22.76377
G1 X68.059 Y81.654 E22.81436
G1 X67.980 Y80.923 E22.86348
G1 X67.945 Y79.855 E22.93486
G1 X67.960 Y79.387 E22.96615
G1 X68.022 Y78.633 E23.01673
G1 X68.186 Y77.599 E23.08664
G1 X68.288 Y77.142 E23.11791
G1 X68.491 Y76.412 E23.16851
G1 X68.845 Y75.428 E23.23841
G1 X69.031 Y74.998 E23.26968
G1 X69.367 Y74.319 E23.32028
G1 X69.900 Y73.419 E23.39019
G1 X70.163 Y73.031 E23.42147
G1 X70.620 Y72.428 E23.47205
G1 X71.114 Y71.854 E23.52265
G1 X71.600 Y71.354 E23.56923
G1 X72.021 Y71.690 F30000.000
G1 F2100
G1 X72.756 Y71.043 E23.63465
G1 X73.126 Y70.756 E23.66592
G1 X73.720 Y70.343 E23.71427
G1 X74.582 Y69.834 E23.78116
G1 X75.211 Y69.523 E23.82802
G1 X75.878 Y69.243 E23.87636
G1 X76.319 Y69.084 E23.90765
G1 X77.011 Y68.874 E23.95599
G1 X77.967 Y68.661 E24.02141
G1 X78.683 Y68.556 E24.06975
G1 X79.149 Y68.512 E24.10103
G1 X80.128 Y68.481 E24.16643
G1 X80.596 Y68.495 E24.19772
G1 X81.317 Y68.556 E24.24606
G1 X82.284 Y68.709 E24.31149
G1 X82.988 Y68.874 E24.35983
G1 X83.438 Y69.005 E24.39110
G1 X84.380 Y69.346 E24.45799
G1 X85.020 Y69.632 E24.50487
G1 X85.661 Y69.967 E24.55321
G1 X86.064 Y70.205 E24.58448
G1 X86.667 Y70.606 E24.63282
G1 X87.441 Y71.206 E24.69825
G1 X87.792 Y71.515 E24.72951
G1 X88.310 Y72.021 E24.77786
G1 X88.957 Y72.756 E24.84328
G1 X89.244 Y73.126 E24.87455
G1 X89.657 Y73.720 E24.92290
G1 X90.156 Y74.563 E24.98832
G1 X90.477 Y75.211 E25.03666
G1 X90.663 Y75.641 E25.06795
G1 X90.916 Y76.319 E25.11629
G1 X91.126 Y77.011 E25.16462
G1 X91.339 Y77.967 E25.23005
G1 X91.412 Y78.429 E25.26131
G1 X91.488 Y79.149 E25.30966
G1 X91.519 Y80.128 E25.37508
G1 X91.488 Y80.851 E25.42343
G1 X91.444 Y81.317 E25.45469
G1 X91.291 Y82.284 E25.52012
G1 X91.126 Y82.989 E25.56846
G1 X90.995 Y83.438 E25.59974
G1 X90.663 Y84.359 E25.66515
G1 X90.477 Y84.789 E25.69642
G1 X90.156 Y85.437 E25.74477
G1 X89.794 Y86.064 E25.79312
G1 X89.407 Y86.649 E25.84000
G1 X88.794 Y87.441 E25.90688
G1 X88.485 Y87.792 E25.93814
G1 X87.979 Y88.310 E25.98649
G1 X87.244 Y88.957 E26.05191
G1 X86.668 Y89.394 E26.10025
G1 X86.064 Y89.794 E26.14860
G1 X85.437 Y90.156 E26.19695
G1 X85.020 Y90.368 E26.22822
G1 X84.122 Y90.757 E26.29364
G1 X83.438 Y90.995 E26.34198
G1 X82.989 Y91.126 E26.37325
G1 X82.033 Y91.339 E26.43867
G1 X81.571 Y91.412 E26.46994
G1 X80.851 Y91.488 E26.51829
G1 X79.872 Y91.519 E26.58371
G1 X79.404 Y91.505 E26.61498
G1 X78.683 Y91.444 E26.66332
G1 X77.716 Y91.291 E26.72874
G1 X77.259 Y91.189 E26.76001
G1 X76.562 Y90.995 E26.80836
G1 X75.641 Y90.663 E26.87378
G1 X74.980 Y90.368 E26.92212
G1 X74.339 Y90.033 E26.97048
G1 X73.936 Y89.794 E27.00174
G1 X73.333 Y89.394 E27.05009
G1 X72.559 Y88.794 E27.11551
G1 X72.208 Y88.485 E27.14678
G1 X71.690 Y87.979 E27.19512
G1 X71.043 Y87.244 E27.26054
G1 X70.756 Y86.874 E27.29181
G1 X70.343 Y86.280 E27.34016
G1 X69.844 Y85.437 E27.40558
G1 X69.523 Y84.789 E27.45393
G1 X69.337 Y84.359 E27.48521
G1 X69.005 Y83.438 E27.55061
G1 X68.874 Y82.988 E27.58190
G1 X68.709 Y82.284 E27.63024
G1 X68.588 Y81.571 E27.67858
G1 X68.514 Y80.873 E27.72545
G1 X68.481 Y79.872 E27.79234
G1 X68.496 Y79.404 E27.82362
G1 X68.556 Y78.683 E27.87196
G1 X68.709 Y77.716 E27.93738
G1 X68.811 Y77.259 E27.96865
G1 X69.005 Y76.562 E28.01700
G1 X69.337 Y75.641 E28.08241
G1 X69.523 Y75.211 E28.11368
G1 X69.844 Y74.563 E28.16202
G1 X70.343 Y73.720 E28.22744
G1 X70.606 Y73.332 E28.25873
G1 X71.043 Y72.756 E28.30706
G1 X71.515 Y72.208 E28.35541
G1 X71.979 Y71.733 E28.39974
G1 X72.400 Y72.069 F30000.000
G1 F2100
G1 X73.084 Y71.466 E28.46067
G1 X73.454 Y71.179 E28.49194
G1 X74.021 Y70.786 E28.53804
G1 X74.825 Y70.311 E28.60043
G1 X75.424 Y70.014 E28.64506
G1 X76.060 Y69.747 E28.69115
G1 X76.500 Y69.588 E28.72243
G1 X77.161 Y69.389 E28.76853
G1 X78.051 Y69.190 E28.82945
G1 X78.733 Y69.089 E28.87555
G1 X79.199 Y69.045 E28.90682
G1 X80.111 Y69.016 E28.96773
G1 X80.579 Y69.031 E28.99902
G1 X81.266 Y69.089 E29.04512
G1 X82.167 Y69.232 E29.10604
G1 X82.839 Y69.389 E29.15214
G1 X83.289 Y69.519 E29.18341
G1 X84.167 Y69.837 E29.24580
G1 X84.777 Y70.109 E29.29044
