; generated by Slic3r 1.3.0 on 2023-10-09 at 01:06:20

; external perimeters extrusion width = 0.44mm (2.78mm^3/s)
; perimeters extrusion width = 0.40mm (7.14mm^3/s)
; infill extrusion width = 0.50mm (10.97mm^3/s)
; solid infill extrusion width = 0.60mm (6.68mm^3/s)
; top infill extrusion width = 0.40mm (2.14mm^3/s)

M107
M190 S80 ; set bed temperature and wait for it to be reached
M104 S210 ; set temperature
G28 ; home all axes
G1 Z5 F5000 ; lift nozzle

; Filament gcode

M109 S210 ; set temperature and wait for it to be reached
G21 ; set units to millimeters
G90 ; use absolute coordinates
M82 ; use absolute distances for extrusion
G92 E0
G1 Z0.300 F30000.000
G1 E-2.00000 F2400.00000
G92 E0
G1 X62.272 Y63.154 F30000.000
G1 E2.00000 F2400.00000
G1 F2100
G1 X63.364 Y62.075 E2.10256
G1 X64.301 Y61.250 E2.18594
G1 X65.743 Y60.131 E2.30790
G1 X66.775 Y59.430 E2.39123
G1 X68.094 Y58.639 E2.49396
G1 X69.457 Y57.934 E2.59647
G1 X70.863 Y57.316 E2.69910
G1 X72.581 Y56.698 E2.82106
G1 X74.058 Y56.278 E2.92367
G1 X75.276 Y56.006 E3.00701
G1 X77.078 Y55.720 E3.12892
G1 X78.320 Y55.603 E3.21226
G1 X79.855 Y55.545 E3.31489
G1 X81.680 Y55.603 E3.43685
G1 X82.922 Y55.720 E3.52019
G1 X84.440 Y55.951 E3.62279
G1 X86.222 Y56.350 E3.74473
G1 X87.694 Y56.787 E3.84737
G1 X88.869 Y57.210 E3.93080
G1 X90.543 Y57.934 E4.05264
G1 X91.908 Y58.640 E4.15527
G1 X93.218 Y59.425 E4.25727
G1 X94.257 Y60.131 E4.34122
G1 X95.476 Y61.065 E4.44385
G1 X96.846 Y62.272 E4.56580
G1 X97.925 Y63.364 E4.66835
G1 X98.750 Y64.301 E4.75174
G1 X99.869 Y65.743 E4.87370
G1 X100.570 Y66.775 E4.95702
G1 X101.360 Y68.092 E5.05966
G1 X102.189 Y69.719 E5.18160
G1 X102.791 Y71.132 E5.28423
G1 X103.302 Y72.581 E5.38686
G1 X103.650 Y73.778 E5.47019
G1 X103.994 Y75.276 E5.57280
G1 X104.280 Y77.078 E5.69473
G1 X104.397 Y78.323 E5.77823
G1 X104.455 Y79.855 E5.88070
G1 X104.397 Y81.677 E6.00249
G1 X104.244 Y83.208 E6.10523
G1 X104.049 Y84.440 E6.18859
G1 X103.650 Y86.221 E6.31053
G1 X103.302 Y87.419 E6.39386
G1 X102.791 Y88.868 E6.49649
G1 X102.066 Y90.542 E6.61836
G1 X101.498 Y91.656 E6.70190
G1 X100.725 Y92.981 E6.80439
G1 X99.699 Y94.491 E6.92634
G1 X98.750 Y95.699 E7.02897
G1 X97.728 Y96.846 E7.13161
G1 X96.635 Y97.926 E7.23424
G1 X95.698 Y98.752 E7.31770
G1 X94.257 Y99.869 E7.43951
G1 X93.226 Y100.570 E7.52281
G1 X91.908 Y101.360 E7.62544
G1 X90.274 Y102.192 E7.74791
G1 X88.868 Y102.790 E7.85000
G1 X87.419 Y103.302 E7.95267
G1 X86.222 Y103.650 E8.03599
G1 X84.724 Y103.994 E8.13862
G1 X82.922 Y104.280 E8.26050
G1 X81.680 Y104.397 E8.34387
G1 X80.145 Y104.455 E8.44650
G1 X78.320 Y104.397 E8.56846
G1 X76.793 Y104.244 E8.67097
G1 X75.560 Y104.049 E8.75440
G1 X73.779 Y103.650 E8.87632
G1 X72.306 Y103.213 E8.97898
G1 X71.132 Y102.791 E9.06229
G1 X69.457 Y102.066 E9.18425
G1 X68.092 Y101.360 E9.28687
G1 X66.779 Y100.573 E9.38917
G1 X65.509 Y99.700 E9.49210
G1 X64.524 Y98.935 E9.57546
G1 X63.154 Y97.728 E9.69741
G1 X62.074 Y96.635 E9.80005
G1 X61.065 Y95.476 E9.90268
G1 X60.131 Y94.257 E10.00527
G1 X59.430 Y93.226 E10.08862
G1 X58.501 Y91.655 E10.21055
G1 X57.934 Y90.543 E10.29392
G1 X57.316 Y89.137 E10.39652
G1 X56.698 Y87.419 E10.51847
G1 X56.278 Y85.941 E10.62110
G1 X56.005 Y84.723 E10.70451
G1 X55.720 Y82.921 E10.82637
G1 X55.603 Y81.679 E10.90975
G1 X55.545 Y80.142 E11.01249
G1 X55.603 Y78.321 E11.13418
G1 X55.756 Y76.792 E11.23685
G1 X55.951 Y75.560 E11.32020
G1 X56.350 Y73.778 E11.44216
G1 X56.787 Y72.306 E11.54473
G1 X57.209 Y71.132 E11.62810
G1 X57.934 Y69.457 E11.75005
G1 X58.640 Y68.092 E11.85269
G1 X59.275 Y67.019 E11.93599
G1 X60.301 Y65.509 E12.05794
G1 X61.250 Y64.301 E12.16058
G1 X62.231 Y63.198 E12.25921
G1 X62.651 Y63.533 F30000.000
G1 F2100
G1 X63.719 Y62.477 E12.35953
G1 X64.655 Y61.651 E12.44290
G1 X66.044 Y60.574 E12.56036
G1 X67.076 Y59.873 E12.64369
G1 X68.366 Y59.100 E12.74416
G1 X69.700 Y58.412 E12.84444
G1 X71.076 Y57.808 E12.94483
G1 X72.730 Y57.212 E13.06229
G1 X74.175 Y56.801 E13.16266
G1 X75.393 Y56.528 E13.24599
G1 X77.129 Y56.253 E13.36342
G1 X78.370 Y56.136 E13.44675
G1 X79.872 Y56.081 E13.54714
G1 X81.630 Y56.136 E13.66460
G1 X82.871 Y56.253 E13.74794
G1 X84.356 Y56.481 E13.84829
G1 X86.072 Y56.864 E13.96575
G1 X87.513 Y57.291 E14.06614
G1 X88.688 Y57.714 E14.14955
G1 X90.300 Y58.412 E14.26691
G1 X91.635 Y59.101 E14.36729
G1 X92.918 Y59.868 E14.46712
G1 X93.956 Y60.574 E14.55100
G1 X95.148 Y61.488 E14.65138
G1 X96.467 Y62.651 E14.76884
G1 X97.523 Y63.719 E14.86915
G1 X98.349 Y64.655 E14.95253
G1 X99.426 Y66.044 E15.06999
G1 X100.127 Y67.076 E15.15331
G1 X100.899 Y68.365 E15.25370
G1 X101.697 Y69.931 E15.37115
G1 X102.287 Y71.314 E15.47154
G1 X102.788 Y72.730 E15.57192
G1 X103.136 Y73.928 E15.65524
G1 X103.472 Y75.392 E15.75561
G1 X103.747 Y77.129 E15.87305
G1 X103.864 Y78.373 E15.95653
G1 X103.919 Y79.872 E16.05677
G1 X103.864 Y81.627 E16.17409
G1 X103.715 Y83.124 E16.27457
G1 X103.519 Y84.356 E16.35792
G1 X103.132 Y86.085 E16.47629
G1 X102.709 Y87.513 E16.57577
G1 X102.192 Y88.924 E16.67616
G1 X101.589 Y90.299 E16.77647
G1 X101.021 Y91.413 E16.85998
G1 X100.127 Y92.925 E16.97731
G1 X99.426 Y93.956 E17.06062
G1 X98.512 Y95.148 E17.16101
G1 X97.349 Y96.467 E17.27847
G1 X96.281 Y97.524 E17.37885
G1 X95.344 Y98.350 E17.46229
G1 X93.956 Y99.426 E17.57962
G1 X92.925 Y100.127 E17.66293
G1 X91.635 Y100.899 E17.76332
G1 X90.061 Y101.700 E17.88130
G1 X88.687 Y102.286 E17.98114
G1 X87.270 Y102.788 E18.08155
G1 X86.072 Y103.136 E18.16487
G1 X84.607 Y103.472 E18.26525
G1 X82.872 Y103.747 E18.38265
G1 X81.630 Y103.864 E18.46601
G1 X80.128 Y103.919 E18.56640
G1 X78.370 Y103.864 E18.68386
G1 X76.877 Y103.715 E18.78414
G1 X75.644 Y103.519 E18.86755
G1 X73.928 Y103.136 E18.98499
G1 X72.487 Y102.709 E19.08540
G1 X71.314 Y102.287 E19.16871
G1 X69.700 Y101.588 E19.28617
G1 X68.365 Y100.899 E19.38655
G1 X67.079 Y100.130 E19.48664
G1 X65.838 Y99.276 E19.58729
G1 X64.852 Y98.512 E19.67064
G1 X63.533 Y97.349 E19.78810
G1 X62.651 Y96.467 E19.87141
G1 X61.651 Y95.345 E19.97179
G1 X60.574 Y93.956 E20.08922
G1 X59.736 Y92.709 E20.18963
G1 X59.101 Y91.635 E20.27295
G1 X58.411 Y90.300 E20.37336
G1 X57.811 Y88.931 E20.47319
G1 X57.212 Y87.270 E20.59118
G1 X56.800 Y85.825 E20.69156
G1 X56.528 Y84.606 E20.77496
G1 X56.253 Y82.871 E20.89233
G1 X56.136 Y81.628 E20.97571
G1 X56.081 Y80.125 E21.07619
G1 X56.136 Y78.372 E21.19342
G1 X56.285 Y76.876 E21.29384
G1 X56.481 Y75.644 E21.37718
G1 X56.864 Y73.928 E21.49464
G1 X57.291 Y72.488 E21.59497
G1 X57.713 Y71.314 E21.67834
G1 X58.412 Y69.700 E21.79580
G1 X58.978 Y68.589 E21.87911
G1 X59.736 Y67.291 E21.97949
G1 X60.724 Y65.837 E22.09695
G1 X61.651 Y64.655 E22.19734
G1 X62.610 Y63.577 E22.29372
G1 X63.030 Y63.912 F30000.000
G1 F2100
G1 X64.073 Y62.878 E22.39181
G1 X65.009 Y62.053 E22.47517
G1 X66.345 Y61.017 E22.58813
G1 X67.377 Y60.316 E22.67146
G1 X68.639 Y59.561 E22.76967
G1 X69.943 Y58.889 E22.86772
G1 X71.289 Y58.299 E22.96586
G1 X72.880 Y57.726 E23.07883
G1 X74.292 Y57.323 E23.17695
G1 X75.509 Y57.051 E23.26028
G1 X77.179 Y56.787 E23.37321
G1 X78.421 Y56.669 E23.45655
G1 X79.889 Y56.616 E23.55469
G1 X81.579 Y56.669 E23.66765
G1 X82.821 Y56.787 E23.75099
G1 X84.273 Y57.010 E23.84910
G1 X85.923 Y57.378 E23.96206
G1 X87.332 Y57.795 E24.06021
G1 X88.506 Y58.218 E24.14360
G1 X90.057 Y58.889 E24.25648
G1 X91.363 Y59.562 E24.35462
G1 X92.617 Y60.312 E24.45228
G1 X93.655 Y61.017 E24.53608
G1 X94.820 Y61.912 E24.63421
G1 X96.088 Y63.030 E24.74718
G1 X97.121 Y64.073 E24.84525
G1 X97.947 Y65.009 E24.92862
G1 X98.983 Y66.345 E25.04159
G1 X99.684 Y67.377 E25.12491
G1 X100.438 Y68.638 E25.22305
G1 X101.206 Y70.144 E25.33601
G1 X101.701 Y71.289 E25.41931
G1 X102.205 Y72.668 E25.51745
G1 X102.622 Y74.077 E25.61560
G1 X102.949 Y75.509 E25.71373
G1 X103.213 Y77.179 E25.82667
G1 X103.331 Y78.423 E25.91013
G1 X103.384 Y79.889 E26.00814
G1 X103.331 Y81.577 E26.12099
G1 X103.186 Y83.040 E26.21921
G1 X102.990 Y84.273 E26.30256
G1 X102.622 Y85.923 E26.41551
G1 X102.274 Y87.120 E26.49883
G1 X101.783 Y88.505 E26.59697
G1 X101.108 Y90.064 E26.71046
G1 X100.438 Y91.362 E26.80804
G1 X99.684 Y92.623 E26.90622
G1 X98.983 Y93.655 E26.98953
G1 X98.088 Y94.820 E27.08766
G1 X96.970 Y96.088 E27.20063
G1 X95.926 Y97.122 E27.29877
G1 X94.990 Y97.948 E27.38219
G1 X93.655 Y98.983 E27.49505
G1 X92.623 Y99.684 E27.57836
G1 X91.363 Y100.438 E27.67649
G1 X89.849 Y101.209 E27.78999
G1 X88.505 Y101.783 E27.88758
G1 X87.120 Y102.274 E27.98574
G1 X85.923 Y102.622 E28.06906
G1 X84.491 Y102.949 E28.16719
G1 X82.821 Y103.213 E28.28011
G1 X81.579 Y103.331 E28.36346
G1 X80.111 Y103.384 E28.46160
G1 X78.421 Y103.331 E28.57457
G1 X76.960 Y103.186 E28.67262
G1 X75.727 Y102.990 E28.75601
G1 X74.049 Y102.613 E28.87095
G1 X72.668 Y102.205 E28.96711
G1 X71.289 Y101.701 E29.06526
G1 X70.143 Y101.205 E29.14862
G1 X68.832 Y100.545 E29.24672
G1 X67.380 Y99.686 E29.35941
G1 X66.166 Y98.853 E29.45777
G1 X65.180 Y98.088 E29.54112
G1 X63.912 Y96.970 E29.65409
G1 X63.030 Y96.088 E29.73739
G1 X62.053 Y94.991 E29.83553
G1 X61.017 Y93.655 E29.94847
G1 X60.197 Y92.436 E30.04663
G1 X59.562 Y91.363 E30.12995
G1 X58.889 Y90.056 E30.22811
G1 X58.302 Y88.719 E30.32570
G1 X57.726 Y87.120 E30.43919
G1 X57.323 Y85.708 E30.53733
G1 X57.051 Y84.490 E30.62072
G1 X56.787 Y82.821 E30.73360
G1 X56.669 Y81.578 E30.81697
G1 X56.616 Y80.109 E30.91519
G1 X56.669 Y78.422 E31.02796
G1 X56.814 Y76.960 E31.12612
G1 X57.010 Y75.727 E31.20947
G1 X57.378 Y74.077 E31.32243
G1 X57.795 Y72.669 E31.42052
G1 X58.217 Y71.495 E31.50388
G1 X58.889 Y69.943 E31.61685
G1 X59.562 Y68.637 E31.71499
G1 X60.197 Y67.564 E31.79829
G1 X61.147 Y66.166 E31.91126
G1 X62.053 Y65.009 E32.00940
G1 X62.989 Y63.955 E32.10353
G1 E30.10353 F2400.00000
G92 E0
G1 X93.016 Y93.861 F30000.000
G1 E2.00000 F2400.00000
G1 F2100
G1 X92.121 Y94.649 E2.07968
G1 X91.176 Y95.383 E2.15960
G1 X90.188 Y96.054 E2.23940
G1 X89.161 Y96.661 E2.31910
G1 X88.088 Y97.208 E2.39956
G1 X87.000 Y97.679 E2.47879
G1 X85.876 Y98.083 E2.55859
G1 X84.729 Y98.417 E2.63838
G1 X83.563 Y98.677 E2.71817
G1 X82.375 Y98.865 E2.79849
G1 X81.194 Y98.976 E2.87778
G1 X80.000 Y99.014 E2.95757
G1 X78.806 Y98.976 E3.03737
G1 X77.625 Y98.865 E3.11666
G1 X76.438 Y98.677 E3.19694
G1 X75.243 Y98.408 E3.27871
G1 X74.124 Y98.083 E3.35656
G1 X73.000 Y97.679 E3.43636
G1 X71.904 Y97.204 E3.51616
G1 X70.852 Y96.668 E3.59508
G1 X69.812 Y96.054 E3.67576
G1 X68.818 Y95.378 E3.75606
G1 X67.880 Y94.650 E3.83534
G1 X66.984 Y93.861 E3.91514
G1 X66.139 Y93.016 E3.99494
G1 X65.350 Y92.120 E4.07474
G1 X64.617 Y91.176 E4.15454
G1 X63.946 Y90.188 E4.23434
G1 X63.338 Y89.160 E4.31413
G1 X62.796 Y88.096 E4.39393
G1 X62.321 Y86.999 E4.47373
G1 X61.917 Y85.876 E4.55353
G1 X61.583 Y84.729 E4.63333
G1 X61.323 Y83.566 E4.71293
G1 X61.136 Y82.383 E4.79293
G1 X61.024 Y81.194 E4.87272
G1 X60.986 Y80.000 E4.95252
G1 X61.024 Y78.806 E5.03232
G1 X61.136 Y77.617 E5.11211
G1 X61.323 Y76.437 E5.19191
G1 X61.583 Y75.271 E5.27171
G1 X61.917 Y74.124 E5.35151
G1 X62.321 Y73.000 E5.43131
G1 X62.796 Y71.904 E5.51110
G1 X63.338 Y70.840 E5.59090
G1 X63.946 Y69.812 E5.67070
G1 X64.617 Y68.824 E5.75050
G1 X65.350 Y67.880 E5.83030
G1 X66.134 Y66.990 E5.90958
G1 X66.984 Y66.139 E5.98990
G1 X67.880 Y65.350 E6.06969
G1 X68.815 Y64.624 E6.14877
G1 X69.812 Y63.946 E6.22928
G1 X70.852 Y63.332 E6.30996
G1 X71.904 Y62.796 E6.38888
G1 X73.000 Y62.321 E6.46868
G1 X74.124 Y61.917 E6.54847
G1 X75.243 Y61.592 E6.62632
G1 X76.438 Y61.323 E6.70811
G1 X77.617 Y61.136 E6.78786
G1 X78.806 Y61.024 E6.86765
G1 X80.008 Y60.986 E6.94797
G1 X81.194 Y61.024 E7.02726
G1 X82.383 Y61.136 E7.10706
G1 X83.563 Y61.323 E7.18685
G1 X84.729 Y61.583 E7.26665
G1 X85.876 Y61.917 E7.34645
G1 X86.992 Y62.319 E7.42573
G1 X88.096 Y62.796 E7.50606
G1 X89.160 Y63.338 E7.58584
G1 X90.188 Y63.946 E7.66564
G1 X91.176 Y64.617 E7.74544
G1 X92.121 Y65.351 E7.82535
G1 X93.016 Y66.139 E7.90503
G1 X93.861 Y66.984 E7.98483
G1 X94.650 Y67.880 E8.06463
G1 X95.383 Y68.824 E8.14443
G1 X96.054 Y69.812 E8.22423
G1 X96.662 Y70.840 E8.30403
G1 X97.200 Y71.897 E8.38325
G1 X97.679 Y73.001 E8.46363
G1 X98.083 Y74.124 E8.54342
G1 X98.413 Y75.258 E8.62231
G1 X98.677 Y76.437 E8.70303
G1 X98.864 Y77.617 E8.78281
G1 X98.976 Y78.804 E8.86246
G1 X99.014 Y80.000 E8.94241
G1 X98.976 Y81.196 E9.02235
G1 X98.864 Y82.383 E9.10200
G1 X98.677 Y83.563 E9.18178
G1 X98.413 Y84.742 E9.26250
G1 X98.083 Y85.876 E9.34139
G1 X97.679 Y86.999 E9.42118
G1 X97.200 Y88.103 E9.50156
G1 X96.662 Y89.160 E9.58079
G1 X96.054 Y90.188 E9.66059
G1 X95.383 Y91.176 E9.74038
G1 X94.650 Y92.120 E9.82018
G1 X93.861 Y93.016 E9.89998
G1 X93.058 Y93.818 E9.97577
G1 X93.370 Y94.262 F30000.000
G1 F2100
G1 X92.463 Y95.062 E10.05658
G1 X91.491 Y95.816 E10.13874
G1 X90.475 Y96.506 E10.22079
G1 X89.419 Y97.131 E10.30275
G1 X88.316 Y97.693 E10.38546
G1 X87.197 Y98.177 E10.46693
G1 X86.041 Y98.593 E10.54897
G1 X84.862 Y98.936 E10.63102
G1 X83.663 Y99.204 E10.71306
G1 X82.442 Y99.396 E10.79563
G1 X81.228 Y99.511 E10.87716
G1 X80.000 Y99.550 E10.95921
G1 X78.772 Y99.511 E11.04125
G1 X77.558 Y99.396 E11.12278
G1 X76.337 Y99.204 E11.20534
G1 X75.110 Y98.927 E11.28937
G1 X73.959 Y98.593 E11.36944
G1 X72.803 Y98.177 E11.45148
G1 X71.676 Y97.689 E11.53353
G1 X70.594 Y97.138 E11.61469
G1 X69.525 Y96.506 E11.69763
G1 X68.503 Y95.811 E11.78019
G1 X67.538 Y95.063 E11.86172
G1 X66.617 Y94.251 E11.94376
G1 X65.749 Y93.383 E12.02581
G1 X64.937 Y92.462 E12.10786
G1 X64.184 Y91.491 E12.18990
G1 X63.494 Y90.475 E12.27195
G1 X62.868 Y89.418 E12.35400
G1 X62.311 Y88.324 E12.43605
G1 X61.823 Y87.197 E12.51809
G1 X61.407 Y86.041 E12.60014
G1 X61.064 Y84.862 E12.68219
G1 X60.797 Y83.666 E12.76403
G1 X60.604 Y82.450 E12.84628
G1 X60.489 Y81.228 E12.92833
G1 X60.450 Y80.000 E13.01037
G1 X60.489 Y78.772 E13.09242
G1 X60.604 Y77.550 E13.17447
G1 X60.796 Y76.337 E13.25652
G1 X61.064 Y75.138 E13.33856
G1 X61.407 Y73.959 E13.42061
G1 X61.823 Y72.803 E13.50266
G1 X62.311 Y71.676 E13.58470
G1 X62.868 Y70.582 E13.66675
G1 X63.494 Y69.525 E13.74880
G1 X64.184 Y68.509 E13.83085
G1 X64.937 Y67.538 E13.91289
G1 X65.744 Y66.623 E13.99442
G1 X66.617 Y65.749 E14.07699
G1 X67.538 Y64.937 E14.15903
G1 X68.500 Y64.191 E14.24035
G1 X69.525 Y63.494 E14.32312
G1 X70.594 Y62.862 E14.40606
G1 X71.676 Y62.311 E14.48722
G1 X72.803 Y61.823 E14.56926
G1 X73.959 Y61.407 E14.65131
G1 X75.110 Y61.073 E14.73138
G1 X76.337 Y60.796 E14.81542
G1 X77.550 Y60.604 E14.89745
G1 X78.772 Y60.489 E14.97949
G1 X80.008 Y60.450 E15.06206
G1 X81.228 Y60.489 E15.14359
G1 X82.450 Y60.604 E15.22564
G1 X83.663 Y60.796 E15.30768
G1 X84.862 Y61.064 E15.38973
G1 X86.041 Y61.407 E15.47178
G1 X87.189 Y61.820 E15.55330
G1 X88.324 Y62.311 E15.63587
G1 X89.418 Y62.868 E15.71792
G1 X90.475 Y63.494 E15.79996
G1 X91.491 Y64.184 E15.88201
G1 X92.463 Y64.938 E15.96417
G1 X93.383 Y65.749 E16.04611
G1 X94.251 Y66.617 E16.12815
G1 X95.063 Y67.538 E16.21020
G1 X95.816 Y68.509 E16.29225
G1 X96.506 Y69.525 E16.37429
G1 X97.132 Y70.582 E16.45634
G1 X97.685 Y71.668 E16.53781
G1 X98.177 Y72.803 E16.62044
G1 X98.593 Y73.959 E16.70248
G1 X98.932 Y75.125 E16.78361
G1 X99.204 Y76.337 E16.86658
G1 X99.396 Y77.550 E16.94862
G1 X99.511 Y78.770 E17.03052
G1 X99.550 Y80.000 E17.11271
G1 X99.511 Y81.230 E17.19491
G1 X99.396 Y82.450 E17.27681
G1 X99.204 Y83.663 E17.35885
G1 X98.932 Y84.875 E17.44181
G1 X98.593 Y86.041 E17.52295
G1 X98.177 Y87.197 E17.60499
G1 X97.685 Y88.332 E17.68762
G1 X97.132 Y89.418 E17.76909
G1 X96.506 Y90.475 E17.85113
G1 X95.816 Y91.491 E17.93318
G1 X95.063 Y92.462 E18.01523
G1 X94.251 Y93.383 E18.09728
G1 X93.413 Y94.221 E18.17644
G1 X92.987 Y94.147 F30000.000
G1 X92.591 Y93.528 F30000.000
G1 F2100
G1 X93.528 Y92.591 E18.26619
G1 X94.294 Y91.722 E18.34473
G1 X95.006 Y90.804 E18.42337
G1 X95.658 Y89.844 E18.50202
G1 X95.878 Y89.472 E18.53128
G1 X89.472 Y95.878 E19.14504
G1 X88.846 Y96.249 E19.19433
G1 X87.803 Y96.780 E19.27367
G1 X96.779 Y87.804 E20.13370
G1 X97.237 Y86.745 E20.21186
G1 X97.332 Y86.482 E20.23079
G1 X86.482 Y97.332 E21.27035
G1 X85.653 Y97.631 E21.33005
G1 X85.318 Y97.728 E21.35368
G1 X97.728 Y85.318 E22.54270
G1 X97.951 Y84.551 E22.59681
G1 X98.015 Y84.262 E22.61686
G1 X84.262 Y98.016 E23.93467
