; generated by Slic3r 1.3.0 on 2023-10-07 at 20:17:44

; external perimeters extrusion width = 0.44mm (2.78mm^3/s)
; perimeters extrusion width = 0.40mm (7.14mm^3/s)
; infill extrusion width = 0.50mm (10.97mm^3/s)
; solid infill extrusion width = 0.60mm (6.68mm^3/s)
; top infill extrusion width = 0.40mm (2.14mm^3/s)

M107
M190 S80 ; set bed temperature and wait for it to be reached
M104 S210 ; set temperature
G28 ; home all axes
G1 Z5 F5000 ; lift nozzle

; Filament gcode

M109 S210 ; set temperature and wait for it to be reached
G21 ; set units to millimeters
G90 ; use absolute coordinates
M82 ; use absolute distances for extrusion
G92 E0
G1 Z0.300 F30000.000
G1 E-2.00000 F2400.00000
G92 E0
G1 X27.482 Y51.890 F30000.000
G1 E2.00000 F2400.00000
G1 F2100
G1 X29.089 Y51.094 E2.11982
G1 X30.050 Y50.979 E2.18446
G1 X129.950 Y50.979 E8.85832
G1 X131.700 Y51.374 E8.97814
G1 X133.110 Y52.482 E9.09796
G1 X133.906 Y54.089 E9.21778
G1 X134.021 Y55.050 E9.28242
G1 X134.021 Y104.950 E12.61601
G1 X133.626 Y106.700 E12.73583
G1 X132.518 Y108.110 E12.85565
G1 X130.911 Y108.906 E12.97547
G1 X129.950 Y109.021 E13.04011
G1 X30.050 Y109.021 E19.71397
G1 X28.300 Y108.626 E19.83379
G1 X26.890 Y107.518 E19.95361
G1 X26.094 Y105.911 E20.07344
G1 X25.979 Y104.950 E20.13807
G1 X25.979 Y55.050 E23.47166
G1 X26.374 Y53.300 E23.59148
G1 X27.445 Y51.938 E23.70730
G1 X28.004 Y52.167 F30000.000
G1 F2100
G1 X30.050 Y51.514 E23.85077
G1 X129.950 Y51.514 E30.52463
G1 X131.573 Y51.909 E30.63619
G1 X132.833 Y53.004 E30.74775
G1 X133.486 Y55.050 E30.89122
G1 X133.486 Y104.950 E34.22481
G1 X133.091 Y106.573 E34.33637
G1 X131.996 Y107.833 E34.44793
G1 X129.950 Y108.486 E34.59140
G1 X30.050 Y108.486 E41.26526
G1 X28.427 Y108.091 E41.37682
G1 X27.167 Y106.996 E41.48838
G1 X26.514 Y104.950 E41.63185
G1 X26.514 Y55.050 E44.96544
G1 X26.909 Y53.427 E45.07700
G1 X27.964 Y52.212 E45.18455
G1 E43.18455 F2400.00000
G92 E0
G1 X49.635 Y89.850 F30000.000
G1 E2.00000 F2400.00000
G1 F2100
G1 X49.007 Y90.122 E2.04569
G1 X48.364 Y90.353 E2.09137
G1 X47.707 Y90.544 E2.13706
G1 X47.040 Y90.693 E2.18275
G1 X46.364 Y90.800 E2.22843
G1 X45.684 Y90.865 E2.27412
G1 X45.000 Y90.886 E2.31981
G1 X44.316 Y90.865 E2.36549
G1 X43.636 Y90.800 E2.41118
G1 X42.960 Y90.693 E2.45687
G1 X42.291 Y90.544 E2.50264
G1 X41.604 Y90.342 E2.55053
G1 X40.993 Y90.122 E2.59392
G1 X40.365 Y89.850 E2.63961
G1 X39.756 Y89.540 E2.68530
G1 X39.166 Y89.191 E2.73107
G1 X38.574 Y88.786 E2.77896
G1 X38.061 Y88.388 E2.82235
G1 X37.548 Y87.936 E2.86804
G1 X37.064 Y87.452 E2.91373
G1 X36.612 Y86.939 E2.95941
G1 X36.193 Y86.399 E3.00510
G1 X35.809 Y85.833 E3.05079
G1 X35.460 Y85.244 E3.09647
G1 X35.150 Y84.635 E3.14216
G1 X34.878 Y84.007 E3.18785
G1 X34.658 Y83.396 E3.23124
G1 X34.456 Y82.709 E3.27913
G1 X34.307 Y82.040 E3.32490
G1 X34.205 Y81.398 E3.36830
G1 X34.135 Y80.685 E3.41619
G1 X34.114 Y80.000 E3.46196
G1 X34.135 Y79.316 E3.50765
G1 X34.200 Y78.636 E3.55333
G1 X34.307 Y77.960 E3.59902
G1 X34.456 Y77.293 E3.64471
G1 X34.647 Y76.636 E3.69039
G1 X34.878 Y75.993 E3.73608
G1 X35.150 Y75.365 E3.78177
G1 X35.460 Y74.756 E3.82746
G1 X35.791 Y74.196 E3.87085
G1 X36.192 Y73.602 E3.91874
G1 X36.612 Y73.061 E3.96451
G1 X37.064 Y72.548 E4.01020
G1 X37.548 Y72.064 E4.05589
G1 X38.061 Y71.612 E4.10157
G1 X38.602 Y71.192 E4.14735
G1 X39.196 Y70.791 E4.19523
G1 X39.756 Y70.460 E4.23863
G1 X40.365 Y70.150 E4.28432
G1 X40.993 Y69.878 E4.33000
G1 X41.636 Y69.647 E4.37569
G1 X42.293 Y69.456 E4.42138
G1 X42.960 Y69.307 E4.46706
G1 X43.637 Y69.200 E4.51284
G1 X44.351 Y69.134 E4.56072
G1 X45.000 Y69.114 E4.60412
G1 X45.684 Y69.135 E4.64981
G1 X46.364 Y69.200 E4.69549
G1 X47.040 Y69.307 E4.74118
G1 X47.707 Y69.456 E4.78687
G1 X48.364 Y69.647 E4.83255
G1 X49.009 Y69.879 E4.87833
G1 X49.666 Y70.166 E4.92621
G1 X50.244 Y70.460 E4.96961
G1 X50.834 Y70.809 E5.01538
G1 X51.426 Y71.214 E5.06327
G1 X51.939 Y71.612 E5.10667
G1 X52.452 Y72.064 E5.15235
G1 X52.936 Y72.548 E5.19804
G1 X53.388 Y73.061 E5.24373
G1 X53.807 Y73.601 E5.28941
G1 X54.191 Y74.167 E5.33510
G1 X54.540 Y74.756 E5.38079
G1 X54.850 Y75.365 E5.42647
G1 X55.122 Y75.993 E5.47216
G1 X55.353 Y76.636 E5.51785
G1 X55.544 Y77.293 E5.56353
G1 X55.693 Y77.960 E5.60922
G1 X55.800 Y78.636 E5.65491
G1 X55.865 Y79.316 E5.70059
G1 X55.886 Y80.000 E5.74628
G1 X55.865 Y80.684 E5.79197
G1 X55.800 Y81.364 E5.83765
G1 X55.693 Y82.040 E5.88334
G1 X55.544 Y82.707 E5.92903
G1 X55.353 Y83.364 E5.97471
G1 X55.133 Y83.975 E6.01811
G1 X54.851 Y84.634 E6.06600
G1 X54.540 Y85.244 E6.11177
G1 X54.191 Y85.833 E6.15746
G1 X53.807 Y86.399 E6.20314
G1 X53.388 Y86.939 E6.24883
G1 X52.936 Y87.452 E6.29452
G1 X52.452 Y87.936 E6.34020
G1 X51.939 Y88.388 E6.38589
G1 X51.399 Y88.807 E6.43158
G1 X50.833 Y89.191 E6.47726
G1 X50.244 Y89.540 E6.52295
G1 X49.689 Y89.823 E6.56463
G1 X49.407 Y89.365 F30000.000
G1 F2100
G1 X48.810 Y89.623 E6.60807
G1 X48.198 Y89.844 E6.65151
G1 X47.574 Y90.025 E6.69494
G1 X46.939 Y90.167 E6.73838
G1 X46.297 Y90.269 E6.78182
G1 X45.650 Y90.330 E6.82526
G1 X45.000 Y90.350 E6.86869
G1 X44.350 Y90.330 E6.91213
G1 X43.703 Y90.269 E6.95557
G1 X43.061 Y90.167 E6.99901
G1 X42.426 Y90.025 E7.04248
G1 X41.770 Y89.832 E7.08811
G1 X41.190 Y89.623 E7.12932
G1 X40.593 Y89.365 E7.17275
G1 X40.014 Y89.070 E7.21619
G1 X39.454 Y88.739 E7.25966
G1 X38.890 Y88.353 E7.30530
G1 X38.403 Y87.975 E7.34650
G1 X37.915 Y87.545 E7.38994
G1 X37.455 Y87.085 E7.43338
G1 X37.025 Y86.597 E7.47681
G1 X36.627 Y86.084 E7.52025
G1 X36.261 Y85.546 E7.56369
G1 X35.930 Y84.986 E7.60713
G1 X35.635 Y84.407 E7.65057
G1 X35.377 Y83.810 E7.69400
G1 X35.168 Y83.230 E7.73521
G1 X34.975 Y82.574 E7.78084
G1 X34.833 Y81.939 E7.82431
G1 X34.737 Y81.330 E7.86552
G1 X34.670 Y80.650 E7.91115
G1 X34.650 Y80.000 E7.95462
G1 X34.670 Y79.350 E7.99806
G1 X34.731 Y78.703 E8.04150
G1 X34.833 Y78.061 E8.08494
G1 X34.975 Y77.426 E8.12837
G1 X35.156 Y76.802 E8.17181
G1 X35.377 Y76.190 E8.21525
G1 X35.635 Y75.593 E8.25869
G1 X35.930 Y75.014 E8.30212
G1 X36.244 Y74.483 E8.34333
G1 X36.626 Y73.917 E8.38896
G1 X37.025 Y73.403 E8.43243
G1 X37.455 Y72.915 E8.47587
G1 X37.915 Y72.455 E8.51931
G1 X38.403 Y72.025 E8.56275
G1 X38.917 Y71.626 E8.60622
G1 X39.483 Y71.244 E8.65185
G1 X40.014 Y70.930 E8.69306
G1 X40.593 Y70.635 E8.73649
G1 X41.190 Y70.377 E8.77993
G1 X41.802 Y70.156 E8.82337
G1 X42.426 Y69.975 E8.86681
G1 X43.061 Y69.833 E8.91025
G1 X43.703 Y69.731 E8.95371
G1 X44.384 Y69.669 E8.99935
G1 X45.000 Y69.650 E9.04055
G1 X45.650 Y69.670 E9.08399
G1 X46.297 Y69.731 E9.12743
G1 X46.939 Y69.833 E9.17087
G1 X47.574 Y69.975 E9.21431
G1 X48.198 Y70.156 E9.25774
G1 X48.811 Y70.377 E9.30121
G1 X49.437 Y70.650 E9.34685
G1 X49.986 Y70.930 E9.38805
G1 X50.546 Y71.261 E9.43152
G1 X51.110 Y71.647 E9.47716
G1 X51.597 Y72.025 E9.51836
G1 X52.085 Y72.455 E9.56180
G1 X52.545 Y72.915 E9.60524
G1 X52.975 Y73.403 E9.64868
G1 X53.373 Y73.916 E9.69211
G1 X53.739 Y74.454 E9.73555
G1 X54.070 Y75.014 E9.77899
G1 X54.365 Y75.593 E9.82243
G1 X54.623 Y76.190 E9.86586
G1 X54.844 Y76.802 E9.90930
G1 X55.025 Y77.426 E9.95274
G1 X55.167 Y78.061 E9.99618
G1 X55.269 Y78.703 E10.03962
G1 X55.330 Y79.350 E10.08305
G1 X55.350 Y80.000 E10.12649
G1 X55.330 Y80.650 E10.16993
G1 X55.269 Y81.297 E10.21337
G1 X55.167 Y81.939 E10.25680
G1 X55.025 Y82.574 E10.30024
G1 X54.844 Y83.198 E10.34368
G1 X54.635 Y83.779 E10.38488
G1 X54.365 Y84.406 E10.43052
G1 X54.070 Y84.986 E10.47399
G1 X53.739 Y85.546 E10.51743
G1 X53.373 Y86.084 E10.56086
G1 X52.975 Y86.597 E10.60430
G1 X52.545 Y87.085 E10.64774
G1 X52.085 Y87.545 E10.69118
G1 X51.597 Y87.975 E10.73462
G1 X51.084 Y88.373 E10.77805
G1 X50.546 Y88.739 E10.82149
G1 X49.986 Y89.070 E10.86493
G1 X49.460 Y89.338 E10.90436
G1 X49.407 Y89.365 F30000.000
G1 E8.90436 F2400.00000
G92 E0
G1 X49.707 Y90.002 F30000.000
G1 X53.522 Y96.454 F30000.000
G1 X55.603 Y95.885 F30000.000
G1 X61.084 Y93.793 F30000.000
G1 X65.408 Y91.535 F30000.000
G1 X67.538 Y90.227 F30000.000
G1 X73.480 Y85.874 F30000.000
G1 X80.027 Y80.000 F30000.000
G1 X84.105 Y83.840 F30000.000
G1 X89.393 Y88.114 F30000.000
G1 X94.021 Y91.198 F30000.000
G1 X98.177 Y93.445 F30000.000
G1 X101.992 Y95.073 F30000.000
G1 X105.568 Y96.221 F30000.000
G1 X107.664 Y96.724 F30000.000
G1 X111.915 Y97.351 F30000.000
G1 X116.710 Y97.451 F30000.000
G1 X121.820 Y96.820 F30000.000
G1 X122.046 Y96.499 F30000.000
G1 X124.012 Y93.193 F30000.000
G1 X125.428 Y90.168 F30000.000
G1 X123.093 Y87.531 F30000.000
G1 X123.993 Y86.737 F30000.000
G1 E2.00000 F2400.00000
G1 F2100
G1 X123.544 Y86.737 E2.03003
G1 X122.958 Y87.426 E2.09043
G1 X122.453 Y87.935 E2.13832
G1 X121.939 Y88.388 E2.18409
G1 X121.399 Y88.807 E2.22978
G1 X120.833 Y89.191 E2.27546
G1 X120.244 Y89.540 E2.32115
G1 X119.635 Y89.850 E2.36684
G1 X119.007 Y90.122 E2.41252
G1 X118.364 Y90.353 E2.45821
G1 X117.707 Y90.544 E2.50390
G1 X117.040 Y90.693 E2.54958
G1 X116.364 Y90.800 E2.59527
G1 X115.684 Y90.865 E2.64096
G1 X115.004 Y90.886 E2.68640
G1 X114.395 Y90.872 E2.72705
G1 X113.602 Y90.795 E2.78031
G1 X112.960 Y90.693 E2.82371
G1 X112.293 Y90.544 E2.86940
G1 X111.636 Y90.353 E2.91509
G1 X110.993 Y90.122 E2.96077
G1 X110.365 Y89.850 E3.00646
G1 X109.756 Y89.540 E3.05215
G1 X109.167 Y89.191 E3.09783
G1 X108.601 Y88.807 E3.14352
G1 X108.061 Y88.388 E3.18921
G1 X107.548 Y87.936 E3.23489
G1 X107.064 Y87.452 E3.28058
G1 X106.612 Y86.939 E3.32627
G1 X106.193 Y86.399 E3.37195
G1 X105.809 Y85.833 E3.41764
G1 X105.460 Y85.244 E3.46333
G1 X105.150 Y84.635 E3.50901
G1 X104.878 Y84.007 E3.55470
G1 X104.647 Y83.364 E3.60039
G1 X104.456 Y82.707 E3.64607
G1 X104.307 Y82.040 E3.69176
G1 X104.200 Y81.364 E3.73745
G1 X104.135 Y80.684 E3.78313
G1 X104.114 Y80.000 E3.82882
G1 X104.135 Y79.316 E3.87451
G1 X104.200 Y78.636 E3.92020
G1 X104.307 Y77.960 E3.96588
G1 X104.456 Y77.293 E4.01157
G1 X104.647 Y76.636 E4.05726
G1 X104.878 Y75.993 E4.10294
G1 X105.150 Y75.365 E4.14863
G1 X105.460 Y74.756 E4.19432
G1 X105.809 Y74.167 E4.24000
G1 X106.193 Y73.601 E4.28569
G1 X106.612 Y73.061 E4.33138
G1 X107.065 Y72.547 E4.37715
G1 X107.574 Y72.042 E4.42504
G1 X108.061 Y71.612 E4.46843
G1 X108.601 Y71.193 E4.51412
G1 X109.167 Y70.809 E4.55981
G1 X109.756 Y70.460 E4.60549
G1 X110.365 Y70.150 E4.65118
G1 X110.993 Y69.878 E4.69687
G1 X111.636 Y69.647 E4.74255
G1 X112.293 Y69.456 E4.78824
G1 X112.960 Y69.307 E4.83393
G1 X113.637 Y69.200 E4.87970
G1 X114.351 Y69.134 E4.92759
G1 X115.000 Y69.114 E4.97098
G1 X115.684 Y69.135 E5.01667
G1 X116.364 Y69.200 E5.06236
G1 X117.040 Y69.307 E5.10804
G1 X117.707 Y69.456 E5.15373
G1 X118.364 Y69.647 E5.19942
G1 X119.009 Y69.879 E5.24519
G1 X119.666 Y70.166 E5.29308
G1 X120.244 Y70.460 E5.33647
G1 X120.833 Y70.809 E5.38216
G1 X121.399 Y71.193 E5.42785
G1 X121.939 Y71.612 E5.47353
G1 X122.452 Y72.064 E5.51922
G1 X122.936 Y72.548 E5.56491
G1 X123.388 Y73.061 E5.61059
G1 X123.807 Y73.601 E5.65628
G1 X124.191 Y74.167 E5.70197
G1 X124.540 Y74.756 E5.74765
G1 X124.850 Y75.365 E5.79334
G1 X125.122 Y75.993 E5.83903
G1 X125.353 Y76.636 E5.88471
G1 X125.544 Y77.293 E5.93040
G1 X125.693 Y77.960 E5.97609
G1 X125.800 Y78.636 E6.02178
G1 X125.865 Y79.316 E6.06746
G1 X125.886 Y80.000 E6.11315
G1 X125.865 Y80.684 E6.15884
G1 X125.800 Y81.364 E6.20452
G1 X125.693 Y82.040 E6.25021
G1 X125.544 Y82.707 E6.29590
G1 X125.353 Y83.364 E6.34158
G1 X125.122 Y84.007 E6.38727
G1 X124.850 Y84.635 E6.43296
G1 X124.540 Y85.244 E6.47864
G1 X124.191 Y85.833 E6.52433
G1 X123.993 Y86.124 E6.54786
G1 X123.993 Y86.677 E6.58481
G1 X123.458 Y86.202 F30000.000
G1 F2100
G1 X123.281 Y86.202 E6.59660
G1 X122.975 Y86.597 E6.63002
G1 X122.567 Y87.060 E6.67123
G1 X122.086 Y87.545 E6.71687
G1 X121.597 Y87.975 E6.76034
G1 X121.084 Y88.373 E6.80377
G1 X120.546 Y88.739 E6.84721
G1 X119.986 Y89.070 E6.89065
G1 X119.407 Y89.365 E6.93409
G1 X118.810 Y89.623 E6.97753
G1 X118.198 Y89.844 E7.02096
G1 X117.574 Y90.025 E7.06440
G1 X116.939 Y90.167 E7.10784
G1 X116.297 Y90.269 E7.15128
G1 X115.650 Y90.330 E7.19471
G1 X115.001 Y90.350 E7.23807
G1 X114.427 Y90.337 E7.27641
G1 X113.670 Y90.263 E7.32727
G1 X113.061 Y90.167 E7.36847
G1 X112.426 Y90.025 E7.41191
G1 X111.802 Y89.844 E7.45535
G1 X111.190 Y89.623 E7.49879
G1 X110.593 Y89.365 E7.54223
G1 X110.014 Y89.070 E7.58566
G1 X109.454 Y88.739 E7.62910
G1 X108.916 Y88.373 E7.67254
G1 X108.403 Y87.975 E7.71598
G1 X107.915 Y87.545 E7.75941
G1 X107.455 Y87.085 E7.80285
G1 X107.025 Y86.597 E7.84629
G1 X106.627 Y86.084 E7.88973
G1 X106.261 Y85.546 E7.93316
G1 X105.930 Y84.986 E7.97660
G1 X105.635 Y84.407 E8.02004
G1 X105.377 Y83.810 E8.06348
G1 X105.156 Y83.198 E8.10692
G1 X104.975 Y82.574 E8.15035
G1 X104.833 Y81.939 E8.19379
G1 X104.731 Y81.297 E8.23723
G1 X104.670 Y80.650 E8.28067
G1 X104.650 Y80.000 E8.32411
G1 X104.670 Y79.350 E8.36754
G1 X104.731 Y78.703 E8.41098
G1 X104.833 Y78.061 E8.45442
G1 X104.975 Y77.426 E8.49786
G1 X105.156 Y76.802 E8.54129
G1 X105.377 Y76.190 E8.58473
G1 X105.635 Y75.593 E8.62817
G1 X105.930 Y75.014 E8.67161
G1 X106.261 Y74.454 E8.71505
G1 X106.627 Y73.916 E8.75848
G1 X107.025 Y73.403 E8.80192
G1 X107.455 Y72.914 E8.84539
G1 X107.940 Y72.433 E8.89103
G1 X108.403 Y72.025 E8.93223
G1 X108.916 Y71.627 E8.97567
G1 X109.454 Y71.261 E9.01911
G1 X110.014 Y70.930 E9.06254
G1 X110.593 Y70.635 E9.10598
G1 X111.190 Y70.377 E9.14942
G1 X111.802 Y70.156 E9.19286
G1 X112.426 Y69.975 E9.23629
G1 X113.061 Y69.833 E9.27973
G1 X113.703 Y69.731 E9.32320
G1 X114.384 Y69.669 E9.36884
G1 X115.000 Y69.650 E9.41004
G1 X115.650 Y69.670 E9.45348
G1 X116.297 Y69.731 E9.49692
G1 X116.939 Y69.833 E9.54035
G1 X117.574 Y69.975 E9.58379
G1 X118.198 Y70.156 E9.62723
G1 X118.811 Y70.377 E9.67070
G1 X119.437 Y70.650 E9.71634
G1 X119.986 Y70.930 E9.75754
G1 X120.546 Y71.261 E9.80098
G1 X121.084 Y71.627 E9.84442
G1 X121.597 Y72.025 E9.88785
G1 X122.085 Y72.455 E9.93129
G1 X122.545 Y72.915 E9.97473
G1 X122.975 Y73.403 E10.01817
G1 X123.373 Y73.916 E10.06160
G1 X123.739 Y74.454 E10.10504
G1 X124.070 Y75.014 E10.14848
G1 X124.365 Y75.593 E10.19192
G1 X124.623 Y76.190 E10.23536
G1 X124.844 Y76.802 E10.27879
G1 X125.025 Y77.426 E10.32223
G1 X125.167 Y78.061 E10.36567
G1 X125.269 Y78.703 E10.40911
G1 X125.330 Y79.350 E10.45254
G1 X125.350 Y80.000 E10.49598
G1 X125.330 Y80.650 E10.53942
G1 X125.269 Y81.297 E10.58286
G1 X125.167 Y81.939 E10.62630
G1 X125.025 Y82.574 E10.66973
G1 X124.844 Y83.198 E10.71317
G1 X124.623 Y83.810 E10.75661
G1 X124.365 Y84.407 E10.80005
G1 X124.070 Y84.986 E10.84348
G1 X123.739 Y85.546 E10.88692
G1 X123.458 Y85.960 E10.92033
G1 X123.458 Y86.142 E10.93251
G1 X123.458 Y86.202 F30000.000
G1 E8.93251 F2400.00000
G92 E0
G1 X129.114 Y104.114 F30000.000
G1 E2.00000 F2400.00000
G1 F2100
G1 X30.886 Y104.114 E8.56221
G1 X30.886 Y55.886 E11.78415
G1 X129.114 Y55.886 E18.34637
G1 X129.114 Y104.054 E21.56430
G1 X129.650 Y104.650 F30000.000
G1 F2100
G1 X30.350 Y104.650 E28.19808
G1 X30.350 Y55.350 E31.49159
G1 X129.650 Y55.350 E38.12536
G1 X129.650 Y104.590 E41.41486
G1 X129.255 Y104.589 F30000.000
G1 X128.522 Y103.636 F30000.000
G1 F2100
G1 X128.636 Y103.522 E41.42564
G1 X128.636 Y102.762 E41.47652
G1 X127.762 Y103.636 E41.55925
G1 X127.003 Y103.636 E41.61013
G1 X128.636 Y102.003 E41.76482
G1 X128.636 Y101.243 E41.81571
G1 X126.243 Y103.636 E42.04235
G1 X125.484 Y103.636 E42.09323
G1 X128.636 Y100.484 E42.39184
G1 X128.636 Y99.724 E42.44272
G1 X124.724 Y103.636 E42.81328
G1 X123.965 Y103.636 E42.86416
G1 X128.636 Y98.965 E43.30667
G1 X128.636 Y98.205 E43.35755
G1 X123.205 Y103.636 E43.87203
G1 X122.445 Y103.636 E43.92291
G1 X128.636 Y97.445 E44.50934
G1 X128.636 Y96.686 E44.56022
G1 X121.686 Y103.636 E45.21860
G1 X120.926 Y103.636 E45.26948
G1 X128.636 Y95.926 E45.99983
G1 X128.636 Y95.167 E46.05071
G1 X120.167 Y103.636 E46.85301
G1 X119.407 Y103.636 E46.90389
G1 X128.636 Y94.407 E47.77814
G1 X128.636 Y93.648 E47.82902
G1 X118.648 Y103.636 E48.77523
G1 X117.888 Y103.636 E48.82611
G1 X128.636 Y92.888 E49.84428
G1 X128.636 Y92.129 E49.89516
G1 X117.129 Y103.636 E50.98529
G1 X116.369 Y103.636 E51.03617
G1 X128.636 Y91.369 E52.19825
G1 X128.636 Y90.609 E52.24913
G1 X115.609 Y103.636 E53.48317
G1 X114.850 Y103.636 E53.53405
G1 X128.636 Y89.850 E54.84004
