; generated by Slic3r 1.3.0 on 2023-10-07 at 21:00:31

; external perimeters extrusion width = 0.44mm (2.78mm^3/s)
; perimeters extrusion width = 0.40mm (7.14mm^3/s)
; infill extrusion width = 0.50mm (10.97mm^3/s)
; solid infill extrusion width = 0.60mm (6.68mm^3/s)
; top infill extrusion width = 0.40mm (2.14mm^3/s)

M107
M190 S80 ; set bed temperature and wait for it to be reached
M104 S210 ; set temperature
G28 ; home all axes
G1 Z5 F5000 ; lift nozzle

; Filament gcode

M109 S210 ; set temperature and wait for it to be reached
G21 ; set units to millimeters
G90 ; use absolute coordinates
M82 ; use absolute distances for extrusion
G92 E0
G1 Z0.300 F30000.000
G1 E-2.00000 F2400.00000
G92 E0
G1 X62.259 Y63.115 F30000.000
G1 E2.00000 F2400.00000
G1 F2100
G1 X63.339 Y62.047 E2.10151
G1 X64.499 Y61.037 E2.20427
G1 X65.487 Y60.271 E2.28777
G1 X66.754 Y59.398 E2.39058
G1 X68.328 Y58.468 E2.51268
G1 X69.441 Y57.900 E2.59616
G1 X70.850 Y57.281 E2.69894
G1 X72.569 Y56.662 E2.82105
G1 X74.049 Y56.241 E2.92381
G1 X75.269 Y55.969 E3.00731
G1 X77.073 Y55.683 E3.12938
G1 X78.318 Y55.565 E3.21288
G1 X79.856 Y55.508 E3.31569
G1 X81.682 Y55.565 E3.43778
G1 X82.927 Y55.683 E3.52128
G1 X84.447 Y55.915 E3.62404
G1 X86.241 Y56.316 E3.74681
G1 X87.706 Y56.751 E3.84894
G1 X89.150 Y57.281 E3.95171
G1 X90.297 Y57.777 E4.03519
G1 X91.672 Y58.468 E4.13798
G1 X93.246 Y59.398 E4.26008
G1 X94.279 Y60.100 E4.34356
G1 X95.500 Y61.036 E4.44636
G1 X96.871 Y62.245 E4.56846
G1 X97.755 Y63.129 E4.65195
G1 X98.779 Y64.277 E4.75472
G1 X99.900 Y65.721 E4.87683
G1 X100.602 Y66.755 E4.96033
G1 X101.393 Y68.074 E5.06309
G1 X102.223 Y69.703 E5.18520
G1 X102.825 Y71.118 E5.28793
G1 X103.249 Y72.294 E5.37146
G1 X103.759 Y74.049 E5.49357
G1 X104.085 Y75.553 E5.59636
G1 X104.281 Y76.787 E5.67987
G1 X104.435 Y78.318 E5.78261
G1 X104.492 Y79.855 E5.88540
G1 X104.435 Y81.682 E6.00752
G1 X104.281 Y83.213 E6.11026
G1 X104.085 Y84.447 E6.19377
G1 X103.687 Y86.231 E6.31589
G1 X103.249 Y87.706 E6.41868
G1 X102.825 Y88.882 E6.50219
G1 X102.223 Y90.297 E6.60493
G1 X101.532 Y91.672 E6.70772
G1 X100.602 Y93.245 E6.82980
G1 X99.900 Y94.279 E6.91330
G1 X98.964 Y95.500 E7.01609
G1 X97.755 Y96.871 E7.13820
G1 X96.660 Y97.953 E7.24099
G1 X95.723 Y98.779 E7.32446
G1 X94.279 Y99.900 E7.44657
G1 X93.245 Y100.602 E7.53006
G1 X91.926 Y101.393 E7.63282
G1 X90.297 Y102.223 E7.75494
G1 X88.882 Y102.825 E7.85767
G1 X87.706 Y103.249 E7.94119
G1 X85.951 Y103.759 E8.06331
G1 X84.447 Y104.085 E8.16610
G1 X83.213 Y104.281 E8.24961
G1 X81.682 Y104.435 E8.35235
G1 X80.145 Y104.492 E8.45514
G1 X78.318 Y104.435 E8.57726
G1 X76.787 Y104.281 E8.68000
G1 X75.553 Y104.085 E8.76351
G1 X73.769 Y103.687 E8.88562
G1 X72.294 Y103.249 E8.98841
G1 X71.118 Y102.825 E9.07193
G1 X69.703 Y102.223 E9.17467
G1 X68.328 Y101.532 E9.27746
G1 X66.755 Y100.602 E9.39953
G1 X65.721 Y99.900 E9.48304
G1 X64.500 Y98.964 E9.58583
G1 X63.129 Y97.755 E9.70794
G1 X62.047 Y96.661 E9.81072
G1 X61.221 Y95.723 E9.89419
G1 X60.100 Y94.279 E10.01631
G1 X59.243 Y93.002 E10.11908
G1 X58.468 Y91.672 E10.22189
G1 X57.900 Y90.559 E10.30538
G1 X57.281 Y89.151 E10.40814
G1 X56.662 Y87.431 E10.53026
G1 X56.242 Y85.951 E10.63301
G1 X55.969 Y84.731 E10.71651
G1 X55.683 Y82.926 E10.83861
G1 X55.547 Y81.393 E10.94141
G1 X55.508 Y80.144 E11.02493
G1 X55.565 Y78.318 E11.14699
G1 X55.683 Y77.074 E11.23046
G1 X55.915 Y75.553 E11.33325
G1 X56.313 Y73.769 E11.45535
G1 X56.662 Y72.569 E11.53882
G1 X57.175 Y71.118 E11.64162
G1 X57.901 Y69.441 E11.76373
G1 X58.607 Y68.074 E11.86652
G1 X59.243 Y66.999 E11.94999
G1 X60.270 Y65.487 E12.07208
G1 X61.221 Y64.277 E12.17489
G1 X62.217 Y63.158 E12.27494
G1 X62.637 Y63.494 F30000.000
G1 F2100
G1 X63.694 Y62.449 E12.37420
G1 X64.828 Y61.460 E12.47472
G1 X65.815 Y60.694 E12.55822
G1 X67.056 Y59.841 E12.65878
G1 X68.571 Y58.945 E12.77638
G1 X69.684 Y58.378 E12.85986
G1 X71.062 Y57.773 E12.96040
G1 X72.719 Y57.176 E13.07801
G1 X74.166 Y56.764 E13.17853
G1 X75.385 Y56.492 E13.26202
G1 X77.124 Y56.216 E13.37961
G1 X78.368 Y56.099 E13.46310
G1 X79.872 Y56.043 E13.56367
G1 X81.632 Y56.099 E13.68127
G1 X82.876 Y56.216 E13.76476
G1 X84.363 Y56.444 E13.86527
G1 X86.081 Y56.828 E13.98288
G1 X87.525 Y57.255 E14.08343
G1 X88.938 Y57.773 E14.18396
G1 X90.085 Y58.269 E14.26744
G1 X91.429 Y58.945 E14.36799
G1 X92.944 Y59.841 E14.48560
G1 X93.978 Y60.543 E14.56907
G1 X95.172 Y61.460 E14.66962
G1 X96.493 Y62.624 E14.78723
G1 X97.376 Y63.507 E14.87072
G1 X98.377 Y64.631 E14.97124
G1 X99.457 Y66.022 E15.08886
G1 X100.159 Y67.056 E15.17236
G1 X100.932 Y68.347 E15.27287
G1 X101.731 Y69.915 E15.39049
G1 X102.321 Y71.299 E15.49098
G1 X102.745 Y72.475 E15.57450
G1 X103.236 Y74.166 E15.69212
G1 X103.556 Y75.637 E15.79266
G1 X103.752 Y76.871 E15.87616
G1 X103.901 Y78.368 E15.97667
G1 X103.957 Y79.872 E16.07721
G1 X103.901 Y81.632 E16.19483
G1 X103.752 Y83.129 E16.29533
G1 X103.556 Y84.363 E16.37884
G1 X103.172 Y86.082 E16.49646
G1 X102.745 Y87.525 E16.59700
G1 X102.321 Y88.701 E16.68051
G1 X101.731 Y90.085 E16.78101
G1 X101.055 Y91.429 E16.88155
G1 X100.159 Y92.944 E16.99914
G1 X99.457 Y93.978 E17.08264
G1 X98.540 Y95.172 E17.18318
G1 X97.376 Y96.493 E17.30080
G1 X96.493 Y97.376 E17.38426
G1 X95.369 Y98.377 E17.48481
G1 X93.978 Y99.457 E17.60243
G1 X92.944 Y100.159 E17.68592
G1 X91.653 Y100.932 E17.78643
G1 X90.085 Y101.731 E17.90405
G1 X88.701 Y102.321 E18.00455
G1 X87.525 Y102.745 E18.08806
G1 X85.834 Y103.236 E18.20568
G1 X84.363 Y103.556 E18.30622
G1 X83.129 Y103.752 E18.38973
G1 X81.632 Y103.901 E18.49023
G1 X80.128 Y103.957 E18.59077
G1 X78.368 Y103.901 E18.70839
G1 X76.871 Y103.752 E18.80890
G1 X75.637 Y103.556 E18.89240
G1 X73.918 Y103.172 E19.01002
G1 X72.475 Y102.745 E19.11056
G1 X71.299 Y102.321 E19.19408
G1 X69.915 Y101.731 E19.29457
G1 X68.571 Y101.055 E19.39511
G1 X67.056 Y100.159 E19.51270
G1 X66.022 Y99.457 E19.59620
G1 X64.828 Y98.540 E19.69674
G1 X63.507 Y97.376 E19.81436
G1 X62.449 Y96.306 E19.91489
G1 X61.623 Y95.369 E19.99837
G1 X60.694 Y94.185 E20.09891
G1 X59.847 Y92.953 E20.19877
G1 X58.945 Y91.429 E20.31707
G1 X58.378 Y90.316 E20.40057
G1 X57.773 Y88.938 E20.50108
G1 X57.176 Y87.281 E20.61870
G1 X56.764 Y85.834 E20.71921
G1 X56.492 Y84.615 E20.80271
G1 X56.216 Y82.876 E20.92032
G1 X56.083 Y81.377 E21.02087
G1 X56.043 Y80.127 E21.10438
G1 X56.099 Y78.368 E21.22196
G1 X56.216 Y77.124 E21.30542
G1 X56.444 Y75.637 E21.40596
G1 X56.828 Y73.918 E21.52358
G1 X57.176 Y72.719 E21.60705
G1 X57.679 Y71.300 E21.70759
G1 X58.378 Y69.684 E21.82521
G1 X58.945 Y68.571 E21.90868
G1 X59.704 Y67.271 E22.00922
G1 X60.694 Y65.815 E22.12682
G1 X61.623 Y64.631 E22.22738
G1 X62.596 Y63.537 E22.32519
G1 X63.016 Y63.873 F30000.000
G1 F2100
G1 X64.048 Y62.851 E22.42220
G1 X65.156 Y61.883 E22.52048
G1 X66.143 Y61.117 E22.60397
G1 X67.357 Y60.284 E22.70228
G1 X68.814 Y59.422 E22.81540
G1 X69.927 Y58.855 E22.89887
G1 X71.275 Y58.264 E22.99717
G1 X72.868 Y57.691 E23.11028
G1 X74.283 Y57.287 E23.20856
G1 X75.502 Y57.014 E23.29205
G1 X77.174 Y56.749 E23.40514
G1 X78.419 Y56.632 E23.48863
G1 X79.889 Y56.579 E23.58695
G1 X81.360 Y56.618 E23.68523
G1 X82.815 Y56.748 E23.78284
G1 X84.498 Y57.014 E23.89665
G1 X85.932 Y57.342 E23.99493
G1 X87.132 Y57.691 E24.07841
G1 X88.725 Y58.264 E24.19152
G1 X90.073 Y58.855 E24.28983
G1 X91.186 Y59.422 E24.37329
G1 X92.643 Y60.284 E24.48641
G1 X93.857 Y61.117 E24.58472
G1 X94.844 Y61.883 E24.66818
G1 X96.114 Y63.003 E24.78131
G1 X96.998 Y63.886 E24.86479
G1 X97.976 Y64.985 E24.96307
G1 X99.014 Y66.323 E25.07619
G1 X99.716 Y67.357 E25.15969
G1 X100.471 Y68.619 E25.25795
G1 X101.240 Y70.128 E25.37108
G1 X101.817 Y71.481 E25.46933
G1 X102.241 Y72.657 E25.55284
G1 X102.713 Y74.283 E25.66597
G1 X103.027 Y75.720 E25.76426
G1 X103.223 Y76.955 E25.84776
G1 X103.368 Y78.419 E25.94602
G1 X103.421 Y79.889 E26.04432
G1 X103.368 Y81.581 E26.15745
G1 X103.223 Y83.045 E26.25571
G1 X103.027 Y84.280 E26.33921
G1 X102.658 Y85.932 E26.45233
G1 X102.241 Y87.343 E26.55063
G1 X101.817 Y88.519 E26.63413
G1 X101.240 Y89.872 E26.73239
G1 X100.578 Y91.186 E26.83068
G1 X99.716 Y92.643 E26.94379
G1 X99.014 Y93.677 E27.02728
G1 X98.117 Y94.844 E27.12557
G1 X96.997 Y96.114 E27.23870
G1 X96.114 Y96.997 E27.32216
G1 X95.015 Y97.976 E27.42046
G1 X93.677 Y99.014 E27.53358
G1 X92.643 Y99.716 E27.61707
G1 X91.381 Y100.471 E27.71534
G1 X89.872 Y101.240 E27.82847
G1 X88.519 Y101.817 E27.92673
G1 X87.343 Y102.241 E28.01023
G1 X85.717 Y102.713 E28.12336
G1 X84.280 Y103.027 E28.22165
G1 X83.045 Y103.223 E28.30515
G1 X81.581 Y103.368 E28.40341
G1 X80.111 Y103.421 E28.50171
G1 X78.419 Y103.368 E28.61484
G1 X76.955 Y103.223 E28.71310
G1 X75.720 Y103.027 E28.79660
G1 X74.068 Y102.658 E28.90972
G1 X72.657 Y102.241 E29.00802
G1 X71.481 Y101.817 E29.09152
G1 X70.128 Y101.240 E29.18978
G1 X68.814 Y100.578 E29.28808
G1 X67.357 Y99.716 E29.40117
G1 X66.323 Y99.014 E29.48467
G1 X65.156 Y98.117 E29.58296
G1 X63.886 Y96.997 E29.69609
G1 X62.851 Y95.952 E29.79437
G1 X62.024 Y95.015 E29.87785
G1 X61.117 Y93.857 E29.97614
G1 X60.290 Y92.652 E30.07376
G1 X59.422 Y91.186 E30.18757
G1 X58.855 Y90.072 E30.27105
G1 X58.264 Y88.725 E30.36933
G1 X57.691 Y87.132 E30.48245
G1 X57.287 Y85.717 E30.58072
G1 X57.014 Y84.498 E30.66421
G1 X56.749 Y82.825 E30.77733
G1 X56.618 Y81.360 E30.87563
G1 X56.579 Y80.110 E30.95914
G1 X56.632 Y78.419 E31.07223
G1 X56.749 Y77.175 E31.15569
G1 X56.973 Y75.720 E31.25399
G1 X57.342 Y74.068 E31.36710
G1 X57.759 Y72.657 E31.46541
G1 X58.182 Y71.481 E31.54887
G1 X58.855 Y69.927 E31.66200
G1 X59.422 Y68.814 E31.74546
G1 X60.165 Y67.544 E31.84376
G1 X61.117 Y66.144 E31.95687
G1 X62.024 Y64.985 E32.05518
G1 X62.975 Y63.916 E32.15074
G1 E30.15074 F2400.00000
G92 E0
G1 X93.042 Y93.888 F30000.000
G1 E2.00000 F2400.00000
G1 F2100
G1 X92.144 Y94.679 E2.07996
G1 X91.198 Y95.413 E2.15991
G1 X90.208 Y96.086 E2.23987
G1 X89.178 Y96.695 E2.31982
G1 X88.112 Y97.238 E2.39976
G1 X87.004 Y97.717 E2.48040
G1 X85.887 Y98.119 E2.55969
G1 X84.738 Y98.453 E2.63964
G1 X83.570 Y98.714 E2.71960
G1 X82.388 Y98.901 E2.79955
G1 X81.196 Y99.014 E2.87951
G1 X80.000 Y99.051 E2.95946
G1 X78.804 Y99.014 E3.03942
G1 X77.612 Y98.901 E3.11938
G1 X76.430 Y98.714 E3.19933
G1 X75.262 Y98.453 E3.27929
G1 X74.113 Y98.119 E3.35924
G1 X72.987 Y97.714 E3.43920
G1 X71.888 Y97.238 E3.51915
G1 X70.822 Y96.695 E3.59911
G1 X69.792 Y96.086 E3.67906
G1 X68.802 Y95.413 E3.75902
G1 X67.856 Y94.679 E3.83897
G1 X66.958 Y93.888 E3.91893
G1 X66.112 Y93.042 E3.99888
G1 X65.321 Y92.144 E4.07884
G1 X64.587 Y91.198 E4.15880
G1 X63.914 Y90.208 E4.23875
G1 X63.305 Y89.178 E4.31871
G1 X62.762 Y88.112 E4.39866
G1 X62.286 Y87.013 E4.47862
G1 X61.881 Y85.887 E4.55856
G1 X61.545 Y84.728 E4.63919
G1 X61.286 Y83.570 E4.71848
G1 X61.099 Y82.388 E4.79844
G1 X60.986 Y81.196 E4.87839
G1 X60.949 Y80.000 E4.95835
G1 X60.986 Y78.804 E5.03830
G1 X61.099 Y77.612 E5.11826
G1 X61.286 Y76.430 E5.19821
G1 X61.547 Y75.262 E5.27817
G1 X61.881 Y74.113 E5.35813
G1 X62.286 Y72.987 E5.43808
G1 X62.762 Y71.888 E5.51804
G1 X63.305 Y70.822 E5.59799
G1 X63.914 Y69.792 E5.67795
G1 X64.587 Y68.802 E5.75790
G1 X65.321 Y67.856 E5.83786
G1 X66.105 Y66.966 E5.91715
G1 X66.959 Y66.112 E5.99778
G1 X67.856 Y65.321 E6.07772
G1 X68.776 Y64.607 E6.15553
G1 X69.792 Y63.914 E6.23767
G1 X70.822 Y63.305 E6.31758
G1 X71.888 Y62.762 E6.39754
G1 X72.987 Y62.286 E6.47750
G1 X74.113 Y61.881 E6.55745
G1 X75.262 Y61.547 E6.63741
G1 X76.430 Y61.286 E6.71736
G1 X77.612 Y61.099 E6.79732
G1 X78.804 Y60.986 E6.87726
G1 X80.010 Y60.949 E6.95789
G1 X81.196 Y60.986 E7.03718
G1 X82.388 Y61.099 E7.11714
G1 X83.570 Y61.286 E7.19709
G1 X84.738 Y61.547 E7.27705
G1 X85.887 Y61.881 E7.35700
G1 X87.004 Y62.283 E7.43629
G1 X88.112 Y62.762 E7.51693
G1 X89.178 Y63.305 E7.59687
G1 X90.208 Y63.914 E7.67682
G1 X91.198 Y64.587 E7.75678
G1 X92.144 Y65.321 E7.83674
G1 X93.042 Y66.112 E7.91669
G1 X93.888 Y66.958 E7.99665
G1 X94.679 Y67.856 E8.07660
G1 X95.413 Y68.802 E8.15656
G1 X96.086 Y69.792 E8.23651
G1 X96.695 Y70.822 E8.31647
G1 X97.238 Y71.888 E8.39642
G1 X97.714 Y72.987 E8.47638
G1 X98.119 Y74.113 E8.55633
G1 X98.453 Y75.262 E8.63629
G1 X98.714 Y76.430 E8.71624
G1 X98.901 Y77.612 E8.79620
G1 X99.014 Y78.804 E8.87616
G1 X99.051 Y80.000 E8.95611
G1 X99.014 Y81.196 E9.03607
G1 X98.901 Y82.388 E9.11602
G1 X98.714 Y83.570 E9.19598
G1 X98.453 Y84.738 E9.27593
G1 X98.119 Y85.887 E9.35589
G1 X97.714 Y87.013 E9.43584
G1 X97.238 Y88.112 E9.51580
G1 X96.695 Y89.178 E9.59575
G1 X96.086 Y90.208 E9.67571
G1 X95.413 Y91.198 E9.75567
G1 X94.679 Y92.144 E9.83562
G1 X93.888 Y93.042 E9.91558
G1 X93.084 Y93.845 E9.99152
G1 X93.396 Y94.290 F30000.000
G1 F2100
G1 X92.485 Y95.092 E10.07260
G1 X91.513 Y95.846 E10.15481
G1 X90.495 Y96.538 E10.23701
G1 X89.436 Y97.165 E10.31922
G1 X88.340 Y97.723 E10.40142
G1 X87.201 Y98.215 E10.48430
G1 X86.053 Y98.629 E10.56583
G1 X84.871 Y98.972 E10.64803
G1 X83.670 Y99.240 E10.73024
G1 X82.455 Y99.433 E10.81244
G1 X81.230 Y99.549 E10.89465
G1 X80.000 Y99.587 E10.97685
G1 X78.770 Y99.549 E11.05906
G1 X77.545 Y99.433 E11.14126
G1 X76.330 Y99.240 E11.22346
G1 X75.129 Y98.972 E11.30567
G1 X73.947 Y98.629 E11.38787
G1 X72.789 Y98.212 E11.47008
G1 X71.660 Y97.723 E11.55228
G1 X70.564 Y97.165 E11.63449
G1 X69.505 Y96.538 E11.71669
G1 X68.487 Y95.846 E11.79890
G1 X67.515 Y95.092 E11.88110
G1 X66.592 Y94.279 E11.96330
G1 X65.721 Y93.408 E12.04551
G1 X64.908 Y92.485 E12.12771
G1 X64.154 Y91.513 E12.20992
G1 X63.462 Y90.495 E12.29212
G1 X62.835 Y89.436 E12.37433
G1 X62.277 Y88.340 E12.45653
G1 X61.788 Y87.211 E12.53873
G1 X61.371 Y86.053 E12.62093
G1 X61.026 Y84.861 E12.70382
G1 X60.760 Y83.670 E12.78535
G1 X60.567 Y82.455 E12.86755
G1 X60.451 Y81.230 E12.94976
G1 X60.413 Y80.000 E13.03196
G1 X60.451 Y78.770 E13.11416
G1 X60.567 Y77.545 E13.19637
G1 X60.760 Y76.330 E13.27857
G1 X61.028 Y75.129 E13.36078
G1 X61.371 Y73.947 E13.44298
G1 X61.788 Y72.789 E13.52519
G1 X62.277 Y71.660 E13.60739
G1 X62.835 Y70.564 E13.68960
G1 X63.462 Y69.505 E13.77180
G1 X64.154 Y68.487 E13.85400
G1 X64.908 Y67.515 E13.93621
G1 X65.715 Y66.599 E14.01774
G1 X66.592 Y65.721 E14.10062
G1 X67.515 Y64.908 E14.18282
G1 X68.461 Y64.173 E14.26285
G1 X69.505 Y63.462 E14.34724
G1 X70.564 Y62.835 E14.42943
G1 X71.660 Y62.277 E14.51163
G1 X72.789 Y61.788 E14.59384
G1 X73.947 Y61.371 E14.67604
G1 X75.129 Y61.028 E14.75825
G1 X76.330 Y60.760 E14.84045
G1 X77.545 Y60.567 E14.92266
G1 X78.770 Y60.451 E15.00486
G1 X80.010 Y60.413 E15.08774
G1 X81.230 Y60.451 E15.16927
G1 X82.455 Y60.567 E15.25147
G1 X83.670 Y60.760 E15.33368
G1 X84.871 Y61.028 E15.41588
G1 X86.053 Y61.371 E15.49809
G1 X87.201 Y61.785 E15.57961
G1 X88.340 Y62.277 E15.66250
G1 X89.436 Y62.835 E15.74470
G1 X90.495 Y63.462 E15.82690
G1 X91.513 Y64.154 E15.90911
G1 X92.485 Y64.908 E15.99131
G1 X93.408 Y65.721 E16.07352
G1 X94.279 Y66.592 E16.15572
G1 X95.092 Y67.515 E16.23793
G1 X95.846 Y68.487 E16.32013
G1 X96.538 Y69.505 E16.40233
G1 X97.165 Y70.564 E16.48454
G1 X97.723 Y71.660 E16.56674
G1 X98.212 Y72.789 E16.64895
G1 X98.629 Y73.947 E16.73115
G1 X98.972 Y75.129 E16.81336
G1 X99.240 Y76.330 E16.89556
G1 X99.433 Y77.545 E16.97776
G1 X99.549 Y78.770 E17.05997
G1 X99.587 Y80.000 E17.14217
G1 X99.549 Y81.230 E17.22438
G1 X99.433 Y82.455 E17.30658
G1 X99.240 Y83.670 E17.38879
G1 X98.972 Y84.871 E17.47099
G1 X98.629 Y86.053 E17.55320
G1 X98.212 Y87.211 E17.63540
G1 X97.723 Y88.340 E17.71760
G1 X97.165 Y89.436 E17.79981
G1 X96.538 Y90.495 E17.88201
G1 X95.846 Y91.513 E17.96422
G1 X95.092 Y92.485 E18.04642
G1 X94.279 Y93.408 E18.12863
G1 X93.439 Y94.248 E18.20795
G1 X93.013 Y94.174 F30000.000
G1 X92.617 Y93.555 F30000.000
G1 F2100
G1 X93.555 Y92.617 E18.29673
G1 X94.323 Y91.745 E18.37445
G1 X95.036 Y90.826 E18.45227
G1 X95.690 Y89.864 E18.53009
G1 X95.894 Y89.519 E18.55692
G1 X89.519 Y95.894 E19.16012
G1 X88.863 Y96.282 E19.21110
G1 X87.863 Y96.792 E19.28621
G1 X96.792 Y87.863 E20.13103
G1 X97.348 Y86.548 E20.22657
G1 X86.548 Y97.348 E21.24848
G1 X85.665 Y97.666 E21.31127
G1 X85.392 Y97.745 E21.33027
G1 X97.745 Y85.392 E22.49911
G1 X98.037 Y84.342 E22.57200
G1 X84.342 Y98.037 E23.86773
G1 X83.369 Y98.251 E23.93441
G1 X98.251 Y83.369 E25.34255
