; generated by Slic3r 1.3.0 on 2023-10-07 at 22:40:05

; external perimeters extrusion width = 0.44mm (2.78mm^3/s)
; perimeters extrusion width = 0.40mm (7.14mm^3/s)
; infill extrusion width = 0.50mm (10.97mm^3/s)
; solid infill extrusion width = 0.60mm (6.68mm^3/s)
; top infill extrusion width = 0.40mm (2.14mm^3/s)

M107
M190 S80 ; set bed temperature and wait for it to be reached
M104 S210 ; set temperature
G28 ; home all axes
G1 Z5 F5000 ; lift nozzle

; Filament gcode

M109 S210 ; set temperature and wait for it to be reached
G21 ; set units to millimeters
G90 ; use absolute coordinates
M82 ; use absolute distances for extrusion
G92 E0
G1 Z0.300 F30000.000
G1 E-2.00000 F2400.00000
G92 E0
G1 X63.279 Y63.076 F30000.000
G1 E2.00000 F2400.00000
G1 F2100
G1 X64.312 Y62.058 E2.09691
G1 X65.157 Y61.312 E2.17224
G1 X66.297 Y60.415 E2.26915
G1 X67.491 Y59.591 E2.36605
G1 X68.735 Y58.844 E2.46296
G1 X70.023 Y58.176 E2.55986
G1 X71.650 Y57.472 E2.67834
G1 X73.018 Y56.990 E2.77525
G1 X74.101 Y56.676 E2.85059
G1 X75.515 Y56.349 E2.94750
G1 X76.946 Y56.112 E3.04441
G1 X78.389 Y55.966 E3.14130
G1 X79.798 Y55.911 E3.23548
G1 X81.611 Y55.966 E3.35668
G1 X82.734 Y56.072 E3.43201
G1 X84.168 Y56.289 E3.52892
G1 X85.586 Y56.595 E3.62583
G1 X86.982 Y56.990 E3.72274
G1 X88.350 Y57.472 E3.81964
G1 X89.685 Y58.039 E3.91654
G1 X91.265 Y58.844 E4.03502
G1 X92.509 Y59.591 E4.13192
G1 X93.703 Y60.415 E4.22883
G1 X94.594 Y61.106 E4.30416
G1 X95.688 Y62.058 E4.40107
G1 X96.721 Y63.076 E4.49798
G1 X97.688 Y64.157 E4.59488
G1 X98.775 Y65.559 E4.71336
G1 X99.409 Y66.491 E4.78869
G1 X100.156 Y67.735 E4.88560
G1 X100.961 Y69.315 E5.00407
G1 X101.528 Y70.650 E5.10098
G1 X102.010 Y72.018 E5.19787
G1 X102.405 Y73.414 E5.29479
G1 X102.651 Y74.515 E5.37013
G1 X102.932 Y76.307 E5.49131
G1 X103.054 Y77.711 E5.58550
G1 X103.090 Y79.162 E5.68241
G1 X103.054 Y80.289 E5.75774
G1 X102.928 Y81.734 E5.85465
G1 X102.651 Y83.485 E5.97312
G1 X102.324 Y84.899 E6.07003
G1 X102.010 Y85.982 E6.14536
G1 X101.409 Y87.650 E6.26384
G1 X100.824 Y88.977 E6.36075
G1 X100.156 Y90.265 E6.45764
G1 X99.582 Y91.236 E6.53299
G1 X98.736 Y92.497 E6.63445
G1 X92.164 Y101.897 E7.40064
G1 X90.706 Y103.292 E7.53548
G1 X87.950 Y104.092 E7.72719
G1 X72.050 Y104.092 E8.78940
G1 X70.071 Y103.696 E8.92424
G1 X67.836 Y101.897 E9.11595
G1 X61.225 Y92.441 E9.88670
G1 X60.418 Y91.236 E9.98360
G1 X59.844 Y90.265 E10.05894
G1 X59.176 Y88.977 E10.15584
G1 X58.472 Y87.350 E10.27431
G1 X57.990 Y85.982 E10.37121
G1 X57.676 Y84.899 E10.44656
G1 X57.289 Y83.168 E10.56503
G1 X57.072 Y81.734 E10.66192
G1 X56.966 Y80.611 E10.73727
G1 X56.910 Y78.839 E10.85574
G1 X56.966 Y77.389 E10.95266
G1 X57.112 Y75.946 E11.04955
G1 X57.289 Y74.832 E11.12489
G1 X57.676 Y73.102 E11.24336
G1 X58.090 Y71.711 E11.34028
G1 X58.472 Y70.650 E11.41561
G1 X59.039 Y69.315 E11.51252
G1 X59.688 Y68.018 E11.60942
G1 X60.591 Y66.491 E11.72790
G1 X61.225 Y65.559 E11.80323
G1 X62.106 Y64.406 E11.90014
G1 X63.238 Y63.120 E12.01461
G1 X63.657 Y63.455 F30000.000
G1 F2100
G1 X64.666 Y62.459 E12.10927
G1 X65.735 Y61.529 E12.20392
G1 X66.626 Y60.838 E12.27926
G1 X67.792 Y60.034 E12.37392
G1 X69.007 Y59.305 E12.46858
G1 X70.266 Y58.654 E12.56324
G1 X71.832 Y57.976 E12.67722
G1 X72.893 Y57.594 E12.75255
G1 X74.251 Y57.190 E12.84722
G1 X75.632 Y56.872 E12.94188
G1 X77.030 Y56.641 E13.03654
G1 X78.439 Y56.499 E13.13119
G1 X79.815 Y56.447 E13.22312
G1 X81.561 Y56.499 E13.33982
G1 X82.683 Y56.605 E13.41516
G1 X84.084 Y56.818 E13.50982
G1 X85.469 Y57.118 E13.60448
G1 X86.832 Y57.505 E13.69914
G1 X88.168 Y57.976 E13.79380
G1 X89.472 Y58.530 E13.88845
G1 X90.739 Y59.166 E13.98312
G1 X91.963 Y59.879 E14.07777
G1 X93.374 Y60.838 E14.19175
G1 X94.488 Y61.714 E14.28641
G1 X95.545 Y62.657 E14.38107
G1 X96.343 Y63.455 E14.45641
G1 X97.286 Y64.512 E14.55106
G1 X98.162 Y65.626 E14.64572
G1 X98.966 Y66.792 E14.74038
G1 X99.834 Y68.261 E14.85437
G1 X100.346 Y69.266 E14.92970
G1 X100.917 Y70.563 E15.02436
G1 X101.507 Y72.207 E15.14105
G1 X101.882 Y73.531 E15.23299
G1 X102.182 Y74.916 E15.32765
G1 X102.395 Y76.317 E15.42230
G1 X102.501 Y77.439 E15.49765
G1 X102.555 Y79.145 E15.61163
G1 X102.501 Y80.561 E15.70629
G1 X102.359 Y81.970 E15.80093
G1 X102.182 Y83.084 E15.87628
G1 X101.882 Y84.469 E15.97094
G1 X101.495 Y85.832 E16.06560
G1 X100.917 Y87.437 E16.17958
G1 X100.346 Y88.734 E16.27424
G1 X99.695 Y89.992 E16.36889
G1 X99.121 Y90.963 E16.44423
G1 X98.297 Y92.191 E16.54298
G1 X91.726 Y101.590 E17.30916
G1 X90.331 Y102.894 E17.43671
G1 X87.950 Y103.557 E17.60182
G1 X72.050 Y103.557 E18.66403
G1 X70.182 Y103.161 E18.79158
G1 X68.274 Y101.590 E18.95669
G1 X61.703 Y92.191 E19.72288
G1 X61.034 Y91.208 E19.80230
G1 X60.305 Y89.993 E19.89695
G1 X59.530 Y88.472 E20.01094
G1 X58.976 Y87.168 E20.10559
G1 X58.594 Y86.107 E20.18093
G1 X58.118 Y84.469 E20.29491
G1 X57.818 Y83.084 E20.38957
G1 X57.605 Y81.684 E20.48421
G1 X57.499 Y80.561 E20.55956
G1 X57.445 Y78.855 E20.67354
G1 X57.499 Y77.439 E20.76820
G1 X57.641 Y76.030 E20.86285
G1 X57.818 Y74.916 E20.93820
G1 X58.190 Y73.251 E21.05216
G1 X58.608 Y71.854 E21.14956
G1 X59.083 Y70.563 E21.24149
G1 X59.530 Y69.528 E21.31683
G1 X60.166 Y68.261 E21.41148
G1 X61.034 Y66.792 E21.52547
G1 X61.668 Y65.860 E21.60080
G1 X62.529 Y64.735 E21.69546
G1 X63.616 Y63.499 E21.80543
G1 X64.036 Y63.834 F30000.000
G1 F2100
G1 X64.834 Y63.036 E21.88077
G1 X65.866 Y62.115 E21.97318
G1 X66.954 Y61.261 E22.06559
G1 X68.094 Y60.477 E22.15800
G1 X69.280 Y59.766 E22.25042
G1 X70.509 Y59.131 E22.34283
G1 X72.013 Y58.480 E22.45232
G1 X73.074 Y58.098 E22.52765
G1 X74.400 Y57.704 E22.62007
G1 X75.749 Y57.395 E22.71248
G1 X77.114 Y57.170 E22.80490
G1 X78.490 Y57.032 E22.89730
G1 X79.831 Y56.982 E22.98698
G1 X81.510 Y57.032 E23.09919
G1 X82.887 Y57.170 E23.19160
G1 X84.000 Y57.347 E23.26694
G1 X85.352 Y57.641 E23.35936
G1 X86.683 Y58.019 E23.45177
G1 X87.987 Y58.480 E23.54418
G1 X89.260 Y59.022 E23.63659
G1 X90.496 Y59.643 E23.72900
G1 X91.691 Y60.340 E23.82141
G1 X93.046 Y61.261 E23.93090
G1 X94.134 Y62.115 E24.02331
G1 X95.166 Y63.036 E24.11572
G1 X96.139 Y64.020 E24.20814
G1 X97.048 Y65.063 E24.30055
G1 X97.739 Y65.954 E24.37588
G1 X98.523 Y67.094 E24.46829
G1 X99.357 Y68.504 E24.57778
G1 X99.869 Y69.509 E24.65311
G1 X100.426 Y70.775 E24.74553
G1 X100.992 Y72.357 E24.85774
G1 X101.359 Y73.648 E24.94742
G1 X101.653 Y75.000 E25.03983
G1 X101.862 Y76.367 E25.13224
G1 X101.968 Y77.490 E25.20758
G1 X102.019 Y79.128 E25.31707
G1 X101.968 Y80.510 E25.40948
G1 X101.830 Y81.886 E25.50188
G1 X101.653 Y83.000 E25.57722
G1 X101.359 Y84.352 E25.66964
G1 X100.981 Y85.683 E25.76205
G1 X100.426 Y87.225 E25.87153
G1 X99.869 Y88.491 E25.96395
G1 X99.234 Y89.720 E26.05635
G1 X98.660 Y90.691 E26.13169
G1 X97.858 Y91.884 E26.22772
G1 X91.287 Y101.283 E26.99390
G1 X89.960 Y102.490 E27.11372
G1 X87.950 Y103.021 E27.25262
G1 X72.050 Y103.021 E28.31483
G1 X70.300 Y102.626 E28.43465
G1 X68.713 Y101.283 E28.57355
G1 X62.142 Y91.884 E29.33974
G1 X61.477 Y90.906 E29.41868
G1 X60.643 Y89.496 E29.52817
G1 X60.022 Y88.260 E29.62058
G1 X59.466 Y86.948 E29.71572
G1 X59.019 Y85.683 E29.80539
G1 X58.704 Y84.600 E29.88073
G1 X58.347 Y83.000 E29.99022
G1 X58.138 Y81.633 E30.08262
G1 X58.032 Y80.510 E30.15797
G1 X57.981 Y78.872 E30.26745
G1 X58.032 Y77.490 E30.35987
G1 X58.170 Y76.114 E30.45227
G1 X58.347 Y75.000 E30.52761
G1 X58.704 Y73.400 E30.63709
G1 X59.098 Y72.074 E30.72951
G1 X59.480 Y71.013 E30.80484
G1 X60.022 Y69.740 E30.89726
G1 X60.643 Y68.504 E30.98967
G1 X61.477 Y67.094 E31.09916
G1 X62.111 Y66.161 E31.17449
G1 X62.952 Y65.063 E31.26690
G1 X63.995 Y63.877 E31.37238
G1 X64.415 Y64.212 F30000.000
G1 F2100
G1 X65.374 Y63.263 E31.46255
G1 X66.391 Y62.376 E31.55271
G1 X67.282 Y61.684 E31.62805
G1 X68.395 Y60.920 E31.71821
G1 X69.553 Y60.227 E31.80838
G1 X70.752 Y59.608 E31.89854
G1 X72.195 Y58.984 E32.00354
G1 X73.256 Y58.602 E32.07887
G1 X74.550 Y58.219 E32.16904
G1 X75.865 Y57.917 E32.25921
G1 X77.197 Y57.699 E32.34937
G1 X78.540 Y57.566 E32.43953
G1 X79.848 Y57.517 E32.52697
G1 X81.460 Y57.566 E32.63468
G1 X82.582 Y57.672 E32.71002
G1 X83.917 Y57.876 E32.80018
G1 X85.235 Y58.164 E32.89035
G1 X86.533 Y58.533 E32.98052
G1 X87.806 Y58.984 E33.07068
G1 X89.047 Y59.514 E33.16084
G1 X90.253 Y60.120 E33.25101
G1 X91.418 Y60.801 E33.34117
G1 X92.718 Y61.684 E33.44617
G1 X93.780 Y62.517 E33.53633
G1 X94.788 Y63.415 E33.62650
G1 X95.585 Y64.212 E33.70183
G1 X96.483 Y65.220 E33.79199
G1 X97.316 Y66.282 E33.88216
G1 X98.080 Y67.395 E33.97232
G1 X98.880 Y68.747 E34.07732
G1 X99.392 Y69.752 E34.15265
G1 X99.934 Y70.988 E34.24282
G1 X100.478 Y72.506 E34.35052
G1 X100.836 Y73.765 E34.43797
G1 X101.124 Y75.083 E34.52814
G1 X101.328 Y76.417 E34.61829
G1 X101.434 Y77.540 E34.69363
G1 X101.484 Y79.111 E34.79863
G1 X101.434 Y80.460 E34.88879
G1 X101.301 Y81.803 E34.97895
G1 X101.124 Y82.917 E35.05429
G1 X100.837 Y84.235 E35.14446
G1 X100.467 Y85.533 E35.23462
G1 X99.934 Y87.012 E35.33961
G1 X99.392 Y88.248 E35.42978
G1 X98.773 Y89.447 E35.51994
G1 X98.199 Y90.418 E35.59528
G1 X97.419 Y91.577 E35.68858
G1 X90.848 Y100.976 E36.45476
G1 X89.595 Y102.080 E36.56632
G1 X87.950 Y102.486 E36.67949
G1 X72.050 Y102.486 E37.74169
G1 X70.427 Y102.091 E37.85325
G1 X69.152 Y100.976 E37.96641
G1 X62.581 Y91.577 E38.73260
G1 X61.920 Y90.605 E38.81106
G1 X61.120 Y89.253 E38.91606
G1 X60.497 Y88.009 E39.00895
G1 X59.984 Y86.806 E39.09638
G1 X59.602 Y85.744 E39.17172
G1 X59.163 Y84.235 E39.27671
G1 X58.876 Y82.917 E39.36688
G1 X58.672 Y81.583 E39.45703
G1 X58.566 Y80.460 E39.53238
G1 X58.516 Y78.889 E39.63737
G1 X58.566 Y77.540 E39.72754
G1 X58.699 Y76.197 E39.81769
G1 X58.876 Y75.083 E39.89303
G1 X59.219 Y73.550 E39.99802
G1 X59.602 Y72.256 E40.08819
G1 X59.984 Y71.195 E40.16353
G1 X60.514 Y69.953 E40.25369
G1 X61.120 Y68.747 E40.34386
G1 X61.920 Y67.395 E40.44885
G1 X62.554 Y66.462 E40.52418
G1 X63.376 Y65.391 E40.61435
G1 X64.374 Y64.256 E40.71534
G1 E38.71534 F2400.00000
G92 E0
G1 X88.552 Y87.530 F30000.000
G1 E2.00000 F2400.00000
G1 F2100
G1 X88.274 Y87.810 E2.02634
G1 X87.704 Y88.312 E2.07713
G1 X87.103 Y88.778 E2.12792
G1 X86.451 Y89.219 E2.18051
G1 X85.823 Y89.591 E2.22929
G1 X85.145 Y89.936 E2.28008
G1 X84.422 Y90.247 E2.33267
G1 X83.735 Y90.495 E2.38146
G1 X83.005 Y90.707 E2.43225
G1 X82.236 Y90.877 E2.48484
G1 X81.515 Y90.991 E2.53363
G1 X80.758 Y91.062 E2.58442
G1 X79.971 Y91.085 E2.63700
G1 X79.241 Y91.062 E2.68579
G1 X78.484 Y90.991 E2.73658
G1 X77.707 Y90.866 E2.78917
G1 X76.994 Y90.706 E2.83796
G1 X76.265 Y90.495 E2.88868
G1 X75.551 Y90.237 E2.93940
G1 X74.854 Y89.936 E2.99013
G1 X74.177 Y89.591 E3.04085
G1 X73.524 Y89.205 E3.09157
G1 X72.895 Y88.777 E3.14236
G1 X72.274 Y88.293 E3.19495
G1 X71.727 Y87.810 E3.24374
G1 X71.190 Y87.273 E3.29446
G1 X70.688 Y86.704 E3.34518
G1 X70.222 Y86.104 E3.39591
G1 X69.795 Y85.476 E3.44663
G1 X69.409 Y84.823 E3.49735
G1 X69.064 Y84.146 E3.54807
G1 X68.763 Y83.449 E3.59880
G1 X68.505 Y82.735 E3.64952
G1 X68.294 Y82.006 E3.70024
G1 X68.128 Y81.265 E3.75097
G1 X68.014 Y80.543 E3.79976
G1 X67.938 Y79.760 E3.85234
G1 X67.914 Y79.000 E3.90313
G1 X67.938 Y78.241 E3.95385
G1 X68.009 Y77.485 E4.00458
G1 X68.128 Y76.735 E4.05530
G1 X68.294 Y75.994 E4.10602
G1 X68.505 Y75.265 E4.15675
G1 X68.763 Y74.551 E4.20747
G1 X69.064 Y73.854 E4.25819
G1 X69.409 Y73.177 E4.30892
G1 X69.795 Y72.524 E4.35964
G1 X70.222 Y71.896 E4.41036
G1 X70.670 Y71.319 E4.45915
G1 X71.189 Y70.727 E4.51174
G1 X71.727 Y70.190 E4.56253
G1 X72.296 Y69.688 E4.61325
G1 X72.896 Y69.222 E4.66397
G1 X73.524 Y68.795 E4.71470
G1 X74.177 Y68.409 E4.76542
G1 X74.854 Y68.064 E4.81614
G1 X75.551 Y67.763 E4.86686
G1 X76.265 Y67.505 E4.91759
G1 X76.994 Y67.294 E4.96831
G1 X77.735 Y67.128 E5.01903
G1 X78.486 Y67.009 E5.06982
G1 X79.270 Y66.937 E5.12241
G1 X79.997 Y66.914 E5.17097
G1 X80.674 Y66.930 E5.21624
G1 X81.515 Y67.009 E5.27266
G1 X82.265 Y67.128 E5.32338
G1 X83.006 Y67.294 E5.37410
G1 X83.735 Y67.505 E5.42483
G1 X84.449 Y67.763 E5.47555
G1 X85.146 Y68.064 E5.52627
G1 X85.823 Y68.409 E5.57700
G1 X86.477 Y68.796 E5.62778
G1 X87.127 Y69.240 E5.68037
G1 X87.704 Y69.688 E5.72916
G1 X88.273 Y70.190 E5.77988
G1 X88.810 Y70.727 E5.83061
G1 X89.312 Y71.296 E5.88133
G1 X89.778 Y71.896 E5.93205
G1 X90.205 Y72.524 E5.98278
G1 X90.591 Y73.177 E6.03350
G1 X90.936 Y73.854 E6.08422
G1 X91.237 Y74.551 E6.13494
G1 X91.485 Y75.238 E6.18373
G1 X91.706 Y75.993 E6.23632
G1 X91.872 Y76.735 E6.28711
G1 X91.991 Y77.485 E6.33783
G1 X92.062 Y78.241 E6.38856
G1 X92.086 Y79.000 E6.43928
G1 X92.062 Y79.759 E6.49000
G1 X91.991 Y80.515 E6.54072
G1 X91.872 Y81.265 E6.59145
G1 X91.713 Y81.977 E6.64024
G1 X91.495 Y82.734 E6.69282
G1 X91.237 Y83.449 E6.74361
G1 X90.936 Y84.146 E6.79434
G1 X90.591 Y84.823 E6.84506
G1 X90.205 Y85.476 E6.89578
G1 X89.778 Y86.104 E6.94650
G1 X89.312 Y86.704 E6.99723
G1 X88.830 Y87.252 E7.04602
G1 X88.595 Y87.488 E7.06825
G1 X88.173 Y87.152 F30000.000
G1 F2100
G1 X87.907 Y87.419 E7.09343
G1 X87.362 Y87.900 E7.14193
G1 X86.789 Y88.345 E7.19042
G1 X86.165 Y88.767 E7.24076
G1 X85.564 Y89.121 E7.28734
G1 X84.918 Y89.451 E7.33584
G1 X84.225 Y89.749 E7.38618
G1 X83.569 Y89.985 E7.43276
G1 X82.872 Y90.187 E7.48126
G1 X82.136 Y90.350 E7.53160
G1 X81.448 Y90.459 E7.57818
G1 X80.725 Y90.527 E7.62668
G1 X79.972 Y90.549 E7.67702
G1 X79.275 Y90.527 E7.72360
G1 X78.552 Y90.459 E7.77210
G1 X77.808 Y90.339 E7.82243
G1 X77.128 Y90.187 E7.86902
G1 X76.431 Y89.985 E7.91749
G1 X75.748 Y89.739 E7.96596
G1 X75.082 Y89.451 E8.01444
G1 X74.436 Y89.121 E8.06291
G1 X73.811 Y88.752 E8.11139
G1 X73.211 Y88.344 E8.15988
G1 X72.616 Y87.881 E8.21022
G1 X72.093 Y87.420 E8.25681
G1 X71.580 Y86.907 E8.30528
G1 X71.100 Y86.362 E8.35375
G1 X70.656 Y85.789 E8.40223
G1 X70.248 Y85.189 E8.45070
G1 X69.879 Y84.564 E8.49917
G1 X69.549 Y83.918 E8.54765
G1 X69.261 Y83.252 E8.59612
G1 X69.015 Y82.569 E8.64460
G1 X68.813 Y81.872 E8.69307
G1 X68.654 Y81.164 E8.74154
G1 X68.545 Y80.476 E8.78813
G1 X68.473 Y79.726 E8.83847
G1 X68.450 Y79.000 E8.88696
G1 X68.473 Y78.275 E8.93544
G1 X68.541 Y77.552 E8.98391
G1 X68.654 Y76.836 E9.03238
G1 X68.813 Y76.128 E9.08086
G1 X69.015 Y75.431 E9.12933
G1 X69.261 Y74.748 E9.17781
G1 X69.549 Y74.082 E9.22628
G1 X69.879 Y73.436 E9.27475
G1 X70.248 Y72.811 E9.32323
G1 X70.656 Y72.211 E9.37170
G1 X71.083 Y71.660 E9.41829
G1 X71.580 Y71.094 E9.46862
G1 X72.093 Y70.580 E9.51712
G1 X72.638 Y70.100 E9.56559
G1 X73.211 Y69.656 E9.61407
G1 X73.811 Y69.248 E9.66254
G1 X74.436 Y68.879 E9.71102
G1 X75.082 Y68.549 E9.75949
G1 X75.748 Y68.261 E9.80796
G1 X76.431 Y68.015 E9.85644
G1 X77.128 Y67.813 E9.90491
G1 X77.836 Y67.654 E9.95339
G1 X78.553 Y67.541 E10.00188
G1 X79.303 Y67.472 E10.05222
G1 X79.999 Y67.450 E10.09872
G1 X80.643 Y67.465 E10.14174
G1 X81.448 Y67.541 E10.19577
G1 X82.164 Y67.654 E10.24424
G1 X82.872 Y67.813 E10.29271
G1 X83.569 Y68.015 E10.34119
G1 X84.252 Y68.261 E10.38966
G1 X84.918 Y68.549 E10.43813
G1 X85.564 Y68.879 E10.48661
G1 X86.189 Y69.248 E10.53511
G1 X86.811 Y69.673 E10.58544
G1 X87.362 Y70.100 E10.63203
G1 X87.907 Y70.580 E10.68050
G1 X88.420 Y71.093 E10.72898
G1 X88.900 Y71.638 E10.77745
G1 X89.344 Y72.211 E10.82592
G1 X89.752 Y72.811 E10.87440
G1 X90.121 Y73.436 E10.92287
G1 X90.451 Y74.082 E10.97135
G1 X90.739 Y74.748 E11.01982
G1 X90.975 Y75.404 E11.06640
G1 X91.187 Y76.127 E11.11674
G1 X91.346 Y76.836 E11.16524
G1 X91.459 Y77.552 E11.21371
G1 X91.527 Y78.275 E11.26219
G1 X91.550 Y79.000 E11.31066
G1 X91.527 Y79.725 E11.35913
G1 X91.459 Y80.448 E11.40761
G1 X91.346 Y81.164 E11.45608
G1 X91.193 Y81.845 E11.50266
G1 X90.985 Y82.569 E11.55300
G1 X90.739 Y83.252 E11.60150
G1 X90.451 Y83.918 E11.64997
G1 X90.121 Y84.564 E11.69845
G1 X89.752 Y85.189 E11.74692
G1 X89.344 Y85.789 E11.79540
G1 X88.900 Y86.362 E11.84387
G1 X88.438 Y86.885 E11.89045
G1 X88.215 Y87.110 E11.91161
G1 X88.276 Y87.515 F30000.000
G1 E9.91161 F2400.00000
G92 E0
G1 X87.114 Y98.114 F30000.000
G1 E2.00000 F2400.00000
G1 F2100
G1 X72.886 Y98.114 E2.95056
G1 X72.886 Y94.573 E3.18714
G1 X71.755 Y93.997 E3.27189
G1 X70.830 Y93.450 E3.34372
G1 X69.941 Y92.845 E3.41554
G1 X69.091 Y92.187 E3.48736
G1 X68.285 Y91.476 E3.55919
