; generated by Slic3r 1.3.0 on 2023-10-07 at 18:18:11

; external perimeters extrusion width = 0.44mm (2.78mm^3/s)
; perimeters extrusion width = 0.40mm (7.14mm^3/s)
; infill extrusion width = 0.50mm (10.97mm^3/s)
; solid infill extrusion width = 0.60mm (6.68mm^3/s)
; top infill extrusion width = 0.40mm (2.14mm^3/s)
; support material extrusion width = 0.44mm (6.35mm^3/s)

M107
M190 S80 ; set bed temperature and wait for it to be reached
M104 S210 ; set temperature
G28 ; home all axes
G1 Z5 F5000 ; lift nozzle

; Filament gcode

M109 S210 ; set temperature and wait for it to be reached
G21 ; set units to millimeters
G90 ; use absolute coordinates
M82 ; use absolute distances for extrusion
G92 E0
G1 Z0.300 F30000.000
G1 E-2.00000 F2400.00000
G92 E0
G1 X66.198 Y66.811 F30000.000
G1 E2.00000 F2400.00000
G1 F2100
G1 X67.050 Y65.973 E2.07983
G1 X67.708 Y65.394 E2.13842
G1 X68.649 Y64.651 E2.21850
G1 X69.631 Y63.971 E2.29828
G1 X70.945 Y63.194 E2.40031
G1 X71.726 Y62.796 E2.45886
G1 X72.822 Y62.310 E2.53897
G1 X74.255 Y61.794 E2.64066
G1 X75.409 Y61.470 E2.72078
G1 X76.264 Y61.278 E2.77932
G1 X77.768 Y61.040 E2.88101
G1 X78.641 Y60.958 E2.93962
G1 X79.838 Y60.910 E3.01968
G1 X81.360 Y60.958 E3.12136
G1 X82.233 Y61.040 E3.17998
G1 X83.418 Y61.218 E3.26003
G1 X84.904 Y61.550 E3.36172
G1 X85.746 Y61.795 E3.42028
G1 X86.877 Y62.191 E3.50040
G1 X87.982 Y62.658 E3.58050
G1 X89.055 Y63.194 E3.66062
G1 X90.365 Y63.968 E3.76231
G1 X91.090 Y64.461 E3.82086
G1 X92.044 Y65.188 E3.90098
G1 X93.186 Y66.195 E4.00267
G1 X93.805 Y66.814 E4.06121
G1 X94.606 Y67.707 E4.14133
G1 X95.539 Y68.910 E4.24300
G1 X96.032 Y69.635 E4.30156
G1 X96.651 Y70.662 E4.38168
G1 X97.342 Y72.018 E4.48337
G1 X97.809 Y73.122 E4.56346
G1 X98.106 Y73.947 E4.62204
G1 X98.530 Y75.409 E4.72373
G1 X98.782 Y76.581 E4.80384
G1 X98.919 Y77.447 E4.86239
G1 X99.042 Y78.640 E4.94251
G1 X99.090 Y79.838 E5.02263
G1 X99.042 Y81.360 E5.12432
G1 X98.960 Y82.232 E5.18286
G1 X98.782 Y83.418 E5.26298
G1 X98.450 Y84.903 E5.36464
G1 X98.106 Y86.052 E5.44474
G1 X97.809 Y86.877 E5.50334
G1 X97.202 Y88.278 E5.60532
G1 X96.651 Y89.338 E5.68515
G1 X96.032 Y90.365 E5.76524
G1 X95.349 Y91.351 E5.84536
G1 X94.812 Y92.044 E5.90393
G1 X93.805 Y93.186 E6.00562
G1 X92.950 Y94.027 E6.08574
G1 X92.292 Y94.606 E6.14433
G1 X91.090 Y95.539 E6.24597
G1 X90.365 Y96.032 E6.30454
G1 X89.338 Y96.651 E6.38464
G1 X87.982 Y97.342 E6.48633
G1 X87.177 Y97.690 E6.54489
G1 X86.053 Y98.106 E6.62499
G1 X84.591 Y98.530 E6.72668
G1 X83.735 Y98.722 E6.78529
G1 X82.553 Y98.919 E6.86535
G1 X81.359 Y99.042 E6.94553
G1 X80.162 Y99.090 E7.02559
G1 X78.640 Y99.042 E7.12727
G1 X77.768 Y98.960 E7.18582
G1 X76.582 Y98.782 E7.26594
G1 X75.096 Y98.450 E7.36763
G1 X73.947 Y98.106 E7.44775
G1 X73.122 Y97.809 E7.50634
G1 X72.017 Y97.342 E7.58646
G1 X70.945 Y96.806 E7.66653
G1 X69.635 Y96.032 E7.76822
G1 X68.910 Y95.539 E7.82678
G1 X67.956 Y94.812 E7.90689
G1 X66.814 Y93.805 E8.00857
G1 X66.195 Y93.186 E8.06712
G1 X65.394 Y92.293 E8.14724
G1 X64.461 Y91.090 E8.24889
G1 X63.968 Y90.365 E8.30747
G1 X63.349 Y89.338 E8.38759
G1 X62.656 Y87.977 E8.48962
G1 X62.191 Y86.877 E8.56940
G1 X61.795 Y85.746 E8.64949
G1 X61.470 Y84.592 E8.72960
G1 X61.278 Y83.736 E8.78819
G1 X61.040 Y82.232 E8.88987
G1 X60.938 Y81.038 E8.96998
G1 X60.910 Y80.162 E9.02854
G1 X60.958 Y78.641 E9.13016
G1 X61.040 Y77.768 E9.18877
G1 X61.218 Y76.582 E9.26889
G1 X61.550 Y75.096 E9.37058
G1 X61.894 Y73.948 E9.45067
G1 X62.191 Y73.123 E9.50925
G1 X62.796 Y71.726 E9.61093
G1 X63.194 Y70.945 E9.66948
G1 X63.795 Y69.907 E9.74960
G1 X64.651 Y68.649 E9.85129
G1 X65.394 Y67.707 E9.93141
G1 X66.156 Y66.855 E10.00781
G1 X66.577 Y67.189 F30000.000
G1 F2100
G1 X67.404 Y66.375 E10.08534
G1 X68.062 Y65.795 E10.14393
G1 X68.977 Y65.074 E10.22176
G1 X69.932 Y64.414 E10.29930
G1 X71.188 Y63.671 E10.39683
G1 X71.969 Y63.273 E10.45538
G1 X73.035 Y62.802 E10.53325
G1 X74.404 Y62.309 E10.63044
G1 X75.526 Y61.992 E10.70831
G1 X76.381 Y61.801 E10.76686
G1 X77.818 Y61.574 E10.86405
G1 X78.691 Y61.491 E10.92266
G1 X79.855 Y61.445 E11.00047
G1 X81.309 Y61.491 E11.09767
G1 X82.183 Y61.574 E11.15628
G1 X83.335 Y61.747 E11.23408
G1 X84.754 Y62.064 E11.33128
G1 X85.596 Y62.309 E11.38984
G1 X86.696 Y62.695 E11.46771
G1 X87.769 Y63.150 E11.54557
G1 X88.812 Y63.671 E11.62344
G1 X90.064 Y64.411 E11.72064
G1 X90.789 Y64.904 E11.77918
G1 X91.716 Y65.611 E11.85705
G1 X92.807 Y66.573 E11.95425
G1 X93.427 Y67.193 E12.01280
G1 X94.204 Y68.061 E12.09067
G1 X95.096 Y69.211 E12.18785
G1 X95.589 Y69.936 E12.24641
G1 X96.190 Y70.934 E12.32428
G1 X96.850 Y72.231 E12.42148
G1 X97.305 Y73.304 E12.49932
G1 X97.602 Y74.129 E12.55789
G1 X98.008 Y75.526 E12.65509
G1 X98.253 Y76.665 E12.73295
G1 X98.426 Y77.818 E12.81083
G1 X98.527 Y78.979 E12.88869
G1 X98.555 Y79.855 E12.94725
G1 X98.509 Y81.309 E13.04445
G1 X98.426 Y82.182 E13.10299
G1 X98.253 Y83.335 E13.18086
G1 X97.936 Y84.754 E13.27803
G1 X97.602 Y85.871 E13.35588
G1 X97.305 Y86.696 E13.41448
G1 X96.727 Y88.031 E13.51164
G1 X96.190 Y89.066 E13.58954
G1 X95.589 Y90.064 E13.66740
G1 X94.926 Y91.023 E13.74527
G1 X94.389 Y91.716 E13.80383
G1 X93.427 Y92.807 E13.90103
G1 X92.596 Y93.625 E13.97890
G1 X91.938 Y94.205 E14.03748
G1 X90.789 Y95.096 E14.13464
G1 X90.064 Y95.589 E14.19321
G1 X89.066 Y96.190 E14.27106
G1 X87.769 Y96.850 E14.36826
G1 X86.965 Y97.198 E14.42682
G1 X85.871 Y97.602 E14.50467
G1 X84.474 Y98.008 E14.60187
G1 X83.618 Y98.199 E14.66047
G1 X82.469 Y98.390 E14.73829
G1 X81.309 Y98.509 E14.81621
G1 X80.145 Y98.555 E14.89403
G1 X78.691 Y98.509 E14.99122
G1 X77.818 Y98.426 E15.04977
G1 X76.665 Y98.253 E15.12764
G1 X75.245 Y97.936 E15.22484
G1 X74.129 Y97.602 E15.30271
G1 X73.303 Y97.305 E15.36130
G1 X72.230 Y96.850 E15.43917
G1 X71.188 Y96.329 E15.51700
G1 X69.936 Y95.589 E15.61420
G1 X69.211 Y95.096 E15.67275
G1 X68.284 Y94.389 E15.75061
G1 X67.193 Y93.427 E15.84781
G1 X66.573 Y92.807 E15.90635
G1 X65.796 Y91.939 E15.98423
G1 X64.904 Y90.789 E16.08139
G1 X64.411 Y90.064 E16.13997
G1 X63.810 Y89.066 E16.21784
G1 X63.148 Y87.765 E16.31532
G1 X62.695 Y86.696 E16.39291
G1 X62.309 Y85.596 E16.47075
G1 X61.992 Y84.475 E16.54861
G1 X61.801 Y83.619 E16.60720
G1 X61.574 Y82.182 E16.70439
G1 X61.473 Y81.021 E16.78225
G1 X61.445 Y80.145 E16.84081
G1 X61.491 Y78.691 E16.93795
G1 X61.574 Y77.818 E16.99655
G1 X61.747 Y76.665 E17.07442
G1 X62.064 Y75.246 E17.17161
G1 X62.398 Y74.129 E17.24946
G1 X62.695 Y73.304 E17.30803
G1 X63.273 Y71.969 E17.40523
G1 X63.671 Y71.188 E17.46377
G1 X64.256 Y70.180 E17.54165
G1 X65.074 Y68.977 E17.63884
G1 X65.796 Y68.061 E17.71671
G1 X66.536 Y67.233 E17.79091
G1 X66.956 Y67.568 F30000.000
G1 F2100
G1 X67.758 Y66.777 E17.86620
G1 X68.416 Y66.197 E17.92478
G1 X69.305 Y65.497 E18.00037
G1 X70.233 Y64.857 E18.07566
G1 X71.431 Y64.148 E18.16870
G1 X72.212 Y63.750 E18.22725
G1 X73.248 Y63.293 E18.30287
G1 X74.553 Y62.823 E18.39557
G1 X75.395 Y62.579 E18.45412
G1 X76.498 Y62.324 E18.52974
G1 X77.868 Y62.107 E18.62244
G1 X78.742 Y62.024 E18.68104
G1 X79.872 Y61.981 E18.75661
G1 X81.259 Y62.024 E18.84931
G1 X82.132 Y62.107 E18.90792
G1 X83.251 Y62.276 E18.98349
G1 X84.605 Y62.579 E19.07619
G1 X85.447 Y62.823 E19.13474
G1 X86.515 Y63.199 E19.21037
G1 X87.556 Y63.641 E19.28598
G1 X88.569 Y64.148 E19.36161
G1 X89.763 Y64.854 E19.45431
G1 X90.488 Y65.347 E19.51286
G1 X91.387 Y66.034 E19.58848
G1 X92.428 Y66.952 E19.68118
G1 X93.048 Y67.572 E19.73973
G1 X93.803 Y68.416 E19.81535
G1 X94.653 Y69.512 E19.90804
G1 X95.146 Y70.237 E19.96660
G1 X95.729 Y71.207 E20.04222
G1 X96.359 Y72.444 E20.13493
G1 X96.801 Y73.485 E20.21053
G1 X97.098 Y74.310 E20.26910
G1 X97.421 Y75.395 E20.34472
G1 X97.676 Y76.498 E20.42035
G1 X97.893 Y77.868 E20.51305
G1 X97.992 Y78.996 E20.58866
G1 X98.019 Y79.872 E20.64722
G1 X97.976 Y81.259 E20.73992
G1 X97.893 Y82.132 E20.79847
G1 X97.724 Y83.251 E20.87409
G1 X97.421 Y84.605 E20.96677
G1 X97.098 Y85.689 E21.04238
G1 X96.801 Y86.514 E21.10096
G1 X96.248 Y87.792 E21.19397
G1 X95.729 Y88.793 E21.26929
G1 X95.146 Y89.763 E21.34490
G1 X94.503 Y90.695 E21.42052
G1 X93.966 Y91.387 E21.47908
G1 X93.048 Y92.428 E21.57179
G1 X92.242 Y93.223 E21.64741
G1 X91.584 Y93.803 E21.70599
G1 X90.488 Y94.653 E21.79866
G1 X89.763 Y95.146 E21.85722
G1 X88.793 Y95.729 E21.93283
G1 X87.556 Y96.359 E22.02553
G1 X86.752 Y96.707 E22.08409
G1 X85.690 Y97.098 E22.15970
G1 X84.357 Y97.485 E22.25240
G1 X83.501 Y97.676 E22.31100
G1 X82.385 Y97.861 E22.38658
G1 X81.258 Y97.976 E22.46225
G1 X80.128 Y98.019 E22.53782
G1 X78.741 Y97.976 E22.63052
G1 X77.868 Y97.893 E22.68907
G1 X76.749 Y97.724 E22.76469
G1 X75.395 Y97.421 E22.85740
G1 X74.310 Y97.098 E22.93302
G1 X73.485 Y96.801 E22.99161
G1 X72.443 Y96.358 E23.06723
G1 X71.431 Y95.852 E23.14282
G1 X70.237 Y95.146 E23.23552
G1 X69.512 Y94.653 E23.29407
G1 X68.613 Y93.966 E23.36969
G1 X67.572 Y93.048 E23.46239
G1 X66.952 Y92.428 E23.52093
G1 X66.197 Y91.584 E23.59656
G1 X65.347 Y90.488 E23.68924
G1 X64.854 Y89.763 E23.74781
G1 X64.271 Y88.793 E23.82343
G1 X63.639 Y87.552 E23.91647
G1 X63.199 Y86.514 E23.99176
G1 X62.823 Y85.447 E24.06736
G1 X62.515 Y84.358 E24.14298
G1 X62.324 Y83.502 E24.20155
G1 X62.107 Y82.132 E24.29426
G1 X62.008 Y81.004 E24.36987
G1 X61.981 Y80.128 E24.42843
G1 X62.024 Y78.742 E24.52108
G1 X62.107 Y77.868 E24.57967
G1 X62.276 Y76.749 E24.65530
G1 X62.579 Y75.395 E24.74799
G1 X62.902 Y74.311 E24.82360
G1 X63.199 Y73.486 E24.88217
G1 X63.750 Y72.212 E24.97487
G1 X64.148 Y71.431 E25.03342
G1 X64.717 Y70.453 E25.10904
G1 X65.497 Y69.305 E25.20174
G1 X66.197 Y68.416 E25.27737
G1 X66.914 Y67.612 E25.34932
G1 X67.334 Y67.947 F30000.000
G1 F2100
G1 X68.112 Y67.179 E25.42236
G1 X68.770 Y66.599 E25.48094
G1 X69.633 Y65.921 E25.55429
G1 X70.534 Y65.300 E25.62733
G1 X71.674 Y64.625 E25.71587
G1 X72.455 Y64.227 E25.77442
G1 X73.461 Y63.785 E25.84780
G1 X74.703 Y63.338 E25.93600
G1 X75.544 Y63.093 E25.99455
G1 X76.615 Y62.847 E26.06793
G1 X77.919 Y62.640 E26.15613
G1 X78.792 Y62.558 E26.21472
G1 X79.889 Y62.516 E26.28806
G1 X81.209 Y62.558 E26.37626
G1 X82.082 Y62.640 E26.43486
G1 X83.167 Y62.805 E26.50819
G1 X84.456 Y63.093 E26.59640
G1 X85.297 Y63.338 E26.65495
G1 X86.333 Y63.703 E26.72833
G1 X87.344 Y64.133 E26.80170
G1 X88.326 Y64.625 E26.87508
G1 X89.462 Y65.297 E26.96328
G1 X90.187 Y65.790 E27.02183
G1 X91.059 Y66.458 E27.09521
G1 X92.049 Y67.331 E27.18342
G1 X92.669 Y67.951 E27.24196
G1 X93.401 Y68.770 E27.31534
G1 X94.210 Y69.813 E27.40354
G1 X94.703 Y70.538 E27.46209
G1 X95.268 Y71.480 E27.53547
G1 X95.867 Y72.656 E27.62368
G1 X96.297 Y73.667 E27.69704
G1 X96.594 Y74.492 E27.75560
G1 X96.962 Y75.760 E27.84381
G1 X97.195 Y76.833 E27.91718
G1 X97.332 Y77.699 E27.97573
G1 X97.442 Y78.791 E28.04911
G1 X97.484 Y79.889 E28.12249
G1 X97.442 Y81.209 E28.21070
G1 X97.360 Y82.081 E28.26924
G1 X97.195 Y83.167 E28.34262
G1 X96.907 Y84.455 E28.43080
G1 X96.594 Y85.508 E28.50417
G1 X96.297 Y86.333 E28.56275
G1 X95.770 Y87.549 E28.65127
G1 X95.268 Y88.520 E28.72434
G1 X94.703 Y89.462 E28.79770
G1 X94.080 Y90.366 E28.87107
G1 X93.542 Y91.059 E28.92964
G1 X92.669 Y92.049 E29.01784
G1 X91.888 Y92.821 E29.09122
G1 X91.230 Y93.401 E29.14980
G1 X90.187 Y94.210 E29.23797
G1 X89.462 Y94.703 E29.29654
G1 X88.520 Y95.268 E29.36990
G1 X87.344 Y95.867 E29.45811
G1 X86.539 Y96.215 E29.51667
G1 X85.508 Y96.594 E29.59003
G1 X84.240 Y96.962 E29.67824
G1 X83.385 Y97.153 E29.73683
G1 X82.301 Y97.332 E29.81016
G1 X81.208 Y97.442 E29.88358
G1 X80.111 Y97.484 E29.95692
G1 X78.791 Y97.442 E30.04512
G1 X77.919 Y97.360 E30.10367
G1 X76.833 Y97.195 E30.17705
G1 X75.544 Y96.907 E30.26526
G1 X74.492 Y96.594 E30.33863
G1 X73.667 Y96.297 E30.39722
G1 X72.656 Y95.867 E30.47059
G1 X71.674 Y95.375 E30.54393
G1 X70.538 Y94.703 E30.63214
G1 X69.813 Y94.210 E30.69070
G1 X68.941 Y93.542 E30.76407
G1 X67.951 Y92.669 E30.85227
G1 X67.331 Y92.049 E30.91082
G1 X66.599 Y91.230 E30.98420
G1 X65.790 Y90.187 E31.07238
G1 X65.297 Y89.462 E31.13095
G1 X64.732 Y88.520 E31.20433
G1 X64.131 Y87.340 E31.29284
G1 X63.703 Y86.333 E31.36591
G1 X63.338 Y85.298 E31.43927
G1 X63.038 Y84.241 E31.51264
G1 X62.847 Y83.385 E31.57122
G1 X62.640 Y82.081 E31.65942
G1 X62.544 Y80.987 E31.73279
G1 X62.516 Y80.111 E31.79135
G1 X62.558 Y78.792 E31.87951
G1 X62.640 Y77.919 E31.93810
G1 X62.805 Y76.833 E32.01148
G1 X63.093 Y75.544 E32.09968
G1 X63.406 Y74.492 E32.17304
G1 X63.703 Y73.667 E32.23161
G1 X64.227 Y72.455 E32.31982
G1 X64.625 Y71.674 E32.37836
G1 X65.178 Y70.725 E32.45174
G1 X65.921 Y69.633 E32.53995
G1 X66.599 Y68.770 E32.61332
G1 X67.293 Y67.991 E32.68303
G1 E30.68303 F2400.00000
G92 E0
G1 X88.199 Y88.743 F30000.000
G1 E2.00000 F2400.00000
G1 F2100
G1 X87.640 Y89.235 E2.04974
G1 X87.045 Y89.697 E2.10004
G1 X86.422 Y90.120 E2.15035
G1 X85.774 Y90.503 E2.20065
G1 X85.103 Y90.845 E2.25097
G1 X84.404 Y91.147 E2.30185
G1 X83.704 Y91.399 E2.35156
G1 X82.981 Y91.609 E2.40186
G1 X82.246 Y91.774 E2.45216
G1 X81.502 Y91.892 E2.50247
G1 X80.753 Y91.962 E2.55277
G1 X80.000 Y91.986 E2.60307
G1 X79.247 Y91.962 E2.65340
G1 X78.489 Y91.890 E2.70427
G1 X77.754 Y91.774 E2.75398
G1 X77.019 Y91.609 E2.80429
G1 X76.296 Y91.399 E2.85459
G1 X75.588 Y91.144 E2.90489
G1 X74.897 Y90.845 E2.95520
G1 X74.226 Y90.503 E3.00550
G1 X73.578 Y90.120 E3.05580
G1 X72.955 Y89.697 E3.10611
G1 X72.360 Y89.235 E3.15641
G1 X71.795 Y88.737 E3.20671
G1 X71.263 Y88.205 E3.25701
G1 X70.765 Y87.640 E3.30732
G1 X70.303 Y87.045 E3.35762
G1 X69.880 Y86.422 E3.40793
G1 X69.497 Y85.774 E3.45823
G1 X69.155 Y85.103 E3.50853
G1 X68.856 Y84.412 E3.55883
G1 X68.601 Y83.704 E3.60914
G1 X68.391 Y82.981 E3.65944
G1 X68.226 Y82.246 E3.70974
G1 X68.110 Y81.511 E3.75946
G1 X68.038 Y80.753 E3.81033
G1 X68.014 Y80.000 E3.86065
G1 X68.038 Y79.247 E3.91096
G1 X68.108 Y78.498 E3.96126
G1 X68.226 Y77.754 E4.01156
G1 X68.391 Y77.019 E4.06187
G1 X68.601 Y76.296 E4.11217
G1 X68.856 Y75.588 E4.16247
G1 X69.155 Y74.897 E4.21278
G1 X69.493 Y74.234 E4.26249
G1 X69.880 Y73.578 E4.31336
G1 X70.303 Y72.955 E4.36369
G1 X70.765 Y72.360 E4.41399
G1 X71.263 Y71.795 E4.46429
G1 X71.795 Y71.263 E4.51460
G1 X72.360 Y70.765 E4.56490
G1 X72.955 Y70.303 E4.61520
G1 X73.578 Y69.880 E4.66551
G1 X74.226 Y69.497 E4.71581
G1 X74.897 Y69.155 E4.76611
G1 X75.588 Y68.856 E4.81641
G1 X76.296 Y68.601 E4.86672
G1 X77.019 Y68.391 E4.91702
G1 X77.754 Y68.226 E4.96732
G1 X78.498 Y68.108 E5.01765
G1 X79.256 Y68.037 E5.06852
G1 X80.000 Y68.014 E5.11823
G1 X80.753 Y68.038 E5.16854
G1 X81.502 Y68.108 E5.21884
G1 X82.246 Y68.226 E5.26914
G1 X82.981 Y68.391 E5.31945
G1 X83.704 Y68.601 E5.36975
G1 X84.413 Y68.856 E5.42007
G1 X85.111 Y69.159 E5.47095
G1 X85.774 Y69.497 E5.52066
G1 X86.423 Y69.880 E5.57098
G1 X87.052 Y70.309 E5.62186
G1 X87.640 Y70.765 E5.67157
G1 X88.205 Y71.263 E5.72187
G1 X88.737 Y71.795 E5.77217
G1 X89.235 Y72.360 E5.82248
G1 X89.697 Y72.955 E5.87278
G1 X90.120 Y73.578 E5.92308
G1 X90.499 Y74.218 E5.97280
G1 X90.845 Y74.896 E6.02367
G1 X91.144 Y75.588 E6.07399
G1 X91.399 Y76.296 E6.12430
G1 X91.609 Y77.019 E6.17460
G1 X91.774 Y77.754 E6.22490
G1 X91.892 Y78.498 E6.27521
G1 X91.962 Y79.247 E6.32551
G1 X91.986 Y80.000 E6.37581
G1 X91.963 Y80.744 E6.42552
G1 X91.892 Y81.502 E6.47640
G1 X91.774 Y82.246 E6.52672
G1 X91.609 Y82.981 E6.57702
G1 X91.399 Y83.704 E6.62733
G1 X91.144 Y84.412 E6.67763
G1 X90.845 Y85.103 E6.72793
G1 X90.503 Y85.774 E6.77824
G1 X90.120 Y86.422 E6.82854
G1 X89.697 Y87.045 E6.87884
G1 X89.235 Y87.640 E6.92915
G1 X88.737 Y88.205 E6.97947
G1 X88.241 Y88.701 E7.02631
G1 X87.832 Y88.353 F30000.000
G1 F2100
G1 X87.299 Y88.823 E7.07379
G1 X86.730 Y89.263 E7.12184
G1 X86.135 Y89.668 E7.16989
G1 X85.516 Y90.034 E7.21795
G1 X84.875 Y90.360 E7.26601
G1 X84.207 Y90.649 E7.31463
G1 X83.538 Y90.890 E7.36211
G1 X82.848 Y91.090 E7.41016
G1 X82.146 Y91.247 E7.45822
G1 X81.435 Y91.360 E7.50627
G1 X80.719 Y91.428 E7.55433
G1 X80.000 Y91.450 E7.60238
G1 X79.281 Y91.428 E7.65044
G1 X78.556 Y91.359 E7.69907
G1 X77.854 Y91.247 E7.74654
G1 X77.152 Y91.090 E7.79460
G1 X76.462 Y90.890 E7.84265
G1 X75.785 Y90.646 E7.89071
G1 X75.125 Y90.360 E7.93876
G1 X74.484 Y90.034 E7.98681
G1 X73.865 Y89.668 E8.03487
G1 X73.270 Y89.263 E8.08292
