; generated by Slic3r 1.3.0 on 2022-09-22 at 17:26:00

; external perimeters extrusion width = 0.44mm (3.38mm^3/s)
; perimeters extrusion width = 0.48mm (7.54mm^3/s)
; infill extrusion width = 0.48mm (10.05mm^3/s)
; solid infill extrusion width = 0.48mm (2.51mm^3/s)
; top infill extrusion width = 0.48mm (1.88mm^3/s)

M107
M104 S210 ; set temperature
G28 ; home all axes
G1 Z5 F5000 ; lift nozzle

; Filament gcode

M109 S210 ; set temperature and wait for it to be reached
G21 ; set units to millimeters
G90 ; use absolute coordinates
M82 ; use absolute distances for extrusion
G92 E0
G1 Z0.350 F7800.000
G1 E-2.00000 F2400.00000
G92 E0
G1 X58.486 Y40.494 F7800.000
G1 E2.00000 F2400.00000
G1 F1800
G1 X59.732 Y38.867 E2.18260
G1 X61.077 Y37.321 E2.36522
G1 X62.518 Y35.863 E2.54788
G1 X64.046 Y34.498 E2.73046
G1 X64.366 Y34.233 E2.76754
G1 X65.993 Y32.987 E2.95011
G1 X67.696 Y31.846 E3.13277
G1 X69.467 Y30.814 E3.31542
G1 X71.299 Y29.895 E3.49804
G1 X73.185 Y29.093 E3.68066
G1 X75.117 Y28.411 E3.86324
G1 X77.089 Y27.852 E4.04588
G1 X79.092 Y27.418 E4.22853
G1 X81.117 Y27.110 E4.41110
G1 X83.159 Y26.930 E4.59378
G1 X85.208 Y26.879 E4.77639
G1 X87.256 Y26.956 E4.95902
G1 X89.295 Y27.162 E5.14163
G1 X91.317 Y27.496 E5.32421
G1 X93.314 Y27.955 E5.50689
G1 X95.279 Y28.540 E5.68951
G1 X97.202 Y29.246 E5.87210
G1 X99.078 Y30.072 E6.05475
G1 X100.898 Y31.014 E6.23735
G1 X102.665 Y32.075 E6.42101
G1 X104.342 Y33.231 E6.60256
G1 X105.633 Y34.232 E6.74817
G1 X107.179 Y35.578 E6.93079
G1 X108.638 Y37.018 E7.11345
G1 X110.003 Y38.546 E7.29605
G1 X111.269 Y40.158 E7.47866
G1 X112.432 Y41.845 E7.66128
G1 X113.486 Y43.603 E7.84391
G1 X114.428 Y45.423 E8.02653
G1 X115.254 Y47.299 E8.20921
G1 X115.961 Y49.222 E8.39177
G1 X116.089 Y49.618 E8.42886
G1 X116.649 Y51.589 E8.61148
G1 X117.005 Y53.183 E8.75703
G1 X117.338 Y55.205 E8.93965
G1 X117.544 Y57.245 E9.12232
G1 X117.622 Y59.292 E9.30490
G1 X117.622 Y59.709 E9.34199
G1 X117.570 Y61.342 E9.48763
G1 X117.390 Y63.383 E9.67016
G1 X117.338 Y63.796 E9.70725
G1 X117.005 Y65.818 E9.88987
G1 X116.648 Y67.412 E10.03546
G1 X116.089 Y69.384 E10.21808
G1 X102.010 Y116.997 E14.64256
G1 X101.819 Y117.479 E14.68877
G1 X101.642 Y117.856 E14.72589
G1 X101.418 Y118.265 E14.76744
G1 X101.139 Y118.705 E14.81383
G1 X100.864 Y119.081 E14.85539
G1 X100.598 Y119.402 E14.89252
G1 X100.244 Y119.780 E14.93868
G1 X99.940 Y120.065 E14.97582
G1 X99.581 Y120.365 E15.01749
G1 X99.204 Y120.640 E15.05905
G1 X98.810 Y120.892 E15.10081
G1 X98.355 Y121.142 E15.14702
G1 X97.941 Y121.336 E15.18772
G1 X97.544 Y121.493 E15.22578
G1 X97.052 Y121.653 E15.27187
G1 X96.647 Y121.757 E15.30914
G1 X96.189 Y121.846 E15.35072
G1 X95.727 Y121.906 E15.39224
G1 X95.260 Y121.937 E15.43397
G1 X75.000 Y121.942 E17.23936
G1 X74.273 Y121.906 E17.30424
G1 X73.811 Y121.846 E17.34576
G1 X73.353 Y121.757 E17.38735
G1 X72.898 Y121.639 E17.42916
G1 X72.455 Y121.493 E17.47072
G1 X72.021 Y121.319 E17.51244
G1 X71.599 Y121.119 E17.55402
G1 X71.190 Y120.892 E17.59570
G1 X70.795 Y120.640 E17.63744
G1 X70.419 Y120.365 E17.67898
G1 X70.060 Y120.065 E17.72069
G1 X69.720 Y119.744 E17.76236
G1 X69.401 Y119.402 E17.80398
G1 X69.104 Y119.040 E17.84570
G1 X68.831 Y118.662 E17.88725
G1 X68.582 Y118.266 E17.92897
G1 X68.358 Y117.856 E17.97064
G1 X68.161 Y117.432 E18.01224
G1 X67.870 Y116.630 E18.08830
G1 X53.455 Y67.815 E22.62397
G1 X52.995 Y65.817 E22.80661
G1 X52.662 Y63.795 E22.98923
G1 X52.457 Y61.768 E23.17078
G1 X52.430 Y61.341 E23.20893
G1 X52.378 Y59.709 E23.35448
G1 X52.430 Y57.659 E23.53714
G1 X52.608 Y55.630 E23.71866
G1 X52.662 Y55.205 E23.75681
G1 X52.995 Y53.183 E23.93943
G1 X53.352 Y51.589 E24.08501
G1 X53.907 Y49.629 E24.26654
G1 X54.039 Y49.222 E24.30469
G1 X54.746 Y47.298 E24.48731
G1 X55.395 Y45.799 E24.63289
G1 X56.313 Y43.967 E24.81549
G1 X56.514 Y43.603 E24.85257
G1 X57.345 Y42.196 E24.99817
G1 X58.453 Y40.544 E25.17542
G1 E23.17542 F2400.00000
G92 E0
G1 X104.657 Y68.436 F7800.000
G1 E2.00000 F2400.00000
G1 F1800
G1 X104.540 Y68.706 E2.02621
G1 X103.929 Y69.907 E2.14629
G1 X103.238 Y71.075 E2.26721
G1 X102.475 Y72.197 E2.38813
G1 X101.642 Y73.271 E2.50925
G1 X100.703 Y74.330 E2.63543
G1 X99.787 Y75.247 E2.75089
G1 X98.769 Y76.144 E2.87181
G1 X97.696 Y76.976 E2.99273
G1 X96.574 Y77.738 E3.11365
G1 X95.406 Y78.429 E3.23457
G1 X94.197 Y79.045 E3.35550
G1 X92.952 Y79.584 E3.47642
G1 X91.675 Y80.044 E3.59734
G1 X90.372 Y80.422 E3.71826
G1 X89.048 Y80.718 E3.83918
G1 X87.707 Y80.931 E3.96011
G1 X86.356 Y81.058 E4.08103
G1 X85.000 Y81.101 E4.20195
G1 X83.644 Y81.058 E4.32287
G1 X82.293 Y80.931 E4.44379
G1 X80.952 Y80.718 E4.56472
G1 X79.628 Y80.422 E4.68564
G1 X78.325 Y80.044 E4.80656
G1 X77.048 Y79.584 E4.92748
G1 X75.812 Y79.049 E5.04755
G1 X74.594 Y78.429 E5.16929
G1 X73.426 Y77.738 E5.29024
G1 X72.304 Y76.976 E5.41117
G1 X71.231 Y76.144 E5.53209
G1 X70.213 Y75.247 E5.65301
G1 X69.254 Y74.287 E5.77393
G1 X68.356 Y73.269 E5.89485
G1 X67.525 Y72.197 E6.01578
G1 X66.762 Y71.075 E6.13670
G1 X66.071 Y69.907 E6.25762
G1 X65.455 Y68.698 E6.37854
G1 X64.916 Y67.452 E6.49950
G1 X64.454 Y66.166 E6.62123
G1 X64.078 Y64.872 E6.74131
G1 X63.782 Y63.547 E6.86235
G1 X63.566 Y62.170 E6.98654
G1 X63.442 Y60.857 E7.10406
G1 X63.399 Y59.500 E7.22499
G1 X63.442 Y58.144 E7.34591
G1 X63.570 Y56.793 E7.46683
G1 X63.782 Y55.453 E7.58775
G1 X64.078 Y54.129 E7.70867
G1 X64.457 Y52.826 E7.82960
G1 X64.916 Y51.549 E7.95052
G1 X65.455 Y50.303 E8.07144
G1 X66.071 Y49.094 E8.19236
G1 X66.762 Y47.926 E8.31332
G1 X67.531 Y46.796 E8.43505
G1 X68.356 Y45.732 E8.55513
G1 X69.254 Y44.714 E8.67605
G1 X70.213 Y43.754 E8.79697
G1 X71.231 Y42.857 E8.91789
G1 X72.304 Y42.025 E9.03881
G1 X73.426 Y41.263 E9.15973
G1 X74.586 Y40.577 E9.27981
G1 X75.803 Y39.956 E9.40154
G1 X77.048 Y39.417 E9.52250
G1 X78.325 Y38.957 E9.64342
G1 X79.628 Y38.579 E9.76434
G1 X80.952 Y38.283 E9.88526
G1 X82.293 Y38.070 E10.00619
G1 X83.644 Y37.943 E10.12711
G1 X84.962 Y37.901 E10.24464
G1 X86.355 Y37.942 E10.36882
G1 X87.707 Y38.070 E10.48987
G1 X89.048 Y38.283 E10.61079
G1 X90.372 Y38.579 E10.73171
G1 X91.666 Y38.954 E10.85178
G1 X92.951 Y39.417 E10.97352
G1 X94.197 Y39.956 E11.09448
G1 X95.406 Y40.572 E11.21540
G1 X96.574 Y41.263 E11.33632
G1 X97.696 Y42.025 E11.45724
G1 X98.769 Y42.857 E11.57816
G1 X99.787 Y43.755 E11.69912
G1 X100.752 Y44.721 E11.82085
G1 X101.644 Y45.732 E11.94093
G1 X102.475 Y46.804 E12.06185
G1 X103.238 Y47.926 E12.18277
G1 X103.929 Y49.095 E12.30372
G1 X104.549 Y50.312 E12.42546
G1 X105.084 Y51.549 E12.54553
G1 X105.543 Y52.826 E12.66646
G1 X105.922 Y54.129 E12.78738
G1 X106.218 Y55.453 E12.90830
G1 X106.430 Y56.793 E13.02922
G1 X106.558 Y58.144 E13.15014
G1 X106.601 Y59.500 E13.27107
G1 X106.558 Y60.857 E13.39199
G1 X106.430 Y62.208 E13.51291
G1 X106.218 Y63.548 E13.63386
G1 X105.919 Y64.881 E13.75560
G1 X105.543 Y66.175 E13.87567
G1 X105.084 Y67.453 E13.99663
G1 X104.681 Y68.381 E14.08680
G1 X104.084 Y68.188 F7800.000
G1 F1800
G1 X103.975 Y68.440 E14.11128
G1 X103.381 Y69.605 E14.22787
G1 X102.710 Y70.740 E14.34529
G1 X101.969 Y71.830 E14.46271
G1 X101.161 Y72.872 E14.58025
G1 X100.248 Y73.902 E14.70293
G1 X99.359 Y74.791 E14.81497
G1 X98.370 Y75.662 E14.93239
G1 X97.329 Y76.470 E15.04981
G1 X96.239 Y77.211 E15.16723
G1 X95.105 Y77.881 E15.28465
G1 X93.931 Y78.480 E15.40208
G1 X92.722 Y79.003 E15.51950
G1 X91.482 Y79.449 E15.63692
G1 X90.216 Y79.817 E15.75434
G1 X88.930 Y80.104 E15.87176
G1 X87.629 Y80.310 E15.98919
G1 X86.317 Y80.434 E16.10661
G1 X85.000 Y80.476 E16.22403
G1 X83.683 Y80.434 E16.34145
G1 X82.371 Y80.310 E16.45887
G1 X81.070 Y80.104 E16.57629
G1 X79.784 Y79.817 E16.69372
G1 X78.518 Y79.449 E16.81114
G1 X77.278 Y79.003 E16.92856
G1 X76.078 Y78.483 E17.04515
G1 X74.895 Y77.881 E17.16338
G1 X73.761 Y77.211 E17.28082
G1 X72.671 Y76.470 E17.39825
G1 X71.630 Y75.662 E17.51567
G1 X70.641 Y74.791 E17.63309
G1 X69.710 Y73.859 E17.75051
G1 X68.838 Y72.871 E17.86793
G1 X68.031 Y71.830 E17.98536
G1 X67.290 Y70.740 E18.10278
G1 X66.619 Y69.605 E18.22020
G1 X66.021 Y68.431 E18.33762
G1 X65.498 Y67.222 E18.45506
G1 X65.049 Y65.973 E18.57330
G1 X64.684 Y64.717 E18.68989
G1 X64.396 Y63.430 E18.80739
G1 X64.186 Y62.092 E18.92807
G1 X64.066 Y60.818 E19.04215
G1 X64.025 Y59.500 E19.15957
G1 X64.066 Y58.183 E19.27699
G1 X64.190 Y56.872 E19.39441
G1 X64.396 Y55.570 E19.51183
G1 X64.684 Y54.284 E19.62926
G1 X65.051 Y53.019 E19.74668
G1 X65.498 Y51.779 E19.86410
G1 X66.021 Y50.570 E19.98152
G1 X66.619 Y49.396 E20.09894
G1 X67.290 Y48.261 E20.21639
G1 X68.036 Y47.164 E20.33462
G1 X68.838 Y46.130 E20.45121
G1 X69.710 Y45.142 E20.56863
G1 X70.641 Y44.210 E20.68605
G1 X71.630 Y43.339 E20.80347
G1 X72.671 Y42.531 E20.92090
G1 X73.761 Y41.790 E21.03832
G1 X74.887 Y41.124 E21.15490
G1 X76.069 Y40.521 E21.27314
G1 X77.278 Y39.998 E21.39058
G1 X78.518 Y39.552 E21.50800
G1 X79.784 Y39.184 E21.62543
G1 X81.070 Y38.897 E21.74285
G1 X82.371 Y38.691 E21.86027
G1 X83.683 Y38.567 E21.97769
G1 X84.963 Y38.526 E22.09177
G1 X86.316 Y38.566 E22.21245
G1 X87.629 Y38.691 E22.32995
G1 X88.930 Y38.897 E22.44737
G1 X90.216 Y39.184 E22.56479
G1 X91.473 Y39.549 E22.68138
G1 X92.721 Y39.998 E22.79962
G1 X93.931 Y40.521 E22.91706
G1 X95.105 Y41.120 E23.03448
G1 X96.239 Y41.790 E23.15190
G1 X97.329 Y42.531 E23.26933
G1 X98.370 Y43.339 E23.38675
G1 X99.359 Y44.210 E23.50419
G1 X100.297 Y45.149 E23.62243
G1 X101.162 Y46.130 E23.73901
G1 X101.969 Y47.171 E23.85643
G1 X102.710 Y48.261 E23.97386
G1 X103.381 Y49.396 E24.09130
G1 X103.983 Y50.578 E24.20953
G1 X104.502 Y51.779 E24.32612
G1 X104.949 Y53.019 E24.44354
G1 X105.316 Y54.284 E24.56096
G1 X105.604 Y55.570 E24.67839
G1 X105.810 Y56.872 E24.79581
G1 X105.934 Y58.183 E24.91323
G1 X105.975 Y59.500 E25.03065
G1 X105.934 Y60.818 E25.14807
G1 X105.810 Y62.129 E25.26549
G1 X105.604 Y63.431 E25.38294
G1 X105.314 Y64.726 E25.50117
G1 X104.949 Y65.982 E25.61776
G1 X104.502 Y67.222 E25.73520
G1 X104.108 Y68.133 E25.82361
G1 X103.511 Y67.939 F7800.000
G1 F1800
G1 X103.409 Y68.173 E25.84635
G1 X102.833 Y69.304 E25.95945
G1 X102.182 Y70.405 E26.07337
G1 X101.464 Y71.462 E26.18730
G1 X100.680 Y72.473 E26.30126
G1 X99.793 Y73.473 E26.42044
G1 X98.931 Y74.335 E26.52905
G1 X97.972 Y75.181 E26.64297
G1 X96.962 Y75.964 E26.75690
G1 X95.904 Y76.683 E26.87082
G1 X94.804 Y77.333 E26.98474
G1 X93.665 Y77.914 E27.09866
G1 X92.491 Y78.422 E27.21258
G1 X91.289 Y78.855 E27.32651
G1 X90.061 Y79.211 E27.44043
G1 X88.813 Y79.490 E27.55435
G1 X87.551 Y79.690 E27.66828
G1 X86.278 Y79.811 E27.78220
G1 X85.000 Y79.851 E27.89612
G1 X83.722 Y79.811 E28.01004
G1 X82.449 Y79.690 E28.12396
G1 X81.187 Y79.490 E28.23788
G1 X79.939 Y79.211 E28.35181
G1 X78.711 Y78.855 E28.46573
G1 X77.509 Y78.422 E28.57965
G1 X76.344 Y77.918 E28.69275
G1 X75.196 Y77.334 E28.80748
G1 X74.096 Y76.683 E28.92141
G1 X73.038 Y75.964 E29.03534
G1 X72.028 Y75.181 E29.14926
G1 X71.069 Y74.335 E29.26318
G1 X70.165 Y73.431 E29.37710
G1 X69.320 Y72.472 E29.49102
G1 X68.536 Y71.462 E29.60495
G1 X67.818 Y70.405 E29.71887
G1 X67.167 Y69.304 E29.83279
G1 X66.587 Y68.165 E29.94671
G1 X66.079 Y66.992 E30.06064
G1 X65.643 Y65.780 E30.17538
G1 X65.289 Y64.561 E30.28848
G1 X65.010 Y63.313 E30.40243
G1 X64.807 Y62.014 E30.51961
G1 X64.690 Y60.778 E30.63024
G1 X64.650 Y59.500 E30.74416
G1 X64.690 Y58.223 E30.85808
G1 X64.810 Y56.950 E30.97200
G1 X65.010 Y55.687 E31.08592
G1 X65.289 Y54.440 E31.19985
G1 X65.646 Y53.212 E31.31377
G1 X66.079 Y52.009 E31.42769
G1 X66.587 Y50.836 E31.54161
G1 X67.167 Y49.697 E31.65553
G1 X67.818 Y48.596 E31.76946
G1 X68.542 Y47.532 E31.88420
G1 X69.320 Y46.529 E31.99730
G1 X70.165 Y45.570 E32.11122
G1 X71.069 Y44.666 E32.22514
G1 X72.028 Y43.820 E32.33907
G1 X73.038 Y43.037 E32.45299
G1 X74.096 Y42.318 E32.56691
G1 X75.188 Y41.672 E32.68001
G1 X76.335 Y41.087 E32.79475
G1 X77.509 Y40.579 E32.90867
G1 X78.711 Y40.146 E33.02260
G1 X79.939 Y39.790 E33.13652
G1 X81.187 Y39.511 E33.25044
G1 X82.449 Y39.311 E33.36436
G1 X83.722 Y39.190 E33.47828
G1 X84.963 Y39.151 E33.58891
G1 X86.277 Y39.190 E33.70609
G1 X87.551 Y39.311 E33.82004
G1 X88.813 Y39.511 E33.93397
G1 X90.061 Y39.790 E34.04789
G1 X91.280 Y40.144 E34.16099
G1 X92.491 Y40.579 E34.27572
G1 X93.665 Y41.087 E34.38965
G1 X94.804 Y41.667 E34.50357
G1 X95.904 Y42.318 E34.61750
G1 X96.962 Y43.037 E34.73142
G1 X97.972 Y43.820 E34.84534
G1 X98.931 Y44.666 E34.95927
G1 X99.841 Y45.577 E35.07401
G1 X100.680 Y46.529 E35.18711
G1 X101.464 Y47.539 E35.30103
G1 X102.182 Y48.596 E35.41495
G1 X102.833 Y49.697 E35.52888
G1 X103.417 Y50.844 E35.64362
G1 X103.921 Y52.009 E35.75671
G1 X104.354 Y53.212 E35.87064
G1 X104.711 Y54.440 E35.98456
G1 X104.990 Y55.687 E36.09848
G1 X105.190 Y56.950 E36.21240
G1 X105.310 Y58.223 E36.32632
G1 X105.350 Y59.500 E36.44025
G1 X105.310 Y60.778 E36.55417
G1 X105.190 Y62.051 E36.66809
G1 X104.990 Y63.314 E36.78202
G1 X104.708 Y64.570 E36.89676
G1 X104.354 Y65.789 E37.00985
G1 X103.921 Y66.992 E37.12378
G1 X103.534 Y67.884 E37.21043
G1 X103.665 Y68.142 F7800.000
G1 E35.21043 F2400.00000
G92 E0
G1 X94.217 Y82.085 F7800.000
G1 E2.00000 F2400.00000
G1 F1800
G1 X94.217 Y113.717 E4.81878
G1 X75.783 Y113.711 E6.46142
G1 X75.783 Y82.085 E9.27967
G1 X74.611 Y81.578 E9.39346
G1 X73.245 Y80.882 E9.53005
G1 X71.926 Y80.102 E9.66664
G1 X70.658 Y79.240 E9.80323
G1 X69.447 Y78.301 E9.93982
G1 X68.297 Y77.287 E10.07641
G1 X67.214 Y76.203 E10.21300
G1 X66.200 Y75.053 E10.34959
G1 X65.260 Y73.842 E10.48618
G1 X64.405 Y72.584 E10.62175
G1 X63.618 Y71.255 E10.75939
G1 X62.923 Y69.889 E10.89595
G1 X62.314 Y68.483 E11.03254
G1 X61.795 Y67.040 E11.16913
G1 X61.367 Y65.568 E11.30572
G1 X61.033 Y64.072 E11.44231
G1 X60.793 Y62.559 E11.57890
G1 X60.649 Y61.033 E11.71549
G1 X60.601 Y59.500 E11.85208
G1 X60.649 Y57.968 E11.98867
G1 X60.793 Y56.442 E12.12526
G1 X61.033 Y54.928 E12.26185
G1 X61.365 Y53.444 E12.39742
G1 X61.795 Y51.960 E12.53506
G1 X62.314 Y50.518 E12.67162
G1 X62.923 Y49.112 E12.80821
G1 X63.619 Y47.746 E12.94480
G1 X64.399 Y46.427 E13.08139
G1 X65.260 Y45.159 E13.21798
G1 X66.200 Y43.948 E13.35457
G1 X67.214 Y42.798 E13.49116
G1 X68.289 Y41.722 E13.62672
G1 X69.448 Y40.700 E13.76437
G1 X70.658 Y39.761 E13.90093
G1 X71.926 Y38.899 E14.03752
G1 X73.245 Y38.119 E14.17411
G1 X74.611 Y37.423 E14.31070
G1 X76.018 Y36.814 E14.44729
G1 X77.460 Y36.295 E14.58385
G1 X78.943 Y35.865 E14.72150
G1 X80.428 Y35.533 E14.85706
G1 X81.942 Y35.293 E14.99365
G1 X83.468 Y35.149 E15.13021
G1 X85.012 Y35.101 E15.26786
G1 X86.532 Y35.149 E15.40342
G1 X88.058 Y35.293 E15.54001
G1 X89.572 Y35.533 E15.67660
G1 X91.068 Y35.868 E15.81319
G1 X92.540 Y36.295 E15.94978
G1 X93.982 Y36.814 E16.08637
G1 X95.389 Y37.423 E16.22296
G1 X96.755 Y38.119 E16.35955
G1 X98.074 Y38.899 E16.49611
G1 X99.351 Y39.768 E16.63376
G1 X100.553 Y40.700 E16.76932
G1 X101.703 Y41.714 E16.90591
G1 X102.786 Y42.798 E17.04250
G1 X103.800 Y43.948 E17.17909
G1 X104.740 Y45.159 E17.31568
G1 X105.601 Y46.427 E17.45227
G1 X106.381 Y47.746 E17.58886
G1 X107.077 Y49.112 E17.72545
G1 X107.686 Y50.518 E17.86204
G1 X108.205 Y51.961 E17.99863
G1 X108.633 Y53.433 E18.13522
G1 X108.967 Y54.928 E18.27181
G1 X109.207 Y56.442 E18.40840
G1 X109.351 Y57.968 E18.54499
G1 X109.399 Y59.500 E18.68158
G1 X109.351 Y61.033 E18.81817
G1 X109.207 Y62.559 E18.95476
G1 X108.967 Y64.072 E19.09135
G1 X108.633 Y65.568 E19.22794
G1 X108.205 Y67.040 E19.36453
G1 X107.686 Y68.483 E19.50112
G1 X107.077 Y69.889 E19.63771
G1 X106.381 Y71.255 E19.77430
G1 X105.601 Y72.574 E19.91089
G1 X104.740 Y73.842 E20.04748
G1 X103.800 Y75.053 E20.18407
G1 X102.786 Y76.203 E20.32066
G1 X101.703 Y77.287 E20.45725
G1 X100.553 Y78.301 E20.59384
G1 X99.342 Y79.240 E20.73043
G1 X98.074 Y80.102 E20.86702
G1 X96.755 Y80.882 E21.00361
G1 X95.389 Y81.578 E21.14020
G1 X94.272 Y82.061 E21.24865
G1 X94.842 Y82.495 F7800.000
G1 F1800
G1 X94.842 Y114.342 E24.08655
G1 X75.158 Y114.336 E25.84056
G1 X75.158 Y82.495 E28.67790
G1 X74.345 Y82.143 E28.75686
G1 X72.944 Y81.430 E28.89695
G1 X71.591 Y80.629 E29.03704
G1 X70.291 Y79.746 E29.17713
G1 X69.049 Y78.782 E29.31722
G1 X67.869 Y77.743 E29.45731
G1 X66.758 Y76.631 E29.59740
G1 X65.718 Y75.452 E29.73749
