; generated by Slic3r 1.3.0 on 2023-10-07 at 23:20:24

; external perimeters extrusion width = 0.44mm (2.78mm^3/s)
; perimeters extrusion width = 0.40mm (7.14mm^3/s)
; infill extrusion width = 0.50mm (10.97mm^3/s)
; solid infill extrusion width = 0.60mm (6.68mm^3/s)
; top infill extrusion width = 0.40mm (2.14mm^3/s)

M107
M190 S80 ; set bed temperature and wait for it to be reached
M104 S210 ; set temperature
G28 ; home all axes
G1 Z5 F5000 ; lift nozzle

; Filament gcode

M109 S210 ; set temperature and wait for it to be reached
G21 ; set units to millimeters
G90 ; use absolute coordinates
M82 ; use absolute distances for extrusion
G92 E0
G1 Z0.300 F30000.000
G1 E-2.00000 F2400.00000
G92 E0
G1 X63.392 Y62.550 F30000.000
G1 E2.00000 F2400.00000
G1 F2100
G1 X64.769 Y61.335 E2.12267
G1 X65.710 Y60.606 E2.20220
G1 X66.956 Y59.747 E2.30331
G1 X68.536 Y58.812 E2.42598
G1 X69.597 Y58.271 E2.50554
G1 X70.982 Y57.661 E2.60661
G1 X72.709 Y57.039 E2.72928
G1 X73.853 Y56.707 E2.80882
G1 X75.327 Y56.367 E2.90992
G1 X76.821 Y56.120 E3.01102
G1 X78.326 Y55.968 E3.11212
G1 X80.162 Y55.910 E3.23479
G1 X81.351 Y55.947 E3.31432
G1 X82.859 Y56.080 E3.41543
G1 X84.355 Y56.307 E3.51653
G1 X85.792 Y56.617 E3.61475
G1 X87.598 Y57.139 E3.74030
G1 X88.718 Y57.542 E3.81983
G1 X90.111 Y58.134 E3.92093
G1 X91.747 Y58.968 E4.04361
G1 X92.772 Y59.574 E4.12314
G1 X94.029 Y60.416 E4.22424
G1 X95.480 Y61.541 E4.34691
G1 X96.373 Y62.329 E4.42644
G1 X97.450 Y63.392 E4.52754
G1 X98.665 Y64.769 E4.65022
G1 X99.584 Y65.971 E4.75131
G1 X100.253 Y66.956 E4.83085
G1 X101.188 Y68.536 E4.95352
G1 X101.866 Y69.889 E5.05462
G1 X102.339 Y70.982 E5.13415
G1 X102.961 Y72.709 E5.25683
G1 X103.373 Y74.165 E5.35793
G1 X103.633 Y75.327 E5.43746
G1 X103.880 Y76.820 E5.53856
G1 X104.032 Y78.326 E5.63966
G1 X104.090 Y80.161 E5.76233
G1 X104.053 Y81.351 E5.84187
G1 X103.920 Y82.859 E5.94297
G1 X103.633 Y84.673 E6.06564
G1 X103.293 Y86.147 E6.16674
G1 X102.961 Y87.291 E6.24628
G1 X102.322 Y89.058 E6.37182
G1 X101.728 Y90.403 E6.47004
G1 X101.032 Y91.747 E6.57114
G1 X100.426 Y92.772 E6.65068
G1 X99.584 Y94.029 E6.75178
G1 X98.459 Y95.480 E6.87446
G1 X97.671 Y96.373 E6.95399
G1 X96.608 Y97.450 E7.05509
G1 X95.231 Y98.665 E7.17776
G1 X94.290 Y99.394 E7.25730
G1 X93.044 Y100.253 E7.35839
G1 X91.464 Y101.188 E7.48107
G1 X90.403 Y101.728 E7.56060
G1 X89.018 Y102.339 E7.66170
G1 X87.598 Y102.861 E7.76281
G1 X86.147 Y103.293 E7.86390
G1 X84.355 Y103.693 E7.98658
G1 X83.179 Y103.880 E8.06612
G1 X81.674 Y104.032 E8.16721
G1 X79.838 Y104.090 E8.28988
G1 X78.649 Y104.053 E8.36941
G1 X77.141 Y103.920 E8.47052
G1 X75.327 Y103.633 E8.59319
G1 X74.165 Y103.373 E8.67272
G1 X72.709 Y102.961 E8.77382
G1 X71.282 Y102.458 E8.87492
G1 X69.929 Y101.883 E8.97314
G1 X68.253 Y101.032 E9.09869
G1 X66.956 Y100.253 E9.19980
G1 X65.971 Y99.584 E9.27934
G1 X64.520 Y98.459 E9.40200
G1 X63.627 Y97.671 E9.48153
G1 X62.550 Y96.608 E9.58263
G1 X61.335 Y95.231 E9.70530
G1 X60.606 Y94.290 E9.78483
G1 X59.747 Y93.044 E9.88594
G1 X58.812 Y91.464 E10.00861
G1 X58.272 Y90.403 E10.08814
G1 X57.661 Y89.018 E10.18924
G1 X57.039 Y87.291 E10.31191
G1 X56.627 Y85.835 E10.41301
G1 X56.367 Y84.673 E10.49255
G1 X56.080 Y82.859 E10.61522
G1 X55.947 Y81.351 E10.71632
G1 X55.910 Y79.839 E10.81742
G1 X55.968 Y78.326 E10.91853
G1 X56.080 Y77.141 E10.99806
G1 X56.367 Y75.327 E11.12073
G1 X56.707 Y73.853 E11.22183
G1 X57.039 Y72.709 E11.30136
G1 X57.661 Y70.982 E11.42404
G1 X58.271 Y69.597 E11.52510
G1 X58.812 Y68.536 E11.60467
G1 X59.747 Y66.956 E11.72734
G1 X60.416 Y65.971 E11.80687
G1 X61.335 Y64.769 E11.90797
G1 X62.329 Y63.627 E12.00908
G1 X63.349 Y62.592 E12.10617
G1 X63.770 Y62.929 F30000.000
G1 F2100
G1 X65.097 Y61.759 E12.22435
G1 X66.038 Y61.029 E12.30388
G1 X67.257 Y60.190 E12.40274
G1 X68.779 Y59.289 E12.52092
G1 X69.840 Y58.749 E12.60048
G1 X71.194 Y58.153 E12.69930
G1 X72.584 Y57.643 E12.79816
G1 X73.961 Y57.233 E12.89413
G1 X75.728 Y56.836 E13.01519
G1 X76.904 Y56.649 E13.09472
G1 X78.377 Y56.501 E13.19357
G1 X80.145 Y56.445 E13.31175
G1 X81.623 Y56.501 E13.41061
G1 X82.809 Y56.613 E13.49014
G1 X84.556 Y56.890 E13.60832
G1 X85.718 Y57.149 E13.68785
G1 X87.141 Y57.554 E13.78670
G1 X88.806 Y58.153 E13.90488
G1 X89.898 Y58.626 E13.98441
G1 X91.221 Y59.289 E14.08327
G1 X92.499 Y60.035 E14.18212
G1 X93.728 Y60.859 E14.28098
G1 X95.126 Y61.943 E14.39916
G1 X96.019 Y62.730 E14.47869
G1 X97.071 Y63.770 E14.57754
G1 X98.241 Y65.097 E14.69572
G1 X99.141 Y66.272 E14.79457
G1 X99.810 Y67.257 E14.87411
G1 X100.711 Y68.779 E14.99229
G1 X101.251 Y69.840 E15.07182
G1 X101.847 Y71.194 E15.17067
G1 X102.446 Y72.859 E15.28885
G1 X102.851 Y74.282 E15.38770
G1 X103.110 Y75.444 E15.46724
G1 X103.351 Y76.904 E15.56609
G1 X103.499 Y78.377 E15.66495
G1 X103.555 Y80.145 E15.78312
G1 X103.517 Y81.335 E15.86266
G1 X103.387 Y82.809 E15.96151
G1 X103.110 Y84.556 E16.07969
G1 X102.779 Y85.998 E16.17855
G1 X102.446 Y87.141 E16.25808
G1 X101.830 Y88.845 E16.37913
G1 X101.251 Y90.160 E16.47510
G1 X100.571 Y91.474 E16.57395
G1 X99.965 Y92.499 E16.65349
G1 X99.141 Y93.728 E16.75235
G1 X98.057 Y95.126 E16.87053
G1 X97.270 Y96.019 E16.95006
G1 X96.230 Y97.071 E17.04891
G1 X94.903 Y98.241 E17.16709
G1 X93.962 Y98.971 E17.24663
G1 X92.743 Y99.810 E17.34548
G1 X91.221 Y100.711 E17.46366
G1 X90.160 Y101.251 E17.54319
G1 X88.806 Y101.847 E17.64204
G1 X87.416 Y102.357 E17.74090
G1 X85.998 Y102.779 E17.83975
G1 X84.272 Y103.164 E17.95793
G1 X83.096 Y103.351 E18.03747
G1 X81.623 Y103.499 E18.13632
G1 X79.855 Y103.555 E18.25450
G1 X78.665 Y103.517 E18.33403
G1 X77.191 Y103.387 E18.43288
G1 X75.444 Y103.110 E18.55106
G1 X74.282 Y102.851 E18.63059
G1 X72.859 Y102.446 E18.72945
G1 X71.194 Y101.847 E18.84763
G1 X70.102 Y101.374 E18.92716
G1 X68.779 Y100.711 E19.02601
G1 X67.501 Y99.965 E19.12487
G1 X66.308 Y99.165 E19.22085
G1 X64.874 Y98.057 E19.34190
G1 X63.981 Y97.270 E19.42143
G1 X62.929 Y96.230 E19.52028
G1 X61.759 Y94.903 E19.63846
G1 X61.029 Y93.962 E19.71799
G1 X60.190 Y92.743 E19.81685
G1 X59.289 Y91.221 E19.93502
G1 X58.749 Y90.160 E20.01455
G1 X58.153 Y88.806 E20.11341
G1 X57.554 Y87.141 E20.23159
G1 X57.149 Y85.718 E20.33044
G1 X56.890 Y84.556 E20.40998
G1 X56.613 Y82.809 E20.52815
G1 X56.483 Y81.335 E20.62701
G1 X56.445 Y79.855 E20.72586
G1 X56.483 Y78.665 E20.80540
G1 X56.613 Y77.191 E20.90425
G1 X56.890 Y75.444 E21.02243
G1 X57.221 Y74.002 E21.12128
G1 X57.554 Y72.859 E21.20082
G1 X58.153 Y71.194 E21.31900
G1 X58.749 Y69.840 E21.41782
G1 X59.289 Y68.779 E21.49738
G1 X60.190 Y67.257 E21.61556
G1 X60.859 Y66.272 E21.69509
G1 X61.759 Y65.097 E21.79394
G1 X62.730 Y63.981 E21.89280
G1 X63.728 Y62.971 E21.98765
G1 X64.149 Y63.307 F30000.000
G1 F2100
G1 X65.426 Y62.182 E22.10133
G1 X66.366 Y61.452 E22.18086
G1 X67.558 Y60.633 E22.27747
G1 X69.022 Y59.767 E22.39116
G1 X70.084 Y59.226 E22.47072
G1 X71.407 Y58.644 E22.56730
G1 X72.765 Y58.147 E22.66391
G1 X74.110 Y57.748 E22.75763
G1 X75.812 Y57.365 E22.87419
G1 X76.988 Y57.178 E22.95372
G1 X78.427 Y57.034 E23.05033
G1 X80.128 Y56.981 E23.16402
G1 X81.318 Y57.018 E23.24355
G1 X82.758 Y57.146 E23.34016
G1 X84.188 Y57.365 E23.43676
G1 X85.559 Y57.663 E23.53049
G1 X87.235 Y58.147 E23.64705
G1 X88.593 Y58.644 E23.74366
G1 X89.685 Y59.117 E23.82319
G1 X91.202 Y59.890 E23.93688
G1 X92.226 Y60.496 E24.01641
G1 X93.427 Y61.302 E24.11302
G1 X94.772 Y62.345 E24.22670
G1 X95.665 Y63.132 E24.30623
G1 X96.693 Y64.149 E24.40284
G1 X97.818 Y65.426 E24.51652
G1 X98.698 Y66.573 E24.61312
G1 X99.367 Y67.558 E24.69266
G1 X100.233 Y69.022 E24.80635
G1 X100.774 Y70.083 E24.88588
G1 X101.356 Y71.407 E24.98249
G1 X101.932 Y73.008 E25.09617
G1 X102.328 Y74.399 E25.19278
G1 X102.588 Y75.561 E25.27231
G1 X102.822 Y76.988 E25.36892
G1 X102.966 Y78.427 E25.46553
G1 X103.019 Y80.128 E25.57921
G1 X102.982 Y81.318 E25.65874
G1 X102.854 Y82.758 E25.75535
G1 X102.588 Y84.439 E25.86904
G1 X102.264 Y85.848 E25.96564
G1 X101.932 Y86.992 E26.04518
G1 X101.339 Y88.632 E26.16174
G1 X100.774 Y89.917 E26.25546
G1 X100.110 Y91.202 E26.35206
G1 X99.504 Y92.226 E26.43160
G1 X98.698 Y93.427 E26.52821
G1 X97.655 Y94.772 E26.64190
G1 X96.868 Y95.665 E26.72143
G1 X95.851 Y96.693 E26.81803
G1 X94.574 Y97.818 E26.93172
G1 X93.634 Y98.548 E27.01126
G1 X92.442 Y99.367 E27.10786
G1 X90.978 Y100.233 E27.22154
G1 X89.917 Y100.774 E27.30108
G1 X88.593 Y101.356 E27.39769
G1 X86.992 Y101.932 E27.51137
G1 X85.849 Y102.264 E27.59090
G1 X84.439 Y102.588 E27.68751
G1 X83.012 Y102.822 E27.78412
G1 X81.573 Y102.966 E27.88072
G1 X79.872 Y103.019 E27.99441
G1 X78.682 Y102.982 E28.07394
G1 X77.242 Y102.854 E28.17055
G1 X75.561 Y102.588 E28.28423
G1 X74.399 Y102.328 E28.36377
G1 X73.008 Y101.932 E28.46037
G1 X71.407 Y101.356 E28.57406
G1 X70.315 Y100.883 E28.65359
G1 X69.022 Y100.233 E28.75019
G1 X67.774 Y99.504 E28.84680
G1 X66.609 Y98.722 E28.94053
G1 X65.228 Y97.655 E29.05709
G1 X64.335 Y96.868 E29.13662
G1 X63.307 Y95.851 E29.23323
G1 X62.182 Y94.574 E29.34692
G1 X61.452 Y93.634 E29.42645
G1 X60.633 Y92.442 E29.52305
G1 X59.767 Y90.978 E29.63674
G1 X59.226 Y89.917 E29.71627
G1 X58.644 Y88.593 E29.81288
G1 X58.068 Y86.992 E29.92656
G1 X57.672 Y85.601 E30.02317
G1 X57.412 Y84.439 E30.10270
G1 X57.146 Y82.758 E30.21639
G1 X57.018 Y81.318 E30.31300
G1 X56.981 Y79.872 E30.40960
G1 X57.018 Y78.682 E30.48913
G1 X57.146 Y77.242 E30.58574
G1 X57.412 Y75.561 E30.69943
G1 X57.736 Y74.152 E30.79603
G1 X58.068 Y73.008 E30.87557
G1 X58.644 Y71.407 E30.98925
G1 X59.226 Y70.084 E31.08583
G1 X59.767 Y69.022 E31.16539
G1 X60.633 Y67.558 E31.27907
G1 X61.302 Y66.573 E31.35861
G1 X62.182 Y65.426 E31.45521
G1 X63.132 Y64.335 E31.55182
G1 X64.107 Y63.350 E31.64442
G1 X64.528 Y63.686 F30000.000
G1 F2100
G1 X65.754 Y62.605 E31.75362
G1 X66.874 Y61.745 E31.84798
G1 X67.859 Y61.076 E31.92751
G1 X69.266 Y60.244 E32.03670
G1 X70.327 Y59.703 E32.11625
G1 X71.620 Y59.136 E32.21059
G1 X73.158 Y58.582 E32.31978
G1 X74.301 Y58.250 E32.39931
G1 X75.678 Y57.935 E32.49367
G1 X77.072 Y57.707 E32.58804
G1 X78.477 Y57.567 E32.68240
G1 X80.111 Y57.516 E32.79159
G1 X81.301 Y57.554 E32.87112
G1 X82.708 Y57.680 E32.96548
G1 X84.322 Y57.935 E33.07467
G1 X85.484 Y58.195 E33.15420
G1 X86.842 Y58.582 E33.24856
G1 X88.380 Y59.136 E33.35775
G1 X89.473 Y59.609 E33.43728
G1 X90.734 Y60.244 E33.53165
G1 X91.954 Y60.957 E33.62601
G1 X93.126 Y61.745 E33.72037
G1 X94.417 Y62.747 E33.82956
G1 X95.310 Y63.534 E33.90909
G1 X96.314 Y64.528 E34.00345
G1 X97.395 Y65.754 E34.11264
G1 X98.255 Y66.874 E34.20700
G1 X98.924 Y67.859 E34.28654
G1 X99.756 Y69.266 E34.39573
G1 X100.297 Y70.326 E34.47526
G1 X100.864 Y71.620 E34.56962
G1 X101.418 Y73.158 E34.67881
G1 X101.805 Y74.516 E34.77317
G1 X102.065 Y75.678 E34.85270
G1 X102.293 Y77.072 E34.94706
G1 X102.433 Y78.477 E35.04142
G1 X102.484 Y80.111 E35.15061
G1 X102.446 Y81.301 E35.23015
G1 X102.320 Y82.708 E35.32451
G1 X102.065 Y84.322 E35.43370
G1 X101.750 Y85.699 E35.52806
G1 X101.418 Y86.842 E35.60759
G1 X100.847 Y88.420 E35.71966
G1 X100.297 Y89.674 E35.81113
G1 X99.649 Y90.929 E35.90549
G1 X99.043 Y91.954 E35.98503
G1 X98.255 Y93.126 E36.07939
G1 X97.253 Y94.417 E36.18858
G1 X96.314 Y95.472 E36.28294
G1 X95.472 Y96.314 E36.36247
G1 X94.246 Y97.395 E36.47167
G1 X93.305 Y98.125 E36.55120
G1 X92.141 Y98.924 E36.64556
G1 X90.734 Y99.756 E36.75475
G1 X89.674 Y100.297 E36.83428
G1 X88.380 Y100.864 E36.92864
G1 X86.842 Y101.418 E37.03783
G1 X85.699 Y101.750 E37.11736
G1 X84.322 Y102.065 E37.21172
G1 X82.928 Y102.293 E37.30609
G1 X81.523 Y102.433 E37.40045
G1 X79.889 Y102.484 E37.50964
G1 X78.699 Y102.446 E37.58917
G1 X77.292 Y102.320 E37.68353
G1 X75.678 Y102.065 E37.79272
G1 X74.516 Y101.805 E37.87225
G1 X73.158 Y101.418 E37.96661
G1 X71.620 Y100.864 E38.07580
G1 X70.527 Y100.391 E38.15533
G1 X69.266 Y99.756 E38.24970
G1 X68.046 Y99.043 E38.34406
G1 X66.910 Y98.279 E38.43553
G1 X65.583 Y97.253 E38.54761
G1 X64.690 Y96.466 E38.62714
G1 X63.686 Y95.472 E38.72150
G1 X62.605 Y94.246 E38.83069
G1 X61.875 Y93.306 E38.91022
G1 X61.076 Y92.141 E39.00458
G1 X60.244 Y90.734 E39.11377
G1 X59.703 Y89.674 E39.19330
G1 X59.136 Y88.380 E39.28766
G1 X58.582 Y86.842 E39.39685
G1 X58.195 Y85.484 E39.49121
G1 X57.935 Y84.322 E39.57075
G1 X57.680 Y82.708 E39.67994
G1 X57.554 Y81.301 E39.77430
G1 X57.516 Y79.889 E39.86866
G1 X57.554 Y78.699 E39.94819
G1 X57.680 Y77.292 E40.04255
G1 X57.935 Y75.678 E40.15174
G1 X58.250 Y74.301 E40.24610
G1 X58.582 Y73.158 E40.32564
G1 X59.136 Y71.620 E40.43483
G1 X59.703 Y70.327 E40.52916
G1 X60.244 Y69.266 E40.60872
G1 X61.076 Y67.859 E40.71791
G1 X61.745 Y66.874 E40.79744
G1 X62.605 Y65.754 E40.89180
G1 X63.534 Y64.690 E40.98616
G1 X64.485 Y63.728 E41.07652
G1 E39.07652 F2400.00000
G92 E0
G1 X88.830 Y88.252 F30000.000
G1 E2.00000 F2400.00000
G1 F2100
G1 X88.274 Y88.810 E2.05259
G1 X87.704 Y89.312 E2.10338
G1 X87.103 Y89.778 E2.15417
G1 X86.451 Y90.219 E2.20675
G1 X85.823 Y90.591 E2.25554
G1 X85.145 Y90.936 E2.30633
G1 X84.422 Y91.247 E2.35892
G1 X83.735 Y91.495 E2.40771
G1 X83.005 Y91.707 E2.45850
G1 X82.236 Y91.877 E2.51108
G1 X81.515 Y91.991 E2.55987
G1 X80.759 Y92.062 E2.61060
G1 X80.000 Y92.086 E2.66132
G1 X79.241 Y92.062 E2.71204
G1 X78.485 Y91.991 E2.76276
G1 X77.735 Y91.872 E2.81349
G1 X76.994 Y91.706 E2.86421
G1 X76.265 Y91.495 E2.91493
G1 X75.550 Y91.237 E2.96572
G1 X74.828 Y90.923 E3.01831
G1 X74.177 Y90.591 E3.06710
G1 X73.524 Y90.205 E3.11782
G1 X72.896 Y89.778 E3.16854
G1 X72.296 Y89.312 E3.21927
G1 X71.727 Y88.810 E3.26999
G1 X71.190 Y88.273 E3.32071
G1 X70.688 Y87.704 E3.37144
G1 X70.222 Y87.104 E3.42216
G1 X69.795 Y86.476 E3.47288
G1 X69.409 Y85.823 E3.52361
G1 X69.064 Y85.146 E3.57433
G1 X68.763 Y84.449 E3.62505
G1 X68.505 Y83.735 E3.67577
G1 X68.294 Y83.006 E3.72650
G1 X68.128 Y82.265 E3.77722
G1 X68.009 Y81.515 E3.82794
G1 X67.930 Y80.674 E3.88436
G1 X67.914 Y79.997 E3.92963
G1 X67.938 Y79.241 E3.98012
G1 X68.009 Y78.485 E4.03085
G1 X68.128 Y77.735 E4.08157
G1 X68.294 Y76.994 E4.13229
G1 X68.505 Y76.265 E4.18302
G1 X68.763 Y75.551 E4.23374
G1 X69.064 Y74.854 E4.28446
G1 X69.396 Y74.203 E4.33325
G1 X69.795 Y73.525 E4.38584
G1 X70.222 Y72.896 E4.43663
G1 X70.670 Y72.319 E4.48542
G1 X71.190 Y71.726 E4.53807
G1 X71.748 Y71.170 E4.59072
G1 X72.296 Y70.688 E4.63951
G1 X72.897 Y70.222 E4.69030
G1 X73.549 Y69.781 E4.74289
G1 X74.177 Y69.409 E4.79168
G1 X74.854 Y69.064 E4.84240
G1 X75.551 Y68.763 E4.89312
G1 X76.265 Y68.505 E4.94385
G1 X76.994 Y68.294 E4.99457
G1 X77.735 Y68.128 E5.04529
G1 X78.486 Y68.009 E5.09608
G1 X79.270 Y67.937 E5.14867
G1 X79.997 Y67.914 E5.19723
G1 X80.674 Y67.930 E5.24250
G1 X81.515 Y68.009 E5.29892
G1 X82.265 Y68.128 E5.34964
G1 X83.006 Y68.294 E5.40036
G1 X83.735 Y68.505 E5.45109
G1 X84.449 Y68.763 E5.50181
G1 X85.146 Y69.064 E5.55253
G1 X85.823 Y69.409 E5.60325
G1 X86.477 Y69.796 E5.65404
G1 X87.127 Y70.240 E5.70663
G1 X87.704 Y70.688 E5.75542
G1 X88.273 Y71.190 E5.80614
G1 X88.810 Y71.727 E5.85687
G1 X89.312 Y72.296 E5.90759
G1 X89.778 Y72.896 E5.95831
G1 X90.205 Y73.524 E6.00903
G1 X90.591 Y74.177 E6.05976
G1 X90.936 Y74.854 E6.11048
G1 X91.237 Y75.551 E6.16120
G1 X91.485 Y76.238 E6.20999
G1 X91.706 Y76.993 E6.26258
G1 X91.872 Y77.735 E6.31337
G1 X91.991 Y78.485 E6.36409
G1 X92.062 Y79.241 E6.41481
G1 X92.086 Y80.000 E6.46554
G1 X92.062 Y80.759 E6.51626
G1 X91.991 Y81.515 E6.56698
G1 X91.872 Y82.265 E6.61771
G1 X91.713 Y82.977 E6.66650
G1 X91.495 Y83.734 E6.71908
G1 X91.237 Y84.449 E6.76987
G1 X90.936 Y85.146 E6.82059
G1 X90.591 Y85.823 E6.87132
G1 X90.205 Y86.476 E6.92204
G1 X89.778 Y87.104 E6.97276
G1 X89.312 Y87.704 E7.02349
G1 X88.869 Y88.207 E7.06827
G1 X88.438 Y87.885 F30000.000
G1 F2100
G1 X87.907 Y88.419 E7.11860
G1 X87.362 Y88.900 E7.16710
G1 X86.789 Y89.345 E7.21560
G1 X86.165 Y89.767 E7.26594
G1 X85.564 Y90.121 E7.31252
G1 X84.918 Y90.451 E7.36102
G1 X84.225 Y90.749 E7.41136
G1 X83.569 Y90.985 E7.45794
G1 X82.872 Y91.187 E7.50644
G1 X82.136 Y91.350 E7.55678
G1 X81.448 Y91.459 E7.60336
G1 X80.725 Y91.527 E7.65183
G1 X80.000 Y91.550 E7.70031
G1 X79.275 Y91.527 E7.74878
G1 X78.552 Y91.459 E7.79725
G1 X77.836 Y91.346 E7.84573
G1 X77.128 Y91.187 E7.89420
G1 X76.431 Y90.985 E7.94268
