; generated by Slic3r 1.3.0 on 2023-10-25 at 21:41:41

; external perimeters extrusion width = 0.44mm (2.78mm^3/s)
; perimeters extrusion width = 0.40mm (7.14mm^3/s)
; infill extrusion width = 0.50mm (10.97mm^3/s)
; solid infill extrusion width = 0.60mm (6.68mm^3/s)
; top infill extrusion width = 0.40mm (2.14mm^3/s)

M107
M190 S80 ; set bed temperature and wait for it to be reached
M104 S210 ; set temperature
G28 ; home all axes
G1 Z5 F5000 ; lift nozzle

; Filament gcode

M109 S210 ; set temperature and wait for it to be reached
G21 ; set units to millimeters
G90 ; use absolute coordinates
M82 ; use absolute distances for extrusion
G92 E0
G1 Z0.300 F30000.000
G1 E-2.00000 F2400.00000
G92 E0
G1 X62.958 Y57.510 F30000.000
G1 E2.00000 F2400.00000
G1 F2100
G1 X63.889 Y56.857 E2.07598
G1 X71.889 Y52.607 E2.68116
G1 X74.050 Y52.068 E2.82996
G1 X93.950 Y52.068 E4.15939
G1 X95.818 Y52.464 E4.28694
G1 X97.365 Y53.583 E4.41449
G1 X98.325 Y55.233 E4.54205
G1 X98.557 Y56.675 E4.63962
G1 X98.557 Y103.325 E7.75609
G1 X98.161 Y105.193 E7.88364
G1 X97.042 Y106.740 E8.01119
G1 X95.392 Y107.700 E8.13875
G1 X93.950 Y107.932 E8.23632
G1 X66.050 Y107.932 E10.10019
G1 X64.182 Y107.536 E10.22774
G1 X62.635 Y106.417 E10.35529
G1 X61.675 Y104.767 E10.48284
G1 X61.443 Y103.325 E10.58041
G1 X61.443 Y60.925 E13.41296
G1 X61.839 Y59.057 E13.54052
G1 X62.923 Y57.559 E13.66406
G1 X64.140 Y57.330 F30000.000
G1 F2100
G1 X72.140 Y53.080 E14.26924
G1 X74.050 Y52.604 E14.40074
G1 X93.950 Y52.604 E15.73017
G1 X95.700 Y52.999 E15.84999
G1 X97.110 Y54.107 E15.96981
G1 X97.906 Y55.714 E16.08963
G1 X98.021 Y56.675 E16.15427
G1 X98.021 Y103.325 E19.27074
G1 X97.626 Y105.075 E19.39056
G1 X96.518 Y106.485 E19.51039
G1 X94.911 Y107.281 E19.63021
G1 X93.950 Y107.396 E19.69484
G1 X66.050 Y107.396 E21.55871
G1 X64.300 Y107.001 E21.67854
G1 X62.890 Y105.893 E21.79836
G1 X62.094 Y104.286 E21.91818
G1 X61.979 Y103.325 E21.98281
G1 X61.979 Y60.925 E24.81536
G1 X62.374 Y59.175 E24.93519
G1 X64.098 Y57.373 E25.10184
G1 X64.391 Y57.803 F30000.000
G1 F2100
G1 X72.391 Y53.553 E25.70702
G1 X74.050 Y53.139 E25.82122
G1 X93.950 Y53.139 E27.15065
G1 X95.573 Y53.534 E27.26221
G1 X96.833 Y54.629 E27.37376
G1 X97.486 Y56.675 E27.51724
G1 X97.486 Y103.325 E30.63371
G1 X97.091 Y104.948 E30.74527
G1 X95.996 Y106.208 E30.85683
G1 X93.950 Y106.861 E31.00030
G1 X66.050 Y106.861 E32.86417
G1 X64.427 Y106.466 E32.97573
G1 X63.167 Y105.371 E33.08729
G1 X62.514 Y103.325 E33.23076
G1 X62.514 Y60.925 E36.06331
G1 X62.909 Y59.302 E36.17487
G1 X64.349 Y57.845 E36.31174
G1 E34.31174 F2400.00000
G92 E0
G1 X68.114 Y101.261 F30000.000
G1 E2.00000 F2400.00000
G1 F2100
G1 X93.114 Y101.261 E3.67014
G1 X93.114 Y102.489 E3.75222
G1 X66.886 Y102.489 E5.50445
G1 X66.886 Y61.761 E8.22535
G1 X88.886 Y61.761 E9.69507
G1 X88.886 Y58.739 E9.89690
G1 X74.886 Y58.739 E10.83218
G1 X74.886 Y57.511 E10.91427
G1 X93.114 Y57.511 E12.13205
G1 X93.114 Y62.989 E12.49806
G1 X68.114 Y62.989 E14.16819
G1 X68.114 Y101.201 E16.72091
G1 X68.650 Y100.725 F30000.000
G1 F2100
G1 X93.650 Y100.725 E18.39104
G1 X93.650 Y103.025 E18.54470
G1 X66.350 Y103.025 E20.36848
G1 X66.350 Y61.225 E23.16095
G1 X88.350 Y61.225 E24.63067
G1 X88.350 Y59.275 E24.76094
G1 X74.350 Y59.275 E25.69622
G1 X74.350 Y56.975 E25.84987
G1 X93.650 Y56.975 E27.13921
G1 X93.650 Y63.525 E27.57679
G1 X68.650 Y63.525 E29.24692
G1 X68.650 Y100.665 E31.72808
G1 X68.572 Y101.117 F30000.000
G1 X67.847 Y101.875 F30000.000
G1 F2100
G1 X92.847 Y101.875 E33.68865
G1 E31.68865 F2400.00000
G92 E0
G1 X67.847 Y101.875 F30000.000
G1 E2.00000 F2400.00000
G1 F2100
G1 X67.559 Y101.816 E2.02589
G1 X67.520 Y101.624 E2.04316
G1 F2100
G1 X67.500 Y101.528 E2.05082
G1 X67.500 Y62.722 E5.09416
G1 F2100
G1 X67.559 Y62.434 E5.12006
G1 X67.751 Y62.395 E5.13732
G1 F2100
G1 X67.847 Y62.375 E5.14498
G1 X89.153 Y62.375 E6.81593
G1 E4.81593 F2400.00000
G92 E0
G1 X92.522 Y62.511 F30000.000
G1 E2.00000 F2400.00000
G1 F2100
G1 X92.636 Y62.397 E2.01150
G1 X92.636 Y61.586 E2.06948
G1 X91.711 Y62.511 E2.16298
G1 X90.900 Y62.511 E2.22095
G1 X92.636 Y60.775 E2.39644
G1 X92.636 Y59.964 E2.45441
G1 X90.089 Y62.511 E2.71189
G1 X89.632 Y62.511 E2.74459
G1 X89.632 Y62.157 E2.76987
G1 X92.636 Y59.154 E3.07358
G1 X92.636 Y58.343 E3.13156
G1 X89.429 Y61.550 E3.45584
G1 X89.364 Y61.550 E3.46045
G1 X89.364 Y60.803 E3.51382
G1 X92.178 Y57.989 E3.79838
G1 X91.368 Y57.989 E3.85635
G1 X89.364 Y59.993 E4.05892
G1 X89.364 Y59.182 E4.11690
G1 X89.596 Y58.950 E4.14030
G1 X89.746 Y58.950 E4.15102
G1 X89.746 Y58.800 E4.16175
G1 X90.557 Y57.989 E4.24376
G1 X89.746 Y57.989 E4.30173
G1 X89.632 Y58.103 E4.31322
G1 X89.153 Y58.125 F30000.000
G1 F2100
G1 X75.153 Y58.125 E5.41114
G1 Z0.500 F30000.000
G1 X89.050 Y58.125 F30000.000
G1 X89.950 Y58.575 F30000.000
G1 X91.000 Y59.625 F30000.000
G1 X91.000 Y60.875 F30000.000
G1 X89.950 Y61.925 F30000.000
G1 X89.050 Y62.375 F30000.000
G1 X67.577 Y62.452 F30000.000
G1 X67.500 Y101.425 F30000.000
G1 X67.950 Y101.425 F30000.000
G1 X68.353 Y101.022 F30000.000
G1 F6000
G1 X93.353 Y101.022 E6.15342
G1 X93.353 Y102.728 E6.20407
G1 X66.647 Y102.728 E6.99700
G1 X66.647 Y61.522 E8.22046
G1 X88.647 Y61.522 E8.87367
G1 X88.647 Y58.978 E8.94921
G1 X74.647 Y58.978 E9.36488
G1 X74.647 Y57.272 E9.41553
G1 X93.353 Y57.272 E9.97093
G1 X93.353 Y63.228 E10.14777
G1 X68.353 Y63.228 E10.89005
G1 X68.353 Y100.962 E12.01043
G1 X68.730 Y100.645 F30000.000
G1 F2100
G1 X93.730 Y100.645 E12.83586
G1 X93.730 Y103.105 E12.91708
G1 X66.270 Y103.105 E13.82374
G1 X66.270 Y61.145 E15.20915
G1 X88.270 Y61.145 E15.93553
G1 X88.270 Y59.355 E15.99463
G1 X74.270 Y59.355 E16.45687
G1 X74.270 Y56.895 E16.53809
G1 X93.730 Y56.895 E17.18061
G1 X93.730 Y63.605 E17.40216
G1 X68.730 Y63.605 E18.22759
G1 X68.730 Y100.585 E19.44857
G1 X68.651 Y101.037 F30000.000
G1 X68.635 Y101.431 F30000.000
G1 F3600
G1 X69.524 Y102.319 E19.50696
G1 X70.314 Y102.319 E19.54368
G1 X69.425 Y101.431 E19.60208
G1 X70.215 Y101.431 E19.63880
G1 X71.104 Y102.319 E19.69719
G1 X71.894 Y102.319 E19.73391
G1 X71.006 Y101.431 E19.79231
G1 X71.796 Y101.431 E19.82903
G1 X72.685 Y102.319 E19.88742
G1 X73.475 Y102.319 E19.92414
G1 X72.586 Y101.431 E19.98254
G1 X73.376 Y101.431 E20.01926
G1 X74.265 Y102.319 E20.07765
G1 X75.055 Y102.319 E20.11437
G1 X74.167 Y101.431 E20.17277
G1 X74.957 Y101.431 E20.20949
G1 X75.846 Y102.319 E20.26788
G1 X76.636 Y102.319 E20.30460
G1 X75.747 Y101.431 E20.36300
G1 X76.538 Y101.431 E20.39972
G1 X77.426 Y102.319 E20.45811
G1 X78.216 Y102.319 E20.49483
G1 X77.328 Y101.431 E20.55323
G1 X78.118 Y101.431 E20.58994
G1 X79.007 Y102.319 E20.64834
G1 X79.797 Y102.319 E20.68506
G1 X78.908 Y101.431 E20.74346
G1 X79.699 Y101.431 E20.78017
G1 X80.587 Y102.319 E20.83857
G1 X81.377 Y102.319 E20.87529
G1 X80.489 Y101.431 E20.93368
G1 X81.279 Y101.431 E20.97040
G1 X82.168 Y102.319 E21.02880
G1 X82.958 Y102.319 E21.06552
G1 X82.069 Y101.431 E21.12391
G1 X82.860 Y101.431 E21.16063
G1 X83.748 Y102.319 E21.21903
G1 X84.539 Y102.319 E21.25575
G1 X83.650 Y101.431 E21.31414
G1 X84.440 Y101.431 E21.35086
G1 X85.329 Y102.319 E21.40926
G1 X86.119 Y102.319 E21.44598
G1 X85.230 Y101.431 E21.50437
G1 X86.021 Y101.431 E21.54109
G1 X86.909 Y102.319 E21.59949
G1 X87.700 Y102.319 E21.63621
G1 X86.811 Y101.431 E21.69460
G1 X87.601 Y101.431 E21.73132
G1 X88.490 Y102.319 E21.78972
G1 X89.280 Y102.319 E21.82644
G1 X88.391 Y101.431 E21.88483
G1 X89.182 Y101.431 E21.92155
G1 X90.070 Y102.319 E21.97995
G1 X90.861 Y102.319 E22.01667
G1 X89.972 Y101.431 E22.07506
G1 X90.762 Y101.431 E22.11178
G1 X91.651 Y102.319 E22.17018
G1 X92.441 Y102.319 E22.20689
G1 X91.552 Y101.431 E22.26529
G1 X92.343 Y101.431 E22.30201
G1 X92.944 Y102.032 E22.34154
G1 X67.153 Y102.319 F30000.000
G1 F3600
G1 X67.056 Y102.222 E22.34791
G1 X67.056 Y101.432 E22.38463
G1 X67.943 Y102.319 E22.44295
G1 X68.733 Y102.319 E22.47967
G1 X67.056 Y100.642 E22.58991
G1 X67.056 Y99.851 E22.62663
G1 X67.944 Y100.740 E22.68502
G1 X67.944 Y99.950 E22.72174
G1 X67.056 Y99.061 E22.78014
G1 X67.056 Y98.271 E22.81685
G1 X67.944 Y99.160 E22.87525
G1 X67.944 Y98.369 E22.91197
G1 X67.056 Y97.481 E22.97037
G1 X67.056 Y96.690 E23.00708
G1 X67.944 Y97.579 E23.06548
G1 X67.944 Y96.789 E23.10220
G1 X67.056 Y95.900 E23.16060
G1 X67.056 Y95.110 E23.19731
G1 X67.944 Y95.999 E23.25571
G1 X67.944 Y95.208 E23.29243
G1 X67.056 Y94.320 E23.35083
G1 X67.056 Y93.529 E23.38754
G1 X67.944 Y94.418 E23.44594
G1 X67.944 Y93.628 E23.48266
G1 X67.056 Y92.739 E23.54106
G1 X67.056 Y91.949 E23.57777
G1 X67.944 Y92.837 E23.63617
G1 X67.944 Y92.047 E23.67289
G1 X67.056 Y91.159 E23.73129
G1 X67.056 Y90.368 E23.76800
G1 X67.944 Y91.257 E23.82640
G1 X67.944 Y90.467 E23.86312
G1 X67.056 Y89.578 E23.92151
G1 X67.056 Y88.788 E23.95823
G1 X67.944 Y89.676 E24.01663
G1 X67.944 Y88.886 E24.05335
G1 X67.056 Y87.998 E24.11174
G1 X67.056 Y87.207 E24.14846
G1 X67.944 Y88.096 E24.20686
G1 X67.944 Y87.306 E24.24358
G1 X67.056 Y86.417 E24.30197
G1 X67.056 Y85.627 E24.33869
G1 X67.944 Y86.515 E24.39709
G1 X67.944 Y85.725 E24.43381
G1 X67.056 Y84.836 E24.49220
G1 X67.056 Y84.046 E24.52892
G1 X67.944 Y84.935 E24.58732
G1 X67.944 Y84.145 E24.62404
G1 X67.056 Y83.256 E24.68243
G1 X67.056 Y82.466 E24.71915
G1 X67.944 Y83.354 E24.77755
G1 X67.944 Y82.564 E24.81427
G1 X67.056 Y81.675 E24.87266
G1 X67.056 Y80.885 E24.90938
G1 X67.944 Y81.774 E24.96778
G1 X67.944 Y80.984 E25.00450
G1 X67.056 Y80.095 E25.06289
G1 X67.056 Y79.305 E25.09961
G1 X67.944 Y80.193 E25.15801
G1 X67.944 Y79.403 E25.19473
G1 X67.056 Y78.514 E25.25312
G1 X67.056 Y77.724 E25.28984
G1 X67.944 Y78.613 E25.34824
G1 X67.944 Y77.823 E25.38496
G1 X67.056 Y76.934 E25.44335
G1 X67.056 Y76.144 E25.48007
G1 X67.944 Y77.032 E25.53847
G1 X67.944 Y76.242 E25.57519
G1 X67.056 Y75.353 E25.63358
G1 X67.056 Y74.563 E25.67030
G1 X67.944 Y75.452 E25.72870
G1 X67.944 Y74.662 E25.76542
G1 X67.056 Y73.773 E25.82381
G1 X67.056 Y72.983 E25.86053
G1 X67.944 Y73.871 E25.91893
G1 X67.944 Y73.081 E25.95565
G1 X67.056 Y72.192 E26.01404
G1 X67.056 Y71.402 E26.05076
G1 X67.944 Y72.291 E26.10916
G1 X67.944 Y71.500 E26.14588
G1 X67.056 Y70.612 E26.20427
G1 X67.056 Y69.822 E26.24099
G1 X67.944 Y70.710 E26.29939
G1 X67.944 Y69.920 E26.33611
G1 X67.056 Y69.031 E26.39450
G1 X67.056 Y68.241 E26.43122
G1 X67.944 Y69.130 E26.48962
G1 X67.944 Y68.339 E26.52634
G1 X67.056 Y67.451 E26.58473
G1 X67.056 Y66.660 E26.62145
G1 X67.944 Y67.549 E26.67985
G1 X67.944 Y66.759 E26.71657
G1 X67.056 Y65.870 E26.77496
G1 X67.056 Y65.080 E26.81168
G1 X67.944 Y65.969 E26.87008
G1 X67.944 Y65.178 E26.90680
G1 X67.056 Y64.290 E26.96519
G1 X67.056 Y63.499 E27.00191
G1 X67.944 Y64.388 E27.06031
G1 X67.944 Y63.598 E27.09703
G1 X67.056 Y62.709 E27.15542
G1 X67.056 Y61.931 E27.19160
G1 X67.956 Y62.819 E27.25038
G1 X68.746 Y62.819 E27.28710
G1 X67.858 Y61.931 E27.34549
G1 X68.648 Y61.931 E27.38221
G1 X69.537 Y62.819 E27.44061
G1 X70.327 Y62.819 E27.47733
G1 X69.438 Y61.931 E27.53572
G1 X70.228 Y61.931 E27.57244
G1 X71.117 Y62.819 E27.63084
G1 X71.907 Y62.819 E27.66756
G1 X71.019 Y61.931 E27.72595
G1 X71.809 Y61.931 E27.76267
G1 X72.698 Y62.819 E27.82107
G1 X73.488 Y62.819 E27.85779
G1 X72.599 Y61.931 E27.91618
G1 X73.389 Y61.931 E27.95290
G1 X74.278 Y62.819 E28.01130
G1 X75.068 Y62.819 E28.04802
G1 X74.180 Y61.931 E28.10641
G1 X74.970 Y61.931 E28.14313
G1 X75.859 Y62.819 E28.20153
G1 X76.649 Y62.819 E28.23825
G1 X75.760 Y61.931 E28.29664
G1 X76.550 Y61.931 E28.33336
G1 X77.439 Y62.819 E28.39176
G1 X78.229 Y62.819 E28.42848
G1 X77.341 Y61.931 E28.48687
G1 X78.131 Y61.931 E28.52359
G1 X79.020 Y62.819 E28.58199
G1 X79.810 Y62.819 E28.61871
G1 X78.921 Y61.931 E28.67710
G1 X79.712 Y61.931 E28.71382
G1 X80.600 Y62.819 E28.77222
G1 X81.390 Y62.819 E28.80894
G1 X80.502 Y61.931 E28.86733
G1 X81.292 Y61.931 E28.90405
G1 X82.181 Y62.819 E28.96245
G1 X82.971 Y62.819 E28.99916
G1 X82.082 Y61.931 E29.05756
G1 X82.873 Y61.931 E29.09428
G1 X83.761 Y62.819 E29.15268
G1 X84.552 Y62.819 E29.18939
G1 X83.663 Y61.931 E29.24779
G1 X84.453 Y61.931 E29.28451
G1 X85.342 Y62.819 E29.34291
G1 X86.132 Y62.819 E29.37962
G1 X85.243 Y61.931 E29.43802
G1 X86.034 Y61.931 E29.47474
G1 X86.922 Y62.819 E29.53314
G1 X87.713 Y62.819 E29.56985
G1 X86.824 Y61.931 E29.62825
G1 X87.614 Y61.931 E29.66497
G1 X88.503 Y62.819 E29.72337
G1 X89.293 Y62.819 E29.76008
G1 X88.404 Y61.931 E29.81848
G1 X89.056 Y61.931 E29.84874
G1 X89.056 Y61.792 E29.85520
G1 X90.083 Y62.819 E29.92273
G1 X90.874 Y62.819 E29.95945
G1 X89.056 Y61.001 E30.07890
G1 X89.056 Y60.211 E30.11562
G1 X91.664 Y62.819 E30.28701
G1 X92.454 Y62.819 E30.32373
G1 X89.056 Y59.421 E30.54704
G1 X89.056 Y58.631 E30.58376
G1 X92.944 Y62.519 E30.83929
G1 X92.944 Y61.729 E30.87601
G1 X88.896 Y57.681 E31.14203
G1 X89.686 Y57.681 E31.17875
G1 X92.944 Y60.939 E31.39284
G1 X92.944 Y60.149 E31.42956
G1 X90.476 Y57.681 E31.59173
G1 X91.267 Y57.681 E31.62844
G1 X92.944 Y59.358 E31.73868
G1 X92.944 Y58.568 E31.77540
G1 X92.057 Y57.681 E31.83371
G1 X92.847 Y57.681 E31.87043
G1 X92.944 Y57.778 E31.87681
G1 X88.994 Y58.569 F30000.000
G1 F3600
G1 X88.106 Y57.681 E31.93520
G1 X87.315 Y57.681 E31.97192
G1 X88.204 Y58.569 E32.03032
G1 X87.414 Y58.569 E32.06704
G1 X86.525 Y57.681 E32.12543
G1 X85.735 Y57.681 E32.16215
G1 X86.624 Y58.569 E32.22055
G1 X85.833 Y58.569 E32.25727
G1 X84.945 Y57.681 E32.31566
G1 X84.154 Y57.681 E32.35238
G1 X85.043 Y58.569 E32.41078
G1 X84.253 Y58.569 E32.44750
G1 X83.364 Y57.681 E32.50589
G1 X82.574 Y57.681 E32.54261
G1 X83.463 Y58.569 E32.60101
G1 X82.672 Y58.569 E32.63773
G1 X81.784 Y57.681 E32.69612
G1 X80.993 Y57.681 E32.73284
G1 X81.882 Y58.569 E32.79124
G1 X81.092 Y58.569 E32.82796
G1 X80.203 Y57.681 E32.88635
G1 X79.413 Y57.681 E32.92307
G1 X80.302 Y58.569 E32.98147
G1 X79.511 Y58.569 E33.01819
G1 X78.623 Y57.681 E33.07658
G1 X77.832 Y57.681 E33.11330
G1 X78.721 Y58.569 E33.17170
G1 X77.931 Y58.569 E33.20842
G1 X77.042 Y57.681 E33.26681
G1 X76.252 Y57.681 E33.30353
G1 X77.140 Y58.569 E33.36193
G1 X76.350 Y58.569 E33.39865
G1 X75.462 Y57.681 E33.45704
G1 X75.056 Y57.681 E33.47590
G1 X75.056 Y58.065 E33.49376
G1 X75.560 Y58.569 E33.52690
G1 X75.153 Y58.569 E33.54583
G1 X75.153 Y58.162 E33.56475
G1 Z0.700 F30000.000
G1 X89.050 Y58.125 F30000.000
G1 X89.950 Y58.575 F30000.000
G1 X91.000 Y59.625 F30000.000
G1 X91.000 Y60.875 F30000.000
G1 X89.950 Y61.925 F30000.000
G1 X89.050 Y62.375 F30000.000
G1 X67.577 Y62.452 F30000.000
G1 X67.500 Y101.425 F30000.000
G1 X67.950 Y101.425 F30000.000
G1 X68.353 Y101.022 F30000.000
G1 F6000
G1 X93.353 Y101.022 E34.30704
G1 X93.353 Y102.728 E34.35768
G1 X66.647 Y102.728 E35.15062
G1 X66.647 Y61.522 E36.37407
G1 X88.647 Y61.522 E37.02728
G1 X88.647 Y58.978 E37.10282
G1 X74.647 Y58.978 E37.51850
G1 X74.647 Y57.272 E37.56914
G1 X93.353 Y57.272 E38.12455
G1 X93.353 Y63.228 E38.30138
G1 X68.353 Y63.228 E39.04366
G1 X68.353 Y100.962 E40.16404
G1 X68.730 Y100.645 F30000.000
G1 F2100
G1 X93.730 Y100.645 E40.98947
G1 X93.730 Y103.105 E41.07070
G1 X66.270 Y103.105 E41.97735
G1 X66.270 Y61.145 E43.36276
G1 X88.270 Y61.145 E44.08914
G1 X88.270 Y59.355 E44.14824
G1 X74.270 Y59.355 E44.61048
G1 X74.270 Y56.895 E44.69170
G1 X93.730 Y56.895 E45.33422
G1 X93.730 Y63.605 E45.55577
G1 X68.730 Y63.605 E46.38120
G1 X68.730 Y100.585 E47.60218
G1 X68.651 Y101.037 F30000.000
G1 X92.847 Y102.319 F30000.000
G1 F3600
G1 X92.944 Y102.222 E47.60861
G1 X92.944 Y101.431 E47.64566
G1 X92.051 Y102.319 E47.70465
G1 X91.255 Y102.319 E47.74192
G1 X92.144 Y101.431 E47.80075
G1 X91.347 Y101.431 E47.83803
G1 X90.459 Y102.319 E47.89686
G1 X89.663 Y102.319 E47.93413
G1 X90.551 Y101.431 E47.99297
G1 X89.755 Y101.431 E48.03024
G1 X88.866 Y102.319 E48.08907
G1 X88.070 Y102.319 E48.12634
G1 X88.959 Y101.431 E48.18518
G1 X88.163 Y101.431 E48.22245
G1 X87.274 Y102.319 E48.28128
G1 X86.478 Y102.319 E48.31855
G1 X87.366 Y101.431 E48.37739
G1 X86.570 Y101.431 E48.41466
G1 X85.682 Y102.319 E48.47349
G1 X84.885 Y102.319 E48.51076
G1 X85.774 Y101.431 E48.56960
G1 X84.978 Y101.431 E48.60687
G1 X84.089 Y102.319 E48.66570
G1 X83.293 Y102.319 E48.70297
G1 X84.182 Y101.431 E48.76181
G1 X83.386 Y101.431 E48.79908
G1 X82.497 Y102.319 E48.85791
