; generated by Slic3r 1.3.0 on 2020-03-17 at 20:00:53

; external perimeters extrusion width = 0.44mm (2.78mm^3/s)
; perimeters extrusion width = 0.40mm (7.14mm^3/s)
; infill extrusion width = 0.50mm (10.97mm^3/s)
; solid infill extrusion width = 0.60mm (6.68mm^3/s)
; top infill extrusion width = 0.40mm (2.14mm^3/s)

M107
M190 S80 ; set bed temperature and wait for it to be reached
M104 S200 ; set temperature
G28 ; home all axes
G1 Z5 F5000 ; lift nozzle

; Filament gcode

M109 S200 ; set temperature and wait for it to be reached
G21 ; set units to millimeters
G90 ; use absolute coordinates
M82 ; use absolute distances for extrusion
G92 E0
G1 Z0.300 F30000.000
G1 E-2.00000 F2400.00000
G92 E0
G1 X50.284 Y61.681 F30000.000
G1 E2.00000 F2400.00000
G1 F2100
G1 X50.715 Y61.379 E2.03512
G1 X51.557 Y60.947 E2.09837
G1 X52.138 Y60.746 E2.13946
G1 X52.672 Y60.618 E2.17615
G1 X66.229 Y58.332 E3.09458
G1 X79.781 Y56.823 E4.00555
G1 X93.341 Y56.074 E4.91282
G1 X106.874 Y56.079 E5.81691
G1 X120.462 Y56.842 E6.72604
G1 X134.015 Y58.364 E7.63717
G1 X147.344 Y60.618 E8.54023
G1 X148.027 Y60.793 E8.58735
G1 X148.651 Y61.034 E8.63207
G1 X149.330 Y61.396 E8.68344
G1 X149.717 Y61.664 E8.71489
G1 X150.260 Y62.130 E8.76272
G1 X150.644 Y62.563 E8.80134
G1 X150.852 Y62.835 E8.82423
G1 X151.279 Y63.522 E8.87831
G1 X151.392 Y63.753 E8.89544
G1 X151.653 Y64.434 E8.94421
G1 X151.727 Y64.696 E8.96240
G1 X151.881 Y65.806 E9.03726
G1 X151.882 Y134.194 E13.60596
G1 X151.737 Y135.269 E13.67839
G1 X151.633 Y135.634 E13.70378
G1 X151.392 Y136.247 E13.74775
G1 X151.279 Y136.478 E13.76491
G1 X150.852 Y137.165 E13.81899
G1 X150.644 Y137.437 E13.84188
G1 X150.260 Y137.870 E13.88050
G1 X149.846 Y138.237 E13.91749
G1 X149.478 Y138.507 E13.94799
G1 X149.330 Y138.604 E13.95980
G1 X148.651 Y138.966 E14.01117
G1 X147.879 Y139.254 E14.06625
G1 X147.345 Y139.382 E14.10294
G1 X134.017 Y141.636 E15.00591
G1 X120.462 Y143.158 E15.91720
G1 X106.676 Y143.926 E16.83962
G1 X93.139 Y143.921 E17.74392
G1 X79.555 Y143.158 E18.65283
G1 X66.001 Y141.636 E19.56403
G1 X52.672 Y139.382 E20.46709
G1 X51.993 Y139.208 E20.51392
G1 X51.183 Y138.855 E20.57297
G1 X50.633 Y138.540 E20.61535
G1 X49.315 Y137.333 E20.73471
G1 X48.949 Y136.808 E20.77744
G1 X48.488 Y135.936 E20.84336
G1 X48.384 Y135.637 E20.86453
G1 X48.280 Y135.269 E20.89006
G1 X48.135 Y134.194 E20.96250
G1 X48.135 Y65.806 E25.53124
G1 X48.280 Y64.731 E25.60368
G1 X48.384 Y64.365 E25.62909
G1 X48.688 Y63.617 E25.68305
G1 X49.126 Y62.890 E25.73975
G1 X49.351 Y62.593 E25.76459
G1 X49.757 Y62.133 E25.80562
G1 X50.238 Y61.719 E25.84801
G1 X50.597 Y62.115 F30000.000
G1 F2100
G1 X51.013 Y61.824 E25.88186
G1 X51.744 Y61.449 E25.93678
G1 X52.298 Y61.258 E25.97593
G1 X52.762 Y61.146 E26.00780
G1 X66.288 Y58.864 E26.92421
G1 X79.811 Y57.357 E27.83319
G1 X93.341 Y56.610 E28.73847
G1 X106.849 Y56.614 E29.64083
G1 X120.402 Y57.374 E30.54771
G1 X133.926 Y58.892 E31.45682
G1 X147.254 Y61.146 E32.35989
G1 X147.867 Y61.304 E32.40218
G1 X148.445 Y61.528 E32.44361
G1 X149.035 Y61.842 E32.48822
G1 X149.390 Y62.088 E32.51708
G1 X149.879 Y62.506 E32.56005
G1 X150.219 Y62.889 E32.59425
G1 X150.427 Y63.161 E32.61714
G1 X150.798 Y63.758 E32.66410
G1 X150.911 Y63.988 E32.68123
G1 X151.138 Y64.580 E32.72359
G1 X151.212 Y64.842 E32.74177
G1 X151.346 Y65.806 E32.80678
G1 X151.346 Y134.194 E37.37549
G1 X151.221 Y135.128 E37.43838
G1 X151.120 Y135.479 E37.46282
G1 X150.911 Y136.011 E37.50100
G1 X150.798 Y136.242 E37.51816
G1 X150.427 Y136.839 E37.56513
G1 X150.219 Y137.111 E37.58802
G1 X149.879 Y137.494 E37.62222
G1 X149.519 Y137.813 E37.65434
G1 X149.182 Y138.060 E37.68225
G1 X149.035 Y138.158 E37.69407
G1 X148.445 Y138.472 E37.73868
G1 X147.719 Y138.742 E37.79046
G1 X147.255 Y138.853 E37.82232
G1 X133.928 Y141.108 E38.72530
G1 X120.402 Y142.626 E39.63457
G1 X106.676 Y143.390 E40.55301
G1 X93.166 Y143.386 E41.45555
G1 X79.615 Y142.626 E42.36224
G1 X66.090 Y141.108 E43.27142
G1 X52.762 Y138.854 E44.17449
G1 X52.153 Y138.697 E44.21649
G1 X51.449 Y138.390 E44.26777
G1 X50.899 Y138.075 E44.31015
G1 X49.754 Y137.027 E44.41380
G1 X49.389 Y136.502 E44.45654
G1 X48.988 Y135.745 E44.51378
G1 X48.897 Y135.482 E44.53240
G1 X48.796 Y135.128 E44.55698
G1 X48.671 Y134.194 E44.61988
G1 X48.671 Y65.806 E49.18863
G1 X48.796 Y64.872 E49.25153
G1 X48.897 Y64.520 E49.27599
G1 X49.173 Y63.844 E49.32478
G1 X49.554 Y63.213 E49.37402
G1 X49.778 Y62.917 E49.39886
G1 X50.131 Y62.517 E49.43449
G1 X50.552 Y62.154 E49.47162
G1 E47.47162 F2400.00000
G92 E0
G1 X58.591 Y70.933 F30000.000
G1 E2.00000 F2400.00000
G1 F2100
G1 X58.793 Y71.088 E2.01905
G1 X63.443 Y70.584 E2.36905
G1 X63.607 Y70.376 E2.38886
G1 X62.709 Y64.278 E2.85019
G1 X62.694 Y63.979 E2.87256
G1 X62.725 Y63.443 E2.91271
G1 X62.753 Y63.068 E2.94092
G1 X62.819 Y62.739 E2.96598
G1 X63.022 Y62.161 E3.01184
G1 X63.111 Y61.958 E3.02843
G1 X63.283 Y61.666 E3.05380
G1 X63.745 Y61.057 E3.11102
G1 X64.120 Y60.632 E3.15341
G1 X64.564 Y60.304 E3.19474
G1 X64.989 Y60.105 E3.22985
G1 X65.071 Y60.046 E3.23740
G1 X65.708 Y59.759 E3.28971
G1 X66.476 Y59.634 E3.34792
G1 X67.152 Y59.615 E3.39851
G1 X67.595 Y59.678 E3.43202
G1 X68.235 Y59.851 E3.48160
G1 X68.751 Y60.055 E3.52316
G1 X68.978 Y60.178 E3.54246
G1 X69.361 Y60.438 E3.57711
G1 X69.822 Y60.821 E3.62200
G1 X70.037 Y61.053 E3.64562
G1 X70.503 Y61.690 E3.70474
G1 X70.715 Y62.118 E3.74045
G1 X71.013 Y63.134 E3.81966
G1 X71.058 Y63.368 E3.83751
G1 X71.675 Y69.650 E4.30988
G1 X71.871 Y69.815 E4.32908
G1 X76.415 Y69.484 E4.67007
G1 X76.587 Y69.284 E4.68984
G1 X76.400 Y67.190 E4.84712
G1 X75.959 Y62.741 E5.18168
G1 X75.939 Y62.286 E5.21576
G1 X75.955 Y62.019 E5.23580
G1 X76.040 Y61.396 E5.28286
G1 X76.132 Y61.038 E5.31050
G1 X76.353 Y60.492 E5.35456
G1 X76.515 Y60.197 E5.37974
G1 X76.616 Y60.057 E5.39267
G1 X77.039 Y59.504 E5.44479
G1 X77.370 Y59.165 E5.48028
G1 X77.646 Y58.940 E5.50686
G1 X78.289 Y58.547 E5.56330
G1 X78.691 Y58.383 E5.59580
G1 X79.284 Y58.224 E5.64170
G1 X79.526 Y58.175 E5.66019
G1 X79.884 Y58.135 E5.68717
G1 X80.250 Y58.143 E5.71458
G1 X81.330 Y58.319 E5.79642
G1 X81.700 Y58.436 E5.82550
G1 X82.303 Y58.737 E5.87593
G1 X82.706 Y59.034 E5.91340
G1 X83.333 Y59.617 E5.97744
G1 X83.601 Y59.961 E6.01012
G1 X84.034 Y60.773 E6.07897
G1 X84.171 Y61.183 E6.11133
G1 X84.328 Y62.163 E6.18553
G1 X84.659 Y68.849 E6.68653
G1 X84.849 Y69.024 E6.70591
G1 X89.335 Y68.864 E7.04185
G1 X89.516 Y68.670 E7.06164
G1 X89.195 Y61.675 E7.58572
G1 X89.207 Y61.164 E7.62391
G1 X89.250 Y60.857 E7.64713
G1 X89.359 Y60.432 E7.67998
G1 X89.657 Y59.644 E7.74302
G1 X89.885 Y59.263 E7.77624
G1 X90.316 Y58.755 E7.82611
G1 X90.792 Y58.284 E7.87626
G1 X91.092 Y58.067 E7.90395
G1 X91.634 Y57.772 E7.95016
G1 X91.915 Y57.654 E7.97292
G1 X92.483 Y57.493 E8.01709
G1 X92.950 Y57.415 E8.05254
G1 X93.478 Y57.397 E8.09208
G1 X94.206 Y57.477 E8.14686
G1 X94.492 Y57.545 E8.16890
G1 X95.034 Y57.736 E8.21188
G1 X95.409 Y57.914 E8.24296
G1 X95.849 Y58.212 E8.28273
G1 X96.456 Y58.733 E8.34257
G1 X96.710 Y59.028 E8.37171
G1 X97.136 Y59.704 E8.43153
G1 X97.303 Y60.093 E8.46324
G1 X97.506 Y60.877 E8.52385
G1 X97.577 Y61.398 E8.56315
G1 X97.588 Y68.522 E9.09632
G1 X97.772 Y68.707 E9.11584
G1 X102.243 Y68.709 E9.45038
G1 X102.429 Y68.524 E9.47001
G1 X102.439 Y61.380 E10.00464
G1 X102.471 Y61.083 E10.02703
G1 X102.714 Y60.089 E10.10362
G1 X102.887 Y59.691 E10.13606
G1 X103.309 Y59.022 E10.19528
G1 X103.609 Y58.683 E10.22915
G1 X104.292 Y58.127 E10.29504
G1 X104.653 Y57.889 E10.32740
G1 X104.925 Y57.757 E10.35007
G1 X105.547 Y57.537 E10.39946
G1 X105.884 Y57.463 E10.42526
G1 X106.677 Y57.393 E10.48484
G1 X107.116 Y57.420 E10.51773
G1 X107.654 Y57.522 E10.55874
G1 X108.102 Y57.654 E10.59366
G1 X108.382 Y57.772 E10.61642
G1 X108.917 Y58.063 E10.66195
G1 X109.203 Y58.267 E10.68825
G1 X109.382 Y58.432 E10.70648
G1 X109.701 Y58.755 E10.74046
G1 X110.127 Y59.257 E10.78972
G1 X110.348 Y59.622 E10.82169
G1 X110.658 Y60.432 E10.88657
G1 X110.767 Y60.857 E10.91941
G1 X110.810 Y61.164 E10.94265
G1 X110.812 Y62.053 E11.00917
G1 X110.500 Y68.670 E11.50484
G1 X110.681 Y68.863 E11.52468
G1 X115.168 Y69.022 E11.86065
G1 X115.358 Y68.846 E11.88003
G1 X115.689 Y62.163 E12.38082
G1 X115.847 Y61.173 E12.45585
G1 X115.996 Y60.742 E12.48991
G1 X116.272 Y60.194 E12.53588
G1 X116.528 Y59.825 E12.56943
G1 X117.213 Y59.118 E12.64314
G1 X117.417 Y58.945 E12.66314
G1 X117.798 Y58.680 E12.69791
G1 X118.263 Y58.471 E12.73599
G1 X119.404 Y58.199 E12.82381
G1 X119.766 Y58.143 E12.85123
G1 X120.133 Y58.135 E12.87867
G1 X120.491 Y58.175 E12.90567
G1 X120.733 Y58.224 E12.92416
G1 X121.324 Y58.382 E12.96994
G1 X121.744 Y58.555 E13.00392
G1 X122.329 Y58.911 E13.05512
G1 X122.600 Y59.123 E13.08085
G1 X122.967 Y59.495 E13.12001
G1 X123.485 Y60.173 E13.18387
G1 X123.639 Y60.443 E13.20715
G1 X123.891 Y61.065 E13.25736
G1 X123.965 Y61.349 E13.27931
G1 X124.061 Y62.014 E13.32956
G1 X124.077 Y62.283 E13.34973
G1 X124.056 Y62.767 E13.38601
G1 X123.617 Y67.190 E13.71864
G1 X123.429 Y69.275 E13.87527
G1 X123.600 Y69.476 E13.89506
G1 X128.145 Y69.814 E14.23610
G1 X128.342 Y69.648 E14.25536
G1 X128.952 Y63.431 E14.72283
G1 X129.008 Y63.121 E14.74643
G1 X129.211 Y62.358 E14.80554
G1 X129.314 Y62.087 E14.82717
G1 X129.503 Y61.725 E14.85780
G1 X129.747 Y61.332 E14.89241
G1 X129.987 Y61.043 E14.92050
G1 X130.534 Y60.558 E14.97520
G1 X131.113 Y60.154 E15.02806
G1 X131.379 Y60.008 E15.05074
G1 X131.944 Y59.793 E15.09597
G1 X132.507 Y59.672 E15.13910
G1 X133.058 Y59.629 E15.18045
G1 X133.508 Y59.631 E15.21410
G1 X133.756 Y59.658 E15.23280
G1 X134.998 Y59.908 E15.32757
G1 X135.124 Y60.074 E15.34322
G1 X135.203 Y60.130 E15.35041
G1 X135.415 Y60.199 E15.36714
G1 X136.006 Y60.808 E15.43062
G1 X136.356 Y61.123 E15.46590
G1 X136.646 Y61.490 E15.50090
G1 X136.988 Y62.143 E15.55601
G1 X137.193 Y62.723 E15.60211
G1 X137.258 Y63.041 E15.62638
G1 X137.323 Y63.975 E15.69645
G1 X137.309 Y64.266 E15.71823
G1 X136.408 Y70.374 E16.18027
G1 X136.572 Y70.584 E16.20016
G1 X141.225 Y71.091 E16.55049
G1 X141.425 Y70.936 E16.56942
G1 X142.043 Y66.641 E16.89411
G1 X142.223 Y65.495 E16.98095
G1 X142.329 Y64.976 E17.02060
G1 X142.422 Y64.692 E17.04292
G1 X142.714 Y64.058 E17.09523
G1 X142.960 Y63.624 E17.13253
G1 X143.225 Y63.290 E17.16440
G1 X143.763 Y62.773 E17.22027
G1 X144.137 Y62.498 E17.25501
G1 X144.669 Y62.230 E17.29960
G1 X145.017 Y62.085 E17.32775
G1 X145.482 Y61.950 E17.36405
G1 X145.692 Y61.910 E17.38005
G1 X146.264 Y61.855 E17.42302
G1 X146.484 Y61.855 E17.43949
G1 X147.079 Y61.911 E17.48425
G1 X147.351 Y61.966 E17.50502
G1 X147.813 Y62.117 E17.54133
G1 X148.263 Y62.304 E17.57783
G1 X148.493 Y62.427 E17.59731
G1 X148.871 Y62.681 E17.63142
G1 X149.253 Y62.992 E17.66829
G1 X149.543 Y63.300 E17.70000
G1 X149.887 Y63.748 E17.74225
G1 X150.032 Y63.981 E17.76276
G1 X150.260 Y64.447 E17.80157
G1 X150.349 Y64.681 E17.82030
G1 X150.504 Y65.219 E17.86219
G1 X150.562 Y65.631 E17.89337
G1 X150.551 Y66.496 E17.95809
G1 X150.520 Y66.768 E17.97862
G1 X150.445 Y67.151 E18.00777
G1 X150.212 Y68.228 E18.09027
G1 X149.479 Y71.942 E18.37357
G1 X148.747 Y76.282 E18.70293
G1 X148.359 Y78.910 E18.90174
G1 X147.893 Y82.598 E19.17991
G1 X147.403 Y87.618 E19.55733
G1 X147.360 Y88.532 E19.62583
G1 X147.108 Y92.035 E19.88868
G1 X146.933 Y97.011 E20.26128
G1 X146.917 Y102.014 E20.63564
G1 X146.932 Y102.948 E20.70555
G1 X147.106 Y107.908 E21.07699
G1 X147.360 Y111.468 E21.34410
G1 X147.407 Y112.424 E21.41573
G1 X147.892 Y117.400 E21.78989
G1 X148.359 Y121.090 E22.06818
G1 X148.747 Y123.718 E22.26699
G1 X149.479 Y128.058 E22.59635
G1 X150.210 Y131.762 E22.87887
G1 X150.434 Y132.802 E22.95854
G1 X150.525 Y133.271 E22.99431
G1 X150.551 Y133.513 E23.01246
G1 X150.562 Y134.353 E23.07537
G1 X150.513 Y134.735 E23.10415
G1 X150.336 Y135.358 E23.15266
G1 X150.254 Y135.565 E23.16932
G1 X150.032 Y136.019 E23.20712
G1 X149.887 Y136.252 E23.22763
G1 X149.432 Y136.828 E23.28259
G1 X149.113 Y137.133 E23.31557
G1 X148.790 Y137.377 E23.34588
G1 X148.493 Y137.573 E23.37257
G1 X148.263 Y137.696 E23.39204
G1 X147.813 Y137.883 E23.42854
G1 X147.326 Y138.042 E23.46688
G1 X146.997 Y138.102 E23.49185
G1 X146.536 Y138.143 E23.52651
G1 X146.281 Y138.147 E23.54560
G1 X145.692 Y138.090 E23.58986
G1 X145.482 Y138.050 E23.60585
G1 X144.939 Y137.888 E23.64827
G1 X144.169 Y137.518 E23.71223
G1 X143.848 Y137.295 E23.74148
G1 X143.471 Y136.944 E23.77999
G1 X143.178 Y136.656 E23.81076
G1 X142.949 Y136.356 E23.83902
G1 X142.656 Y135.828 E23.88416
G1 X142.422 Y135.308 E23.92688
G1 X142.329 Y135.024 E23.94921
G1 X142.223 Y134.505 E23.98886
G1 X142.043 Y133.359 E24.07569
G1 X141.425 Y129.067 E24.40014
G1 X141.224 Y128.912 E24.41919
G1 X136.572 Y129.417 E24.76935
G1 X136.408 Y129.627 E24.78928
G1 X137.308 Y135.722 E25.25036
G1 X137.323 Y136.021 E25.27274
G1 X137.245 Y137.040 E25.34924
G1 X137.175 Y137.338 E25.37209
G1 X137.012 Y137.800 E25.40878
G1 X136.733 Y138.353 E25.45515
G1 X136.366 Y138.822 E25.49973
G1 X135.415 Y139.801 E25.60185
G1 X135.202 Y139.870 E25.61857
G1 X135.124 Y139.926 E25.62577
G1 X134.998 Y140.092 E25.64142
G1 X133.695 Y140.355 E25.74088
G1 X133.315 Y140.378 E25.76933
G1 X132.591 Y140.338 E25.82359
G1 X132.308 Y140.298 E25.84496
G1 X131.753 Y140.145 E25.88807
G1 X131.379 Y139.992 E25.91832
G1 X131.113 Y139.846 E25.94101
G1 X130.392 Y139.328 E26.00746
G1 X129.987 Y138.957 E26.04856
G1 X129.747 Y138.668 E26.07665
G1 X129.440 Y138.173 E26.12030
G1 X129.287 Y137.833 E26.14813
G1 X129.036 Y136.979 E26.21477
G1 X128.954 Y136.592 E26.24440
G1 X128.342 Y130.350 E26.71373
G1 X128.146 Y130.185 E26.73294
G1 X123.598 Y130.520 E27.07423
G1 X123.429 Y130.721 E27.09388
G1 X123.617 Y132.810 E27.25081
G1 X124.058 Y137.257 E27.58524
G1 X124.077 Y137.717 E27.61972
G1 X124.061 Y137.986 E27.63989
G1 X123.976 Y138.604 E27.68655
G1 X123.884 Y138.962 E27.71419
G1 X123.662 Y139.512 E27.75857
G1 X123.495 Y139.814 E27.78447
G1 X122.967 Y140.505 E27.84949
G1 X122.646 Y140.835 E27.88395
G1 X122.371 Y141.060 E27.91053
G1 X121.719 Y141.457 E27.96764
G1 X121.316 Y141.620 E28.00023
G1 X120.491 Y141.825 E28.06380
G1 X120.133 Y141.865 E28.09080
G1 X119.766 Y141.857 E28.11825
G1 X119.292 Y141.778 E28.15418
G1 X118.338 Y141.547 E28.22770
G1 X118.012 Y141.423 E28.25377
G1 X117.713 Y141.263 E28.27915
G1 X117.484 Y141.109 E28.29978
G1 X117.035 Y140.723 E28.34409
G1 X116.518 Y140.156 E28.40151
G1 X116.333 Y139.899 E28.42521
G1 X116.166 Y139.599 E28.45090
G1 X115.946 Y139.128 E28.48980
G1 X115.840 Y138.783 E28.51685
G1 X115.689 Y137.838 E28.58849
G1 X115.360 Y131.151 E29.08949
G1 X115.169 Y130.975 E29.10888
G1 X110.680 Y131.136 E29.44502
G1 X110.500 Y131.330 E29.46483
G1 X110.821 Y138.391 E29.99380
G1 X110.810 Y138.836 E30.02708
G1 X110.767 Y139.143 E30.05031
G1 X110.658 Y139.568 E30.08316
G1 X110.469 Y140.081 E30.12406
G1 X110.360 Y140.356 E30.14620
G1 X110.132 Y140.737 E30.17942
G1 X109.534 Y141.419 E30.24729
G1 X109.225 Y141.716 E30.27940
G1 X108.925 Y141.933 E30.30711
G1 X108.382 Y142.228 E30.35332
G1 X108.102 Y142.346 E30.37608
G1 X107.534 Y142.507 E30.42025
G1 X107.266 Y142.561 E30.44068
G1 X106.761 Y142.605 E30.47863
G1 X106.223 Y142.575 E30.51896
G1 X105.811 Y142.523 E30.55003
G1 X105.525 Y142.455 E30.57207
G1 X104.983 Y142.263 E30.61507
G1 X104.607 Y142.086 E30.64616
G1 X104.168 Y141.788 E30.68590
G1 X103.561 Y141.267 E30.74574
G1 X103.307 Y140.972 E30.77489
G1 X102.881 Y140.296 E30.83470
G1 X102.713 Y139.907 E30.86642
G1 X102.511 Y139.123 E30.92703
G1 X102.439 Y138.602 E30.96632
G1 X102.429 Y131.477 E31.49952
G1 X102.244 Y131.293 E31.51904
G1 X97.773 Y131.292 E31.85368
G1 X97.588 Y131.477 E31.87323
G1 X97.578 Y138.620 E32.40776
G1 X97.545 Y138.917 E32.43016
G1 X97.302 Y139.911 E32.50675
G1 X97.130 Y140.309 E32.53920
G1 X96.708 Y140.978 E32.59841
G1 X96.408 Y141.317 E32.63228
G1 X95.725 Y141.873 E32.69817
G1 X95.364 Y142.111 E32.73053
G1 X95.091 Y142.243 E32.75320
G1 X94.470 Y142.463 E32.80257
G1 X94.133 Y142.537 E32.82834
G1 X93.338 Y142.607 E32.88808
G1 X92.901 Y142.580 E32.92087
G1 X92.483 Y142.507 E32.95262
G1 X91.915 Y142.346 E32.99680
G1 X91.634 Y142.228 E33.01956
G1 X91.100 Y141.937 E33.06509
G1 X90.814 Y141.733 E33.09141
