; generated by Slic3r 1.3.0 on 2023-11-01 at 19:41:12

; external perimeters extrusion width = 0.44mm (2.78mm^3/s)
; perimeters extrusion width = 0.40mm (7.14mm^3/s)
; infill extrusion width = 0.50mm (10.97mm^3/s)
; solid infill extrusion width = 0.60mm (6.68mm^3/s)
; top infill extrusion width = 0.40mm (2.14mm^3/s)

M107
M190 S80 ; set bed temperature and wait for it to be reached
M104 S210 ; set temperature
G28 ; home all axes
G1 Z5 F5000 ; lift nozzle

; Filament gcode

M109 S210 ; set temperature and wait for it to be reached
G21 ; set units to millimeters
G90 ; use absolute coordinates
M82 ; use absolute distances for extrusion
G92 E0
G1 Z0.300 F30000.000
G1 E-2.00000 F2400.00000
G92 E0
G1 X51.827 Y50.186 F30000.000
G1 E2.00000 F2400.00000
G1 F2100
G1 X53.952 Y48.313 E2.18922
G1 X55.993 Y46.740 E2.36138
G1 X57.913 Y45.435 E2.51645
G1 X60.351 Y43.993 E2.70568
G1 X62.419 Y42.939 E2.86075
G1 X64.781 Y41.908 E3.03290
G1 X67.446 Y40.949 E3.22213
G1 X69.923 Y40.238 E3.39428
G1 X72.439 Y39.683 E3.56643
G1 X74.732 Y39.320 E3.72150
G1 X77.297 Y39.070 E3.89366
G1 X80.128 Y38.981 E4.08288
G1 X82.703 Y39.070 E4.25503
G1 X85.014 Y39.288 E4.41011
G1 X87.844 Y39.739 E4.60154
G1 X90.325 Y40.301 E4.77147
G1 X92.797 Y41.028 E4.94363
G1 X95.219 Y41.908 E5.11577
G1 X97.349 Y42.830 E5.27086
G1 X99.873 Y44.116 E5.46007
G1 X101.871 Y45.298 E5.61516
G1 X104.007 Y46.740 E5.78731
G1 X106.245 Y48.476 E5.97653
G1 X107.986 Y50.011 E6.13161
G1 X109.814 Y51.827 E6.30377
G1 X111.687 Y53.952 E6.49299
G1 X113.110 Y55.786 E6.64807
G1 X114.565 Y57.913 E6.82021
G1 X116.007 Y60.351 E7.00944
G1 X117.061 Y62.419 E7.16451
G1 X118.092 Y64.781 E7.33666
G1 X119.051 Y67.446 E7.52589
G1 X119.762 Y69.923 E7.69804
G1 X120.269 Y72.188 E7.85311
G1 X120.712 Y74.986 E8.04234
G1 X120.946 Y77.552 E8.21449
G1 X121.019 Y80.128 E8.38664
G1 X120.946 Y82.448 E8.54171
G1 X120.712 Y85.014 E8.71386
G1 X120.269 Y87.812 E8.90309
G1 X119.762 Y90.077 E9.05818
G1 X119.051 Y92.554 E9.23033
G1 X118.092 Y95.219 E9.41954
G1 X117.170 Y97.349 E9.57462
G1 X116.007 Y99.649 E9.74679
G1 X114.702 Y101.872 E9.91894
G1 X113.260 Y104.007 E10.09107
G1 X111.524 Y106.245 E10.28030
G1 X109.989 Y107.986 E10.43537
G1 X108.173 Y109.814 E10.60752
G1 X106.048 Y111.687 E10.79675
G1 X104.007 Y113.260 E10.96890
G1 X101.872 Y114.702 E11.14102
G1 X99.649 Y116.007 E11.31318
G1 X97.581 Y117.061 E11.46827
G1 X94.981 Y118.186 E11.65750
G1 X92.554 Y119.051 E11.82964
G1 X90.325 Y119.699 E11.98472
G1 X87.561 Y120.317 E12.17393
G1 X85.268 Y120.680 E12.32902
G1 X82.703 Y120.930 E12.50118
G1 X79.872 Y121.019 E12.69040
G1 X77.297 Y120.930 E12.86255
G1 X74.986 Y120.712 E13.01763
G1 X72.188 Y120.269 E13.20685
G1 X69.923 Y119.762 E13.36193
G1 X67.446 Y119.051 E13.53408
G1 X64.781 Y118.092 E13.72331
G1 X62.419 Y117.061 E13.89546
G1 X60.127 Y115.884 E14.06761
G1 X58.129 Y114.702 E14.22268
G1 X55.993 Y113.260 E14.39483
G1 X53.755 Y111.524 E14.58406
G1 X52.014 Y109.989 E14.73913
G1 X50.186 Y108.173 E14.91128
G1 X48.313 Y106.048 E15.10051
G1 X46.890 Y104.214 E15.25558
G1 X45.435 Y102.087 E15.42773
G1 X43.993 Y99.649 E15.61696
G1 X42.830 Y97.349 E15.78911
G1 X41.908 Y95.219 E15.94420
G1 X40.949 Y92.554 E16.13341
G1 X40.301 Y90.325 E16.28850
G1 X39.731 Y87.812 E16.46065
G1 X39.320 Y85.268 E16.63279
G1 X39.073 Y82.736 E16.80271
G1 X38.981 Y79.872 E16.99416
G1 X39.054 Y77.552 E17.14923
G1 X39.288 Y74.986 E17.32138
G1 X39.731 Y72.188 E17.51061
G1 X40.238 Y69.923 E17.66569
G1 X40.949 Y67.446 E17.83784
G1 X41.908 Y64.781 E18.02706
G1 X42.830 Y62.650 E18.18214
G1 X43.993 Y60.351 E18.35429
G1 X45.435 Y57.913 E18.54351
G1 X46.740 Y55.993 E18.69859
G1 X48.313 Y53.952 E18.87074
G1 X50.011 Y52.014 E19.04289
G1 X51.785 Y50.228 E19.21103
G1 X52.206 Y50.565 F30000.000
G1 F2100
G1 X54.280 Y48.736 E19.39576
G1 X56.294 Y47.183 E19.56567
G1 X58.214 Y45.878 E19.72074
G1 X60.594 Y44.470 E19.90548
G1 X62.863 Y43.322 E20.07538
G1 X64.994 Y42.400 E20.23045
G1 X67.384 Y41.532 E20.40036
G1 X69.825 Y40.816 E20.57026
G1 X72.523 Y40.212 E20.75499
G1 X74.816 Y39.849 E20.91007
G1 X77.347 Y39.603 E21.07997
G1 X80.111 Y39.516 E21.26471
G1 X82.431 Y39.589 E21.41978
G1 X84.964 Y39.821 E21.58968
G1 X87.727 Y40.261 E21.77663
G1 X90.175 Y40.816 E21.94430
G1 X92.616 Y41.532 E22.11422
G1 X95.006 Y42.400 E22.28411
G1 X97.137 Y43.322 E22.43920
G1 X99.600 Y44.577 E22.62392
G1 X101.599 Y45.759 E22.77900
G1 X103.706 Y47.183 E22.94891
G1 X105.891 Y48.877 E23.13364
G1 X107.794 Y50.565 E23.30354
G1 X109.436 Y52.206 E23.45863
G1 X111.264 Y54.280 E23.64335
G1 X112.687 Y56.114 E23.79843
G1 X114.122 Y58.214 E23.96833
G1 X115.530 Y60.594 E24.15306
G1 X116.678 Y62.863 E24.32297
G1 X117.600 Y64.994 E24.47804
G1 X118.537 Y67.595 E24.66277
G1 X119.184 Y69.825 E24.81784
G1 X119.746 Y72.305 E24.98775
G1 X120.179 Y75.036 E25.17248
G1 X120.411 Y77.569 E25.34239
G1 X120.484 Y80.111 E25.51229
G1 X120.411 Y82.431 E25.66736
G1 X120.179 Y84.964 E25.83727
G1 X119.746 Y87.695 E26.02200
G1 X119.240 Y89.961 E26.17708
G1 X118.537 Y92.405 E26.34699
G1 X117.600 Y95.006 E26.53171
G1 X116.678 Y97.137 E26.68679
G1 X115.530 Y99.406 E26.85671
G1 X114.241 Y101.599 E27.02661
G1 X112.817 Y103.706 E27.19650
G1 X111.123 Y105.891 E27.38123
G1 X109.587 Y107.632 E27.53630
G1 X107.794 Y109.435 E27.70621
G1 X105.720 Y111.264 E27.89094
G1 X103.886 Y112.687 E28.04601
G1 X101.786 Y114.122 E28.21592
G1 X99.406 Y115.530 E28.40063
G1 X97.338 Y116.584 E28.55572
G1 X95.006 Y117.600 E28.72563
G1 X92.373 Y118.546 E28.91257
G1 X89.961 Y119.240 E29.08025
G1 X87.477 Y119.788 E29.25015
G1 X85.184 Y120.151 E29.40524
G1 X82.653 Y120.397 E29.57514
G1 X79.889 Y120.484 E29.75988
G1 X77.347 Y120.397 E29.92978
G1 X75.036 Y120.179 E30.08485
G1 X72.305 Y119.746 E30.26959
G1 X70.040 Y119.240 E30.42466
G1 X67.595 Y118.537 E30.59456
G1 X64.994 Y117.600 E30.77930
G1 X62.863 Y116.678 E30.93437
G1 X60.594 Y115.530 E31.10427
G1 X58.401 Y114.241 E31.27418
G1 X56.294 Y112.817 E31.44408
G1 X54.109 Y111.123 E31.62881
G1 X52.368 Y109.587 E31.78389
G1 X50.565 Y107.794 E31.95379
G1 X48.736 Y105.720 E32.13853
G1 X47.183 Y103.706 E32.30843
G1 X45.878 Y101.786 E32.46350
G1 X44.470 Y99.406 E32.64824
G1 X43.416 Y97.338 E32.80331
G1 X42.400 Y95.006 E32.97323
G1 X41.463 Y92.405 E33.15795
G1 X40.816 Y90.175 E33.31303
G1 X40.254 Y87.695 E33.48293
G1 X39.849 Y85.184 E33.65283
G1 X39.606 Y82.686 E33.82051
G1 X39.516 Y79.889 E34.00746
G1 X39.589 Y77.569 E34.16254
G1 X39.821 Y75.036 E34.33244
G1 X40.254 Y72.305 E34.51717
G1 X40.760 Y70.040 E34.67225
G1 X41.463 Y67.595 E34.84215
G1 X42.400 Y64.994 E35.02688
G1 X43.322 Y62.863 E35.18196
G1 X44.470 Y60.594 E35.35186
G1 X45.878 Y58.214 E35.53659
G1 X47.183 Y56.294 E35.69167
G1 X48.736 Y54.280 E35.86158
G1 X50.413 Y52.368 E36.03148
G1 X52.164 Y50.607 E36.19737
G1 E34.19737 F2400.00000
G92 E0
G1 X106.997 Y103.960 F30000.000
G1 E2.00000 F2400.00000
G1 F2100
G1 X106.326 Y104.722 E2.06783
G1 X104.722 Y106.326 E2.21939
G1 X103.020 Y107.826 E2.37096
G1 X101.227 Y109.217 E2.52252
G1 X99.351 Y110.492 E2.67408
G1 X97.398 Y111.647 E2.82565
G1 X95.377 Y112.677 E2.97721
G1 X93.294 Y113.578 E3.12877
G1 X91.160 Y114.346 E3.28034
G1 X88.981 Y114.979 E3.43190
G1 X86.767 Y115.474 E3.58346
G1 X84.526 Y115.829 E3.73503
G1 X82.268 Y116.043 E3.88659
G1 X80.000 Y116.114 E4.03816
G1 X77.732 Y116.043 E4.18972
G1 X75.474 Y115.829 E4.34128
G1 X73.233 Y115.474 E4.49285
G1 X71.019 Y114.979 E4.64441
G1 X68.840 Y114.346 E4.79597
G1 X66.706 Y113.578 E4.94754
G1 X64.623 Y112.677 E5.09910
G1 X62.602 Y111.647 E5.25066
G1 X60.649 Y110.492 E5.40223
G1 X58.773 Y109.217 E5.55379
G1 X56.980 Y107.826 E5.70536
G1 X55.278 Y106.326 E5.85692
G1 X53.674 Y104.722 E6.00848
G1 X52.174 Y103.020 E6.16005
G1 X50.803 Y101.253 E6.30941
G1 X49.508 Y99.350 E6.46319
G1 X48.353 Y97.398 E6.61473
G1 X47.323 Y95.377 E6.76630
G1 X46.422 Y93.294 E6.91786
G1 X45.654 Y91.160 E7.06942
G1 X45.030 Y89.013 E7.21879
G1 X44.526 Y86.767 E7.37257
G1 X44.171 Y84.526 E7.52411
G1 X43.957 Y82.268 E7.67567
G1 X43.886 Y80.000 E7.82724
G1 X43.957 Y77.732 E7.97880
G1 X44.171 Y75.474 E8.13036
G1 X44.526 Y73.233 E8.28193
G1 X45.021 Y71.019 E8.43349
G1 X45.654 Y68.840 E8.58506
G1 X46.422 Y66.706 E8.73662
G1 X47.323 Y64.623 E8.88818
G1 X48.353 Y62.602 E9.03975
G1 X49.508 Y60.649 E9.19131
G1 X50.765 Y58.800 E9.34067
G1 X52.174 Y56.980 E9.49446
G1 X53.674 Y55.278 E9.64600
G1 X55.278 Y53.674 E9.79756
G1 X56.980 Y52.174 E9.94912
G1 X58.773 Y50.783 E10.10069
G1 X60.649 Y49.508 E10.25225
G1 X62.602 Y48.353 E10.40381
G1 X64.623 Y47.323 E10.55538
G1 X66.706 Y46.422 E10.70694
G1 X68.840 Y45.654 E10.85851
G1 X71.019 Y45.021 E11.01007
G1 X73.233 Y44.526 E11.16163
G1 X75.474 Y44.171 E11.31320
G1 X77.732 Y43.957 E11.46474
G1 X80.033 Y43.887 E11.61852
G1 X82.268 Y43.957 E11.76788
G1 X84.526 Y44.171 E11.91945
G1 X86.767 Y44.526 E12.07101
G1 X88.981 Y45.021 E12.22257
G1 X91.160 Y45.654 E12.37414
G1 X93.294 Y46.422 E12.52570
G1 X95.376 Y47.323 E12.67724
G1 X97.426 Y48.370 E12.83102
G1 X99.351 Y49.508 E12.98039
G1 X101.227 Y50.783 E13.13195
G1 X103.020 Y52.174 E13.28352
G1 X104.722 Y53.674 E13.43508
G1 X106.326 Y55.278 E13.58664
G1 X107.826 Y56.980 E13.73821
G1 X109.197 Y58.747 E13.88757
G1 X110.492 Y60.649 E14.04135
G1 X111.647 Y62.602 E14.19289
G1 X112.677 Y64.623 E14.34446
G1 X113.578 Y66.706 E14.49602
G1 X114.346 Y68.840 E14.64758
G1 X114.979 Y71.019 E14.79915
G1 X115.474 Y73.233 E14.95071
G1 X115.829 Y75.474 E15.10227
G1 X116.043 Y77.732 E15.25384
G1 X116.114 Y80.000 E15.40540
G1 X116.043 Y82.268 E15.55696
G1 X115.829 Y84.526 E15.70853
G1 X115.474 Y86.767 E15.86009
G1 X114.979 Y88.981 E16.01166
G1 X114.346 Y91.160 E16.16322
G1 X113.578 Y93.294 E16.31478
G1 X112.677 Y95.377 E16.46635
G1 X111.662 Y97.369 E16.61571
G1 X110.492 Y99.351 E16.76949
G1 X109.217 Y101.227 E16.92103
G1 X107.826 Y103.020 E17.07260
G1 X107.037 Y103.915 E17.15232
G1 X107.399 Y104.314 F30000.000
G1 F2100
G1 X106.717 Y105.089 E17.22128
G1 X105.089 Y106.717 E17.37509
G1 X103.361 Y108.239 E17.52890
G1 X101.542 Y109.650 E17.68271
G1 X99.638 Y110.944 E17.83653
G1 X97.656 Y112.116 E17.99034
G1 X95.605 Y113.162 E18.14415
G1 X93.492 Y114.076 E18.29797
G1 X91.325 Y114.856 E18.45178
G1 X89.114 Y115.498 E18.60559
G1 X86.867 Y116.001 E18.75940
G1 X84.593 Y116.361 E18.91322
G1 X82.301 Y116.578 E19.06703
G1 X80.000 Y116.650 E19.22084
G1 X77.699 Y116.578 E19.37465
G1 X75.407 Y116.361 E19.52847
G1 X73.133 Y116.001 E19.68228
G1 X70.886 Y115.498 E19.83609
G1 X68.675 Y114.856 E19.98990
G1 X66.508 Y114.076 E20.14372
G1 X64.395 Y113.162 E20.29753
G1 X62.344 Y112.116 E20.45134
G1 X60.362 Y110.944 E20.60515
G1 X58.458 Y109.650 E20.75897
G1 X56.639 Y108.239 E20.91278
G1 X54.911 Y106.717 E21.06659
G1 X53.283 Y105.089 E21.22040
G1 X51.761 Y103.361 E21.37422
G1 X50.370 Y101.568 E21.52581
G1 X49.055 Y99.638 E21.68185
G1 X47.884 Y97.656 E21.83565
G1 X46.838 Y95.605 E21.98946
G1 X45.924 Y93.492 E22.14328
G1 X45.144 Y91.325 E22.29709
G1 X44.511 Y89.146 E22.44869
G1 X43.999 Y86.867 E22.60472
G1 X43.639 Y84.593 E22.75852
G1 X43.422 Y82.301 E22.91234
G1 X43.350 Y80.000 E23.06615
G1 X43.422 Y77.699 E23.21996
G1 X43.639 Y75.407 E23.37377
G1 X43.999 Y73.133 E23.52759
G1 X44.502 Y70.886 E23.68140
G1 X45.144 Y68.675 E23.83521
G1 X45.924 Y66.508 E23.98902
G1 X46.838 Y64.395 E24.14284
G1 X47.884 Y62.344 E24.29665
G1 X49.056 Y60.362 E24.45046
G1 X50.331 Y58.485 E24.60206
G1 X51.761 Y56.638 E24.75809
G1 X53.283 Y54.911 E24.91189
G1 X54.911 Y53.283 E25.06571
G1 X56.639 Y51.761 E25.21952
G1 X58.458 Y50.350 E25.37333
G1 X60.362 Y49.056 E25.52715
G1 X62.344 Y47.884 E25.68096
G1 X64.395 Y46.838 E25.83477
G1 X66.508 Y45.924 E25.98858
G1 X68.675 Y45.144 E26.14240
G1 X70.886 Y44.502 E26.29621
G1 X73.133 Y43.999 E26.45002
G1 X75.407 Y43.639 E26.60383
G1 X77.699 Y43.423 E26.75764
G1 X80.033 Y43.351 E26.91367
G1 X82.301 Y43.422 E27.06527
G1 X84.593 Y43.639 E27.21908
G1 X86.867 Y43.999 E27.37289
G1 X89.114 Y44.502 E27.52671
G1 X91.325 Y45.144 E27.68052
G1 X93.492 Y45.924 E27.83433
G1 X95.605 Y46.838 E27.98813
G1 X97.685 Y47.900 E28.14417
G1 X99.638 Y49.056 E28.29576
G1 X101.542 Y50.350 E28.44958
G1 X103.361 Y51.761 E28.60339
G1 X105.089 Y53.283 E28.75720
G1 X106.717 Y54.911 E28.91101
G1 X108.239 Y56.639 E29.06483
G1 X109.630 Y58.432 E29.21642
G1 X110.945 Y60.362 E29.37246
G1 X112.116 Y62.344 E29.52626
G1 X113.162 Y64.395 E29.68007
G1 X114.076 Y66.508 E29.83389
G1 X114.856 Y68.675 E29.98770
G1 X115.498 Y70.886 E30.14151
G1 X116.001 Y73.133 E30.29532
G1 X116.361 Y75.407 E30.44914
G1 X116.578 Y77.699 E30.60295
G1 X116.650 Y80.000 E30.75676
G1 X116.578 Y82.301 E30.91057
G1 X116.361 Y84.593 E31.06439
G1 X116.001 Y86.867 E31.21820
G1 X115.498 Y89.114 E31.37201
G1 X114.856 Y91.325 E31.52582
G1 X114.076 Y93.492 E31.67964
G1 X113.162 Y95.605 E31.83345
G1 X112.132 Y97.627 E31.98505
G1 X110.944 Y99.638 E32.14108
G1 X109.650 Y101.542 E32.29488
G1 X108.239 Y103.361 E32.44870
G1 X107.439 Y104.269 E32.52955
G1 X107.006 Y104.241 F30000.000
G1 E30.52955 F2400.00000
G92 E0
G1 X104.297 Y105.993 F30000.000
G1 E2.00000 F2400.00000
G1 F2100
G1 X105.993 Y104.297 E2.16121
G1 X107.470 Y102.622 E2.31130
G1 X108.840 Y100.855 E2.46150
G1 X109.195 Y100.333 E2.50397
G1 X100.333 Y109.195 E3.34624
G1 X99.007 Y110.096 E3.45397
G1 X98.182 Y110.584 E3.51839
G1 X110.582 Y98.184 E4.69686
G1 X111.249 Y97.054 E4.78507
G1 X111.559 Y96.445 E4.83101
G1 X96.445 Y111.559 E6.26745
G1 X94.918 Y112.324 E6.38217
G1 X112.324 Y94.918 E8.03633
G1 X112.905 Y93.575 E8.13469
G1 X93.575 Y112.905 E9.97175
G1 X93.040 Y113.136 E10.01091
G1 X92.324 Y113.394 E10.06209
G1 X113.394 Y92.324 E12.06459
G1 X113.823 Y91.133 E12.14963
G1 X91.133 Y113.823 E14.30602
G1 X90.040 Y114.154 E14.38277
G1 X114.154 Y90.040 E16.67453
G1 X114.466 Y88.966 E16.74969
G1 X88.966 Y114.466 E19.17317
G1 X87.970 Y114.701 E19.24196
G1 X114.701 Y87.970 E21.78241
G1 X114.920 Y86.988 E21.84998
G1 X86.988 Y114.920 E24.50455
G1 X86.610 Y115.005 E24.53060
G1 X86.054 Y115.093 E24.56845
G1 X115.093 Y86.054 E27.32825
G1 X115.236 Y85.148 E27.38985
G1 X85.148 Y115.236 E30.24933
G1 X84.254 Y115.368 E30.31006
G1 X115.368 Y84.254 E33.26707
G1 X115.448 Y83.413 E33.32387
G1 X83.413 Y115.448 E36.36842
G1 X82.571 Y115.527 E36.42522
G1 X115.527 Y82.571 E39.55730
G1 X115.565 Y82.177 E39.58389
G1 X115.578 Y81.759 E39.61202
G1 X81.759 Y115.578 E42.82609
G1 X80.972 Y115.603 E42.87898
G1 X115.603 Y80.972 E46.17017
G1 X115.627 Y80.185 E46.22306
G1 X80.185 Y115.627 E49.59136
G1 X79.432 Y115.619 E49.64200
G1 X115.619 Y79.432 E53.08110
G1 X115.596 Y78.693 E53.13077
G1 X78.693 Y115.596 E56.63788
G1 X77.954 Y115.572 E56.68755
G1 X115.572 Y77.954 E60.26266
G1 X115.521 Y77.244 E60.31052
G1 X77.244 Y115.521 E63.94822
G1 X76.548 Y115.455 E63.99522
G1 X115.455 Y76.548 E67.69283
G1 X115.389 Y75.852 E67.73982
G1 X75.852 Y115.389 E71.49734
G1 X75.174 Y115.305 E71.54325
G1 X115.305 Y75.174 E75.35724
G1 X115.201 Y74.516 E75.40199
G1 X74.516 Y115.201 E79.26859
G1 X73.858 Y115.097 E79.31334
G1 X115.097 Y73.858 E83.23255
G1 X114.989 Y73.204 E83.27708
G1 X73.204 Y114.989 E87.24813
G1 X72.582 Y114.849 E87.29101
G1 X114.849 Y72.582 E91.30802
G1 X114.710 Y71.959 E91.35090
G1 X71.959 Y114.710 E95.41386
G1 X71.336 Y114.571 E95.45675
G1 X114.571 Y71.336 E99.56567
G1 X114.412 Y70.733 E99.60757
G1 X70.733 Y114.412 E103.75868
G1 X70.143 Y114.240 E103.79999
G1 X114.240 Y70.143 E107.99091
G1 X114.069 Y69.552 E108.03223
G1 X69.552 Y114.069 E112.26296
G1 X68.962 Y113.897 E112.30427
G1 X113.897 Y68.962 E116.57481
G1 X113.696 Y68.401 E116.61485
G1 X68.401 Y113.696 E120.91959
G1 X67.841 Y113.495 E120.95961
G1 X113.495 Y67.841 E125.29842
G1 X113.293 Y67.280 E125.33844
G1 X67.280 Y113.293 E129.71133
G1 X66.726 Y113.085 E129.75109
G1 X113.085 Y66.726 E134.15685
G1 X112.855 Y66.195 E134.19579
G1 X66.195 Y112.855 E138.63021
G1 X65.663 Y112.624 E138.66915
G1 X112.624 Y65.663 E143.13225
G1 X112.394 Y65.131 E143.17119
G1 X65.131 Y112.394 E147.66296
G1 X64.609 Y112.154 E147.70156
G1 X112.154 Y64.609 E152.22011
G1 X111.897 Y64.104 E152.25818
G1 X64.104 Y111.897 E156.80025
G1 X63.600 Y111.640 E156.83833
G1 X111.640 Y63.600 E161.40393
G1 X111.383 Y63.095 E161.44200
G1 X63.095 Y111.383 E166.03113
G1 X62.601 Y111.114 E166.06890
