; generated by Slic3r 1.3.0 on 2023-11-01 at 17:16:34

; external perimeters extrusion width = 0.44mm (2.78mm^3/s)
; perimeters extrusion width = 0.40mm (7.14mm^3/s)
; infill extrusion width = 0.50mm (10.97mm^3/s)
; solid infill extrusion width = 0.60mm (6.68mm^3/s)
; top infill extrusion width = 0.40mm (2.14mm^3/s)

M107
M190 S80 ; set bed temperature and wait for it to be reached
M104 S210 ; set temperature
G28 ; home all axes
G1 Z5 F5000 ; lift nozzle

; Filament gcode

M109 S210 ; set temperature and wait for it to be reached
G21 ; set units to millimeters
G90 ; use absolute coordinates
M82 ; use absolute distances for extrusion
G92 E0
G1 Z0.300 F30000.000
G1 E-2.00000 F2400.00000
G92 E0
G1 X52.512 Y50.915 F30000.000
G1 E2.00000 F2400.00000
G1 F2100
G1 X54.589 Y49.083 E2.18500
G1 X56.580 Y47.549 E2.35295
G1 X58.449 Y46.279 E2.50386
G1 X60.833 Y44.869 E2.68889
G1 X63.076 Y43.735 E2.85685
G1 X65.387 Y42.744 E3.02479
G1 X67.512 Y41.979 E3.17568
G1 X69.924 Y41.270 E3.34363
G1 X72.626 Y40.666 E3.52858
G1 X74.857 Y40.312 E3.67954
G1 X77.360 Y40.068 E3.84749
G1 X80.128 Y39.981 E4.03250
G1 X82.385 Y40.052 E4.18340
G1 X84.889 Y40.280 E4.35135
G1 X87.624 Y40.714 E4.53638
G1 X90.076 Y41.270 E4.70432
G1 X92.245 Y41.900 E4.85521
G1 X94.613 Y42.744 E5.02317
G1 X96.924 Y43.735 E5.19112
G1 X99.391 Y44.992 E5.37611
G1 X101.551 Y46.279 E5.54407
G1 X103.419 Y47.549 E5.69498
G1 X105.608 Y49.246 E5.88001
G1 X107.488 Y50.915 E6.04797
G1 X109.086 Y52.513 E6.19894
G1 X110.917 Y54.589 E6.38387
G1 X112.301 Y56.374 E6.53477
G1 X113.722 Y58.450 E6.70279
G1 X115.007 Y60.609 E6.87066
G1 X116.156 Y62.845 E7.03861
G1 X117.256 Y65.387 E7.22364
G1 X118.022 Y67.515 E7.37472
G1 X118.731 Y69.925 E7.54259
G1 X119.334 Y72.627 E7.72750
G1 X119.688 Y74.857 E7.87838
G1 X119.932 Y77.360 E8.04634
G1 X120.019 Y80.128 E8.23137
G1 X119.932 Y82.640 E8.39932
G1 X119.719 Y84.892 E8.55039
G1 X119.286 Y87.624 E8.73523
G1 X118.794 Y89.829 E8.88610
G1 X118.100 Y92.245 E9.05405
G1 X117.256 Y94.613 E9.22201
G1 X116.267 Y96.920 E9.38969
G1 X115.007 Y99.391 E9.57499
G1 X113.857 Y101.337 E9.72596
G1 X112.451 Y103.419 E9.89382
G1 X110.754 Y105.608 E10.07886
G1 X109.260 Y107.302 E10.22975
G1 X107.488 Y109.085 E10.39769
G1 X105.411 Y110.917 E10.58272
G1 X103.626 Y112.301 E10.73359
G1 X101.551 Y113.721 E10.90155
G1 X99.168 Y115.130 E11.08653
G1 X96.926 Y116.264 E11.25435
G1 X94.851 Y117.162 E11.40541
G1 X92.245 Y118.100 E11.59044
G1 X89.829 Y118.794 E11.75839
G1 X87.375 Y119.334 E11.92625
G1 X84.892 Y119.719 E12.09410
G1 X82.640 Y119.932 E12.24518
G1 X79.872 Y120.019 E12.43019
G1 X77.615 Y119.948 E12.58108
G1 X75.111 Y119.720 E12.74904
G1 X72.378 Y119.287 E12.93390
G1 X69.925 Y118.731 E13.10190
G1 X67.755 Y118.100 E13.25290
G1 X65.149 Y117.162 E13.43793
G1 X63.076 Y116.265 E13.58880
G1 X60.833 Y115.131 E13.75676
G1 X58.445 Y113.719 E13.94206
G1 X56.374 Y112.301 E14.10973
G1 X54.392 Y110.754 E14.27770
G1 X52.698 Y109.260 E14.42857
G1 X50.915 Y107.488 E14.59653
G1 X49.083 Y105.411 E14.78156
G1 X47.699 Y103.626 E14.93245
G1 X46.279 Y101.551 E15.10043
G1 X44.869 Y99.167 E15.28542
G1 X43.844 Y97.155 E15.43630
G1 X42.838 Y94.851 E15.60425
G1 X41.900 Y92.245 E15.78928
G1 X41.270 Y90.076 E15.94017
G1 X40.714 Y87.624 E16.10812
G1 X40.312 Y85.143 E16.27607
G1 X40.068 Y82.645 E16.44375
G1 X39.981 Y79.872 E16.62905
G1 X40.052 Y77.614 E16.77997
G1 X40.280 Y75.111 E16.94788
G1 X40.714 Y72.376 E17.13291
G1 X41.206 Y70.171 E17.28380
G1 X41.900 Y67.755 E17.45174
G1 X42.838 Y65.149 E17.63677
G1 X43.735 Y63.076 E17.78765
G1 X44.869 Y60.833 E17.95560
G1 X46.279 Y58.449 E18.14063
G1 X47.699 Y56.374 E18.30859
G1 X49.083 Y54.589 E18.45950
G1 X50.740 Y52.698 E18.62742
G1 X52.469 Y50.957 E18.79136
G1 X52.890 Y51.294 F30000.000
G1 F2100
G1 X54.917 Y49.507 E18.97187
G1 X56.881 Y47.992 E19.13757
G1 X58.750 Y46.722 E19.28848
G1 X61.076 Y45.347 E19.46902
G1 X63.289 Y44.227 E19.63473
G1 X65.568 Y43.248 E19.80042
G1 X67.693 Y42.483 E19.95131
G1 X70.073 Y41.784 E20.11702
G1 X72.710 Y41.195 E20.29748
G1 X75.161 Y40.814 E20.46326
G1 X77.410 Y40.601 E20.61414
G1 X80.111 Y40.516 E20.79466
G1 X82.368 Y40.587 E20.94555
G1 X84.838 Y40.814 E21.11126
G1 X87.508 Y41.236 E21.29179
G1 X89.927 Y41.784 E21.45749
G1 X92.096 Y42.414 E21.60838
G1 X94.432 Y43.248 E21.77408
G1 X96.711 Y44.227 E21.93979
G1 X99.118 Y45.453 E22.12029
G1 X101.250 Y46.722 E22.28600
G1 X103.118 Y47.992 E22.43691
G1 X105.254 Y49.648 E22.61745
G1 X107.110 Y51.294 E22.78316
G1 X108.707 Y52.891 E22.93411
G1 X110.494 Y54.918 E23.11457
G1 X111.878 Y56.702 E23.26546
G1 X113.278 Y58.751 E23.43123
G1 X114.546 Y60.881 E23.59686
G1 X115.679 Y63.088 E23.76257
G1 X116.752 Y65.568 E23.94310
G1 X117.518 Y67.696 E24.09415
G1 X118.216 Y70.075 E24.25979
G1 X118.805 Y72.711 E24.44022
G1 X119.159 Y74.941 E24.59110
G1 X119.399 Y77.410 E24.75681
G1 X119.484 Y80.111 E24.93734
G1 X119.399 Y82.590 E25.10305
G1 X119.186 Y84.841 E25.25410
G1 X118.764 Y87.508 E25.43446
G1 X118.271 Y89.712 E25.58534
G1 X117.586 Y92.096 E25.75105
G1 X116.752 Y94.432 E25.91676
G1 X115.775 Y96.707 E26.08219
G1 X114.546 Y99.119 E26.26300
G1 X113.396 Y101.064 E26.41396
G1 X112.008 Y103.118 E26.57958
G1 X110.352 Y105.254 E26.76012
G1 X108.858 Y106.948 E26.91102
G1 X107.110 Y108.706 E27.07670
G1 X105.082 Y110.494 E27.25724
G1 X103.298 Y111.878 E27.40811
G1 X101.250 Y113.278 E27.57382
G1 X98.925 Y114.653 E27.75432
G1 X96.713 Y115.772 E27.91991
G1 X94.638 Y116.670 E28.07094
G1 X92.096 Y117.586 E28.25148
G1 X89.712 Y118.271 E28.41719
G1 X87.291 Y118.805 E28.58281
G1 X84.841 Y119.186 E28.74843
G1 X82.590 Y119.399 E28.89948
G1 X79.889 Y119.484 E29.08000
G1 X77.632 Y119.413 E29.23089
G1 X75.162 Y119.186 E29.39660
G1 X72.494 Y118.764 E29.57699
G1 X70.075 Y118.216 E29.74274
G1 X67.904 Y117.586 E29.89372
G1 X65.362 Y116.670 E30.07426
G1 X63.289 Y115.773 E30.22513
G1 X61.076 Y114.653 E30.39084
G1 X58.747 Y113.276 E30.57157
G1 X56.702 Y111.878 E30.73707
G1 X54.746 Y110.352 E30.90279
G1 X53.052 Y108.859 E31.05367
G1 X51.294 Y107.110 E31.21937
G1 X49.506 Y105.082 E31.39991
G1 X48.122 Y103.298 E31.55080
G1 X46.722 Y101.250 E31.71653
G1 X45.347 Y98.924 E31.89703
G1 X44.321 Y96.912 E32.04791
G1 X43.330 Y94.638 E32.21361
G1 X42.414 Y92.096 E32.39415
G1 X41.784 Y89.927 E32.54504
G1 X41.236 Y87.508 E32.71074
G1 X40.841 Y85.059 E32.87644
G1 X40.601 Y82.593 E33.04194
G1 X40.516 Y79.889 E33.22268
G1 X40.587 Y77.631 E33.37360
G1 X40.814 Y75.161 E33.53927
G1 X41.236 Y72.492 E33.71980
G1 X41.729 Y70.288 E33.87069
G1 X42.414 Y67.904 E34.03639
G1 X43.330 Y65.362 E34.21693
G1 X44.227 Y63.289 E34.36780
G1 X45.347 Y61.076 E34.53351
G1 X46.722 Y58.750 E34.71405
G1 X47.992 Y56.882 E34.86492
G1 X49.507 Y54.917 E35.03066
G1 X51.141 Y53.052 E35.19634
G1 X52.848 Y51.336 E35.35803
G1 E33.35803 F2400.00000
G92 E0
G1 X95.459 Y94.032 F30000.000
G1 E2.00000 F2400.00000
G1 F2100
G1 X95.225 Y94.297 E2.02365
G1 X94.297 Y95.225 E2.11131
G1 X93.313 Y96.093 E2.19896
G1 X92.277 Y96.897 E2.28662
G1 X91.191 Y97.635 E2.37427
G1 X90.062 Y98.303 E2.46193
G1 X88.893 Y98.898 E2.54958
G1 X87.689 Y99.419 E2.63724
G1 X86.454 Y99.864 E2.72489
G1 X85.194 Y100.230 E2.81255
G1 X83.914 Y100.516 E2.90020
G1 X82.618 Y100.721 E2.98786
G1 X81.311 Y100.845 E3.07551
G1 X80.000 Y100.886 E3.16317
G1 X78.689 Y100.845 E3.25082
G1 X77.382 Y100.721 E3.33848
G1 X76.086 Y100.516 E3.42613
G1 X74.861 Y100.242 E3.50998
G1 X73.547 Y99.864 E3.60136
G1 X72.311 Y99.419 E3.68909
G1 X71.107 Y98.898 E3.77675
G1 X69.938 Y98.303 E3.86440
G1 X68.809 Y97.635 E3.95206
G1 X67.723 Y96.897 E4.03971
G1 X66.687 Y96.093 E4.12737
G1 X65.703 Y95.225 E4.21502
G1 X64.775 Y94.297 E4.30268
G1 X63.907 Y93.313 E4.39033
G1 X63.103 Y92.277 E4.47799
G1 X62.365 Y91.191 E4.56564
G1 X61.697 Y90.062 E4.65330
G1 X61.102 Y88.893 E4.74095
G1 X60.580 Y87.687 E4.82873
G1 X60.109 Y86.360 E4.92277
G1 X59.770 Y85.194 E5.00390
G1 X59.483 Y83.912 E5.09168
G1 X59.269 Y82.520 E5.18573
G1 X59.155 Y81.311 E5.26686
G1 X59.114 Y80.000 E5.35451
G1 X59.155 Y78.689 E5.44217
G1 X59.279 Y77.382 E5.52982
G1 X59.484 Y76.086 E5.61748
G1 X59.770 Y74.806 E5.70513
G1 X60.136 Y73.546 E5.79279
G1 X60.581 Y72.311 E5.88044
G1 X61.102 Y71.107 E5.96810
G1 X61.697 Y69.938 E6.05575
G1 X62.366 Y68.807 E6.14353
G1 X63.163 Y67.646 E6.23757
G1 X63.907 Y66.687 E6.31870
G1 X64.775 Y65.703 E6.40636
G1 X65.703 Y64.775 E6.49401
G1 X66.687 Y63.907 E6.58167
G1 X67.723 Y63.103 E6.66932
G1 X68.809 Y62.365 E6.75698
G1 X69.938 Y61.697 E6.84463
G1 X71.107 Y61.102 E6.93229
G1 X72.311 Y60.581 E7.01994
G1 X73.546 Y60.136 E7.10760
G1 X74.806 Y59.770 E7.19525
G1 X76.086 Y59.484 E7.28291
G1 X77.382 Y59.279 E7.37056
G1 X78.689 Y59.155 E7.45822
G1 X79.902 Y59.117 E7.53935
G1 X81.310 Y59.155 E7.63339
G1 X82.618 Y59.279 E7.72117
G1 X83.914 Y59.484 E7.80883
G1 X85.194 Y59.770 E7.89648
G1 X86.360 Y60.109 E7.97761
G1 X87.687 Y60.580 E8.07166
G1 X88.893 Y61.102 E8.15944
G1 X89.975 Y61.653 E8.24057
G1 X91.190 Y62.364 E8.33461
G1 X92.277 Y63.103 E8.42239
G1 X93.313 Y63.907 E8.51004
G1 X94.297 Y64.775 E8.59770
G1 X95.225 Y65.703 E8.68535
G1 X96.093 Y66.687 E8.77301
G1 X96.897 Y67.723 E8.86066
G1 X97.635 Y68.809 E8.94832
G1 X98.304 Y69.940 E9.03610
G1 X98.937 Y71.197 E9.13014
G1 X99.419 Y72.311 E9.21127
G1 X99.864 Y73.546 E9.29893
G1 X100.230 Y74.806 E9.38658
G1 X100.517 Y76.088 E9.47436
G1 X100.731 Y77.480 E9.56840
G1 X100.845 Y78.689 E9.64953
G1 X100.886 Y80.000 E9.73719
G1 X100.845 Y81.311 E9.82484
G1 X100.721 Y82.618 E9.91250
G1 X100.516 Y83.914 E10.00015
G1 X100.229 Y85.196 E10.08793
G1 X99.831 Y86.546 E10.18198
G1 X99.419 Y87.689 E10.26311
G1 X98.898 Y88.893 E10.35076
G1 X98.303 Y90.062 E10.43842
G1 X97.635 Y91.191 E10.52607
G1 X96.897 Y92.277 E10.61373
G1 X96.093 Y93.313 E10.70138
G1 X95.499 Y93.987 E10.76138
G1 X95.058 Y93.678 F30000.000
G1 F2100
G1 X94.835 Y93.931 E10.78390
G1 X93.931 Y94.835 E10.86931
G1 X92.972 Y95.680 E10.95472
G1 X91.962 Y96.464 E11.04012
G1 X90.904 Y97.182 E11.12553
G1 X89.804 Y97.833 E11.21093
G1 X88.665 Y98.413 E11.29634
G1 X87.491 Y98.921 E11.38175
G1 X86.289 Y99.354 E11.46715
G1 X85.061 Y99.711 E11.55256
G1 X83.813 Y99.990 E11.63796
G1 X82.551 Y100.190 E11.72337
G1 X81.278 Y100.310 E11.80878
G1 X80.000 Y100.350 E11.89418
G1 X78.722 Y100.310 E11.97959
G1 X77.449 Y100.190 E12.06499
G1 X76.187 Y99.990 E12.15040
G1 X74.994 Y99.723 E12.23205
G1 X73.712 Y99.354 E12.32118
G1 X72.509 Y98.921 E12.40661
G1 X71.335 Y98.413 E12.49202
G1 X70.196 Y97.833 E12.57742
G1 X69.096 Y97.182 E12.66283
G1 X68.038 Y96.464 E12.74823
G1 X67.028 Y95.680 E12.83364
G1 X66.069 Y94.835 E12.91905
G1 X65.165 Y93.931 E13.00445
G1 X64.320 Y92.972 E13.08986
G1 X63.536 Y91.962 E13.17526
G1 X62.818 Y90.904 E13.26067
G1 X62.167 Y89.804 E13.34608
G1 X61.587 Y88.665 E13.43148
G1 X61.079 Y87.491 E13.51693
G1 X60.619 Y86.196 E13.60873
G1 X60.289 Y85.061 E13.68769
G1 X60.010 Y83.813 E13.77314
G1 X59.801 Y82.455 E13.86493
G1 X59.690 Y81.278 E13.94389
G1 X59.650 Y80.000 E14.02930
G1 X59.690 Y78.722 E14.11471
G1 X59.810 Y77.449 E14.20011
G1 X60.010 Y76.187 E14.28552
G1 X60.289 Y74.939 E14.37092
G1 X60.646 Y73.711 E14.45633
G1 X61.079 Y72.509 E14.54174
G1 X61.587 Y71.335 E14.62714
G1 X62.167 Y70.196 E14.71255
G1 X62.818 Y69.095 E14.79800
G1 X63.595 Y67.962 E14.88979
G1 X64.320 Y67.028 E14.96875
G1 X65.165 Y66.069 E15.05416
G1 X66.069 Y65.165 E15.13957
G1 X67.028 Y64.320 E15.22497
G1 X68.038 Y63.536 E15.31038
G1 X69.096 Y62.818 E15.39578
G1 X70.196 Y62.167 E15.48119
G1 X71.335 Y61.587 E15.56660
G1 X72.509 Y61.079 E15.65200
G1 X73.711 Y60.646 E15.73741
G1 X74.939 Y60.289 E15.82281
G1 X76.187 Y60.010 E15.90822
G1 X77.449 Y59.810 E15.99363
G1 X78.722 Y59.690 E16.07903
G1 X79.904 Y59.653 E16.15799
G1 X81.277 Y59.690 E16.24979
G1 X82.551 Y59.810 E16.33524
G1 X83.813 Y60.010 E16.42064
G1 X85.061 Y60.289 E16.50605
G1 X86.196 Y60.619 E16.58501
G1 X87.491 Y61.079 E16.67681
G1 X88.665 Y61.587 E16.76226
G1 X89.718 Y62.123 E16.84122
G1 X90.904 Y62.817 E16.93301
G1 X91.962 Y63.536 E17.01846
G1 X92.972 Y64.320 E17.10387
G1 X93.931 Y65.165 E17.18927
G1 X94.835 Y66.069 E17.27468
G1 X95.680 Y67.028 E17.36009
G1 X96.464 Y68.038 E17.44549
G1 X97.182 Y69.096 E17.53090
G1 X97.833 Y70.197 E17.61635
G1 X98.452 Y71.424 E17.70814
G1 X98.921 Y72.509 E17.78710
G1 X99.354 Y73.711 E17.87251
G1 X99.711 Y74.939 E17.95792
G1 X99.990 Y76.187 E18.04337
G1 X100.199 Y77.545 E18.13516
G1 X100.310 Y78.722 E18.21412
G1 X100.350 Y80.000 E18.29953
G1 X100.310 Y81.278 E18.38493
G1 X100.190 Y82.551 E18.47034
G1 X99.990 Y83.813 E18.55575
G1 X99.711 Y85.062 E18.64120
G1 X99.321 Y86.379 E18.73299
G1 X98.921 Y87.491 E18.81195
G1 X98.413 Y88.665 E18.89736
G1 X97.833 Y89.804 E18.98276
G1 X97.182 Y90.904 E19.06817
G1 X96.464 Y91.962 E19.15358
G1 X95.680 Y92.972 E19.23898
G1 X95.097 Y93.633 E19.29785
G1 X95.169 Y93.996 F30000.000
G1 E17.29785 F2400.00000
G92 E0
G1 X106.127 Y103.436 F30000.000
G1 E2.00000 F2400.00000
G1 F2100
G1 X105.597 Y104.037 E2.05351
G1 X104.037 Y105.597 E2.20088
G1 X102.382 Y107.056 E2.34825
G1 X100.639 Y108.408 E2.49561
G1 X98.815 Y109.648 E2.64298
G1 X96.916 Y110.771 E2.79034
G1 X94.947 Y111.774 E2.93798
G1 X92.926 Y112.648 E3.08508
G1 X90.851 Y113.395 E3.23245
G1 X88.732 Y114.011 E3.37981
G1 X86.580 Y114.492 E3.52718
G1 X84.397 Y114.837 E3.67482
G1 X82.205 Y115.045 E3.82191
G1 X80.000 Y115.114 E3.96928
G1 X77.795 Y115.045 E4.11665
G1 X75.599 Y114.837 E4.26401
G1 X73.420 Y114.492 E4.41138
G1 X71.268 Y114.011 E4.55875
G1 X69.149 Y113.395 E4.70611
G1 X67.074 Y112.648 E4.85348
G1 X65.049 Y111.772 E5.00085
G1 X63.084 Y110.771 E5.14821
G1 X61.185 Y109.648 E5.29558
G1 X59.357 Y108.405 E5.44322
G1 X57.618 Y107.056 E5.59031
G1 X55.963 Y105.597 E5.73768
G1 X54.403 Y104.037 E5.88505
G1 X52.944 Y102.382 E6.03241
G1 X51.592 Y100.639 E6.17978
G1 X50.352 Y98.815 E6.32715
G1 X49.229 Y96.916 E6.47451
G1 X48.228 Y94.951 E6.62188
G1 X47.353 Y92.930 E6.76898
G1 X46.605 Y90.851 E6.91662
G1 X45.989 Y88.732 E7.06398
G1 X45.508 Y86.580 E7.21135
G1 X45.163 Y84.401 E7.35872
G1 X44.956 Y82.209 E7.50581
G1 X44.886 Y80.000 E7.65345
G1 X44.955 Y77.795 E7.80081
G1 X45.163 Y75.599 E7.94818
G1 X45.508 Y73.420 E8.09555
G1 X45.989 Y71.268 E8.24291
G1 X46.605 Y69.149 E8.39028
G1 X47.352 Y67.074 E8.53765
G1 X48.228 Y65.049 E8.68502
G1 X49.229 Y63.084 E8.83238
G1 X50.352 Y61.185 E8.97975
G1 X51.592 Y59.361 E9.12712
G1 X52.944 Y57.618 E9.27448
G1 X54.403 Y55.963 E9.42185
G1 X55.963 Y54.403 E9.56922
G1 X57.618 Y52.944 E9.71658
G1 X59.361 Y51.592 E9.86395
G1 X61.185 Y50.352 E10.01132
G1 X63.084 Y49.229 E10.15868
G1 X65.049 Y48.228 E10.30605
G1 X67.074 Y47.352 E10.45342
G1 X69.149 Y46.605 E10.60078
G1 X71.268 Y45.989 E10.74815
G1 X73.420 Y45.508 E10.89552
G1 X75.599 Y45.163 E11.04288
G1 X77.795 Y44.955 E11.19025
G1 X80.004 Y44.886 E11.33789
G1 X82.205 Y44.955 E11.48498
G1 X84.401 Y45.163 E11.63235
G1 X86.580 Y45.508 E11.77971
G1 X88.736 Y45.990 E11.92735
G1 X90.851 Y46.605 E12.07445
G1 X92.926 Y47.352 E12.22182
G1 X94.951 Y48.228 E12.36918
G1 X96.916 Y49.229 E12.51655
G1 X98.815 Y50.352 E12.66392
G1 X100.639 Y51.592 E12.81129
G1 X102.382 Y52.944 E12.95865
G1 X104.037 Y54.403 E13.10602
G1 X105.594 Y55.960 E13.25312
G1 X107.056 Y57.618 E13.40076
G1 X108.408 Y59.361 E13.54812
G1 X109.648 Y61.185 E13.69548
G1 X110.771 Y63.084 E13.84285
G1 X111.772 Y65.049 E13.99022
G1 X112.648 Y67.074 E14.13759
G1 X113.395 Y69.149 E14.28495
G1 X114.011 Y71.268 E14.43232
G1 X114.492 Y73.420 E14.57969
G1 X114.837 Y75.599 E14.72705
G1 X115.045 Y77.795 E14.87442
G1 X115.114 Y80.000 E15.02179
G1 X115.045 Y82.205 E15.16915
G1 X114.837 Y84.397 E15.31625
G1 X114.492 Y86.580 E15.46389
G1 X114.011 Y88.732 E15.61125
G1 X113.396 Y90.847 E15.75835
G1 X112.648 Y92.926 E15.90599
G1 X111.772 Y94.951 E16.05335
G1 X110.771 Y96.916 E16.20072
G1 X109.648 Y98.815 E16.34809
G1 X108.408 Y100.639 E16.49545
G1 X107.056 Y102.382 E16.64282
G1 X106.166 Y103.391 E16.73267
G1 X106.528 Y103.791 F30000.000
G1 F2100
G1 X105.988 Y104.404 E16.78730
G1 X104.404 Y105.988 E16.93692
G1 X102.724 Y107.469 E17.08653
G1 X100.954 Y108.841 E17.23615
G1 X99.102 Y110.100 E17.38577
G1 X97.174 Y111.240 E17.53538
G1 X95.175 Y112.259 E17.68527
G1 X93.124 Y113.146 E17.83461
G1 X91.016 Y113.905 E17.98423
