; generated by Slic3r 1.3.0 on 2023-03-03 at 15:37:33

; external perimeters extrusion width = 0.44mm (2.78mm^3/s)
; perimeters extrusion width = 0.40mm (7.14mm^3/s)
; infill extrusion width = 0.50mm (10.97mm^3/s)
; solid infill extrusion width = 0.60mm (6.68mm^3/s)
; top infill extrusion width = 0.40mm (2.14mm^3/s)

M107
M190 S80 ; set bed temperature and wait for it to be reached
M104 S210 ; set temperature
G28 ; home all axes
G1 Z5 F5000 ; lift nozzle

; Filament gcode

M109 S210 ; set temperature and wait for it to be reached
G21 ; set units to millimeters
G90 ; use absolute coordinates
M82 ; use absolute distances for extrusion
G92 E0
G1 Z0.300 F30000.000
G1 E-2.00000 F2400.00000
G92 E0
G1 X38.196 Y36.644 F30000.000
G1 E2.00000 F2400.00000
G1 F2100
G1 X40.227 Y34.854 E2.18083
G1 X42.169 Y33.358 E2.34459
G1 X43.984 Y32.124 E2.49127
G1 X46.314 Y30.746 E2.67210
G1 X48.271 Y29.749 E2.81878
G1 X50.517 Y28.768 E2.98254
G1 X52.821 Y27.930 E3.14630
G1 X53.221 Y27.805 E3.17429
G1 X55.420 Y27.175 E3.32714
G1 X57.814 Y26.648 E3.49089
G1 X59.983 Y26.304 E3.63757
G1 X62.422 Y26.066 E3.80133
G1 X65.128 Y25.981 E3.98216
G1 X67.322 Y26.050 E4.12884
G1 X69.764 Y26.272 E4.29260
G1 X72.186 Y26.648 E4.45636
G1 X72.596 Y26.732 E4.48435
G1 X74.828 Y27.238 E4.63720
G1 X77.179 Y27.930 E4.80096
G1 X79.245 Y28.674 E4.94764
G1 X81.498 Y29.640 E5.11139
G1 X83.910 Y30.869 E5.29223
G1 X86.015 Y32.124 E5.45598
G1 X87.831 Y33.358 E5.60266
G1 X89.970 Y35.017 E5.78350
G1 X91.804 Y36.644 E5.94726
G1 X93.356 Y38.196 E6.09393
G1 X95.146 Y40.227 E6.27477
G1 X96.492 Y41.962 E6.42145
G1 X97.876 Y43.984 E6.58520
G1 X99.254 Y46.314 E6.76604
G1 X100.251 Y48.271 E6.91272
G1 X101.232 Y50.517 E7.07647
G1 X102.070 Y52.821 E7.24024
G1 X102.679 Y54.888 E7.38419
G1 X102.825 Y55.420 E7.42107
G1 X103.352 Y57.814 E7.58483
G1 X103.695 Y59.983 E7.73151
G1 X103.934 Y62.422 E7.89526
G1 X104.019 Y65.128 E8.07610
G1 X103.950 Y67.322 E8.22278
G1 X103.728 Y69.764 E8.38654
G1 X103.304 Y72.437 E8.56737
G1 X102.825 Y74.580 E8.71405
G1 X102.149 Y76.936 E8.87781
G1 X101.232 Y79.483 E9.05864
G1 X100.360 Y81.498 E9.20532
G1 X99.254 Y83.686 E9.36908
G1 X98.014 Y85.800 E9.53283
G1 X96.642 Y87.831 E9.69659
G1 X94.983 Y89.970 E9.87742
G1 X93.356 Y91.804 E10.04118
G1 X91.804 Y93.356 E10.18786
G1 X89.773 Y95.146 E10.36869
G1 X88.038 Y96.492 E10.51537
G1 X86.016 Y97.876 E10.67913
G1 X83.686 Y99.254 E10.85996
G1 X81.729 Y100.251 E11.00664
G1 X79.483 Y101.232 E11.17040
G1 X76.936 Y102.149 E11.35123
G1 X74.580 Y102.825 E11.51499
G1 X72.437 Y103.304 E11.66167
G1 X70.017 Y103.695 E11.82543
G1 X69.601 Y103.743 E11.85342
G1 X67.322 Y103.950 E12.00627
G1 X64.872 Y104.019 E12.17002
G1 X62.678 Y103.950 E12.31671
G1 X60.236 Y103.728 E12.48046
G1 X57.563 Y103.304 E12.66130
G1 X55.420 Y102.825 E12.80797
G1 X53.064 Y102.149 E12.97173
G1 X50.517 Y101.232 E13.15257
G1 X48.502 Y100.360 E13.29925
G1 X46.314 Y99.254 E13.46300
G1 X43.984 Y97.876 E13.64384
G1 X42.169 Y96.642 E13.79052
G1 X40.227 Y95.146 E13.95427
G1 X38.383 Y93.531 E14.11803
G1 X36.644 Y91.804 E14.28179
G1 X34.854 Y89.773 E14.46262
G1 X33.508 Y88.038 E14.60930
G1 X32.124 Y86.015 E14.77306
G1 X30.746 Y83.686 E14.95389
G1 X29.640 Y81.498 E15.11765
G1 X28.768 Y79.483 E15.26433
G1 X27.930 Y77.179 E15.42809
G1 X27.284 Y74.984 E15.58093
G1 X27.175 Y74.580 E15.60893
G1 X26.648 Y72.186 E15.77268
G1 X26.304 Y70.017 E15.91936
G1 X26.066 Y67.578 E16.08312
G1 X25.981 Y64.872 E16.26395
G1 X26.050 Y62.678 E16.41063
G1 X26.272 Y60.236 E16.57439
G1 X26.696 Y57.563 E16.75522
G1 X27.175 Y55.420 E16.90190
G1 X27.851 Y53.064 E17.06566
G1 X28.768 Y50.517 E17.24649
G1 X29.640 Y48.502 E17.39317
G1 X30.746 Y46.314 E17.55693
G1 X32.124 Y43.984 E17.73776
G1 X33.358 Y42.169 E17.88444
G1 X34.854 Y40.227 E18.04820
G1 X36.469 Y38.383 E18.21196
G1 X38.154 Y36.686 E18.37171
G1 X38.575 Y37.023 F30000.000
G1 F2100
G1 X40.555 Y35.277 E18.54805
G1 X42.290 Y33.931 E18.69473
G1 X44.286 Y32.567 E18.85624
G1 X46.558 Y31.223 E19.03258
G1 X48.514 Y30.226 E19.17926
G1 X50.730 Y29.260 E19.34077
G1 X53.213 Y28.365 E19.51711
G1 X55.537 Y27.698 E19.67862
G1 X57.898 Y27.177 E19.84013
G1 X60.067 Y26.834 E19.98681
G1 X62.473 Y26.599 E20.14832
G1 X65.111 Y26.516 E20.32466
G1 X67.306 Y26.585 E20.47134
G1 X69.713 Y26.806 E20.63285
G1 X72.102 Y27.177 E20.79436
G1 X72.480 Y27.254 E20.82010
G1 X74.678 Y27.753 E20.97070
G1 X76.998 Y28.434 E21.13221
G1 X79.064 Y29.178 E21.27889
G1 X81.285 Y30.131 E21.44040
G1 X83.637 Y31.330 E21.61674
G1 X85.714 Y32.567 E21.77825
G1 X87.530 Y33.801 E21.92493
G1 X89.616 Y35.418 E22.10127
G1 X91.263 Y36.870 E22.24795
G1 X92.977 Y38.575 E22.40946
G1 X94.723 Y40.555 E22.58580
G1 X96.069 Y42.290 E22.73248
G1 X97.433 Y44.286 E22.89399
G1 X98.777 Y46.558 E23.07033
G1 X99.869 Y48.715 E23.23184
G1 X100.822 Y50.936 E23.39335
G1 X101.566 Y53.002 E23.54004
G1 X102.247 Y55.322 E23.70154
G1 X102.823 Y57.898 E23.87788
G1 X103.166 Y60.067 E24.02456
G1 X103.401 Y62.473 E24.18607
G1 X103.484 Y65.111 E24.36241
G1 X103.401 Y67.527 E24.52392
G1 X103.194 Y69.713 E24.67060
G1 X102.781 Y72.320 E24.84694
G1 X102.302 Y74.463 E24.99362
G1 X101.635 Y76.787 E25.15513
G1 X100.740 Y79.270 E25.33147
G1 X99.869 Y81.285 E25.47815
G1 X98.777 Y83.442 E25.63966
G1 X97.433 Y85.714 E25.81600
G1 X96.199 Y87.530 E25.96268
G1 X94.723 Y89.445 E26.12419
G1 X93.130 Y91.263 E26.28570
G1 X91.425 Y92.977 E26.44721
G1 X89.445 Y94.723 E26.62355
G1 X87.530 Y96.199 E26.78506
G1 X85.714 Y97.433 E26.93174
G1 X83.442 Y98.777 E27.10808
G1 X81.486 Y99.774 E27.25476
G1 X79.270 Y100.740 E27.41627
G1 X76.998 Y101.566 E27.57778
G1 X74.678 Y102.247 E27.73929
G1 X72.102 Y102.823 E27.91563
G1 X69.713 Y103.194 E28.07714
G1 X67.527 Y103.401 E28.22382
G1 X64.889 Y103.484 E28.40015
G1 X62.694 Y103.415 E28.54684
G1 X60.287 Y103.194 E28.70835
G1 X57.680 Y102.781 E28.88469
G1 X55.537 Y102.302 E29.03137
G1 X53.213 Y101.635 E29.19288
G1 X50.730 Y100.740 E29.36922
G1 X48.715 Y99.869 E29.51590
G1 X46.558 Y98.777 E29.67741
G1 X44.286 Y97.433 E29.85375
G1 X42.470 Y96.199 E30.00043
G1 X40.555 Y94.723 E30.16194
G1 X38.737 Y93.130 E30.32345
G1 X37.022 Y91.425 E30.48496
G1 X35.277 Y89.445 E30.66130
G1 X33.931 Y87.710 E30.80798
G1 X32.567 Y85.714 E30.96949
G1 X31.223 Y83.442 E31.14583
G1 X30.226 Y81.486 E31.29251
G1 X29.260 Y79.270 E31.45402
G1 X28.365 Y76.787 E31.63036
G1 X27.753 Y74.678 E31.77704
G1 X27.219 Y72.320 E31.93855
G1 X26.834 Y69.933 E32.10006
G1 X26.614 Y67.690 E32.25066
G1 X26.585 Y67.306 E32.27641
G1 X26.516 Y64.889 E32.43792
G1 X26.585 Y62.694 E32.58460
G1 X26.806 Y60.287 E32.74611
G1 X27.219 Y57.680 E32.92245
G1 X27.698 Y55.537 E33.06913
G1 X28.365 Y53.213 E33.23063
G1 X29.260 Y50.730 E33.40697
G1 X30.131 Y48.715 E33.55365
G1 X31.223 Y46.558 E33.71516
G1 X32.567 Y44.286 E33.89150
G1 X33.931 Y42.290 E34.05301
G1 X35.277 Y40.555 E34.19969
G1 X36.870 Y38.737 E34.36121
G1 X38.533 Y37.065 E34.51871
G1 E32.51871 F2400.00000
G92 E0
G1 X79.966 Y73.828 F30000.000
G1 E2.00000 F2400.00000
G1 F2100
G1 X79.634 Y74.383 E2.04323
G1 X79.066 Y75.219 E2.11077
G1 X78.396 Y76.082 E2.18374
G1 X77.674 Y76.902 E2.25670
G1 X76.902 Y77.674 E2.32967
G1 X76.082 Y78.396 E2.40264
G1 X75.219 Y79.066 E2.47560
G1 X74.316 Y79.680 E2.54857
G1 X73.376 Y80.236 E2.62153
G1 X72.403 Y80.731 E2.69450
G1 X71.400 Y81.165 E2.76747
G1 X70.373 Y81.535 E2.84043
G1 X69.402 Y81.817 E2.90797
G1 X68.260 Y82.078 E2.98623
G1 X67.179 Y82.249 E3.05932
G1 X66.092 Y82.352 E3.13229
G1 X65.000 Y82.386 E3.20525
G1 X63.908 Y82.352 E3.27822
G1 X62.902 Y82.257 E3.34576
G1 X61.744 Y82.079 E3.42402
G1 X60.676 Y81.840 E3.49711
G1 X59.627 Y81.535 E3.57007
G1 X58.600 Y81.165 E3.64304
G1 X57.597 Y80.731 E3.71601
G1 X56.624 Y80.236 E3.78897
G1 X55.684 Y79.680 E3.86194
G1 X54.781 Y79.066 E3.93490
G1 X53.918 Y78.396 E4.00787
G1 X53.098 Y77.674 E4.08084
G1 X52.326 Y76.902 E4.15380
G1 X51.604 Y76.082 E4.22677
G1 X50.934 Y75.219 E4.29973
G1 X50.319 Y74.314 E4.37282
G1 X49.728 Y73.303 E4.45108
G1 X49.269 Y72.403 E4.51862
G1 X48.835 Y71.400 E4.59159
G1 X48.465 Y70.373 E4.66456
G1 X48.160 Y69.324 E4.73752
G1 X47.921 Y68.256 E4.81061
G1 X47.743 Y67.098 E4.88887
G1 X47.648 Y66.092 E4.95641
G1 X47.614 Y65.000 E5.02938
G1 X47.648 Y63.908 E5.10234
G1 X47.751 Y62.821 E5.17531
G1 X47.922 Y61.742 E5.24827
G1 X48.160 Y60.676 E5.32124
G1 X48.465 Y59.627 E5.39421
G1 X48.835 Y58.600 E5.46717
G1 X49.269 Y57.597 E5.54014
G1 X49.764 Y56.624 E5.61310
G1 X50.321 Y55.682 E5.68619
G1 X50.984 Y54.717 E5.76445
G1 X51.604 Y53.918 E5.83199
G1 X52.326 Y53.098 E5.90496
G1 X53.098 Y52.326 E5.97793
G1 X53.918 Y51.604 E6.05089
G1 X54.781 Y50.934 E6.12386
G1 X55.684 Y50.320 E6.19682
G1 X56.554 Y49.806 E6.26437
G1 X57.596 Y49.269 E6.34262
G1 X58.600 Y48.835 E6.41571
G1 X59.627 Y48.465 E6.48868
G1 X60.676 Y48.160 E6.56164
G1 X61.742 Y47.922 E6.63461
G1 X62.821 Y47.751 E6.70758
G1 X63.908 Y47.648 E6.78054
G1 X64.919 Y47.616 E6.84809
G1 X66.090 Y47.648 E6.92634
G1 X67.179 Y47.751 E6.99943
G1 X68.258 Y47.922 E7.07240
G1 X69.324 Y48.160 E7.14536
G1 X70.373 Y48.465 E7.21833
G1 X71.400 Y48.835 E7.29130
G1 X72.403 Y49.269 E7.36426
G1 X73.303 Y49.728 E7.43181
G1 X74.314 Y50.319 E7.51006
G1 X75.219 Y50.934 E7.58315
G1 X76.082 Y51.604 E7.65612
G1 X76.902 Y52.326 E7.72908
G1 X77.674 Y53.098 E7.80205
G1 X78.396 Y53.918 E7.87501
G1 X79.066 Y54.781 E7.94798
G1 X79.680 Y55.684 E8.02095
G1 X80.236 Y56.624 E8.09391
G1 X80.731 Y57.597 E8.16688
G1 X81.165 Y58.600 E8.23985
G1 X81.535 Y59.627 E8.31281
G1 X81.840 Y60.676 E8.38578
G1 X82.078 Y61.742 E8.45874
G1 X82.249 Y62.821 E8.53171
G1 X82.352 Y63.908 E8.60468
G1 X82.386 Y65.002 E8.67777
G1 X82.344 Y66.172 E8.75602
G1 X82.249 Y67.179 E8.82356
G1 X82.078 Y68.258 E8.89653
G1 X81.840 Y69.324 E8.96950
G1 X81.535 Y70.373 E9.04246
G1 X81.165 Y71.400 E9.11543
G1 X80.731 Y72.403 E9.18839
G1 X80.235 Y73.377 E9.26149
G1 X79.997 Y73.776 E9.29250
G1 X79.506 Y73.553 F30000.000
G1 F2100
G1 X79.182 Y74.095 E9.33469
G1 X78.632 Y74.904 E9.40006
G1 X77.983 Y75.741 E9.47078
G1 X77.283 Y76.535 E9.54150
G1 X76.535 Y77.283 E9.61221
G1 X75.741 Y77.983 E9.68293
G1 X74.904 Y78.632 E9.75365
G1 X74.029 Y79.227 E9.82436
G1 X73.118 Y79.766 E9.89508
G1 X72.174 Y80.246 E9.96580
G1 X71.203 Y80.667 E10.03651
G1 X70.207 Y81.025 E10.10723
G1 X69.267 Y81.298 E10.17261
G1 X68.158 Y81.552 E10.24861
G1 X67.112 Y81.717 E10.31937
G1 X66.058 Y81.817 E10.39009
G1 X65.000 Y81.850 E10.46081
G1 X63.942 Y81.817 E10.53152
G1 X62.968 Y81.725 E10.59690
G1 X61.843 Y81.552 E10.67290
G1 X60.810 Y81.321 E10.74367
G1 X59.793 Y81.025 E10.81438
G1 X58.797 Y80.667 E10.88510
G1 X57.826 Y80.246 E10.95582
G1 X56.882 Y79.766 E11.02653
G1 X55.971 Y79.227 E11.09725
G1 X55.096 Y78.632 E11.16797
G1 X54.259 Y77.983 E11.23869
G1 X53.465 Y77.283 E11.30940
G1 X52.717 Y76.535 E11.38012
G1 X52.017 Y75.741 E11.45084
G1 X51.368 Y74.904 E11.52155
G1 X50.773 Y74.028 E11.59232
G1 X50.198 Y73.046 E11.66832
G1 X49.754 Y72.174 E11.73370
G1 X49.333 Y71.203 E11.80441
G1 X48.975 Y70.207 E11.87513
G1 X48.679 Y69.190 E11.94585
G1 X48.448 Y68.157 E12.01661
G1 X48.275 Y67.032 E12.09261
G1 X48.183 Y66.058 E12.15799
G1 X48.150 Y65.000 E12.22871
G1 X48.183 Y63.942 E12.29942
G1 X48.283 Y62.888 E12.37014
G1 X48.448 Y61.843 E12.44086
G1 X48.679 Y60.810 E12.51157
G1 X48.975 Y59.793 E12.58229
G1 X49.333 Y58.797 E12.65301
G1 X49.754 Y57.826 E12.72373
G1 X50.234 Y56.882 E12.79444
G1 X50.773 Y55.971 E12.86520
G1 X51.417 Y55.033 E12.94121
G1 X52.017 Y54.259 E13.00658
G1 X52.717 Y53.465 E13.07730
G1 X53.465 Y52.717 E13.14802
G1 X54.259 Y52.017 E13.21874
G1 X55.096 Y51.368 E13.28945
G1 X55.971 Y50.773 E13.36017
G1 X56.814 Y50.275 E13.42554
G1 X57.825 Y49.754 E13.50155
G1 X58.797 Y49.333 E13.57231
G1 X59.793 Y48.975 E13.64303
G1 X60.810 Y48.679 E13.71375
G1 X61.843 Y48.448 E13.78446
G1 X62.888 Y48.283 E13.85518
G1 X63.942 Y48.183 E13.92590
G1 X64.920 Y48.152 E13.99127
G1 X66.057 Y48.183 E14.06728
G1 X67.112 Y48.283 E14.13804
G1 X68.157 Y48.448 E14.20876
G1 X69.190 Y48.679 E14.27947
G1 X70.207 Y48.975 E14.35019
G1 X71.203 Y49.333 E14.42091
G1 X72.174 Y49.754 E14.49162
G1 X73.046 Y50.198 E14.55700
G1 X74.028 Y50.773 E14.63300
G1 X74.904 Y51.368 E14.70377
G1 X75.741 Y52.017 E14.77448
G1 X76.535 Y52.717 E14.84520
G1 X77.283 Y53.465 E14.91592
G1 X77.983 Y54.259 E14.98663
G1 X78.632 Y55.096 E15.05735
G1 X79.227 Y55.971 E15.12807
G1 X79.766 Y56.882 E15.19878
G1 X80.246 Y57.826 E15.26950
G1 X80.667 Y58.797 E15.34022
G1 X81.025 Y59.793 E15.41094
G1 X81.321 Y60.810 E15.48165
G1 X81.552 Y61.843 E15.55237
G1 X81.717 Y62.888 E15.62309
G1 X81.817 Y63.942 E15.69380
G1 X81.850 Y65.001 E15.76457
G1 X81.809 Y66.138 E15.84057
G1 X81.717 Y67.112 E15.90595
G1 X81.552 Y68.157 E15.97666
G1 X81.321 Y69.190 E16.04738
G1 X81.025 Y70.207 E16.11810
G1 X80.667 Y71.203 E16.18881
G1 X80.246 Y72.174 E16.25953
G1 X79.766 Y73.118 E16.33029
G1 X79.537 Y73.501 E16.36011
G1 X79.706 Y73.899 F30000.000
G1 E14.36011 F2400.00000
G92 E0
G1 X94.360 Y82.338 F30000.000
G1 E2.00000 F2400.00000
G1 F2100
G1 X93.803 Y83.279 E2.07308
G1 X92.599 Y85.052 E2.21625
G1 X91.285 Y86.745 E2.35942
G1 X89.868 Y88.353 E2.50259
G1 X88.353 Y89.868 E2.64576
G1 X86.745 Y91.285 E2.78893
G1 X85.052 Y92.599 E2.93210
G1 X83.279 Y93.803 E3.07527
G1 X81.435 Y94.894 E3.21844
G1 X79.525 Y95.867 E3.36161
G1 X77.558 Y96.718 E3.50478
G1 X75.542 Y97.444 E3.64795
G1 X73.484 Y98.042 E3.79112
G1 X71.394 Y98.509 E3.93416
G1 X69.115 Y98.860 E4.08823
G1 X67.142 Y99.047 E4.22061
G1 X65.000 Y99.114 E4.36378
G1 X62.858 Y99.047 E4.50695
G1 X60.724 Y98.845 E4.65012
G1 X58.608 Y98.510 E4.79329
G1 X56.516 Y98.042 E4.93646
G1 X54.458 Y97.444 E5.07963
G1 X52.444 Y96.719 E5.22267
G1 X50.331 Y95.794 E5.37674
G1 X48.565 Y94.894 E5.50912
G1 X46.721 Y93.803 E5.65229
G1 X44.948 Y92.599 E5.79546
G1 X43.255 Y91.285 E5.93863
G1 X41.647 Y89.868 E6.08180
G1 X40.246 Y88.467 E6.21417
G1 X38.714 Y86.744 E6.36824
G1 X37.401 Y85.052 E6.51129
G1 X36.197 Y83.279 E6.65446
G1 X35.106 Y81.435 E6.79763
G1 X34.133 Y79.525 E6.94079
G1 X33.282 Y77.558 E7.08397
G1 X32.556 Y75.542 E7.22714
G1 X31.958 Y73.484 E7.37030
G1 X31.490 Y71.392 E7.51348
G1 X31.155 Y69.276 E7.65665
G1 X30.953 Y67.142 E7.79981
G1 X30.886 Y65.000 E7.94298
G1 X30.953 Y62.858 E8.08616
G1 X31.140 Y60.885 E8.21853
G1 X31.491 Y58.606 E8.37260
G1 X31.958 Y56.516 E8.51564
G1 X32.556 Y54.458 E8.65881
G1 X33.282 Y52.442 E8.80198
G1 X34.133 Y50.475 E8.94515
G1 X35.106 Y48.565 E9.08832
G1 X36.197 Y46.721 E9.23149
G1 X37.401 Y44.948 E9.37466
G1 X38.715 Y43.255 E9.51783
G1 X40.132 Y41.647 E9.66100
G1 X41.647 Y40.132 E9.80417
G1 X43.255 Y38.715 E9.94734
G1 X44.948 Y37.401 E10.09051
G1 X46.721 Y36.197 E10.23368
G1 X48.565 Y35.106 E10.37685
G1 X50.475 Y34.133 E10.52002
G1 X52.442 Y33.282 E10.66319
G1 X54.458 Y32.556 E10.80636
G1 X56.516 Y31.958 E10.94953
G1 X58.608 Y31.490 E11.09270
G1 X60.724 Y31.155 E11.23587
G1 X62.856 Y30.954 E11.37892
G1 X65.161 Y30.891 E11.53298
G1 X67.142 Y30.953 E11.66536
G1 X69.276 Y31.155 E11.80853
G1 X71.392 Y31.490 E11.95170
G1 X73.484 Y31.958 E12.09487
G1 X75.542 Y32.556 E12.23804
G1 X77.558 Y33.282 E12.38121
G1 X79.525 Y34.133 E12.52438
G1 X81.435 Y35.106 E12.66755
G1 X83.279 Y36.197 E12.81072
G1 X85.050 Y37.400 E12.95377
G1 X86.866 Y38.822 E13.10783
G1 X88.353 Y40.132 E13.24021
G1 X89.868 Y41.647 E13.38338
G1 X91.285 Y43.255 E13.52655
G1 X92.599 Y44.948 E13.66972
G1 X93.803 Y46.721 E13.81289
G1 X94.894 Y48.565 E13.95606
G1 X95.867 Y50.475 E14.09923
G1 X96.718 Y52.442 E14.24240
G1 X97.444 Y54.458 E14.38557
G1 X98.042 Y56.516 E14.52874
G1 X98.510 Y58.608 E14.67191
G1 X98.845 Y60.724 E14.81508
G1 X99.047 Y62.858 E14.95825
G1 X99.114 Y65.000 E15.10142
G1 X99.047 Y67.142 E15.24459
G1 X98.860 Y69.115 E15.37697
G1 X98.509 Y71.394 E15.53104
G1 X98.042 Y73.484 E15.67408
G1 X97.444 Y75.542 E15.81725
G1 X96.718 Y77.558 E15.96042
G1 X95.867 Y79.525 E16.10359
G1 X94.894 Y81.435 E16.24676
G1 X94.391 Y82.286 E16.31285
G1 X94.821 Y82.610 F30000.000
G1 F2100
G1 X94.256 Y83.566 E16.38705
G1 X93.032 Y85.367 E16.53247
G1 X91.698 Y87.087 E16.67789
G1 X90.259 Y88.719 E16.82331
G1 X88.719 Y90.259 E16.96873
G1 X87.087 Y91.698 E17.11415
G1 X85.367 Y93.032 E17.25956
G1 X83.566 Y94.256 E17.40498
G1 X81.693 Y95.364 E17.55040
