; generated by Slic3r 1.3.0 on 2023-03-03 at 01:25:13

; external perimeters extrusion width = 0.44mm (2.78mm^3/s)
; perimeters extrusion width = 0.40mm (7.14mm^3/s)
; infill extrusion width = 0.50mm (10.97mm^3/s)
; solid infill extrusion width = 0.60mm (6.68mm^3/s)
; top infill extrusion width = 0.40mm (2.14mm^3/s)

M107
M190 S80 ; set bed temperature and wait for it to be reached
M104 S210 ; set temperature
G28 ; home all axes
G1 Z5 F5000 ; lift nozzle

; Filament gcode

M109 S210 ; set temperature and wait for it to be reached
G21 ; set units to millimeters
G90 ; use absolute coordinates
M82 ; use absolute distances for extrusion
G92 E0
G1 Z0.300 F30000.000
G1 E-2.00000 F2400.00000
G92 E0
G1 X38.196 Y36.644 F30000.000
G1 E2.00000 F2400.00000
G1 F2100
G1 X40.227 Y34.854 E2.18083
G1 X41.962 Y33.508 E2.32751
G1 X43.984 Y32.124 E2.49127
G1 X46.314 Y30.746 E2.67210
G1 X48.502 Y29.640 E2.83586
G1 X50.755 Y28.674 E2.99962
G1 X52.821 Y27.930 E3.14630
G1 X55.172 Y27.238 E3.31006
G1 X57.814 Y26.648 E3.49089
G1 X59.983 Y26.304 E3.63757
G1 X62.422 Y26.066 E3.80133
G1 X65.128 Y25.981 E3.98216
G1 X67.322 Y26.050 E4.12884
G1 X69.764 Y26.272 E4.29260
G1 X72.516 Y26.714 E4.47882
G1 X74.827 Y27.238 E4.63717
G1 X77.179 Y27.930 E4.80093
G1 X79.245 Y28.674 E4.94761
G1 X81.498 Y29.640 E5.11137
G1 X83.910 Y30.869 E5.29220
G1 X85.800 Y31.986 E5.43888
G1 X87.831 Y33.358 E5.60264
G1 X89.970 Y35.017 E5.78347
G1 X91.617 Y36.469 E5.93015
G1 X93.356 Y38.196 E6.09391
G1 X95.146 Y40.227 E6.27475
G1 X96.642 Y42.169 E6.43850
G1 X97.876 Y43.985 E6.58518
G1 X99.254 Y46.314 E6.76602
G1 X100.251 Y48.271 E6.91269
G1 X101.232 Y50.517 E7.07646
G1 X102.149 Y53.064 E7.25729
G1 X102.762 Y55.173 E7.40398
G1 X103.304 Y57.563 E7.56773
G1 X103.696 Y59.983 E7.73149
G1 X103.934 Y62.422 E7.89524
G1 X104.019 Y65.128 E8.07607
G1 X103.950 Y67.322 E8.22275
G1 X103.728 Y69.764 E8.38651
G1 X103.304 Y72.437 E8.56734
G1 X102.825 Y74.580 E8.71402
G1 X102.149 Y76.936 E8.87778
G1 X101.326 Y79.245 E9.04153
G1 X100.392 Y81.424 E9.19989
G1 X99.131 Y83.910 E9.38612
G1 X98.014 Y85.800 E9.53279
G1 X96.642 Y87.831 E9.69655
G1 X94.983 Y89.970 E9.87739
G1 X93.531 Y91.617 E10.02407
G1 X91.804 Y93.356 E10.18782
G1 X89.773 Y95.146 E10.36866
G1 X88.038 Y96.492 E10.51534
G1 X86.016 Y97.876 E10.67909
G1 X83.686 Y99.254 E10.85993
G1 X81.498 Y100.360 E11.02368
G1 X79.483 Y101.232 E11.17036
G1 X76.936 Y102.149 E11.35120
G1 X74.580 Y102.825 E11.51495
G1 X72.437 Y103.304 E11.66163
G1 X69.683 Y103.735 E11.84786
G1 X67.322 Y103.950 E12.00621
G1 X64.872 Y104.019 E12.16997
G1 X62.422 Y103.934 E12.33373
G1 X60.236 Y103.728 E12.48041
G1 X57.563 Y103.304 E12.66123
G1 X55.173 Y102.762 E12.82499
G1 X53.064 Y102.149 E12.97168
G1 X50.443 Y101.200 E13.15790
G1 X48.271 Y100.251 E13.31626
G1 X46.090 Y99.131 E13.48002
G1 X43.985 Y97.876 E13.64377
G1 X42.169 Y96.642 E13.79045
G1 X40.030 Y94.983 E13.97129
G1 X38.196 Y93.356 E14.13504
G1 X36.644 Y91.804 E14.28173
G1 X34.854 Y89.773 E14.46256
G1 X33.508 Y88.038 E14.60924
G1 X32.124 Y86.015 E14.77299
G1 X30.746 Y83.686 E14.95383
G1 X29.749 Y81.729 E15.10051
G1 X28.768 Y79.483 E15.26426
G1 X27.851 Y76.936 E15.44510
G1 X27.238 Y74.827 E15.59178
G1 X26.696 Y72.437 E15.75554
G1 X26.304 Y70.017 E15.91929
G1 X26.073 Y67.658 E16.07765
G1 X25.981 Y64.872 E16.26387
G1 X26.050 Y62.678 E16.41055
G1 X26.272 Y60.236 E16.57431
G1 X26.696 Y57.563 E16.75514
G1 X27.175 Y55.420 E16.90182
G1 X27.851 Y53.064 E17.06558
G1 X28.768 Y50.517 E17.24641
G1 X29.640 Y48.502 E17.39309
G1 X30.746 Y46.314 E17.55685
G1 X32.124 Y43.984 E17.73768
G1 X33.358 Y42.169 E17.88436
G1 X34.854 Y40.227 E18.04812
G1 X36.469 Y38.383 E18.21188
G1 X38.154 Y36.686 E18.37163
G1 X38.575 Y37.023 F30000.000
G1 F2100
G1 X40.555 Y35.277 E18.54797
G1 X42.470 Y33.801 E18.70948
G1 X44.473 Y32.448 E18.87099
G1 X46.363 Y31.330 E19.01767
G1 X48.514 Y30.226 E19.17918
G1 X50.936 Y29.178 E19.35552
G1 X53.002 Y28.434 E19.50220
G1 X55.322 Y27.753 E19.66371
G1 X57.898 Y27.177 E19.84005
G1 X60.067 Y26.834 E19.98673
G1 X62.473 Y26.599 E20.14824
G1 X65.111 Y26.516 E20.32458
G1 X67.306 Y26.585 E20.47126
G1 X69.713 Y26.806 E20.63277
G1 X72.399 Y27.236 E20.81450
G1 X74.678 Y27.753 E20.97060
G1 X76.998 Y28.434 E21.13212
G1 X79.064 Y29.178 E21.27880
G1 X81.285 Y30.131 E21.44031
G1 X83.637 Y31.330 E21.61664
G1 X85.527 Y32.448 E21.76333
G1 X87.530 Y33.801 E21.92484
G1 X89.616 Y35.418 E22.10118
G1 X91.263 Y36.870 E22.24785
G1 X92.977 Y38.575 E22.40937
G1 X94.723 Y40.555 E22.58571
G1 X96.069 Y42.290 E22.73238
G1 X97.433 Y44.286 E22.89390
G1 X98.777 Y46.558 E23.07024
G1 X99.869 Y48.715 E23.23175
G1 X100.741 Y50.730 E23.37843
G1 X101.635 Y53.213 E23.55476
G1 X102.247 Y55.322 E23.70146
G1 X102.781 Y57.680 E23.86296
G1 X103.166 Y60.067 E24.02447
G1 X103.401 Y62.473 E24.18598
G1 X103.484 Y65.111 E24.36232
G1 X103.415 Y67.306 E24.50900
G1 X103.194 Y69.713 E24.67051
G1 X102.781 Y72.320 E24.84685
G1 X102.302 Y74.463 E24.99352
G1 X101.635 Y76.787 E25.15503
G1 X100.822 Y79.064 E25.31654
G1 X99.901 Y81.211 E25.47265
G1 X98.670 Y83.637 E25.65439
G1 X97.552 Y85.527 E25.80106
G1 X96.199 Y87.530 E25.96257
G1 X94.582 Y89.616 E26.13892
G1 X93.130 Y91.263 E26.28560
G1 X91.425 Y92.977 E26.44710
G1 X89.445 Y94.723 E26.62345
G1 X87.710 Y96.069 E26.77012
G1 X85.714 Y97.433 E26.93163
G1 X83.442 Y98.777 E27.10797
G1 X81.285 Y99.868 E27.26948
G1 X79.270 Y100.740 E27.41616
G1 X76.787 Y101.635 E27.59250
G1 X74.678 Y102.247 E27.73918
G1 X72.320 Y102.781 E27.90069
G1 X69.633 Y103.202 E28.08242
G1 X67.306 Y103.415 E28.23853
G1 X64.889 Y103.484 E28.40004
G1 X62.694 Y103.415 E28.54672
G1 X60.287 Y103.194 E28.70823
G1 X57.680 Y102.781 E28.88457
G1 X55.322 Y102.247 E29.04607
G1 X53.213 Y101.635 E29.19276
G1 X50.656 Y100.708 E29.37450
G1 X48.514 Y99.774 E29.53060
G1 X46.363 Y98.670 E29.69211
G1 X44.286 Y97.433 E29.85362
G1 X42.470 Y96.199 E30.00030
G1 X40.384 Y94.582 E30.17664
G1 X38.575 Y92.977 E30.33815
G1 X37.022 Y91.425 E30.48484
G1 X35.277 Y89.445 E30.66117
G1 X33.931 Y87.710 E30.80786
G1 X32.567 Y85.714 E30.96936
G1 X31.223 Y83.442 E31.14570
G1 X30.226 Y81.486 E31.29238
G1 X29.260 Y79.270 E31.45389
G1 X28.365 Y76.787 E31.63023
G1 X27.753 Y74.678 E31.77692
G1 X27.219 Y72.320 E31.93842
G1 X26.834 Y69.933 E32.09994
G1 X26.607 Y67.608 E32.25604
G1 X26.516 Y64.889 E32.43777
G1 X26.585 Y62.694 E32.58445
G1 X26.806 Y60.287 E32.74596
G1 X27.219 Y57.680 E32.92230
G1 X27.698 Y55.537 E33.06898
G1 X28.365 Y53.213 E33.23049
G1 X29.260 Y50.730 E33.40683
G1 X30.226 Y48.514 E33.56834
G1 X31.223 Y46.558 E33.71502
G1 X32.567 Y44.286 E33.89136
G1 X33.801 Y42.470 E34.03804
G1 X35.277 Y40.555 E34.19955
G1 X36.870 Y38.737 E34.36106
G1 X38.533 Y37.065 E34.51856
G1 E32.51856 F2400.00000
G92 E0
G1 X80.858 Y74.287 F30000.000
G1 E2.00000 F2400.00000
G1 F2100
G1 X80.524 Y74.852 E2.04386
G1 X79.875 Y75.807 E2.12102
G1 X79.167 Y76.720 E2.19818
G1 X78.403 Y77.586 E2.27535
G1 X77.586 Y78.403 E2.35251
G1 X76.720 Y79.167 E2.42967
G1 X75.807 Y79.875 E2.50683
G1 X74.852 Y80.524 E2.58400
G1 X73.858 Y81.112 E2.66116
G1 X72.828 Y81.636 E2.73832
G1 X71.768 Y82.095 E2.81549
G1 X70.682 Y82.486 E2.89265
G1 X69.587 Y82.804 E2.96876
G1 X68.446 Y83.060 E3.04695
G1 X67.304 Y83.241 E3.12414
G1 X66.170 Y83.348 E3.20025
G1 X65.000 Y83.386 E3.27844
G1 X63.846 Y83.350 E3.35562
G1 X62.696 Y83.241 E3.43278
G1 X61.555 Y83.060 E3.50995
G1 X60.428 Y82.808 E3.58711
G1 X59.318 Y82.486 E3.66427
G1 X58.232 Y82.095 E3.74144
G1 X57.172 Y81.636 E3.81860
G1 X56.156 Y81.119 E3.89472
G1 X55.149 Y80.524 E3.97290
G1 X54.193 Y79.875 E4.05009
G1 X53.280 Y79.166 E4.12727
G1 X52.403 Y78.392 E4.20546
G1 X51.597 Y77.586 E4.28157
G1 X50.833 Y76.720 E4.35874
G1 X50.125 Y75.807 E4.43590
G1 X49.476 Y74.852 E4.51306
G1 X48.888 Y73.858 E4.59022
G1 X48.364 Y72.828 E4.66739
G1 X47.905 Y71.768 E4.74455
G1 X47.514 Y70.683 E4.82160
G1 X47.206 Y69.637 E4.89445
G1 X46.940 Y68.445 E4.97607
G1 X46.757 Y67.289 E5.05426
G1 X46.650 Y66.154 E5.13037
G1 X46.614 Y65.000 E5.20754
G1 X46.650 Y63.846 E5.28470
G1 X46.759 Y62.696 E5.36186
G1 X46.940 Y61.555 E5.43902
G1 X47.192 Y60.428 E5.51619
G1 X47.514 Y59.318 E5.59335
G1 X47.905 Y58.231 E5.67054
G1 X48.371 Y57.158 E5.74872
G1 X48.888 Y56.142 E5.82484
G1 X49.476 Y55.148 E5.90200
G1 X50.125 Y54.193 E5.97916
G1 X50.833 Y53.280 E6.05633
G1 X51.597 Y52.414 E6.13349
G1 X52.414 Y51.597 E6.21065
G1 X53.280 Y50.833 E6.28781
G1 X54.193 Y50.125 E6.36498
G1 X55.148 Y49.476 E6.44214
G1 X56.142 Y48.888 E6.51930
G1 X57.172 Y48.364 E6.59647
G1 X58.232 Y47.905 E6.67363
G1 X59.318 Y47.514 E6.75079
G1 X60.428 Y47.192 E6.82795
G1 X61.555 Y46.940 E6.90512
G1 X62.696 Y46.759 E6.98228
G1 X63.846 Y46.650 E7.05944
G1 X64.984 Y46.614 E7.13556
G1 X66.154 Y46.650 E7.21374
G1 X67.304 Y46.759 E7.29093
G1 X68.445 Y46.940 E7.36809
G1 X69.637 Y47.206 E7.44969
G1 X70.683 Y47.514 E7.52254
G1 X71.768 Y47.905 E7.59959
G1 X72.828 Y48.364 E7.67675
G1 X73.858 Y48.888 E7.75392
G1 X74.852 Y49.476 E7.83108
G1 X75.807 Y50.125 E7.90824
G1 X76.720 Y50.833 E7.98541
G1 X77.586 Y51.597 E8.06257
G1 X78.403 Y52.414 E8.13973
G1 X79.167 Y53.281 E8.21692
G1 X79.883 Y54.206 E8.29510
G1 X80.524 Y55.148 E8.37122
G1 X81.112 Y56.142 E8.44838
G1 X81.636 Y57.172 E8.52554
G1 X82.095 Y58.232 E8.60271
G1 X82.486 Y59.318 E8.67987
G1 X82.808 Y60.428 E8.75703
G1 X83.060 Y61.555 E8.83420
G1 X83.241 Y62.696 E8.91136
G1 X83.350 Y63.846 E8.98852
G1 X83.386 Y65.000 E9.06568
G1 X83.350 Y66.154 E9.14285
G1 X83.241 Y67.304 E9.22001
G1 X83.060 Y68.445 E9.29717
G1 X82.808 Y69.572 E9.37434
G1 X82.486 Y70.682 E9.45152
G1 X82.089 Y71.783 E9.52971
G1 X81.636 Y72.828 E9.60582
G1 X81.112 Y73.858 E9.68299
G1 X80.889 Y74.235 E9.71228
G1 X80.397 Y74.014 F30000.000
G1 F2100
G1 X80.071 Y74.565 E9.75502
G1 X79.441 Y75.492 E9.82993
G1 X78.754 Y76.378 E9.90484
G1 X78.012 Y77.219 E9.97976
G1 X77.219 Y78.012 E10.05467
G1 X76.378 Y78.754 E10.12959
G1 X75.492 Y79.441 E10.20450
G1 X74.565 Y80.071 E10.27941
G1 X73.599 Y80.642 E10.35433
G1 X72.600 Y81.151 E10.42924
G1 X71.571 Y81.597 E10.50416
G1 X70.516 Y81.977 E10.57907
G1 X69.454 Y82.285 E10.65295
G1 X68.345 Y82.534 E10.72889
G1 X67.237 Y82.709 E10.80381
G1 X66.136 Y82.813 E10.87769
G1 X65.000 Y82.850 E10.95363
G1 X63.879 Y82.815 E11.02855
G1 X62.763 Y82.709 E11.10346
G1 X61.655 Y82.534 E11.17838
G1 X60.561 Y82.289 E11.25329
G1 X59.484 Y81.977 E11.32820
G1 X58.429 Y81.597 E11.40312
G1 X57.400 Y81.151 E11.47803
G1 X56.414 Y80.649 E11.55191
G1 X55.436 Y80.071 E11.62785
G1 X54.508 Y79.441 E11.70277
G1 X53.622 Y78.754 E11.77769
G1 X52.770 Y78.001 E11.85363
G1 X51.988 Y77.219 E11.92751
G1 X51.246 Y76.378 E12.00243
G1 X50.559 Y75.492 E12.07734
G1 X49.929 Y74.565 E12.15225
G1 X49.358 Y73.599 E12.22717
G1 X48.849 Y72.600 E12.30208
G1 X48.403 Y71.571 E12.37699
G1 X48.024 Y70.517 E12.45187
G1 X47.725 Y69.503 E12.52247
G1 X47.466 Y68.345 E12.60175
G1 X47.289 Y67.222 E12.67769
G1 X47.185 Y66.121 E12.75157
G1 X47.150 Y65.000 E12.82649
G1 X47.185 Y63.879 E12.90140
G1 X47.291 Y62.763 E12.97631
G1 X47.466 Y61.655 E13.05123
G1 X47.711 Y60.561 E13.12614
G1 X48.023 Y59.484 E13.20105
G1 X48.403 Y58.429 E13.27598
G1 X48.856 Y57.386 E13.35191
G1 X49.358 Y56.401 E13.42579
G1 X49.929 Y55.435 E13.50071
G1 X50.559 Y54.508 E13.57562
G1 X51.246 Y53.622 E13.65054
G1 X51.988 Y52.781 E13.72545
G1 X52.781 Y51.988 E13.80036
G1 X53.622 Y51.246 E13.87528
G1 X54.508 Y50.559 E13.95019
G1 X55.435 Y49.929 E14.02511
G1 X56.401 Y49.358 E14.10002
G1 X57.400 Y48.849 E14.17493
G1 X58.429 Y48.403 E14.24985
G1 X59.484 Y48.023 E14.32476
G1 X60.561 Y47.711 E14.39968
G1 X61.655 Y47.466 E14.47459
G1 X62.763 Y47.291 E14.54950
G1 X63.879 Y47.185 E14.62442
G1 X64.985 Y47.150 E14.69830
G1 X66.121 Y47.185 E14.77423
G1 X67.237 Y47.291 E14.84916
G1 X68.345 Y47.466 E14.92407
G1 X69.503 Y47.725 E15.00335
G1 X70.517 Y48.024 E15.07395
G1 X71.571 Y48.403 E15.14882
G1 X72.600 Y48.849 E15.22374
G1 X73.599 Y49.358 E15.29865
G1 X74.565 Y49.929 E15.37356
G1 X75.492 Y50.559 E15.44848
G1 X76.378 Y51.246 E15.52339
G1 X77.219 Y51.988 E15.59831
G1 X78.012 Y52.781 E15.67322
G1 X78.754 Y53.622 E15.74814
G1 X79.450 Y54.521 E15.82408
G1 X80.071 Y55.435 E15.89796
G1 X80.642 Y56.401 E15.97287
G1 X81.151 Y57.400 E16.04779
G1 X81.597 Y58.429 E16.12270
G1 X81.977 Y59.484 E16.19761
G1 X82.289 Y60.561 E16.27253
G1 X82.534 Y61.655 E16.34744
G1 X82.709 Y62.763 E16.42236
G1 X82.815 Y63.879 E16.49727
G1 X82.850 Y65.000 E16.57218
G1 X82.815 Y66.121 E16.64710
G1 X82.709 Y67.237 E16.72201
G1 X82.534 Y68.345 E16.79693
G1 X82.289 Y69.439 E16.87184
G1 X81.976 Y70.516 E16.94676
G1 X81.591 Y71.585 E17.02270
G1 X81.151 Y72.600 E17.09658
G1 X80.642 Y73.599 E17.17149
G1 X80.428 Y73.962 E17.19967
G1 X80.598 Y74.360 F30000.000
G1 E15.19967 F2400.00000
G92 E0
G1 X94.389 Y82.289 F30000.000
G1 E2.00000 F2400.00000
G1 F2100
G1 X93.803 Y83.279 E2.07686
G1 X92.599 Y85.052 E2.22003
G1 X91.285 Y86.745 E2.36320
G1 X89.869 Y88.352 E2.50631
G1 X88.293 Y89.921 E2.65487
G1 X86.745 Y91.285 E2.79270
G1 X85.052 Y92.599 E2.93587
G1 X83.279 Y93.803 E3.07904
G1 X81.435 Y94.894 E3.22215
G1 X79.452 Y95.899 E3.37071
G1 X77.558 Y96.718 E3.50854
G1 X75.542 Y97.444 E3.65171
G1 X73.484 Y98.042 E3.79488
G1 X71.393 Y98.509 E3.93799
G1 X69.196 Y98.852 E4.08655
G1 X67.142 Y99.047 E4.22438
G1 X65.000 Y99.114 E4.36755
G1 X62.858 Y99.047 E4.51072
G1 X60.724 Y98.845 E4.65389
G1 X58.609 Y98.510 E4.79700
G1 X56.439 Y98.020 E4.94556
G1 X54.458 Y97.444 E5.08339
G1 X52.442 Y96.718 E5.22656
G1 X50.475 Y95.867 E5.36973
G1 X48.565 Y94.894 E5.51290
G1 X46.721 Y93.803 E5.65607
G1 X44.948 Y92.599 E5.79924
G1 X43.255 Y91.285 E5.94241
G1 X41.647 Y89.868 E6.08558
G1 X40.189 Y88.409 E6.22341
G1 X38.714 Y86.744 E6.37197
G1 X37.401 Y85.052 E6.51508
G1 X36.197 Y83.279 E6.65825
G1 X35.106 Y81.435 E6.80142
G1 X34.169 Y79.596 E6.93925
G1 X33.281 Y77.557 E7.08781
G1 X32.556 Y75.542 E7.23092
G1 X31.958 Y73.484 E7.37409
G1 X31.490 Y71.392 E7.51726
G1 X31.155 Y69.276 E7.66043
G1 X30.961 Y67.222 E7.79826
G1 X30.886 Y64.999 E7.94682
G1 X30.953 Y62.858 E8.08993
G1 X31.155 Y60.724 E8.23310
G1 X31.490 Y58.608 E8.37627
G1 X31.958 Y56.516 E8.51944
G1 X32.556 Y54.458 E8.66261
G1 X33.282 Y52.442 E8.80578
G1 X34.133 Y50.475 E8.94895
G1 X35.106 Y48.565 E9.09212
G1 X36.197 Y46.721 E9.23529
G1 X37.401 Y44.948 E9.37846
G1 X38.715 Y43.255 E9.52163
G1 X40.132 Y41.647 E9.66480
G1 X41.647 Y40.132 E9.80797
G1 X43.255 Y38.715 E9.95114
G1 X44.948 Y37.401 E10.09431
G1 X46.721 Y36.197 E10.23748
G1 X48.565 Y35.106 E10.38065
G1 X50.475 Y34.133 E10.52382
G1 X52.442 Y33.282 E10.66699
G1 X54.458 Y32.556 E10.81016
G1 X56.516 Y31.958 E10.95333
G1 X58.608 Y31.490 E11.09650
G1 X60.724 Y31.155 E11.23967
G1 X62.857 Y30.953 E11.38277
G1 X65.080 Y30.889 E11.53134
G1 X67.142 Y30.953 E11.66917
G1 X69.276 Y31.155 E11.81234
G1 X71.392 Y31.490 E11.95551
G1 X73.484 Y31.958 E12.09868
G1 X75.542 Y32.556 E12.24185
G1 X77.558 Y33.282 E12.38502
G1 X79.524 Y34.132 E12.52812
G1 X81.503 Y35.146 E12.67669
G1 X83.279 Y36.197 E12.81452
G1 X85.052 Y37.401 E12.95769
G1 X86.745 Y38.715 E13.10086
G1 X88.353 Y40.132 E13.24403
G1 X89.868 Y41.647 E13.38720
G1 X91.285 Y43.255 E13.53037
G1 X92.599 Y44.948 E13.67354
G1 X93.803 Y46.721 E13.81671
G1 X94.894 Y48.565 E13.95988
G1 X95.867 Y50.475 E14.10305
G1 X96.718 Y52.442 E14.24622
G1 X97.444 Y54.458 E14.38939
G1 X98.020 Y56.439 E14.52722
G1 X98.510 Y58.609 E14.67578
G1 X98.845 Y60.724 E14.81889
G1 X99.047 Y62.858 E14.96206
G1 X99.114 Y65.000 E15.10523
G1 X99.047 Y67.142 E15.24840
G1 X98.852 Y69.196 E15.38622
G1 X98.509 Y71.393 E15.53479
G1 X98.042 Y73.484 E15.67790
G1 X97.444 Y75.542 E15.82107
G1 X96.718 Y77.558 E15.96424
G1 X95.867 Y79.525 E16.10741
G1 X94.894 Y81.435 E16.25058
G1 X94.420 Y82.237 E16.31288
G1 X94.850 Y82.562 F30000.000
G1 F2100
G1 X94.256 Y83.566 E16.39086
G1 X93.032 Y85.367 E16.53628
G1 X91.698 Y87.087 E16.68170
G1 X90.259 Y88.719 E16.82710
G1 X88.659 Y90.312 E16.97791
G1 X87.087 Y91.698 E17.11795
G1 X85.367 Y93.032 E17.26337
G1 X83.566 Y94.256 E17.40878
G1 X81.693 Y95.364 E17.55418
G1 X79.679 Y96.384 E17.70499
G1 X77.755 Y97.217 E17.84503
G1 X75.707 Y97.954 E17.99045
G1 X73.617 Y98.561 E18.13587
G1 X71.493 Y99.036 E18.28127
G1 X69.263 Y99.384 E18.43208
G1 X67.176 Y99.581 E18.57212
