; generated by Slic3r 1.3.0 on 2020-07-26 at 18:50:06

; external perimeters extrusion width = 0.44mm (2.78mm^3/s)
; perimeters extrusion width = 0.40mm (7.14mm^3/s)
; infill extrusion width = 0.50mm (10.97mm^3/s)
; solid infill extrusion width = 0.60mm (6.68mm^3/s)
; top infill extrusion width = 0.40mm (2.14mm^3/s)

M107
M190 S80 ; set bed temperature and wait for it to be reached
M104 S200 ; set temperature
G28 ; home all axes
G1 Z5 F5000 ; lift nozzle

; Filament gcode

M109 S200 ; set temperature and wait for it to be reached
G21 ; set units to millimeters
G90 ; use absolute coordinates
M82 ; use absolute distances for extrusion
G92 E0
G1 Z0.300 F30000.000
G1 E-2.00000 F2400.00000
G92 E0
G1 X75.619 Y98.104 F30000.000
G1 E2.00000 F2400.00000
G1 F2100
G1 X76.529 Y97.443 E2.07518
G1 X77.387 Y96.876 E2.14386
G1 X78.267 Y96.344 E2.21257
G1 X79.542 Y95.661 E2.30921
G1 X80.559 Y95.182 E2.38430
G1 X81.509 Y94.785 E2.45305
G1 X82.873 Y94.294 E2.54992
G1 X83.946 Y93.970 E2.62482
G1 X85.351 Y93.625 E2.72142
G1 X86.362 Y93.431 E2.79020
G1 X87.474 Y93.266 E2.86533
G1 X88.914 Y93.130 E2.96197
G1 X90.037 Y93.083 E3.03707
G1 X91.482 Y93.098 E3.13354
G1 X92.510 Y93.161 E3.20235
G1 X93.630 Y93.279 E3.27760
G1 X94.647 Y93.431 E3.34629
G1 X96.066 Y93.717 E3.44302
G1 X97.154 Y93.996 E3.51807
G1 X98.537 Y94.430 E3.61490
G1 X99.588 Y94.821 E3.68978
G1 X100.536 Y95.222 E3.75856
G1 X101.838 Y95.851 E3.85519
G1 X102.824 Y96.393 E3.93031
G1 X103.703 Y96.928 E3.99906
G1 X104.899 Y97.741 E4.09569
G1 X105.795 Y98.421 E4.17081
G1 X106.898 Y99.353 E4.26731
G1 X107.651 Y100.057 E4.33618
G1 X108.438 Y100.860 E4.41128
G1 X109.394 Y101.945 E4.50787
G1 X110.035 Y102.750 E4.57664
G1 X110.640 Y103.580 E4.64527
G1 X111.263 Y104.517 E4.72043
G1 X111.795 Y105.399 E4.78921
G1 X112.478 Y106.674 E4.88586
G1 X112.956 Y107.690 E4.96089
G1 X113.354 Y108.642 E5.02980
G1 X113.843 Y110.001 E5.12630
G1 X114.169 Y111.078 E5.20146
G1 X114.514 Y112.482 E5.29806
G1 X114.724 Y113.588 E5.37325
G1 X114.873 Y114.605 E5.44191
G1 X115.009 Y116.046 E5.53861
G1 X115.056 Y117.168 E5.61362
G1 X115.041 Y118.615 E5.71029
G1 X114.970 Y119.735 E5.78526
G1 X114.860 Y120.762 E5.85424
G1 X114.634 Y122.190 E5.95084
G1 X114.400 Y123.290 E6.02597
G1 X114.143 Y124.285 E6.09464
G1 X113.710 Y125.666 E6.19131
G1 X113.318 Y126.719 E6.26642
G1 X112.917 Y127.668 E6.33520
G1 X112.288 Y128.969 E6.43176
G1 X111.746 Y129.955 E6.50695
G1 X110.984 Y131.185 E6.60361
G1 X110.344 Y132.105 E6.67846
G1 X109.717 Y132.928 E6.74756
G1 X108.785 Y134.031 E6.84406
G1 X108.015 Y134.851 E6.91921
G1 X107.279 Y135.569 E6.98793
G1 X106.194 Y136.526 E7.08451
G1 X105.388 Y137.167 E7.15335
G1 X104.556 Y137.774 E7.22214
G1 X103.621 Y138.395 E7.29715
G1 X102.376 Y139.131 E7.39376
G1 X101.379 Y139.652 E7.46891
G1 X100.066 Y140.254 E7.56538
G1 X99.108 Y140.635 E7.63424
G1 X98.047 Y141.005 E7.70936
G1 X96.659 Y141.408 E7.80590
G1 X95.656 Y141.646 E7.87478
G1 X94.551 Y141.856 E7.94990
G1 X93.533 Y142.004 E8.01862
G1 X92.092 Y142.141 E8.11533
G1 X90.970 Y142.188 E8.19035
G1 X89.524 Y142.173 E8.28694
G1 X88.498 Y142.110 E8.35564
G1 X87.377 Y141.992 E8.43089
G1 X85.948 Y141.766 E8.52757
G1 X84.849 Y141.532 E8.60261
G1 X83.853 Y141.274 E8.67136
G1 X82.473 Y140.842 E8.76800
G1 X81.507 Y140.485 E8.83675
G1 X80.471 Y140.049 E8.91184
G1 X79.168 Y139.419 E9.00857
G1 X78.184 Y138.878 E9.08360
G1 X77.304 Y138.343 E9.15234
G1 X76.108 Y137.530 E9.24898
G1 X75.212 Y136.850 E9.32409
G1 X74.108 Y135.917 E9.42070
G1 X73.288 Y135.147 E9.49586
G1 X72.571 Y134.412 E9.56442
G1 X71.614 Y133.326 E9.66115
G1 X70.972 Y132.520 E9.72993
G1 X70.312 Y131.611 E9.80501
G1 X69.744 Y130.752 E9.87379
G1 X69.008 Y129.508 E9.97040
G1 X68.488 Y128.513 E10.04537
G1 X67.885 Y127.196 E10.14213
G1 X67.504 Y126.240 E10.21088
G1 X67.134 Y125.178 E10.28600
G1 X66.838 Y124.191 E10.35486
G1 X66.494 Y122.788 E10.45134
G1 X66.283 Y121.683 E10.52654
G1 X66.135 Y120.666 E10.59519
G1 X65.998 Y119.225 E10.69190
G1 X65.951 Y118.103 E10.76691
G1 X65.966 Y116.656 E10.86358
G1 X66.037 Y115.533 E10.93874
G1 X66.147 Y114.509 E11.00753
G1 X66.373 Y113.081 E11.10413
G1 X66.607 Y111.981 E11.17925
G1 X66.865 Y110.985 E11.24800
G1 X67.297 Y109.605 E11.34459
G1 X67.689 Y108.551 E11.41971
G1 X68.090 Y107.603 E11.48849
G1 X68.719 Y106.302 E11.58504
G1 X69.213 Y105.399 E11.65378
G1 X69.795 Y104.437 E11.72889
G1 X70.367 Y103.580 E11.79771
G1 X71.229 Y102.420 E11.89425
G1 X71.945 Y101.554 E11.96939
G1 X72.924 Y100.489 E12.06601
G1 X73.660 Y99.765 E12.13497
G1 X74.494 Y99.015 E12.20989
G1 X75.571 Y98.141 E12.30256
G1 X75.947 Y98.527 F30000.000
G1 F2100
G1 X76.830 Y97.886 E12.37549
G1 X77.669 Y97.331 E12.44268
G1 X78.530 Y96.811 E12.50989
G1 X79.785 Y96.138 E12.60503
G1 X80.772 Y95.674 E12.67788
G1 X81.701 Y95.286 E12.74512
G1 X83.044 Y94.802 E12.84047
G1 X84.085 Y94.488 E12.91315
G1 X85.467 Y94.148 E13.00825
G1 X86.456 Y93.958 E13.07552
G1 X87.536 Y93.798 E13.14842
G1 X88.954 Y93.664 E13.24355
G1 X90.043 Y93.619 E13.31640
G1 X91.465 Y93.634 E13.41139
G1 X92.470 Y93.695 E13.47870
G1 X93.557 Y93.809 E13.55169
G1 X94.552 Y93.958 E13.61888
G1 X95.949 Y94.240 E13.71410
G1 X97.005 Y94.511 E13.78692
G1 X98.366 Y94.937 E13.88222
G1 X99.385 Y95.317 E13.95489
G1 X100.313 Y95.709 E14.02216
G1 X101.595 Y96.328 E14.11729
G1 X102.551 Y96.854 E14.19017
G1 X103.411 Y97.377 E14.25741
G1 X104.589 Y98.177 E14.35254
G1 X105.458 Y98.837 E14.42542
G1 X106.544 Y99.755 E14.52042
G1 X107.280 Y100.444 E14.58779
G1 X108.043 Y101.223 E14.66065
G1 X108.985 Y102.291 E14.75574
G1 X109.612 Y103.079 E14.82301
G1 X110.204 Y103.891 E14.89015
G1 X110.808 Y104.800 E14.96305
G1 X111.328 Y105.662 E15.03033
G1 X112.001 Y106.917 E15.12547
G1 X112.465 Y107.903 E15.19828
G1 X112.854 Y108.833 E15.26559
G1 X113.336 Y110.172 E15.36068
G1 X113.651 Y111.217 E15.43359
G1 X113.991 Y112.599 E15.52869
G1 X114.195 Y113.672 E15.60163
G1 X114.341 Y114.669 E15.66896
G1 X114.475 Y116.085 E15.76399
G1 X114.520 Y117.174 E15.83677
G1 X114.505 Y118.598 E15.93194
G1 X114.437 Y119.685 E16.00468
G1 X114.330 Y120.689 E16.07213
G1 X114.107 Y122.095 E16.16724
G1 X113.880 Y123.162 E16.24012
G1 X113.628 Y124.138 E16.30747
G1 X113.203 Y125.495 E16.40246
G1 X112.822 Y126.517 E16.47533
G1 X112.430 Y127.445 E16.54260
G1 X111.811 Y128.726 E16.63766
G1 X111.285 Y129.683 E16.71061
G1 X110.535 Y130.893 E16.80576
G1 X109.914 Y131.786 E16.87840
G1 X109.301 Y132.591 E16.94597
G1 X108.383 Y133.677 E17.04097
G1 X107.636 Y134.472 E17.11388
G1 X106.916 Y135.175 E17.18109
G1 X105.848 Y136.116 E17.27618
G1 X105.060 Y136.744 E17.34351
G1 X104.246 Y137.337 E17.41079
G1 X103.339 Y137.940 E17.48357
G1 X102.113 Y138.665 E17.57868
G1 X101.146 Y139.170 E17.65158
G1 X99.853 Y139.762 E17.74656
G1 X98.917 Y140.135 E17.81392
G1 X97.886 Y140.494 E17.88679
G1 X96.520 Y140.891 E17.98183
G1 X95.539 Y141.123 E18.04920
G1 X94.467 Y141.327 E18.12208
G1 X93.472 Y141.472 E18.18930
G1 X92.053 Y141.606 E18.28450
G1 X90.964 Y141.652 E18.35729
G1 X89.541 Y141.637 E18.45238
G1 X88.537 Y141.576 E18.51959
G1 X87.450 Y141.462 E18.59258
G1 X86.043 Y141.239 E18.68776
G1 X84.977 Y141.012 E18.76056
G1 X84.002 Y140.760 E18.82781
G1 X82.644 Y140.334 E18.92294
G1 X81.699 Y139.985 E18.99019
G1 X80.694 Y139.562 E19.06304
G1 X79.411 Y138.942 E19.15826
G1 X78.456 Y138.417 E19.23105
G1 X77.596 Y137.894 E19.29830
G1 X76.418 Y137.093 E19.39343
G1 X75.549 Y136.434 E19.46630
G1 X74.462 Y135.515 E19.56141
G1 X73.666 Y134.768 E19.63432
G1 X72.965 Y134.049 E19.70140
G1 X72.023 Y132.980 E19.79662
G1 X71.396 Y132.192 E19.86389
G1 X70.755 Y131.310 E19.93674
G1 X70.199 Y130.470 E20.00401
G1 X69.474 Y129.245 E20.09912
G1 X68.970 Y128.280 E20.17186
G1 X68.376 Y126.984 E20.26711
G1 X68.004 Y126.048 E20.33436
G1 X67.645 Y125.018 E20.40723
G1 X67.356 Y124.052 E20.47459
G1 X67.016 Y122.672 E20.56958
G1 X66.812 Y121.599 E20.64252
G1 X66.667 Y120.604 E20.70968
G1 X66.533 Y119.185 E20.80488
G1 X66.487 Y118.097 E20.87766
G1 X66.502 Y116.673 E20.97282
G1 X66.570 Y115.583 E21.04574
G1 X66.677 Y114.582 E21.11302
G1 X66.826 Y113.587 E21.18021
G1 X67.108 Y112.191 E21.27533
G1 X67.379 Y111.134 E21.34825
G1 X67.805 Y109.776 E21.44334
G1 X68.185 Y108.754 E21.51621
G1 X68.577 Y107.826 E21.58349
G1 X69.196 Y106.545 E21.67855
G1 X69.679 Y105.662 E21.74578
G1 X70.244 Y104.729 E21.81866
G1 X70.803 Y103.891 E21.88597
G1 X71.652 Y102.748 E21.98102
G1 X72.347 Y101.908 E22.05391
G1 X73.311 Y100.860 E22.14902
G1 X74.031 Y100.152 E22.21646
G1 X74.840 Y99.424 E22.28916
G1 X75.899 Y98.564 E22.38033
G1 X76.275 Y98.951 F30000.000
G1 F2100
G1 X77.131 Y98.329 E22.45101
G1 X77.951 Y97.786 E22.51670
G1 X78.793 Y97.278 E22.58241
G1 X80.028 Y96.615 E22.67605
G1 X80.985 Y96.165 E22.74666
G1 X81.893 Y95.786 E22.81240
G1 X83.214 Y95.310 E22.90622
G1 X84.224 Y95.005 E22.97668
G1 X85.584 Y94.671 E23.07028
G1 X86.551 Y94.485 E23.13605
G1 X87.597 Y94.330 E23.20670
G1 X88.993 Y94.199 E23.30033
G1 X90.049 Y94.154 E23.37094
G1 X91.448 Y94.169 E23.46443
G1 X92.431 Y94.229 E23.53024
G1 X93.484 Y94.340 E23.60098
G1 X94.457 Y94.485 E23.66668
G1 X95.832 Y94.762 E23.76038
G1 X96.855 Y95.025 E23.83096
G1 X98.195 Y95.445 E23.92474
G1 X99.183 Y95.813 E23.99519
G1 X100.090 Y96.196 E24.06096
G1 X101.352 Y96.806 E24.15459
G1 X102.278 Y97.315 E24.22522
G1 X103.119 Y97.826 E24.29096
G1 X104.279 Y98.614 E24.38459
G1 X105.121 Y99.253 E24.45523
G1 X106.190 Y100.156 E24.54873
G1 X106.910 Y100.830 E24.61459
G1 X107.649 Y101.585 E24.68522
G1 X108.576 Y102.636 E24.77881
G1 X109.188 Y103.407 E24.84457
G1 X109.767 Y104.201 E24.91022
G1 X110.353 Y105.082 E24.98088
G1 X110.861 Y105.925 E25.04666
G1 X111.524 Y107.160 E25.14029
G1 X111.973 Y108.116 E25.21086
G1 X112.354 Y109.025 E25.27667
G1 X112.828 Y110.343 E25.37026
G1 X113.134 Y111.355 E25.44092
G1 X113.468 Y112.716 E25.53452
G1 X113.666 Y113.755 E25.60522
G1 X113.808 Y114.728 E25.67089
G1 X113.940 Y116.124 E25.76457
G1 X113.985 Y117.179 E25.83512
G1 X113.970 Y118.581 E25.92878
G1 X113.904 Y119.635 E25.99930
G1 X113.799 Y120.616 E26.06522
G1 X113.654 Y121.589 E26.13092
G1 X113.377 Y122.962 E26.22454
G1 X113.115 Y123.985 E26.29507
G1 X112.695 Y125.324 E26.38881
G1 X112.326 Y126.315 E26.45944
G1 X111.943 Y127.222 E26.52520
G1 X111.334 Y128.483 E26.61877
G1 X110.824 Y129.410 E26.68946
G1 X110.085 Y130.602 E26.78312
G1 X109.484 Y131.467 E26.85354
G1 X108.885 Y132.254 E26.91958
G1 X107.981 Y133.323 E27.01308
G1 X107.257 Y134.094 E27.08374
G1 X106.554 Y134.781 E27.14946
G1 X105.503 Y135.707 E27.24305
G1 X104.732 Y136.320 E27.30886
G1 X103.936 Y136.900 E27.37464
G1 X103.056 Y137.485 E27.44519
G1 X101.850 Y138.198 E27.53880
G1 X100.913 Y138.688 E27.60945
G1 X99.640 Y139.271 E27.70294
G1 X98.725 Y139.635 E27.76879
G1 X97.726 Y139.983 E27.83942
G1 X96.382 Y140.373 E27.93296
G1 X95.422 Y140.600 E27.99883
G1 X94.384 Y140.798 E28.06946
G1 X93.410 Y140.940 E28.13518
G1 X92.014 Y141.072 E28.22888
G1 X90.959 Y141.116 E28.29943
G1 X89.558 Y141.102 E28.39303
G1 X88.576 Y141.042 E28.45873
G1 X87.523 Y140.931 E28.52947
G1 X86.138 Y140.711 E28.62314
G1 X85.105 Y140.492 E28.69371
G1 X84.152 Y140.246 E28.75945
G1 X82.815 Y139.826 E28.85308
G1 X81.892 Y139.485 E28.91883
G1 X80.917 Y139.075 E28.98944
G1 X79.654 Y138.465 E29.08315
G1 X78.729 Y137.956 E29.15371
G1 X77.888 Y137.445 E29.21945
G1 X76.729 Y136.657 E29.31308
G1 X75.887 Y136.018 E29.38371
G1 X74.816 Y135.113 E29.47732
G1 X74.045 Y134.389 E29.54799
G1 X73.359 Y133.687 E29.61359
G1 X72.432 Y132.634 E29.70729
G1 X71.819 Y131.864 E29.77306
G1 X71.198 Y131.009 E29.84366
G1 X70.654 Y130.188 E29.90943
G1 X69.941 Y128.982 E30.00304
G1 X69.452 Y128.046 E30.07356
G1 X68.868 Y126.771 E30.16729
G1 X68.504 Y125.856 E30.23304
G1 X68.156 Y124.858 E30.30367
G1 X67.873 Y123.914 E30.36952
G1 X67.539 Y122.555 E30.46301
G1 X67.341 Y121.515 E30.53370
G1 X67.199 Y120.541 E30.59948
G1 X67.067 Y119.146 E30.69306
G1 X67.023 Y118.091 E30.76361
G1 X67.037 Y116.689 E30.85727
G1 X67.104 Y115.634 E30.92794
G1 X67.208 Y114.655 E30.99371
G1 X67.353 Y113.682 E31.05941
G1 X67.630 Y112.308 E31.15303
G1 X67.893 Y111.284 E31.22369
G1 X68.312 Y109.947 E31.31729
G1 X68.681 Y108.956 E31.38792
G1 X69.064 Y108.049 E31.45369
G1 X69.673 Y106.788 E31.54726
G1 X70.146 Y105.925 E31.61299
G1 X70.694 Y105.021 E31.68362
G1 X71.240 Y104.201 E31.74942
G1 X72.075 Y103.077 E31.84298
G1 X72.749 Y102.262 E31.91363
G1 X73.698 Y101.230 E32.00724
G1 X74.401 Y100.539 E32.07315
G1 X75.185 Y99.833 E32.14363
G1 X76.228 Y98.987 E32.23329
G1 X76.757 Y99.572 F30000.000
G1 F2100
G1 X77.536 Y99.004 E32.30544
G1 X78.353 Y98.462 E32.37881
G1 X79.166 Y97.970 E32.44993
G1 X80.398 Y97.310 E32.55449
G1 X81.284 Y96.893 E32.62778
G1 X82.161 Y96.525 E32.69900
G1 X83.461 Y96.056 E32.80237
G1 X84.413 Y95.768 E32.87682
G1 X85.770 Y95.435 E32.98136
G1 X86.704 Y95.256 E33.05257
G1 X87.673 Y95.113 E33.12584
G1 X89.063 Y94.982 E33.23036
G1 X90.043 Y94.941 E33.30372
G1 X91.440 Y94.955 E33.40827
G1 X92.418 Y95.017 E33.48159
G1 X93.363 Y95.117 E33.55275
G1 X94.303 Y95.256 E33.62387
G1 X95.674 Y95.533 E33.72850
G1 X96.623 Y95.776 E33.80180
G1 X97.940 Y96.189 E33.90515
G1 X98.845 Y96.524 E33.97737
G1 X99.750 Y96.904 E34.05079
G1 X101.008 Y97.513 E34.15535
G1 X101.866 Y97.984 E34.22861
G1 X102.679 Y98.478 E34.29980
G1 X103.834 Y99.263 E34.40431
G1 X104.614 Y99.855 E34.47763
G1 X105.670 Y100.747 E34.58104
G1 X106.376 Y101.407 E34.65338
G1 X107.061 Y102.108 E34.72673
G1 X107.985 Y103.155 E34.83126
G1 X108.576 Y103.900 E34.90241
G1 X109.135 Y104.669 E34.97353
G1 X109.677 Y105.484 E35.04680
G1 X110.169 Y106.298 E35.11800
G1 X110.830 Y107.530 E35.22258
G1 X111.246 Y108.415 E35.29580
G1 X111.774 Y109.710 E35.40045
G1 X112.096 Y110.633 E35.47356
G1 X112.371 Y111.547 E35.54502
G1 X112.704 Y112.902 E35.64948
G1 X112.883 Y113.836 E35.72058
G1 X113.026 Y114.804 E35.79386
G1 X113.157 Y116.197 E35.89852
G1 X113.198 Y117.174 E35.97171
G1 X113.184 Y118.571 E36.07626
G1 X113.122 Y119.547 E36.14949
G1 X113.022 Y120.495 E36.22081
G1 X112.883 Y121.436 E36.29195
G1 X112.607 Y122.805 E36.39650
G1 X112.363 Y123.753 E36.46970
G1 X111.945 Y125.087 E36.57433
G1 X111.614 Y125.978 E36.64551
G1 X111.235 Y126.882 E36.71883
G1 X110.627 Y128.138 E36.82327
G1 X110.169 Y128.973 E36.89455
G1 X109.662 Y129.809 E36.96773
G1 X109.126 Y130.614 E37.04008
G1 X108.302 Y131.723 E37.14348
G1 X107.677 Y132.479 E37.21688
G1 X106.732 Y133.507 E37.32137
G1 X106.052 Y134.174 E37.39265
G1 X105.325 Y134.828 E37.46582
G1 X104.239 Y135.708 E37.57047
G1 X103.469 Y136.267 E37.64166
G1 X102.654 Y136.809 E37.71491
G1 X101.452 Y137.520 E37.81939
G1 X100.584 Y137.974 E37.89272
G1 X99.328 Y138.549 E37.99610
G1 X98.431 Y138.906 E38.06835
G1 X97.505 Y139.228 E38.14171
G1 X96.594 Y139.503 E38.21293
G1 X95.237 Y139.836 E38.31751
G1 X94.275 Y140.019 E38.39077
G1 X93.334 Y140.158 E38.46192
G1 X91.943 Y140.289 E38.56654
G1 X90.964 Y140.330 E38.63986
G1 X89.570 Y140.316 E38.74415
G1 X88.590 Y140.254 E38.81764
G1 X87.645 Y140.154 E38.88877
G1 X86.264 Y139.935 E38.99341
G1 X85.306 Y139.732 E39.06666
G1 X84.386 Y139.495 E39.13778
G1 X83.052 Y139.077 E39.24241
G1 X82.160 Y138.746 E39.31357
G1 X81.257 Y138.366 E39.38687
G1 X79.999 Y137.758 E39.49147
G1 X79.142 Y137.286 E39.56470
G1 X77.955 Y136.551 E39.66919
G1 X77.150 Y135.991 E39.74253
G1 X76.392 Y135.416 E39.81375
G1 X75.326 Y134.514 E39.91825
G1 X74.612 Y133.844 E39.99155
G1 X73.947 Y133.164 E40.06268
G1 X73.023 Y132.116 E40.16727
G1 X72.431 Y131.370 E40.23853
G1 X71.856 Y130.579 E40.31173
G1 X71.330 Y129.786 E40.38293
G1 X70.619 Y128.583 E40.48750
G1 X70.166 Y127.716 E40.56069
G1 X69.584 Y126.445 E40.66532
G1 X69.223 Y125.535 E40.73860
G1 X68.777 Y124.210 E40.84318
G1 X68.521 Y123.294 E40.91439
G1 X68.297 Y122.341 E40.98767
G1 X68.120 Y121.406 E41.05884
G1 X67.930 Y120.022 E41.16338
G1 X67.848 Y119.048 E41.23656
G1 X67.809 Y118.081 E41.30897
G1 X67.824 Y116.699 E41.41241
G1 X67.885 Y115.722 E41.48567
G1 X67.985 Y114.775 E41.55689
G1 X68.125 Y113.834 E41.62814
G1 X68.401 Y112.466 E41.73256
G1 X68.644 Y111.517 E41.80590
G1 X69.062 Y110.184 E41.91041
G1 X69.393 Y109.292 E41.98158
G1 X69.773 Y108.389 E42.05491
G1 X70.381 Y107.132 E42.15942
G1 X70.838 Y106.298 E42.23060
