; generated by Slic3r 1.3.0 on 2021-12-08 at 17:09:20

; external perimeters extrusion width = 0.44mm (2.78mm^3/s)
; perimeters extrusion width = 0.40mm (7.14mm^3/s)
; infill extrusion width = 0.50mm (10.97mm^3/s)
; solid infill extrusion width = 0.60mm (6.68mm^3/s)
; top infill extrusion width = 0.40mm (2.14mm^3/s)

M107
M190 S80 ; set bed temperature and wait for it to be reached
M104 S210 ; set temperature
G28 ; home all axes
G1 Z5 F5000 ; lift nozzle

; Filament gcode

M109 S210 ; set temperature and wait for it to be reached
G21 ; set units to millimeters
G90 ; use absolute coordinates
M82 ; use absolute distances for extrusion
G92 E0
G1 Z0.300 F30000.000
G1 E-2.00000 F2400.00000
G92 E0
G1 X57.145 Y56.969 F30000.000
G1 E2.00000 F2400.00000
G1 F2100
G1 X57.665 Y56.492 E2.04714
G1 X58.017 Y56.200 E2.07772
G1 X58.789 Y55.640 E2.14143
G1 X59.175 Y55.394 E2.17200
G1 X59.790 Y55.048 E2.21915
G1 X60.653 Y54.642 E2.28286
G1 X61.312 Y54.389 E2.33001
G1 X61.747 Y54.248 E2.36060
G1 X62.671 Y54.010 E2.42429
G1 X63.120 Y53.925 E2.45487
G1 X63.819 Y53.829 E2.50201
G1 X64.523 Y53.776 E2.54917
G1 X65.229 Y53.769 E2.59629
G1 X66.181 Y53.829 E2.66002
G1 X66.880 Y53.925 E2.70716
G1 X67.329 Y54.010 E2.73774
G1 X68.253 Y54.248 E2.80143
G1 X68.688 Y54.389 E2.83202
G1 X69.347 Y54.642 E2.87917
G1 X70.210 Y55.048 E2.94288
G1 X70.825 Y55.394 E2.99003
G1 X71.416 Y55.779 E3.03717
G1 X71.983 Y56.200 E3.08432
G1 X72.336 Y56.492 E3.11489
G1 X73.031 Y57.145 E3.17860
G1 X73.508 Y57.664 E3.22574
G1 X73.800 Y58.017 E3.25632
G1 X74.360 Y58.789 E3.32004
G1 X74.606 Y59.175 E3.35061
G1 X74.952 Y59.790 E3.39775
G1 X75.358 Y60.653 E3.46146
G1 X75.611 Y61.312 E3.50861
G1 X75.752 Y61.747 E3.53920
G1 X75.935 Y62.428 E3.58632
G1 X76.075 Y63.120 E3.63347
G1 X76.195 Y64.066 E3.69718
G1 X76.224 Y64.523 E3.72776
G1 X76.231 Y65.229 E3.77490
G1 X76.171 Y66.181 E3.83862
G1 X76.075 Y66.880 E3.88576
G1 X75.990 Y67.329 E3.91634
G1 X75.752 Y68.253 E3.98003
G1 X75.611 Y68.688 E4.01062
G1 X75.358 Y69.347 E4.05777
G1 X74.952 Y70.210 E4.12148
G1 X74.606 Y70.825 E4.16863
G1 X74.360 Y71.211 E4.19920
G1 X73.800 Y71.983 E4.26291
G1 X73.344 Y72.522 E4.31006
G1 X72.855 Y73.031 E4.35720
G1 X72.336 Y73.508 E4.40434
G1 X71.983 Y73.800 E4.43492
G1 X71.211 Y74.360 E4.49863
G1 X70.825 Y74.606 E4.52921
G1 X70.210 Y74.952 E4.57635
G1 X69.347 Y75.358 E4.64006
G1 X68.688 Y75.611 E4.68721
G1 X68.253 Y75.752 E4.71780
G1 X67.572 Y75.935 E4.76492
G1 X66.880 Y76.075 E4.81207
G1 X65.934 Y76.195 E4.87578
G1 X65.477 Y76.224 E4.90636
G1 X64.771 Y76.231 E4.95350
G1 X63.819 Y76.171 E5.01722
G1 X63.120 Y76.075 E5.06436
G1 X62.671 Y75.990 E5.09494
G1 X61.747 Y75.752 E5.15863
G1 X61.312 Y75.611 E5.18922
G1 X60.653 Y75.358 E5.23637
G1 X59.790 Y74.952 E5.30008
G1 X59.175 Y74.606 E5.34723
G1 X58.584 Y74.221 E5.39437
G1 X58.017 Y73.800 E5.44152
G1 X57.664 Y73.508 E5.47210
G1 X56.969 Y72.855 E5.53580
G1 X56.492 Y72.336 E5.58294
G1 X56.200 Y71.983 E5.61352
G1 X55.640 Y71.211 E5.67724
G1 X55.394 Y70.825 E5.70781
G1 X55.048 Y70.210 E5.75495
G1 X54.642 Y69.347 E5.81866
G1 X54.389 Y68.688 E5.86581
G1 X54.248 Y68.253 E5.89640
G1 X54.010 Y67.329 E5.96009
G1 X53.925 Y66.880 E5.99067
G1 X53.829 Y66.181 E6.03781
G1 X53.776 Y65.477 E6.08497
G1 X53.769 Y64.771 E6.13210
G1 X53.829 Y63.819 E6.19582
G1 X53.925 Y63.120 E6.24296
G1 X54.010 Y62.671 E6.27354
G1 X54.248 Y61.747 E6.33723
G1 X54.389 Y61.312 E6.36782
G1 X54.642 Y60.653 E6.41497
G1 X55.048 Y59.790 E6.47868
G1 X55.394 Y59.175 E6.52583
G1 X55.640 Y58.789 E6.55640
G1 X56.200 Y58.017 E6.62011
G1 X56.656 Y57.478 E6.66726
G1 X57.102 Y57.012 E6.71040
G1 X57.524 Y57.348 F30000.000
G1 F2100
G1 X58.019 Y56.894 E6.75529
G1 X58.345 Y56.623 E6.78362
G1 X59.090 Y56.083 E6.84508
G1 X59.448 Y55.855 E6.87341
G1 X60.033 Y55.525 E6.91831
G1 X60.865 Y55.133 E6.97977
G1 X61.493 Y54.893 E7.02467
G1 X61.897 Y54.762 E7.05301
G1 X62.787 Y54.533 E7.11445
G1 X63.204 Y54.454 E7.14279
G1 X63.870 Y54.362 E7.18768
G1 X64.540 Y54.312 E7.23259
G1 X65.212 Y54.304 E7.27747
G1 X66.130 Y54.362 E7.33895
G1 X66.796 Y54.454 E7.38384
G1 X67.213 Y54.533 E7.41217
G1 X68.103 Y54.762 E7.47362
G1 X68.507 Y54.893 E7.50196
G1 X69.135 Y55.133 E7.54686
G1 X69.967 Y55.525 E7.60832
G1 X70.552 Y55.855 E7.65322
G1 X71.115 Y56.222 E7.69811
G1 X71.655 Y56.623 E7.74301
G1 X71.981 Y56.894 E7.77134
G1 X72.652 Y57.524 E7.83280
G1 X73.106 Y58.019 E7.87769
G1 X73.377 Y58.345 E7.90602
G1 X73.917 Y59.090 E7.96749
G1 X74.145 Y59.448 E7.99582
G1 X74.475 Y60.033 E8.04071
G1 X74.867 Y60.865 E8.10218
G1 X75.107 Y61.493 E8.14708
G1 X75.238 Y61.897 E8.17542
G1 X75.413 Y62.545 E8.22029
G1 X75.546 Y63.204 E8.26520
G1 X75.662 Y64.117 E8.32666
G1 X75.688 Y64.540 E8.35499
G1 X75.696 Y65.212 E8.39988
G1 X75.638 Y66.130 E8.46135
G1 X75.546 Y66.796 E8.50625
G1 X75.467 Y67.213 E8.53458
G1 X75.238 Y68.103 E8.59602
G1 X75.107 Y68.507 E8.62436
G1 X74.867 Y69.135 E8.66926
G1 X74.588 Y69.746 E8.71416
G1 X74.271 Y70.339 E8.75906
G1 X73.778 Y71.115 E8.82052
G1 X73.377 Y71.655 E8.86542
G1 X73.106 Y71.981 E8.89375
G1 X72.476 Y72.652 E8.95521
G1 X71.981 Y73.106 E9.00010
G1 X71.655 Y73.377 E9.02843
G1 X70.910 Y73.917 E9.08989
G1 X70.552 Y74.145 E9.11822
G1 X69.967 Y74.475 E9.16311
G1 X69.135 Y74.867 E9.22458
G1 X68.507 Y75.107 E9.26948
G1 X68.103 Y75.238 E9.29782
G1 X67.455 Y75.413 E9.34270
G1 X66.796 Y75.546 E9.38760
G1 X65.883 Y75.662 E9.44906
G1 X65.460 Y75.688 E9.47740
G1 X64.788 Y75.696 E9.52228
G1 X63.870 Y75.638 E9.58376
G1 X63.204 Y75.546 E9.62865
G1 X62.787 Y75.467 E9.65698
G1 X61.897 Y75.238 E9.71843
G1 X61.493 Y75.107 E9.74677
G1 X60.865 Y74.867 E9.79167
G1 X60.033 Y74.475 E9.85313
G1 X59.448 Y74.145 E9.89803
G1 X58.885 Y73.778 E9.94292
G1 X58.345 Y73.377 E9.98782
G1 X58.019 Y73.106 E10.01616
G1 X57.348 Y72.476 E10.07761
G1 X56.894 Y71.981 E10.12250
G1 X56.623 Y71.655 E10.15084
G1 X56.083 Y70.910 E10.21230
G1 X55.855 Y70.552 E10.24062
G1 X55.525 Y69.967 E10.28552
G1 X55.133 Y69.135 E10.34698
G1 X54.893 Y68.507 E10.39189
G1 X54.762 Y68.103 E10.42022
G1 X54.533 Y67.213 E10.48167
G1 X54.415 Y66.551 E10.52658
G1 X54.338 Y65.883 E10.57147
G1 X54.312 Y65.460 E10.59981
G1 X54.304 Y64.788 E10.64469
G1 X54.362 Y63.870 E10.70616
G1 X54.454 Y63.204 E10.75105
G1 X54.533 Y62.787 E10.77939
G1 X54.762 Y61.897 E10.84083
G1 X54.893 Y61.493 E10.86917
G1 X55.133 Y60.865 E10.91407
G1 X55.525 Y60.033 E10.97553
G1 X55.729 Y59.661 E11.00386
G1 X56.083 Y59.090 E11.04876
G1 X56.623 Y58.345 E11.11022
G1 X57.058 Y57.833 E11.15512
G1 X57.481 Y57.391 E11.19601
G1 X57.902 Y57.727 F30000.000
G1 F2100
G1 X58.674 Y57.047 E11.26472
G1 X59.391 Y56.526 E11.32393
G1 X60.276 Y56.002 E11.39264
G1 X61.078 Y55.625 E11.45185
G1 X62.046 Y55.276 E11.52058
G1 X62.904 Y55.056 E11.57978
G1 X63.920 Y54.895 E11.64849
G1 X64.557 Y54.847 E11.69115
G1 X65.195 Y54.839 E11.73378
G1 X66.080 Y54.895 E11.79301
G1 X67.096 Y55.056 E11.86172
G1 X67.954 Y55.276 E11.92092
G1 X68.922 Y55.625 E11.98964
G1 X69.724 Y56.002 E12.04885
G1 X70.280 Y56.317 E12.09150
G1 X70.814 Y56.665 E12.13415
G1 X71.627 Y57.296 E12.20286
G1 X72.273 Y57.902 E12.26207
G1 X72.953 Y58.674 E12.33078
G1 X73.474 Y59.391 E12.39000
G1 X73.998 Y60.276 E12.45870
G1 X74.375 Y61.078 E12.51792
G1 X74.724 Y62.046 E12.58664
G1 X74.890 Y62.662 E12.62927
G1 X75.017 Y63.288 E12.67193
G1 X75.128 Y64.167 E12.73114
G1 X75.161 Y65.195 E12.79985
G1 X75.105 Y66.080 E12.85907
G1 X74.944 Y67.096 E12.92778
G1 X74.724 Y67.954 E12.98698
G1 X74.375 Y68.922 E13.05570
G1 X73.998 Y69.724 E13.11492
G1 X73.683 Y70.280 E13.15757
G1 X73.335 Y70.814 E13.20022
G1 X72.704 Y71.627 E13.26893
G1 X72.098 Y72.273 E13.32814
G1 X71.326 Y72.953 E13.39685
G1 X70.609 Y73.474 E13.45606
G1 X70.066 Y73.810 E13.49871
G1 X69.503 Y74.110 E13.54136
G1 X68.559 Y74.519 E13.61007
G1 X67.716 Y74.793 E13.66930
G1 X66.712 Y75.017 E13.73799
G1 X65.833 Y75.128 E13.79720
G1 X64.805 Y75.161 E13.86591
G1 X63.920 Y75.105 E13.92514
G1 X62.904 Y74.944 E13.99385
G1 X62.046 Y74.724 E14.05304
G1 X61.078 Y74.375 E14.12176
G1 X60.276 Y73.998 E14.18098
G1 X59.720 Y73.683 E14.22363
G1 X59.186 Y73.335 E14.26628
G1 X58.373 Y72.704 E14.33500
G1 X57.727 Y72.098 E14.39420
G1 X57.047 Y71.326 E14.46291
G1 X56.526 Y70.609 E14.52213
G1 X56.002 Y69.724 E14.59083
G1 X55.625 Y68.922 E14.65005
G1 X55.276 Y67.954 E14.71877
G1 X55.056 Y67.096 E14.77797
G1 X54.895 Y66.080 E14.84668
G1 X54.847 Y65.443 E14.88934
G1 X54.839 Y64.805 E14.93197
G1 X54.895 Y63.920 E14.99120
G1 X55.056 Y62.904 E15.05991
G1 X55.276 Y62.046 E15.11911
G1 X55.625 Y61.078 E15.18783
G1 X56.002 Y60.276 E15.24704
G1 X56.526 Y59.391 E15.31575
G1 X57.047 Y58.674 E15.37497
G1 X57.460 Y58.187 E15.41762
G1 X57.860 Y57.769 E15.45626
G1 X58.281 Y58.106 F30000.000
G1 F2100
G1 X59.002 Y57.470 E15.52048
G1 X59.692 Y56.969 E15.57744
G1 X60.519 Y56.479 E15.64166
G1 X61.291 Y56.116 E15.69862
G1 X62.195 Y55.791 E15.76285
G1 X63.021 Y55.579 E15.81980
G1 X63.971 Y55.428 E15.88402
G1 X64.574 Y55.383 E15.92443
G1 X65.178 Y55.375 E15.96482
G1 X66.029 Y55.428 E16.02180
G1 X66.979 Y55.579 E16.08601
G1 X67.805 Y55.791 E16.14296
G1 X68.709 Y56.116 E16.20719
G1 X69.481 Y56.479 E16.26416
G1 X70.007 Y56.778 E16.30456
G1 X70.513 Y57.108 E16.34496
G1 X71.273 Y57.697 E16.40918
G1 X71.894 Y58.281 E16.46614
G1 X72.530 Y59.002 E16.53036
G1 X73.031 Y59.692 E16.58733
G1 X73.521 Y60.519 E16.65154
G1 X73.884 Y61.291 E16.70851
G1 X74.209 Y62.195 E16.77273
G1 X74.367 Y62.779 E16.81312
G1 X74.488 Y63.372 E16.85353
G1 X74.595 Y64.218 E16.91049
G1 X74.625 Y65.178 E16.97470
G1 X74.572 Y66.029 E17.03168
G1 X74.421 Y66.979 E17.09589
G1 X74.209 Y67.805 E17.15285
G1 X73.884 Y68.709 E17.21708
G1 X73.521 Y69.481 E17.27404
G1 X73.222 Y70.007 E17.31444
G1 X72.892 Y70.513 E17.35485
G1 X72.303 Y71.273 E17.41906
G1 X71.719 Y71.894 E17.47603
G1 X70.998 Y72.530 E17.54024
G1 X70.308 Y73.031 E17.59721
G1 X69.793 Y73.349 E17.63761
G1 X69.260 Y73.633 E17.67801
G1 X68.377 Y74.015 E17.74223
G1 X67.566 Y74.279 E17.79921
G1 X66.628 Y74.488 E17.86341
G1 X65.782 Y74.595 E17.92037
G1 X64.822 Y74.625 E17.98459
G1 X63.971 Y74.572 E18.04156
G1 X63.021 Y74.421 E18.10578
G1 X62.195 Y74.209 E18.16273
G1 X61.291 Y73.884 E18.22696
G1 X60.519 Y73.521 E18.28393
G1 X59.993 Y73.222 E18.32433
G1 X59.487 Y72.892 E18.36473
G1 X58.727 Y72.303 E18.42895
G1 X58.106 Y71.719 E18.48591
G1 X57.470 Y70.998 E18.55012
G1 X56.969 Y70.308 E18.60709
G1 X56.479 Y69.481 E18.67130
G1 X56.116 Y68.709 E18.72827
G1 X55.791 Y67.805 E18.79250
G1 X55.579 Y66.979 E18.84945
G1 X55.428 Y66.029 E18.91367
G1 X55.383 Y65.426 E18.95408
G1 X55.375 Y64.822 E18.99447
G1 X55.428 Y63.971 E19.05144
G1 X55.579 Y63.021 E19.11566
G1 X55.791 Y62.195 E19.17261
G1 X56.116 Y61.291 E19.23684
G1 X56.479 Y60.519 E19.29381
G1 X56.969 Y59.692 E19.35802
G1 X57.470 Y59.002 E19.41499
G1 X57.861 Y58.541 E19.45539
G1 X58.239 Y58.148 E19.49179
G1 X58.660 Y58.484 F30000.000
G1 F2100
G1 X59.330 Y57.893 E19.55151
G1 X59.993 Y57.412 E19.60623
G1 X60.762 Y56.957 E19.66595
G1 X61.504 Y56.608 E19.72067
G1 X62.345 Y56.305 E19.78040
G1 X63.138 Y56.101 E19.83510
G1 X64.021 Y55.962 E19.89483
G1 X64.591 Y55.918 E19.93299
G1 X65.161 Y55.910 E19.97113
G1 X65.979 Y55.962 E20.02586
G1 X66.862 Y56.101 E20.08558
G1 X67.655 Y56.305 E20.14029
G1 X68.496 Y56.608 E20.20002
G1 X69.238 Y56.957 E20.25474
G1 X69.734 Y57.239 E20.29289
G1 X70.212 Y57.551 E20.33105
G1 X70.919 Y58.099 E20.39077
G1 X71.516 Y58.660 E20.44549
G1 X72.107 Y59.330 E20.50521
G1 X72.588 Y59.993 E20.55993
G1 X73.043 Y60.762 E20.61965
G1 X73.392 Y61.504 E20.67437
G1 X73.695 Y62.345 E20.73410
G1 X73.844 Y62.896 E20.77224
G1 X73.959 Y63.455 E20.81040
G1 X74.062 Y64.268 E20.86512
G1 X74.090 Y65.161 E20.92484
G1 X74.038 Y65.979 E20.97956
G1 X73.899 Y66.862 E21.03928
G1 X73.695 Y67.655 E21.09399
G1 X73.392 Y68.496 E21.15372
G1 X73.043 Y69.238 E21.20844
G1 X72.761 Y69.734 E21.24660
G1 X72.449 Y70.212 E21.28475
G1 X71.901 Y70.919 E21.34447
G1 X71.340 Y71.516 E21.39919
G1 X70.670 Y72.107 E21.45891
G1 X70.007 Y72.588 E21.51363
G1 X69.238 Y73.043 E21.57335
G1 X68.496 Y73.392 E21.62807
G1 X67.655 Y73.695 E21.68780
G1 X67.104 Y73.844 E21.72594
G1 X66.545 Y73.959 E21.76410
G1 X65.732 Y74.062 E21.81882
G1 X64.839 Y74.090 E21.87854
G1 X64.021 Y74.038 E21.93326
G1 X63.138 Y73.899 E21.99299
G1 X62.345 Y73.695 E22.04769
G1 X61.504 Y73.392 E22.10742
G1 X60.762 Y73.043 E22.16215
G1 X60.266 Y72.761 E22.20030
G1 X59.788 Y72.449 E22.23845
G1 X59.081 Y71.901 E22.29818
G1 X58.484 Y71.340 E22.35289
G1 X57.893 Y70.670 E22.41261
G1 X57.412 Y70.007 E22.46733
G1 X56.957 Y69.238 E22.52705
G1 X56.608 Y68.496 E22.58177
G1 X56.305 Y67.655 E22.64150
G1 X56.101 Y66.862 E22.69621
G1 X55.962 Y65.979 E22.75593
G1 X55.918 Y65.409 E22.79410
G1 X55.910 Y64.839 E22.83224
G1 X55.962 Y64.021 E22.88697
G1 X56.101 Y63.138 E22.94669
G1 X56.305 Y62.345 E23.00139
G1 X56.608 Y61.504 E23.06113
G1 X56.957 Y60.762 E23.11584
G1 X57.412 Y59.993 E23.17557
G1 X57.893 Y59.330 E23.23028
G1 X58.263 Y58.895 E23.26844
G1 X58.617 Y58.527 E23.30259
G1 X59.039 Y58.863 F30000.000
G1 F2100
G1 X59.659 Y58.316 E23.35781
G1 X60.294 Y57.855 E23.41029
G1 X61.006 Y57.434 E23.46551
G1 X61.716 Y57.099 E23.51798
G1 X62.494 Y56.819 E23.57322
G1 X63.255 Y56.624 E23.62568
G1 X64.071 Y56.495 E23.68091
G1 X64.607 Y56.453 E23.71682
G1 X65.145 Y56.445 E23.75272
G1 X65.929 Y56.495 E23.80520
G1 X66.745 Y56.624 E23.86043
G1 X67.506 Y56.819 E23.91289
G1 X68.284 Y57.099 E23.96813
G1 X68.994 Y57.434 E24.02060
G1 X69.462 Y57.700 E24.05650
G1 X69.911 Y57.994 E24.09241
G1 X70.564 Y58.501 E24.14764
G1 X71.137 Y59.039 E24.20011
G1 X71.684 Y59.659 E24.25533
G1 X72.145 Y60.294 E24.30781
G1 X72.566 Y61.006 E24.36303
G1 X72.901 Y61.716 E24.41551
G1 X73.181 Y62.494 E24.47074
G1 X73.376 Y63.255 E24.52320
G1 X73.505 Y64.071 E24.57843
G1 X73.547 Y64.607 E24.61434
G1 X73.555 Y65.145 E24.65024
G1 X73.505 Y65.929 E24.70272
G1 X73.376 Y66.745 E24.75795
G1 X73.181 Y67.506 E24.81041
G1 X72.901 Y68.284 E24.86565
G1 X72.566 Y68.994 E24.91812
G1 X72.300 Y69.462 E24.95402
G1 X72.006 Y69.911 E24.98993
G1 X71.499 Y70.564 E25.04516
G1 X70.961 Y71.137 E25.09763
G1 X70.341 Y71.684 E25.15286
G1 X69.706 Y72.145 E25.20533
G1 X68.994 Y72.566 E25.26055
G1 X68.284 Y72.901 E25.31302
G1 X67.506 Y73.181 E25.36826
G1 X66.987 Y73.322 E25.40416
G1 X66.461 Y73.430 E25.44007
G1 X65.682 Y73.529 E25.49254
G1 X64.855 Y73.555 E25.54776
G1 X64.071 Y73.505 E25.60024
G1 X63.255 Y73.376 E25.65547
G1 X62.494 Y73.181 E25.70793
G1 X61.716 Y72.901 E25.76317
G1 X61.006 Y72.566 E25.81564
G1 X60.538 Y72.300 E25.85154
G1 X60.089 Y72.006 E25.88745
G1 X59.436 Y71.499 E25.94269
G1 X58.863 Y70.961 E25.99515
G1 X58.316 Y70.341 E26.05038
G1 X57.855 Y69.706 E26.10285
G1 X57.434 Y68.994 E26.15807
G1 X57.099 Y68.284 E26.21054
G1 X56.819 Y67.506 E26.26578
G1 X56.624 Y66.745 E26.31824
G1 X56.531 Y66.216 E26.35416
G1 X56.471 Y65.682 E26.39006
G1 X56.445 Y64.855 E26.44528
G1 X56.495 Y64.071 E26.49776
G1 X56.624 Y63.255 E26.55299
G1 X56.819 Y62.494 E26.60545
G1 X57.099 Y61.716 E26.66069
G1 X57.434 Y61.006 E26.71316
G1 X57.855 Y60.294 E26.76839
G1 X58.316 Y59.659 E26.82086
G1 X58.665 Y59.249 E26.85677
G1 X58.996 Y58.905 E26.88866
G1 X59.417 Y59.242 F30000.000
G1 F2100
G1 X59.987 Y58.740 E26.93940
G1 X60.595 Y58.298 E26.98962
G1 X61.249 Y57.911 E27.04036
G1 X61.929 Y57.591 E27.09058
G1 X62.644 Y57.334 E27.14132
G1 X63.130 Y57.201 E27.17497
G1 X63.623 Y57.099 E27.20863
G1 X64.369 Y57.005 E27.25885
G1 X65.128 Y56.981 E27.30958
G1 X65.878 Y57.028 E27.35982
G1 X66.628 Y57.147 E27.41055
G1 X67.356 Y57.334 E27.46076
G1 X68.071 Y57.591 E27.51151
G1 X68.751 Y57.911 E27.56173
G1 X69.189 Y58.161 E27.59539
G1 X69.610 Y58.437 E27.62905
G1 X70.210 Y58.903 E27.67978
G1 X70.758 Y59.417 E27.73000
G1 X71.260 Y59.987 E27.78074
G1 X71.702 Y60.595 E27.83096
G1 X72.089 Y61.249 E27.88169
G1 X72.409 Y61.929 E27.93192
G1 X72.666 Y62.644 E27.98266
G1 X72.799 Y63.130 E28.01631
G1 X72.901 Y63.623 E28.04997
G1 X72.995 Y64.369 E28.10019
G1 X73.019 Y65.128 E28.15093
G1 X72.972 Y65.878 E28.20116
G1 X72.853 Y66.628 E28.25189
G1 X72.666 Y67.356 E28.30210
G1 X72.409 Y68.071 E28.35285
G1 X72.089 Y68.751 E28.40307
G1 X71.839 Y69.189 E28.43673
G1 X71.563 Y69.610 E28.47039
G1 X71.097 Y70.210 E28.52112
