; generated by Slic3r 1.3.0 on 2021-12-08 at 17:01:38

; external perimeters extrusion width = 0.44mm (2.78mm^3/s)
; perimeters extrusion width = 0.40mm (7.14mm^3/s)
; infill extrusion width = 0.50mm (10.97mm^3/s)
; solid infill extrusion width = 0.60mm (6.68mm^3/s)
; top infill extrusion width = 0.40mm (2.14mm^3/s)

M107
M190 S80 ; set bed temperature and wait for it to be reached
M104 S210 ; set temperature
G28 ; home all axes
G1 Z5 F5000 ; lift nozzle

; Filament gcode

M109 S210 ; set temperature and wait for it to be reached
G21 ; set units to millimeters
G90 ; use absolute coordinates
M82 ; use absolute distances for extrusion
G92 E0
G1 Z0.300 F30000.000
G1 E-2.00000 F2400.00000
G92 E0
G1 X57.108 Y56.955 F30000.000
G1 E2.00000 F2400.00000
G1 F2100
G1 X57.629 Y56.475 E2.04729
G1 X58.008 Y56.162 E2.08012
G1 X58.756 Y55.619 E2.14189
G1 X59.170 Y55.356 E2.17471
G1 X59.788 Y55.009 E2.22200
G1 X60.425 Y54.701 E2.26928
G1 X61.081 Y54.434 E2.31659
G1 X61.960 Y54.148 E2.37836
G1 X62.436 Y54.026 E2.41119
G1 X63.130 Y53.887 E2.45847
G1 X64.048 Y53.771 E2.52024
G1 X64.754 Y53.733 E2.56753
G1 X65.246 Y53.733 E2.60036
G1 X66.168 Y53.791 E2.66211
G1 X66.656 Y53.853 E2.69495
G1 X67.352 Y53.979 E2.74222
G1 X68.248 Y54.209 E2.80399
G1 X68.715 Y54.361 E2.83682
G1 X69.376 Y54.615 E2.88413
G1 X70.019 Y54.910 E2.93141
G1 X70.643 Y55.245 E2.97871
G1 X71.424 Y55.741 E3.04047
G1 X71.821 Y56.029 E3.07330
G1 X72.371 Y56.476 E3.12060
G1 X73.045 Y57.108 E3.18236
G1 X73.524 Y57.629 E3.22964
G1 X73.838 Y58.008 E3.26247
G1 X74.381 Y58.756 E3.32424
G1 X74.755 Y59.357 E3.37154
G1 X74.991 Y59.788 E3.40436
G1 X75.299 Y60.425 E3.45165
G1 X75.566 Y61.081 E3.49894
G1 X75.852 Y61.960 E3.56072
G1 X75.974 Y62.436 E3.59355
G1 X76.113 Y63.130 E3.64082
G1 X76.229 Y64.047 E3.70260
G1 X76.267 Y64.754 E3.74988
G1 X76.267 Y65.246 E3.78272
G1 X76.209 Y66.168 E3.84447
G1 X76.147 Y66.656 E3.87731
G1 X76.021 Y67.352 E3.92458
G1 X75.791 Y68.248 E3.98635
G1 X75.639 Y68.715 E4.01919
G1 X75.385 Y69.376 E4.06648
G1 X75.090 Y70.019 E4.11377
G1 X74.755 Y70.643 E4.16106
G1 X74.259 Y71.424 E4.22283
G1 X73.838 Y71.992 E4.27013
G1 X73.524 Y72.371 E4.30296
G1 X72.892 Y73.045 E4.36471
G1 X72.371 Y73.524 E4.41200
G1 X71.992 Y73.838 E4.44483
G1 X71.244 Y74.381 E4.50660
G1 X70.830 Y74.644 E4.53942
G1 X70.212 Y74.991 E4.58671
G1 X69.575 Y75.299 E4.63400
G1 X68.919 Y75.566 E4.68129
G1 X68.040 Y75.852 E4.74307
G1 X67.564 Y75.974 E4.77590
G1 X66.870 Y76.113 E4.82317
G1 X65.953 Y76.229 E4.88495
G1 X65.246 Y76.267 E4.93223
G1 X64.754 Y76.267 E4.96507
G1 X63.832 Y76.209 E5.02683
G1 X63.344 Y76.147 E5.05966
G1 X62.648 Y76.021 E5.10693
G1 X61.752 Y75.791 E5.16870
G1 X61.285 Y75.639 E5.20154
G1 X60.624 Y75.385 E5.24884
G1 X59.981 Y75.090 E5.29612
G1 X59.357 Y74.755 E5.34342
G1 X58.576 Y74.259 E5.40518
G1 X58.179 Y73.971 E5.43801
G1 X57.629 Y73.524 E5.48531
G1 X56.955 Y72.892 E5.54706
G1 X56.476 Y72.371 E5.59435
G1 X56.162 Y71.992 E5.62718
G1 X55.619 Y71.244 E5.68895
G1 X55.245 Y70.643 E5.73625
G1 X55.009 Y70.212 E5.76907
G1 X54.701 Y69.575 E5.81635
G1 X54.434 Y68.919 E5.86366
G1 X54.148 Y68.040 E5.92543
G1 X54.026 Y67.564 E5.95826
G1 X53.887 Y66.870 E6.00553
G1 X53.771 Y65.953 E6.06731
G1 X53.733 Y65.246 E6.11459
G1 X53.733 Y64.754 E6.14743
G1 X53.791 Y63.832 E6.20918
G1 X53.853 Y63.344 E6.24201
G1 X53.979 Y62.648 E6.28929
G1 X54.209 Y61.752 E6.35106
G1 X54.361 Y61.285 E6.38389
G1 X54.615 Y60.624 E6.43120
G1 X55.009 Y59.788 E6.49295
G1 X55.245 Y59.357 E6.52577
G1 X55.619 Y58.756 E6.57306
G1 X56.162 Y58.008 E6.63483
G1 X56.619 Y57.466 E6.68213
G1 X57.066 Y56.998 E6.72542
G1 X57.487 Y57.334 F30000.000
G1 F2100
G1 X57.983 Y56.877 E6.77046
G1 X58.336 Y56.585 E6.80104
G1 X59.057 Y56.062 E6.86056
G1 X59.443 Y55.817 E6.89113
G1 X60.031 Y55.486 E6.93618
G1 X60.638 Y55.193 E6.98121
G1 X61.262 Y54.938 E7.02627
G1 X62.110 Y54.663 E7.08580
G1 X62.553 Y54.549 E7.11637
G1 X63.214 Y54.416 E7.16141
G1 X64.098 Y54.304 E7.22094
G1 X64.771 Y54.269 E7.26597
G1 X65.229 Y54.269 E7.29656
G1 X66.118 Y54.325 E7.35606
G1 X66.572 Y54.382 E7.38665
G1 X67.235 Y54.502 E7.43168
G1 X68.098 Y54.723 E7.49120
G1 X68.534 Y54.865 E7.52178
G1 X69.163 Y55.107 E7.56684
G1 X69.776 Y55.387 E7.61187
G1 X70.370 Y55.706 E7.65692
G1 X71.123 Y56.184 E7.71643
G1 X71.493 Y56.453 E7.74702
G1 X72.017 Y56.877 E7.79207
G1 X72.666 Y57.487 E7.85158
G1 X73.123 Y57.983 E7.89662
G1 X73.414 Y58.336 E7.92720
G1 X73.938 Y59.057 E7.98672
G1 X74.183 Y59.443 E8.01729
G1 X74.514 Y60.031 E8.06234
G1 X74.807 Y60.638 E8.10738
G1 X75.062 Y61.262 E8.15243
G1 X75.337 Y62.110 E8.21196
G1 X75.451 Y62.553 E8.24254
G1 X75.584 Y63.214 E8.28756
G1 X75.696 Y64.098 E8.34709
G1 X75.731 Y64.771 E8.39213
G1 X75.731 Y65.229 E8.42272
G1 X75.675 Y66.118 E8.48222
G1 X75.618 Y66.572 E8.51281
G1 X75.498 Y67.235 E8.55784
G1 X75.277 Y68.098 E8.61736
G1 X75.135 Y68.534 E8.64795
G1 X74.893 Y69.163 E8.69300
G1 X74.613 Y69.776 E8.73803
G1 X74.294 Y70.370 E8.78308
G1 X73.816 Y71.123 E8.84260
G1 X73.547 Y71.493 E8.87317
G1 X73.123 Y72.017 E8.91823
G1 X72.513 Y72.666 E8.97774
G1 X72.017 Y73.123 E9.02278
G1 X71.664 Y73.414 E9.05336
G1 X70.943 Y73.938 E9.11288
G1 X70.557 Y74.183 E9.14345
G1 X69.969 Y74.514 E9.18850
G1 X69.362 Y74.807 E9.23354
G1 X68.738 Y75.062 E9.27858
G1 X67.890 Y75.337 E9.33812
G1 X67.447 Y75.451 E9.36870
G1 X66.786 Y75.584 E9.41372
G1 X65.902 Y75.696 E9.47325
G1 X65.229 Y75.731 E9.51828
G1 X64.771 Y75.731 E9.54887
G1 X63.882 Y75.675 E9.60838
G1 X63.428 Y75.618 E9.63897
G1 X62.765 Y75.498 E9.68399
G1 X61.902 Y75.277 E9.74352
G1 X61.466 Y75.135 E9.77410
G1 X60.837 Y74.893 E9.81915
G1 X60.224 Y74.613 E9.86419
G1 X59.630 Y74.294 E9.90924
G1 X58.877 Y73.816 E9.96876
G1 X58.336 Y73.414 E10.01381
G1 X57.983 Y73.123 E10.04439
G1 X57.334 Y72.513 E10.10389
G1 X56.877 Y72.017 E10.14894
G1 X56.586 Y71.664 E10.17952
G1 X56.062 Y70.943 E10.23904
G1 X55.817 Y70.557 E10.26961
G1 X55.486 Y69.969 E10.31466
G1 X55.193 Y69.362 E10.35970
G1 X54.938 Y68.738 E10.40475
G1 X54.663 Y67.890 E10.46428
G1 X54.549 Y67.447 E10.49486
G1 X54.416 Y66.786 E10.53988
G1 X54.304 Y65.902 E10.59941
G1 X54.269 Y65.229 E10.64445
G1 X54.269 Y64.771 E10.67503
G1 X54.325 Y63.882 E10.73454
G1 X54.382 Y63.428 E10.76512
G1 X54.502 Y62.765 E10.81016
G1 X54.723 Y61.902 E10.86968
G1 X54.865 Y61.466 E10.90026
G1 X55.107 Y60.837 E10.94532
G1 X55.486 Y60.031 E11.00482
G1 X55.706 Y59.630 E11.03539
G1 X56.062 Y59.057 E11.08044
G1 X56.585 Y58.336 E11.13996
G1 X57.021 Y57.821 E11.18501
G1 X57.445 Y57.376 E11.22605
G1 X57.866 Y57.713 F30000.000
G1 F2100
G1 X58.337 Y57.279 E11.26885
G1 X58.664 Y57.009 E11.29718
G1 X59.358 Y56.505 E11.35445
G1 X59.716 Y56.278 E11.38278
G1 X60.274 Y55.963 E11.42557
G1 X60.850 Y55.684 E11.46836
G1 X61.444 Y55.442 E11.51117
G1 X62.259 Y55.177 E11.56845
G1 X62.670 Y55.072 E11.59677
G1 X63.298 Y54.945 E11.63956
G1 X64.148 Y54.837 E11.69684
G1 X64.788 Y54.804 E11.73963
G1 X65.212 Y54.804 E11.76797
G1 X66.067 Y54.858 E11.82523
G1 X66.488 Y54.911 E11.85356
G1 X67.119 Y55.024 E11.89635
G1 X67.949 Y55.237 E11.95362
G1 X68.352 Y55.369 E11.98195
G1 X68.951 Y55.598 E12.02476
G1 X69.533 Y55.865 E12.06755
G1 X70.098 Y56.167 E12.11035
G1 X70.821 Y56.627 E12.16762
G1 X71.165 Y56.876 E12.19595
G1 X71.663 Y57.279 E12.23875
G1 X72.287 Y57.866 E12.29601
G1 X72.721 Y58.337 E12.33881
G1 X72.991 Y58.664 E12.36714
G1 X73.495 Y59.358 E12.42441
G1 X73.722 Y59.716 E12.45274
G1 X74.037 Y60.274 E12.49554
G1 X74.316 Y60.851 E12.53833
G1 X74.558 Y61.444 E12.58113
G1 X74.823 Y62.259 E12.63841
G1 X74.928 Y62.670 E12.66674
G1 X75.055 Y63.298 E12.70952
G1 X75.163 Y64.148 E12.76680
G1 X75.196 Y64.788 E12.80960
G1 X75.196 Y65.212 E12.83794
G1 X75.142 Y66.067 E12.89519
G1 X75.089 Y66.488 E12.92353
G1 X74.976 Y67.119 E12.96631
G1 X74.762 Y67.949 E13.02358
G1 X74.631 Y68.352 E13.05192
G1 X74.402 Y68.951 E13.09472
G1 X74.135 Y69.533 E13.13751
G1 X73.833 Y70.098 E13.18031
G1 X73.373 Y70.822 E13.23758
G1 X72.991 Y71.336 E13.28039
G1 X72.721 Y71.663 E13.30872
G1 X72.134 Y72.287 E13.36598
G1 X71.663 Y72.721 E13.40877
G1 X71.336 Y72.991 E13.43710
G1 X70.642 Y73.495 E13.49438
G1 X70.284 Y73.722 E13.52270
G1 X69.726 Y74.037 E13.56550
G1 X69.150 Y74.316 E13.60829
G1 X68.556 Y74.558 E13.65109
G1 X67.741 Y74.823 E13.70837
G1 X67.330 Y74.928 E13.73671
G1 X66.702 Y75.055 E13.77948
G1 X65.852 Y75.163 E13.83677
G1 X65.212 Y75.196 E13.87955
G1 X64.788 Y75.196 E13.90789
G1 X63.932 Y75.142 E13.96516
G1 X63.512 Y75.089 E13.99349
G1 X62.881 Y74.976 E14.03627
G1 X62.051 Y74.763 E14.09355
G1 X61.648 Y74.631 E14.12188
G1 X61.049 Y74.402 E14.16468
G1 X60.467 Y74.135 E14.20747
G1 X59.902 Y73.833 E14.25028
G1 X59.179 Y73.373 E14.30754
G1 X58.664 Y72.991 E14.35035
G1 X58.337 Y72.721 E14.37868
G1 X57.713 Y72.134 E14.43594
G1 X57.279 Y71.663 E14.47873
G1 X57.009 Y71.336 E14.50707
G1 X56.505 Y70.642 E14.56434
G1 X56.278 Y70.284 E14.59267
G1 X55.963 Y69.726 E14.63546
G1 X55.684 Y69.150 E14.67825
G1 X55.442 Y68.556 E14.72106
G1 X55.177 Y67.741 E14.77834
G1 X55.072 Y67.330 E14.80667
G1 X54.945 Y66.702 E14.84945
G1 X54.837 Y65.852 E14.90673
G1 X54.804 Y65.212 E14.94952
G1 X54.804 Y64.788 E14.97786
G1 X54.858 Y63.933 E15.03511
G1 X54.911 Y63.512 E15.06345
G1 X55.024 Y62.881 E15.10624
G1 X55.237 Y62.051 E15.16351
G1 X55.369 Y61.648 E15.19185
G1 X55.598 Y61.049 E15.23465
G1 X55.963 Y60.274 E15.29191
G1 X56.278 Y59.716 E15.33471
G1 X56.505 Y59.358 E15.36303
G1 X57.009 Y58.664 E15.42031
G1 X57.422 Y58.175 E15.46311
G1 X57.823 Y57.755 E15.50190
G1 X58.245 Y58.091 F30000.000
G1 F2100
G1 X58.992 Y57.432 E15.56851
G1 X59.659 Y56.948 E15.62353
G1 X60.517 Y56.440 E15.69014
G1 X61.063 Y56.176 E15.73068
G1 X61.625 Y55.946 E15.77124
G1 X62.409 Y55.691 E15.82627
G1 X63.381 Y55.474 E15.89287
G1 X64.199 Y55.371 E15.94790
G1 X65.195 Y55.339 E16.01451
G1 X66.017 Y55.391 E16.06952
G1 X67.002 Y55.547 E16.13612
G1 X67.800 Y55.752 E16.19115
G1 X68.738 Y56.090 E16.25777
G1 X69.290 Y56.342 E16.29831
G1 X69.825 Y56.628 E16.33887
G1 X70.520 Y57.070 E16.39389
G1 X71.308 Y57.681 E16.46051
G1 X71.909 Y58.245 E16.51552
G1 X72.568 Y58.992 E16.58213
G1 X73.052 Y59.659 E16.63715
G1 X73.560 Y60.517 E16.70376
G1 X73.824 Y61.063 E16.74431
G1 X74.054 Y61.625 E16.78486
G1 X74.309 Y62.409 E16.83989
G1 X74.526 Y63.381 E16.90648
G1 X74.629 Y64.199 E16.96152
G1 X74.661 Y65.195 E17.02814
G1 X74.609 Y66.017 E17.08314
G1 X74.453 Y67.002 E17.14974
G1 X74.248 Y67.800 E17.20477
G1 X73.910 Y68.738 E17.27139
G1 X73.658 Y69.290 E17.31194
G1 X73.372 Y69.825 E17.35249
G1 X72.930 Y70.520 E17.40751
G1 X72.319 Y71.308 E17.47413
G1 X71.755 Y71.909 E17.52914
G1 X71.008 Y72.568 E17.59575
G1 X70.341 Y73.052 E17.65077
G1 X69.483 Y73.560 E17.71738
G1 X68.937 Y73.824 E17.75792
G1 X68.375 Y74.054 E17.79848
G1 X67.591 Y74.309 E17.85351
G1 X66.619 Y74.526 E17.92010
G1 X65.801 Y74.629 E17.97514
G1 X64.805 Y74.661 E18.04175
G1 X63.983 Y74.609 E18.09676
G1 X62.998 Y74.453 E18.16336
G1 X62.200 Y74.248 E18.21839
G1 X61.262 Y73.910 E18.28501
G1 X60.710 Y73.658 E18.32555
G1 X60.175 Y73.372 E18.36611
G1 X59.480 Y72.930 E18.42113
G1 X58.692 Y72.319 E18.48775
G1 X58.091 Y71.755 E18.54276
G1 X57.432 Y71.008 E18.60937
G1 X56.948 Y70.341 E18.66439
G1 X56.440 Y69.483 E18.73100
G1 X56.176 Y68.937 E18.77154
G1 X55.946 Y68.375 E18.81210
G1 X55.691 Y67.591 E18.86713
G1 X55.474 Y66.619 E18.93373
G1 X55.371 Y65.801 E18.98876
G1 X55.339 Y64.805 E19.05537
G1 X55.391 Y63.983 E19.11038
G1 X55.547 Y62.998 E19.17698
G1 X55.752 Y62.200 E19.23201
G1 X56.090 Y61.262 E19.29863
G1 X56.440 Y60.517 E19.35364
G1 X56.948 Y59.659 E19.42025
G1 X57.432 Y58.992 E19.47527
G1 X57.824 Y58.529 E19.51583
G1 X58.202 Y58.134 E19.55237
G1 X58.623 Y58.470 F30000.000
G1 F2100
G1 X59.321 Y57.855 E19.61449
G1 X59.960 Y57.391 E19.66727
G1 X60.760 Y56.918 E19.72938
G1 X61.276 Y56.667 E19.76767
G1 X61.807 Y56.450 E19.80598
G1 X62.558 Y56.206 E19.85876
G1 X63.465 Y56.003 E19.92087
G1 X64.249 Y55.904 E19.97365
G1 X65.178 Y55.875 E20.03577
G1 X65.967 Y55.924 E20.08853
G1 X66.885 Y56.070 E20.15064
G1 X67.650 Y56.266 E20.20342
G1 X68.525 Y56.581 E20.26555
G1 X69.047 Y56.819 E20.30384
G1 X69.552 Y57.089 E20.34215
G1 X70.219 Y57.513 E20.39492
G1 X70.954 Y58.083 E20.45704
G1 X71.530 Y58.623 E20.50981
G1 X72.145 Y59.321 E20.57193
G1 X72.609 Y59.960 E20.62470
G1 X73.082 Y60.760 E20.68682
G1 X73.333 Y61.276 E20.72512
G1 X73.550 Y61.807 E20.76342
G1 X73.794 Y62.558 E20.81621
G1 X73.997 Y63.465 E20.87830
G1 X74.096 Y64.249 E20.93109
G1 X74.125 Y65.179 E20.99321
G1 X74.076 Y65.967 E21.04597
G1 X73.930 Y66.885 E21.10808
G1 X73.734 Y67.650 E21.16086
G1 X73.419 Y68.525 E21.22299
G1 X73.181 Y69.047 E21.26128
G1 X72.911 Y69.552 E21.29959
G1 X72.487 Y70.219 E21.35236
G1 X71.917 Y70.954 E21.41448
G1 X71.377 Y71.530 E21.46725
G1 X70.679 Y72.145 E21.52936
G1 X70.040 Y72.609 E21.58214
G1 X69.240 Y73.082 E21.64425
G1 X68.724 Y73.333 E21.68255
G1 X68.193 Y73.550 E21.72086
G1 X67.442 Y73.794 E21.77364
G1 X66.535 Y73.997 E21.83574
G1 X65.751 Y74.096 E21.88853
G1 X64.822 Y74.125 E21.95064
G1 X64.033 Y74.076 E22.00341
G1 X63.115 Y73.930 E22.06552
G1 X62.350 Y73.734 E22.11830
G1 X61.475 Y73.419 E22.18042
G1 X60.953 Y73.181 E22.21872
G1 X60.448 Y72.911 E22.25702
G1 X59.781 Y72.487 E22.30980
G1 X59.046 Y71.917 E22.37192
G1 X58.470 Y71.377 E22.42469
G1 X57.855 Y70.679 E22.48680
G1 X57.391 Y70.040 E22.53958
G1 X56.918 Y69.240 E22.60169
G1 X56.667 Y68.724 E22.63999
G1 X56.450 Y68.193 E22.67830
G1 X56.206 Y67.442 E22.73108
G1 X56.003 Y66.535 E22.79318
G1 X55.904 Y65.751 E22.84597
G1 X55.875 Y64.822 E22.90808
G1 X55.924 Y64.033 E22.96085
G1 X56.070 Y63.115 E23.02296
G1 X56.266 Y62.350 E23.07573
G1 X56.581 Y61.475 E23.13786
G1 X56.918 Y60.760 E23.19063
G1 X57.391 Y59.960 E23.25274
G1 X57.855 Y59.321 E23.30552
G1 X58.226 Y58.883 E23.34382
G1 X58.581 Y58.512 E23.37812
G1 X59.002 Y58.849 F30000.000
G1 F2100
G1 X59.649 Y58.278 E23.43574
G1 X60.261 Y57.834 E23.48627
G1 X61.003 Y57.395 E23.54389
G1 X61.489 Y57.159 E23.57994
G1 X61.988 Y56.954 E23.61600
G1 X62.707 Y56.720 E23.66653
G1 X63.549 Y56.532 E23.72415
G1 X64.299 Y56.437 E23.77468
G1 X65.162 Y56.410 E23.83230
G1 X65.916 Y56.458 E23.88282
G1 X66.768 Y56.592 E23.94044
G1 X67.501 Y56.781 E23.99096
G1 X68.312 Y57.073 E24.04860
G1 X68.804 Y57.296 E24.08465
G1 X69.280 Y57.550 E24.12070
G1 X69.918 Y57.956 E24.17123
G1 X70.600 Y58.484 E24.22886
G1 X71.151 Y59.002 E24.27938
G1 X71.722 Y59.649 E24.33700
G1 X72.166 Y60.261 E24.38753
G1 X72.605 Y61.003 E24.44515
G1 X72.841 Y61.489 E24.48120
G1 X73.046 Y61.988 E24.51726
G1 X73.280 Y62.707 E24.56779
G1 X73.468 Y63.549 E24.62540
G1 X73.563 Y64.299 E24.67593
G1 X73.590 Y65.162 E24.73356
G1 X73.542 Y65.916 E24.78408
G1 X73.408 Y66.768 E24.84169
G1 X73.219 Y67.501 E24.89222
G1 X72.927 Y68.312 E24.94986
G1 X72.704 Y68.804 E24.98591
G1 X72.450 Y69.280 E25.02196
G1 X72.044 Y69.918 E25.07249
G1 X71.516 Y70.600 E25.13012
G1 X70.998 Y71.151 E25.18063
G1 X70.351 Y71.722 E25.23826
G1 X69.739 Y72.166 E25.28878
G1 X68.997 Y72.605 E25.34640
G1 X68.511 Y72.841 E25.38245
G1 X68.012 Y73.046 E25.41851
G1 X67.293 Y73.280 E25.46905
G1 X66.451 Y73.468 E25.52666
G1 X65.701 Y73.563 E25.57719
G1 X64.838 Y73.590 E25.63481
G1 X64.084 Y73.542 E25.68534
G1 X63.232 Y73.408 E25.74295
G1 X62.499 Y73.219 E25.79348
G1 X61.688 Y72.927 E25.85111
G1 X61.196 Y72.704 E25.88716
G1 X60.720 Y72.450 E25.92322
G1 X60.082 Y72.044 E25.97374
G1 X59.400 Y71.516 E26.03137
G1 X58.849 Y70.998 E26.08189
G1 X58.278 Y70.351 E26.13951
G1 X57.834 Y69.739 E26.19004
G1 X57.395 Y68.997 E26.24766
G1 X57.159 Y68.511 E26.28371
G1 X56.954 Y68.012 E26.31977
G1 X56.720 Y67.293 E26.37031
G1 X56.532 Y66.451 E26.42792
G1 X56.437 Y65.701 E26.47845
G1 X56.410 Y64.838 E26.53607
G1 X56.458 Y64.084 E26.58659
G1 X56.592 Y63.232 E26.64421
G1 X56.781 Y62.499 E26.69474
G1 X57.073 Y61.688 E26.75237
G1 X57.395 Y61.003 E26.80289
G1 X57.834 Y60.261 E26.86051
G1 X58.278 Y59.649 E26.91104
G1 X58.628 Y59.238 E26.94709
G1 X58.960 Y58.891 E26.97914
G1 X59.381 Y59.228 F30000.000
G1 F2100
G1 X59.977 Y58.702 E27.03227
G1 X60.562 Y58.277 E27.08055
G1 X61.247 Y57.872 E27.13368
G1 X61.701 Y57.650 E27.16748
G1 X62.169 Y57.458 E27.20129
G1 X62.857 Y57.234 E27.24958
G1 X63.633 Y57.061 E27.30270
