; generated by Slic3r 1.3.0 on 2023-07-13 at 15:51:43

; external perimeters extrusion width = 0.44mm (2.78mm^3/s)
; perimeters extrusion width = 0.40mm (7.14mm^3/s)
; infill extrusion width = 0.50mm (10.97mm^3/s)
; solid infill extrusion width = 0.60mm (6.68mm^3/s)
; top infill extrusion width = 0.40mm (2.14mm^3/s)

M107
M190 S80 ; set bed temperature and wait for it to be reached
M104 S210 ; set temperature
G28 ; home all axes
G1 Z5 F5000 ; lift nozzle

; Filament gcode

M109 S210 ; set temperature and wait for it to be reached
G21 ; set units to millimeters
G90 ; use absolute coordinates
M82 ; use absolute distances for extrusion
G92 E0
G1 Z0.300 F30000.000
G1 E-2.00000 F2400.00000
G92 E0
G1 X20.957 Y36.361 F30000.000
G1 E2.00000 F2400.00000
G1 F2100
G1 X64.172 Y11.411 E5.33359
G1 X65.885 Y10.878 E5.45341
G1 X68.243 Y11.411 E5.61494
G1 X129.061 Y46.524 E10.30643
G1 X130.379 Y47.741 E10.42625
G1 X131.097 Y50.050 E10.58779
G1 X131.097 Y99.950 E13.92138
G1 X130.701 Y101.700 E14.04120
G1 X129.061 Y103.476 E14.20273
G1 X68.243 Y138.589 E18.89422
G1 X66.531 Y139.122 E19.01404
G1 X64.172 Y138.589 E19.17557
G1 X20.957 Y113.639 E22.50916
G1 X19.640 Y112.422 E22.62898
G1 X18.922 Y110.113 E22.79052
G1 X18.922 Y39.887 E27.48200
G1 X19.317 Y38.137 E27.60183
G1 X20.917 Y36.405 E27.75935
G1 X21.225 Y36.825 F30000.000
G1 F2100
G1 X64.440 Y11.875 E31.09294
G1 X66.042 Y11.405 E31.20450
G1 X67.975 Y11.875 E31.33740
G1 X128.793 Y46.988 E36.02889
G1 X130.001 Y48.141 E36.14045
G1 X130.561 Y50.050 E36.27336
G1 X130.561 Y99.950 E39.60695
G1 X130.167 Y101.573 E39.71850
G1 X128.793 Y103.012 E39.85141
G1 X67.975 Y138.125 E44.54290
G1 X66.373 Y138.595 E44.65446
G1 X64.440 Y138.125 E44.78736
G1 X21.225 Y113.175 E48.12095
G1 X20.017 Y112.022 E48.23251
G1 X19.457 Y110.113 E48.36542
G1 X19.457 Y39.887 E53.05691
G1 X19.852 Y38.264 E53.16846
G1 X21.184 Y36.868 E53.29736
G1 E51.29736 F2400.00000
G92 E0
G1 X54.244 Y60.782 F30000.000
G1 E2.00000 F2400.00000
G1 F2100
G1 X56.759 Y57.989 E2.25108
G1 X60.630 Y55.176 E2.57078
G1 X65.002 Y53.230 E2.89047
G1 X69.683 Y52.235 E3.21016
G1 X74.468 Y52.235 E3.52985
G1 X79.149 Y53.230 E3.84954
G1 X83.521 Y55.176 E4.16923
G1 X87.392 Y57.989 E4.48893
G1 X90.594 Y61.545 E4.80862
G1 X92.987 Y65.690 E5.12831
G1 X94.466 Y70.241 E5.44800
G1 X94.966 Y75.000 E5.76769
G1 X94.466 Y79.759 E6.08738
G1 X92.987 Y84.310 E6.40708
G1 X90.594 Y88.455 E6.72677
G1 X87.392 Y92.011 E7.04646
G1 X83.521 Y94.824 E7.36615
G1 X79.149 Y96.770 E7.68584
G1 X74.468 Y97.765 E8.00554
G1 X69.683 Y97.765 E8.32523
G1 X65.002 Y96.770 E8.64492
G1 X60.630 Y94.824 E8.96461
G1 X56.759 Y92.011 E9.28430
G1 X53.557 Y88.455 E9.60399
G1 X51.164 Y84.310 E9.92369
G1 X49.685 Y79.759 E10.24338
G1 X49.185 Y75.000 E10.56307
G1 X49.685 Y70.241 E10.88276
G1 X51.164 Y65.690 E11.20245
G1 X53.557 Y61.545 E11.52214
G1 X54.204 Y60.827 E11.58674
G1 X54.642 Y61.141 F30000.000
G1 F2100
G1 X57.119 Y58.389 E11.83407
G1 X60.899 Y55.643 E12.14624
G1 X65.168 Y53.742 E12.45841
G1 X69.739 Y52.771 E12.77058
G1 X74.412 Y52.771 E13.08275
G1 X78.982 Y53.742 E13.39492
G1 X83.251 Y55.643 E13.70709
G1 X87.032 Y58.389 E14.01926
G1 X90.158 Y61.862 E14.33143
G1 X92.495 Y65.909 E14.64360
G1 X93.939 Y70.353 E14.95577
G1 X94.427 Y75.000 E15.26794
G1 X93.939 Y79.647 E15.58011
G1 X92.495 Y84.091 E15.89228
G1 X90.158 Y88.138 E16.20445
G1 X87.032 Y91.611 E16.51662
G1 X83.251 Y94.357 E16.82879
G1 X78.982 Y96.258 E17.14096
G1 X74.412 Y97.229 E17.45313
G1 X69.739 Y97.229 E17.76530
G1 X65.168 Y96.258 E18.07747
G1 X60.899 Y94.357 E18.38964
G1 X57.119 Y91.611 E18.70181
G1 X53.992 Y88.138 E19.01398
G1 X51.656 Y84.091 E19.32615
G1 X50.212 Y79.647 E19.63832
G1 X49.723 Y75.000 E19.95049
G1 X50.212 Y70.353 E20.26266
G1 X51.656 Y65.909 E20.57483
G1 X53.992 Y61.862 E20.88700
G1 X54.602 Y61.185 E20.94784
G1 X54.496 Y60.768 F30000.000
G1 E18.94784 F2400.00000
G92 E0
G1 X41.293 Y59.154 F30000.000
G1 E2.00000 F2400.00000
G1 F2100
G1 X73.744 Y40.418 E4.50328
G1 X61.244 Y18.768 E6.17342
G1 X65.902 Y16.078 E6.53275
G1 X85.998 Y50.886 E9.21779
G1 X126.190 Y50.886 E11.90282
G1 X126.190 Y56.264 E12.26216
G1 X101.190 Y56.264 E13.93229
G1 X101.190 Y93.736 E16.43557
G1 X126.190 Y93.736 E18.10571
G1 X126.190 Y99.114 E18.46504
G1 X85.998 Y99.114 E21.15008
G1 X65.902 Y133.922 E23.83511
G1 X61.244 Y131.232 E24.19444
G1 X73.744 Y109.582 E25.86458
G1 X72.513 Y108.871 E25.95952
G1 X41.293 Y90.846 E28.36786
G1 X28.793 Y112.497 E30.03800
G1 X24.134 Y109.807 E30.39733
G1 X44.230 Y75.000 E33.08237
G1 X24.134 Y40.193 E35.76740
G1 X28.793 Y37.503 E36.12674
G1 X41.263 Y59.102 E37.79286
G1 X41.489 Y58.422 F30000.000
G1 F2100
G1 X73.012 Y40.222 E40.22458
G1 X60.512 Y18.572 E41.89471
G1 X66.098 Y15.347 E42.32561
G1 X86.307 Y50.350 E45.02577
G1 X126.725 Y50.350 E47.72593
G1 X126.725 Y56.800 E48.15683
G1 X101.725 Y56.800 E49.82696
G1 X101.725 Y93.200 E52.25868
G1 X126.725 Y93.200 E53.92882
G1 X126.725 Y99.650 E54.35971
G1 X86.307 Y99.650 E57.05987
G1 X66.098 Y134.653 E59.76003
G1 X60.512 Y131.428 E60.19093
G1 X73.012 Y109.778 E61.86106
G1 X72.245 Y109.335 E61.92022
G1 X41.489 Y91.578 E64.29278
G1 X28.989 Y113.228 E65.96292
G1 X23.403 Y110.003 E66.39381
G1 X43.612 Y75.000 E69.09397
G1 X23.403 Y39.997 E71.79414
G1 X28.989 Y36.772 E72.22503
G1 X41.459 Y58.370 E73.89116
G1 X41.717 Y58.751 F30000.000
G1 E71.89116 F2400.00000
G92 E0
G1 X52.702 Y61.996 F30000.000
G1 E2.00000 F2400.00000
G1 F2100
G1 X42.907 Y71.791 E2.92927
G1 X43.185 Y72.274 E2.96662
G1 X51.663 Y63.796 E3.77090
G1 X50.729 Y65.414 E3.89620
G1 X50.692 Y65.528 E3.90424
G1 X43.464 Y72.756 E4.58999
G1 X43.742 Y73.238 E4.62734
G1 X50.325 Y66.655 E5.25194
G1 X49.959 Y67.781 E5.33142
G1 X44.020 Y73.720 E5.89486
G1 X44.299 Y74.203 E5.93222
G1 X49.593 Y68.908 E6.43452
G1 X49.227 Y70.035 E6.51399
G1 X44.577 Y74.685 E6.95514
G1 X44.792 Y75.057 E6.98396
G1 X44.555 Y75.468 E7.01582
G1 X49.129 Y70.894 E7.44976
G1 X49.039 Y71.744 E7.50710
G1 X43.516 Y77.268 E8.03116
G1 X42.477 Y79.067 E8.17057
G1 X48.950 Y72.594 E8.78473
G1 X48.861 Y73.444 E8.84207
G1 X41.437 Y80.867 E9.54633
G1 X40.398 Y82.667 E9.68574
G1 X48.771 Y74.294 E10.48011
G1 X48.703 Y74.943 E10.52390
G1 X48.720 Y75.106 E10.53487
G1 X39.359 Y84.467 E11.42297
G1 X38.320 Y86.266 E11.56238
G1 X48.793 Y75.794 E12.55593
G1 X48.865 Y76.482 E12.60236
G1 X37.281 Y88.066 E13.70134
G1 X36.242 Y89.866 E13.84076
G1 X48.937 Y77.171 E15.04519
G1 X49.010 Y77.859 E15.09162
G1 X35.203 Y91.666 E16.40149
G1 X34.164 Y93.465 E16.54091
G1 X49.082 Y78.547 E17.95623
G1 X49.154 Y79.236 E18.00266
G1 X33.125 Y95.265 E19.52342
G1 X32.086 Y97.065 E19.66283
G1 X49.245 Y79.906 E21.29077
G1 X49.431 Y80.480 E21.33126
G1 X31.047 Y98.865 E23.07547
G1 X30.008 Y100.664 E23.21489
G1 X49.618 Y81.054 E25.07538
G1 X49.804 Y81.628 E25.11588
G1 X41.180 Y90.252 E25.93408
G1 X41.662 Y90.531 E25.97143
G1 X49.991 Y82.202 E26.76158
G1 X50.177 Y82.776 E26.80208
G1 X42.145 Y90.809 E27.56417
G1 X42.627 Y91.088 E27.60153
G1 X50.364 Y83.350 E28.33557
G1 X50.551 Y83.925 E28.37606
G1 X43.109 Y91.366 E29.08205
G1 X43.591 Y91.644 E29.11941
G1 X50.741 Y84.495 E29.79774
G1 X51.020 Y84.977 E29.83509
G1 X44.074 Y91.923 E30.49408
G1 X44.556 Y92.201 E30.53144
G1 X51.298 Y85.459 E31.17109
G1 X51.577 Y85.941 E31.20845
G1 X45.038 Y92.480 E31.82877
G1 X45.520 Y92.758 E31.86612
G1 X51.855 Y86.423 E32.46711
G1 X52.133 Y86.906 E32.50446
G1 X46.003 Y93.036 E33.08611
G1 X46.485 Y93.315 E33.12346
G1 X52.412 Y87.388 E33.68577
G1 X52.690 Y87.870 E33.72312
G1 X46.967 Y93.593 E34.26610
G1 X47.449 Y93.872 E34.30345
G1 X52.969 Y88.352 E34.82709
G1 X53.178 Y88.714 E34.85513
G1 X53.267 Y88.814 E34.86414
G1 X47.932 Y94.150 E35.37037
G1 X48.414 Y94.429 E35.40773
G1 X53.628 Y89.214 E35.90240
G1 X53.988 Y89.615 E35.93854
G1 X48.896 Y94.707 E36.42165
G1 X49.378 Y94.985 E36.45901
G1 X54.349 Y90.015 E36.93057
G1 X54.709 Y90.415 E36.96670
G1 X49.861 Y95.264 E37.42670
G1 X50.343 Y95.542 E37.46405
G1 X55.069 Y90.816 E37.91249
G1 X55.430 Y91.216 E37.94863
G1 X50.825 Y95.821 E38.38551
G1 X51.307 Y96.099 E38.42286
G1 X55.790 Y91.616 E38.84818
G1 X56.151 Y92.016 E38.88431
G1 X51.789 Y96.378 E39.29807
G1 X52.272 Y96.656 E39.33543
G1 X56.524 Y92.404 E39.73881
G1 X56.964 Y92.724 E39.77535
G1 X52.754 Y96.934 E40.17478
G1 X53.236 Y97.213 E40.21213
G1 X57.405 Y93.044 E40.60761
G1 X57.845 Y93.364 E40.64414
G1 X53.718 Y97.491 E41.03566
G1 X54.201 Y97.770 E41.07302
G1 X58.286 Y93.684 E41.46059
G1 X58.726 Y94.005 E41.49712
G1 X54.683 Y98.048 E41.88074
G1 X55.165 Y98.326 E41.91809
G1 X59.167 Y94.325 E42.29776
G1 X59.607 Y94.645 E42.33429
G1 X55.647 Y98.605 E42.71000
G1 X56.130 Y98.883 E42.74735
G1 X60.048 Y94.965 E43.11911
G1 X60.418 Y95.233 E43.14975
G1 X60.502 Y95.271 E43.15598
G1 X56.612 Y99.162 E43.52510
G1 X57.094 Y99.440 E43.56245
G1 X61.029 Y95.505 E43.93575
G1 X61.555 Y95.740 E43.97440
G1 X57.576 Y99.719 E44.35188
G1 X58.059 Y99.997 E44.38923
G1 X62.081 Y95.974 E44.77090
G1 X62.608 Y96.208 E44.80955
G1 X58.541 Y100.275 E45.19539
G1 X59.023 Y100.554 E45.23275
G1 X63.134 Y96.443 E45.62277
G1 X63.660 Y96.677 E45.66142
G1 X59.505 Y100.832 E46.05563
G1 X59.988 Y101.111 E46.09299
G1 X64.187 Y96.911 E46.49138
G1 X64.713 Y97.146 E46.53003
G1 X60.470 Y101.389 E46.93260
G1 X60.952 Y101.667 E46.96996
G1 X65.306 Y97.313 E47.38304
G1 X65.933 Y97.447 E47.42606
G1 X61.434 Y101.946 E47.85290
G1 X61.916 Y102.224 E47.89026
G1 X66.561 Y97.580 E48.33087
G1 X67.188 Y97.714 E48.37389
G1 X62.399 Y102.503 E48.82826
G1 X62.881 Y102.781 E48.86562
G1 X67.815 Y97.847 E49.33375
G1 X68.443 Y97.980 E49.37677
G1 X63.363 Y103.060 E49.85867
G1 X63.845 Y103.338 E49.89603
G1 X69.070 Y98.114 E50.39169
G1 X69.700 Y98.244 E50.43487
G1 X64.328 Y103.616 E50.94458
G1 X64.810 Y103.895 E50.98194
G1 X70.461 Y98.244 E51.51806
G1 X71.222 Y98.244 E51.56909
G1 X65.292 Y104.173 E52.13163
G1 X65.774 Y104.452 E52.16899
G1 X71.982 Y98.244 E52.75794
G1 X72.743 Y98.244 E52.80897
G1 X66.257 Y104.730 E53.42434
G1 X66.739 Y105.009 E53.46169
G1 X73.503 Y98.244 E54.10348
G1 X74.264 Y98.244 E54.15451
G1 X67.221 Y105.287 E54.82270
G1 X67.703 Y105.565 E54.86006
G1 X75.145 Y98.124 E55.56604
G1 X76.111 Y97.919 E55.63229
G1 X68.186 Y105.844 E56.38416
G1 X68.668 Y106.122 E56.42151
G1 X77.077 Y97.713 E57.21928
G1 X78.043 Y97.508 E57.28553
G1 X69.150 Y106.401 E58.12919
G1 X69.632 Y106.679 E58.16654
G1 X79.008 Y97.303 E59.05610
G1 X79.372 Y97.226 E59.08103
G1 X80.227 Y96.845 E59.14382
G1 X70.115 Y106.957 E60.10324
G1 X70.597 Y107.236 E60.14060
G1 X81.598 Y96.234 E61.18434
G1 X82.969 Y95.624 E61.28503
G1 X71.079 Y107.514 E62.41311
G1 X71.561 Y107.793 E62.45047
G1 X84.848 Y94.505 E63.71107
G1 X87.630 Y92.484 E63.94173
G1 X72.043 Y108.071 E65.42049
G1 X72.526 Y108.350 E65.45785
G1 X100.711 Y80.164 E68.13188
G1 X100.711 Y80.925 E68.18290
G1 X73.008 Y108.628 E70.81118
G1 X73.490 Y108.906 E70.84854
G1 X100.711 Y81.686 E73.43106
G1 X100.711 Y82.446 E73.48209
G1 X73.972 Y109.185 E76.01886
G1 X74.418 Y109.442 E76.05341
G1 X74.341 Y109.577 E76.06387
G1 X100.711 Y83.207 E78.56571
G1 X100.711 Y83.968 E78.61674
G1 X86.043 Y98.636 E80.00834
G1 X86.804 Y98.636 E80.05937
G1 X100.711 Y84.728 E81.37880
G1 X100.711 Y85.489 E81.42983
G1 X87.564 Y98.636 E82.67710
G1 X88.325 Y98.636 E82.72813
G1 X100.711 Y86.250 E83.90323
G1 X100.711 Y87.010 E83.95425
G1 X89.086 Y98.636 E85.05719
G1 X89.846 Y98.636 E85.10822
G1 X100.711 Y87.771 E86.13898
G1 X100.711 Y88.532 E86.19001
G1 X90.607 Y98.636 E87.14861
G1 X91.368 Y98.636 E87.19964
G1 X100.711 Y89.292 E88.08608
G1 X100.711 Y90.053 E88.13711
G1 X92.128 Y98.636 E88.95138
G1 X92.889 Y98.636 E89.00241
G1 X100.711 Y90.814 E89.74451
G1 X100.711 Y91.574 E89.79554
G1 X93.650 Y98.636 E90.46547
G1 X94.410 Y98.636 E90.51650
G1 X100.711 Y92.335 E91.11427
G1 X100.711 Y93.096 E91.16530
G1 X95.171 Y98.636 E91.69091
G1 X95.932 Y98.636 E91.74194
G1 X100.711 Y93.856 E92.19538
G1 X100.711 Y94.214 E92.21941
G1 X101.113 Y94.214 E92.24640
G1 X96.692 Y98.636 E92.66586
G1 X97.453 Y98.636 E92.71689
G1 X101.874 Y94.214 E93.13634
G1 X102.635 Y94.214 E93.18737
G1 X98.213 Y98.636 E93.60682
G1 X98.974 Y98.636 E93.65785
G1 X103.395 Y94.214 E94.07730
G1 X104.156 Y94.214 E94.12833
G1 X99.735 Y98.636 E94.54778
G1 X100.495 Y98.636 E94.59881
G1 X104.917 Y94.214 E95.01826
G1 X105.677 Y94.214 E95.06929
G1 X101.256 Y98.636 E95.48874
G1 X102.017 Y98.636 E95.53977
G1 X106.438 Y94.214 E95.95923
G1 X107.199 Y94.214 E96.01025
G1 X102.777 Y98.636 E96.42971
G1 X103.538 Y98.636 E96.48074
G1 X107.959 Y94.214 E96.90019
G1 X108.720 Y94.214 E96.95122
G1 X104.299 Y98.636 E97.37067
G1 X105.059 Y98.636 E97.42170
G1 X109.481 Y94.214 E97.84115
G1 X110.241 Y94.214 E97.89218
G1 X105.820 Y98.636 E98.31163
G1 X106.581 Y98.636 E98.36266
G1 X111.002 Y94.214 E98.78211
G1 X111.763 Y94.214 E98.83314
G1 X107.341 Y98.636 E99.25260
G1 X108.102 Y98.636 E99.30362
G1 X112.523 Y94.214 E99.72308
G1 X113.284 Y94.214 E99.77411
G1 X108.863 Y98.636 E100.19356
G1 X109.623 Y98.636 E100.24459
G1 X114.045 Y94.214 E100.66404
G1 X114.805 Y94.214 E100.71507
G1 X110.384 Y98.636 E101.13452
G1 X111.145 Y98.636 E101.18555
G1 X115.566 Y94.214 E101.60500
G1 X116.326 Y94.214 E101.65603
G1 X111.905 Y98.636 E102.07548
G1 X112.666 Y98.636 E102.12651
G1 X117.087 Y94.214 E102.54597
G1 X117.848 Y94.214 E102.59699
G1 X113.427 Y98.636 E103.01645
G1 X114.187 Y98.636 E103.06748
G1 X118.608 Y94.214 E103.48693
G1 X119.369 Y94.214 E103.53796
G1 X114.948 Y98.636 E103.95741
G1 X115.709 Y98.636 E104.00844
G1 X120.130 Y94.214 E104.42789
G1 X120.890 Y94.214 E104.47892
G1 X116.469 Y98.636 E104.89837
G1 X117.230 Y98.636 E104.94940
G1 X121.651 Y94.214 E105.36885
G1 X122.412 Y94.214 E105.41988
G1 X117.991 Y98.636 E105.83934
G1 X118.751 Y98.636 E105.89036
G1 X123.172 Y94.214 E106.30982
G1 X123.933 Y94.214 E106.36085
G1 X119.512 Y98.636 E106.78030
G1 X120.273 Y98.636 E106.83133
G1 X124.694 Y94.214 E107.25078
G1 X125.454 Y94.214 E107.30181
G1 X121.033 Y98.636 E107.72126
G1 X121.794 Y98.636 E107.77229
G1 X125.711 Y94.719 E108.14391
G1 X125.711 Y95.479 E108.19494
G1 X122.555 Y98.636 E108.49440
G1 X123.315 Y98.636 E108.54543
G1 X125.711 Y96.240 E108.77272
G1 X125.711 Y97.001 E108.82375
G1 X124.076 Y98.636 E108.97888
G1 X124.836 Y98.636 E109.02991
G1 X125.711 Y97.761 E109.11287
G1 X125.711 Y98.522 E109.16389
G1 X125.597 Y98.636 E109.17469
G1 E107.17469 F2400.00000
G92 E0
G1 X88.138 Y91.976 F30000.000
G1 E2.00000 F2400.00000
G1 F2100
G1 X100.711 Y79.404 E3.19280
G1 X100.711 Y78.643 E3.24383
G1 X91.584 Y87.770 E4.10976
G1 X92.623 Y85.970 E4.24917
G1 X100.711 Y77.882 E5.01652
G1 X100.711 Y77.122 E5.06754
G1 X93.507 Y84.326 E5.75105
G1 X93.873 Y83.199 E5.83053
G1 X100.711 Y76.361 E6.47930
G1 X100.711 Y75.600 E6.53033
G1 X94.239 Y82.073 E7.14436
G1 X94.605 Y80.946 E7.22384
G1 X100.711 Y74.840 E7.80314
G1 X100.711 Y74.079 E7.85417
G1 X94.944 Y79.846 E8.40128
G1 X95.034 Y78.996 E8.45862
G1 X100.711 Y73.318 E8.99725
G1 X100.711 Y72.558 E9.04828
G1 X95.123 Y78.146 E9.57843
G1 X95.212 Y77.296 E9.63577
G1 X100.711 Y71.797 E10.15745
G1 X100.711 Y71.036 E10.20848
G1 X95.302 Y76.446 E10.72168
G1 X95.391 Y75.596 E10.77902
G1 X100.711 Y70.276 E11.28374
G1 X100.711 Y69.515 E11.33477
G1 X95.421 Y74.805 E11.83664
G1 X95.349 Y74.117 E11.88307
G1 X100.711 Y68.754 E12.39180
G1 X100.711 Y67.994 E12.44283
G1 X95.276 Y73.428 E12.95842
G1 X95.204 Y72.740 E13.00485
G1 X100.711 Y67.233 E13.52730
G1 X100.711 Y66.473 E13.57833
G1 X95.132 Y72.052 E14.10765
G1 X95.059 Y71.363 E14.15408
G1 X100.711 Y65.712 E14.69026
G1 X100.711 Y64.951 E14.74129
G1 X94.987 Y70.675 E15.28434
G1 X94.936 Y70.186 E15.31735
G1 X94.882 Y70.020 E15.32905
G1 X100.711 Y64.191 E15.88209
G1 X100.711 Y63.430 E15.93312
G1 X94.695 Y69.446 E16.50386
G1 X94.509 Y68.872 E16.54435
G1 X100.711 Y62.669 E17.13279
G1 X100.711 Y61.909 E17.18382
G1 X94.322 Y68.297 E17.78995
G1 X94.136 Y67.723 E17.83045
G1 X100.711 Y61.148 E18.45428
G1 X100.711 Y60.387 E18.50531
G1 X93.949 Y67.149 E19.14683
G1 X93.762 Y66.575 E19.18733
G1 X100.711 Y59.627 E19.84656
G1 X100.711 Y58.866 E19.89759
G1 X93.576 Y66.001 E20.57451
G1 X93.422 Y65.527 E20.60792
G1 X93.373 Y65.443 E20.61446
G1 X100.711 Y58.105 E21.31060
G1 X100.711 Y57.345 E21.36163
