; generated by Slic3r 1.3.0 on 2023-08-07 at 19:47:47

; external perimeters extrusion width = 0.44mm (2.78mm^3/s)
; perimeters extrusion width = 0.40mm (7.14mm^3/s)
; infill extrusion width = 0.50mm (10.97mm^3/s)
; solid infill extrusion width = 0.60mm (6.68mm^3/s)
; top infill extrusion width = 0.40mm (2.14mm^3/s)

M107
M190 S80 ; set bed temperature and wait for it to be reached
M104 S250 ; set temperature
G28 ; home all axes
G1 Z5 F5000 ; lift nozzle

; Filament gcode

M109 S250 ; set temperature and wait for it to be reached
G21 ; set units to millimeters
G90 ; use absolute coordinates
M82 ; use absolute distances for extrusion
G92 E0
G1 Z0.300 F30000.000
G1 E-2.00000 F2400.00000
G92 E0
G1 X59.958 Y60.631 F30000.000
G1 E2.00000 F2400.00000
G1 F2100
G1 X61.608 Y59.670 E2.12755
G1 X63.050 Y59.439 E2.22512
G1 X96.950 Y59.439 E4.48982
G1 X98.818 Y59.835 E4.61738
G1 X100.365 Y60.954 E4.74493
G1 X101.325 Y62.604 E4.87248
G1 X101.557 Y64.046 E4.97005
G1 X101.557 Y93.946 E6.96753
G1 X101.161 Y95.814 E7.09509
G1 X100.042 Y97.361 E7.22264
G1 X98.392 Y98.321 E7.35019
G1 X96.950 Y98.553 E7.44776
G1 X63.050 Y98.553 E9.71246
G1 X61.182 Y98.157 E9.84002
G1 X59.635 Y97.038 E9.96757
G1 X58.675 Y95.388 E10.09512
G1 X58.443 Y93.946 E10.19269
G1 X58.443 Y64.046 E12.19017
G1 X58.839 Y62.178 E12.31772
G1 X59.923 Y60.680 E12.44127
G1 X60.482 Y60.886 F30000.000
G1 F2100
G1 X62.089 Y60.090 E12.56109
G1 X63.050 Y59.975 E12.62573
G1 X96.950 Y59.975 E14.89043
G1 X98.700 Y60.370 E15.01025
G1 X100.110 Y61.478 E15.13007
G1 X100.906 Y63.085 E15.24990
G1 X101.021 Y64.046 E15.31453
G1 X101.021 Y93.946 E17.31201
G1 X100.626 Y95.695 E17.43183
G1 X99.518 Y97.105 E17.55166
G1 X97.911 Y97.902 E17.67148
G1 X96.950 Y98.017 E17.73611
G1 X63.050 Y98.017 E20.00082
G1 X61.300 Y97.622 E20.12064
G1 X59.890 Y96.513 E20.24046
G1 X59.094 Y94.906 E20.36028
G1 X58.979 Y93.946 E20.42492
G1 X58.979 Y64.046 E22.42240
G1 X59.374 Y62.296 E22.54222
G1 X60.445 Y60.933 E22.65803
G1 X61.004 Y61.162 F30000.000
G1 F2100
G1 X63.050 Y60.510 E22.80151
G1 X96.950 Y60.510 E25.06621
G1 X98.573 Y60.905 E25.17777
G1 X99.833 Y62.000 E25.28933
G1 X100.486 Y64.046 E25.43280
G1 X100.486 Y93.946 E27.43028
G1 X100.091 Y95.568 E27.54184
G1 X98.996 Y96.829 E27.65340
G1 X96.950 Y97.481 E27.79687
G1 X63.050 Y97.481 E30.06158
G1 X61.427 Y97.087 E30.17313
G1 X60.167 Y95.992 E30.28469
G1 X59.514 Y93.946 E30.42817
G1 X59.514 Y64.046 E32.42565
G1 X59.909 Y62.423 E32.53721
G1 X60.964 Y61.208 E32.64475
G1 E30.64475 F2400.00000
G92 E0
G1 X96.114 Y93.110 F30000.000
G1 E2.00000 F2400.00000
G1 F2100
G1 X63.886 Y93.110 E4.15306
G1 X63.886 Y64.881 E6.03889
G1 X96.114 Y64.881 E8.19195
G1 X96.114 Y93.050 E10.07377
G1 X96.650 Y93.646 F30000.000
G1 F2100
G1 X63.350 Y93.646 E12.29839
G1 X63.350 Y64.346 E14.25579
G1 X96.650 Y64.346 E16.48041
G1 X96.650 Y93.586 E18.43380
G1 X96.262 Y93.551 F30000.000
G1 X95.522 Y92.631 F30000.000
G1 F2100
G1 X95.636 Y92.518 E18.44469
G1 X95.636 Y91.750 E18.49661
G1 X94.755 Y92.631 E18.58093
G1 X93.987 Y92.631 E18.63285
G1 X95.636 Y90.983 E18.79061
G1 X95.636 Y90.216 E18.84253
G1 X93.220 Y92.631 E19.07371
G1 X92.453 Y92.631 E19.12564
G1 X95.636 Y89.448 E19.43025
G1 X95.636 Y88.681 E19.48218
G1 X91.685 Y92.631 E19.86023
G1 X90.918 Y92.631 E19.91215
G1 X95.636 Y87.914 E20.36363
G1 X95.636 Y87.147 E20.41555
G1 X90.151 Y92.631 E20.94047
G1 X89.383 Y92.631 E20.99239
G1 X95.636 Y86.379 E21.59073
G1 X95.636 Y85.612 E21.64266
G1 X88.616 Y92.631 E22.31443
G1 X87.849 Y92.631 E22.36636
G1 X95.636 Y84.845 E23.11157
G1 X95.636 Y84.077 E23.16349
G1 X87.082 Y92.631 E23.98213
G1 X86.314 Y92.631 E24.03405
G1 X95.636 Y83.310 E24.92613
G1 X95.636 Y82.543 E24.97805
G1 X85.547 Y92.631 E25.94355
G1 X84.780 Y92.631 E25.99548
G1 X95.636 Y81.775 E27.03441
G1 X95.636 Y81.008 E27.08634
G1 X84.012 Y92.631 E28.19871
G1 X83.245 Y92.631 E28.25063
G1 X95.636 Y80.241 E29.43643
G1 X95.636 Y79.474 E29.48836
G1 X82.478 Y92.631 E30.74759
G1 X81.710 Y92.631 E30.79951
G1 X95.636 Y78.706 E32.13218
G1 X95.636 Y77.939 E32.18410
G1 X80.943 Y92.631 E33.59020
G1 X80.176 Y92.631 E33.64212
G1 X95.636 Y77.172 E35.12165
G1 X95.636 Y76.404 E35.17357
G1 X79.409 Y92.631 E36.72653
G1 X78.641 Y92.631 E36.77846
G1 X95.636 Y75.637 E38.40485
G1 X95.636 Y74.870 E38.45677
G1 X77.874 Y92.631 E40.15660
G1 X77.107 Y92.631 E40.20852
G1 X95.636 Y74.102 E41.98178
G1 X95.636 Y73.335 E42.03370
G1 X76.339 Y92.631 E43.88039
G1 X75.572 Y92.631 E43.93232
G1 X95.636 Y72.568 E45.85244
G1 X95.636 Y71.801 E45.90436
G1 X74.805 Y92.631 E47.89791
G1 X74.037 Y92.631 E47.94984
G1 X95.636 Y71.033 E50.01682
G1 X95.636 Y70.266 E50.06875
G1 X73.270 Y92.631 E52.20916
G1 X72.503 Y92.631 E52.26109
G1 X95.636 Y69.499 E54.47494
G1 X95.636 Y68.731 E54.52686
G1 X71.736 Y92.631 E56.81414
G1 X70.968 Y92.631 E56.86606
G1 X95.636 Y67.964 E59.22678
G1 X95.636 Y67.197 E59.27870
G1 X70.201 Y92.631 E61.71285
G1 X69.434 Y92.631 E61.76477
G1 X95.636 Y66.429 E64.27235
G1 X95.636 Y65.662 E64.32427
G1 X68.666 Y92.631 E66.90528
G1 X67.899 Y92.631 E66.95721
G1 X95.170 Y65.360 E69.56711
G1 X94.403 Y65.360 E69.61903
G1 X67.132 Y92.631 E72.22894
G1 X66.364 Y92.631 E72.28086
G1 X93.636 Y65.360 E74.89077
G1 X92.868 Y65.360 E74.94269
G1 X65.597 Y92.631 E77.55259
G1 X64.830 Y92.631 E77.60452
G1 X92.101 Y65.360 E80.21442
G1 X91.334 Y65.360 E80.26635
G1 X64.364 Y92.330 E82.84736
G1 X64.364 Y91.562 E82.89928
G1 X90.566 Y65.360 E85.40687
G1 X89.799 Y65.360 E85.45879
G1 X64.364 Y90.795 E87.89294
G1 X64.364 Y90.028 E87.94486
G1 X89.032 Y65.360 E90.30558
G1 X88.265 Y65.360 E90.35751
G1 X64.364 Y89.260 E92.64479
G1 X64.364 Y88.493 E92.69672
G1 X87.497 Y65.360 E94.91057
G1 X86.730 Y65.360 E94.96249
G1 X64.364 Y87.726 E97.10291
G1 X64.364 Y86.958 E97.15484
G1 X85.963 Y65.360 E99.22183
G1 X85.195 Y65.360 E99.27375
G1 X64.364 Y86.191 E101.26731
G1 X64.364 Y85.424 E101.31923
G1 X84.428 Y65.360 E103.23936
G1 X83.661 Y65.360 E103.29128
G1 X64.364 Y84.657 E105.13798
G1 X64.364 Y83.889 E105.18990
G1 X82.893 Y65.360 E106.96316
G1 X82.126 Y65.360 E107.01509
G1 X64.364 Y83.122 E108.71492
G1 X64.364 Y82.355 E108.76684
G1 X81.359 Y65.360 E110.39324
G1 X80.592 Y65.360 E110.44516
G1 X64.364 Y81.587 E111.99813
G1 X64.364 Y80.820 E112.05005
G1 X79.824 Y65.360 E113.52958
G1 X79.057 Y65.360 E113.58151
G1 X64.364 Y80.053 E114.98761
G1 X64.364 Y79.285 E115.03953
G1 X78.290 Y65.360 E116.37220
G1 X77.522 Y65.360 E116.42413
G1 X64.364 Y78.518 E117.68336
G1 X64.364 Y77.751 E117.73529
G1 X76.755 Y65.360 E118.92109
G1 X75.988 Y65.360 E118.97302
G1 X64.364 Y76.984 E120.08539
G1 X64.364 Y76.216 E120.13732
G1 X75.220 Y65.360 E121.17626
G1 X74.453 Y65.360 E121.22818
G1 X64.364 Y75.449 E122.19369
G1 X64.364 Y74.682 E122.24561
G1 X73.686 Y65.360 E123.13769
G1 X72.919 Y65.360 E123.18961
G1 X64.364 Y73.914 E124.00826
G1 X64.364 Y73.147 E124.06018
G1 X72.151 Y65.360 E124.80540
G1 X71.384 Y65.360 E124.85732
G1 X64.364 Y72.380 E125.52910
G1 X64.364 Y71.612 E125.58103
G1 X70.617 Y65.360 E126.17937
G1 X69.849 Y65.360 E126.23130
G1 X64.364 Y70.845 E126.75621
G1 X64.364 Y70.078 E126.80814
G1 X69.082 Y65.360 E127.25962
G1 X68.315 Y65.360 E127.31155
G1 X64.364 Y69.311 E127.68960
G1 X64.364 Y68.543 E127.74152
G1 X67.547 Y65.360 E128.04614
G1 X66.780 Y65.360 E128.09807
G1 X64.364 Y67.776 E128.32926
G1 X64.364 Y67.009 E128.38118
G1 X66.013 Y65.360 E128.53894
G1 X65.246 Y65.360 E128.59086
G1 X64.364 Y66.241 E128.67519
G1 X64.364 Y65.474 E128.72711
G1 X64.478 Y65.360 E128.73800
G1 Z0.500 F30000.000
G1 X96.353 Y93.349 F30000.000
G1 F6000
G1 X63.647 Y93.349 E129.70908
G1 X63.647 Y64.643 E130.56139
G1 X96.353 Y64.643 E131.53247
G1 X96.353 Y93.289 E132.38301
G1 X96.730 Y93.726 F30000.000
G1 F2100
G1 X63.270 Y93.726 E133.48776
G1 X63.270 Y64.266 E134.46045
G1 X96.730 Y64.266 E135.56521
G1 X96.730 Y93.666 E136.53592
G1 X96.342 Y93.630 F30000.000
G1 X95.944 Y65.149 F30000.000
G1 F3600
G1 X95.847 Y65.051 E136.54234
G1 X95.053 Y65.051 E136.57945
G1 X95.944 Y65.943 E136.63834
G1 X95.944 Y66.737 E136.67545
G1 X94.258 Y65.051 E136.78682
G1 X93.464 Y65.051 E136.82393
G1 X95.944 Y67.532 E136.98778
G1 X95.944 Y68.326 E137.02489
G1 X92.669 Y65.051 E137.24122
G1 X91.875 Y65.051 E137.27833
G1 X95.944 Y69.121 E137.54714
G1 X95.944 Y69.915 E137.58425
G1 X91.081 Y65.051 E137.90554
G1 X90.286 Y65.051 E137.94265
G1 X95.944 Y70.710 E138.31642
G1 X95.944 Y71.504 E138.35353
G1 X89.492 Y65.051 E138.77977
G1 X88.697 Y65.051 E138.81688
G1 X95.944 Y72.299 E139.29561
G1 X95.944 Y73.093 E139.33272
G1 X87.903 Y65.051 E139.86393
G1 X87.108 Y65.051 E139.90103
G1 X95.944 Y73.887 E140.48472
G1 X95.944 Y74.682 E140.52183
G1 X86.314 Y65.051 E141.15800
G1 X85.520 Y65.051 E141.19510
G1 X95.944 Y75.476 E141.88375
G1 X95.944 Y76.271 E141.92086
G1 X84.725 Y65.051 E142.66198
G1 X83.931 Y65.051 E142.69909
G1 X95.944 Y77.065 E143.49269
G1 X95.944 Y77.860 E143.52980
G1 X83.136 Y65.051 E144.37589
G1 X82.342 Y65.051 E144.41299
G1 X95.944 Y78.654 E145.31156
G1 X95.944 Y79.449 E145.34866
G1 X81.547 Y65.051 E146.29971
G1 X80.753 Y65.051 E146.33681
G1 X95.944 Y80.243 E147.34034
G1 X95.944 Y81.037 E147.37744
G1 X79.958 Y65.051 E148.43344
G1 X79.164 Y65.051 E148.47055
G1 X95.944 Y81.832 E149.57903
G1 X95.944 Y82.626 E149.61614
G1 X78.370 Y65.051 E150.77710
G1 X77.575 Y65.051 E150.81421
G1 X95.944 Y83.421 E152.02765
G1 X95.944 Y84.215 E152.06475
G1 X76.781 Y65.051 E153.33067
G1 X75.986 Y65.051 E153.36778
G1 X95.944 Y85.010 E154.68618
G1 X95.944 Y85.804 E154.72328
G1 X75.192 Y65.051 E156.09416
G1 X74.397 Y65.051 E156.13127
G1 X95.944 Y86.598 E157.55462
G1 X95.944 Y87.393 E157.59173
G1 X73.603 Y65.051 E159.06757
G1 X72.808 Y65.051 E159.10467
G1 X95.944 Y88.187 E160.63299
G1 X95.944 Y88.982 E160.67010
G1 X72.014 Y65.051 E162.25089
G1 X71.220 Y65.051 E162.28800
G1 X95.944 Y89.776 E163.92127
G1 X95.944 Y90.571 E163.95838
G1 X70.425 Y65.051 E165.64413
G1 X69.631 Y65.051 E165.68124
G1 X95.944 Y91.365 E167.41947
G1 X95.944 Y92.160 E167.45658
G1 X68.836 Y65.051 E169.24729
G1 X68.042 Y65.051 E169.28440
G1 X95.930 Y92.940 E171.12667
G1 X95.136 Y92.940 E171.16378
G1 X67.247 Y65.051 E173.00605
G1 X66.453 Y65.051 E173.04316
G1 X94.342 Y92.940 E174.88543
G1 X93.547 Y92.940 E174.92254
G1 X65.658 Y65.051 E176.76481
G1 X64.864 Y65.051 E176.80192
G1 X92.753 Y92.940 E178.64420
G1 X91.958 Y92.940 E178.68130
G1 X64.056 Y65.051 E180.52404
G1 X64.056 Y65.832 E180.56049
G1 X91.164 Y92.940 E182.35121
G1 X90.369 Y92.940 E182.38832
G1 X64.056 Y66.626 E184.12655
G1 X64.056 Y67.421 E184.16366
G1 X89.575 Y92.940 E185.84941
G1 X88.780 Y92.940 E185.88652
G1 X64.056 Y68.215 E187.51980
G1 X64.056 Y69.010 E187.55691
G1 X87.986 Y92.940 E189.13770
G1 X87.192 Y92.940 E189.17481
G1 X64.056 Y69.804 E190.70313
G1 X64.056 Y70.599 E190.74024
G1 X86.397 Y92.940 E192.21608
G1 X85.603 Y92.940 E192.25318
G1 X64.056 Y71.393 E193.67654
G1 X64.056 Y72.188 E193.71365
G1 X84.808 Y92.940 E195.08453
G1 X84.014 Y92.940 E195.12164
G1 X64.056 Y72.982 E196.44004
G1 X64.056 Y73.776 E196.47715
G1 X83.219 Y92.940 E197.74307
G1 X82.425 Y92.940 E197.78018
G1 X64.056 Y74.571 E198.99362
G1 X64.056 Y75.365 E199.03073
G1 X81.631 Y92.940 E200.19169
G1 X80.836 Y92.940 E200.22880
G1 X64.056 Y76.160 E201.33728
G1 X64.056 Y76.954 E201.37439
G1 X80.042 Y92.940 E202.43039
G1 X79.247 Y92.940 E202.46750
G1 X64.056 Y77.749 E203.47103
G1 X64.056 Y78.543 E203.50814
G1 X78.453 Y92.940 E204.45918
G1 X77.658 Y92.940 E204.49629
G1 X64.056 Y79.337 E205.39486
G1 X64.056 Y80.132 E205.43196
G1 X76.864 Y92.940 E206.27805
G1 X76.069 Y92.940 E206.31516
G1 X64.056 Y80.926 E207.10877
G1 X64.056 Y81.721 E207.14587
G1 X75.275 Y92.940 E207.88700
G1 X74.481 Y92.940 E207.92411
G1 X64.056 Y82.515 E208.61276
G1 X64.056 Y83.310 E208.64987
G1 X73.686 Y92.940 E209.28604
G1 X72.892 Y92.940 E209.32315
G1 X64.056 Y84.104 E209.90684
G1 X64.056 Y84.899 E209.94395
G1 X72.097 Y92.940 E210.47516
G1 X71.303 Y92.940 E210.51226
G1 X64.056 Y85.693 E210.99100
G1 X64.056 Y86.487 E211.02810
G1 X70.508 Y92.940 E211.45436
G1 X69.714 Y92.940 E211.49147
G1 X64.056 Y87.282 E211.86524
G1 X64.056 Y88.076 E211.90235
G1 X68.919 Y92.940 E212.22364
G1 X68.125 Y92.940 E212.26075
G1 X64.056 Y88.871 E212.52956
G1 X64.056 Y89.665 E212.56667
G1 X67.331 Y92.940 E212.78301
G1 X66.536 Y92.940 E212.82012
G1 X64.056 Y90.460 E212.98397
G1 X64.056 Y91.254 E213.02108
G1 X65.742 Y92.940 E213.13246
G1 X64.947 Y92.940 E213.16957
G1 X64.056 Y92.049 E213.22846
G1 X64.056 Y92.843 E213.26557
G1 X64.153 Y92.940 E213.27198
G1 Z0.700 F30000.000
G1 X96.353 Y93.349 F30000.000
G1 F6000
G1 X63.647 Y93.349 E214.24306
G1 X63.647 Y64.643 E215.09537
G1 X96.353 Y64.643 E216.06645
G1 X96.353 Y93.289 E216.91698
G1 X96.730 Y93.726 F30000.000
G1 F2100
G1 X63.270 Y93.726 E218.02174
G1 X63.270 Y64.266 E218.99443
G1 X96.730 Y64.266 E220.09919
G1 X96.730 Y93.666 E221.06990
G1 X96.342 Y93.630 F30000.000
G1 X95.958 Y93.030 F30000.000
G1 F1800
G1 X96.034 Y92.954 E221.07309
G1 X96.034 Y92.448 E221.08814
G1 X95.452 Y93.030 E221.11262
G1 X94.946 Y93.030 E221.12767
G1 X96.034 Y91.942 E221.17344
G1 X96.034 Y91.436 E221.18849
G1 X94.440 Y93.030 E221.25554
G1 X93.934 Y93.030 E221.27059
G1 X96.034 Y90.930 E221.35893
G1 X96.034 Y90.424 E221.37398
G1 X93.428 Y93.030 E221.48361
G1 X92.922 Y93.030 E221.49866
G1 X96.034 Y89.918 E221.62957
G1 X96.034 Y89.412 E221.64463
G1 X92.416 Y93.030 E221.79682
G1 X91.910 Y93.030 E221.81188
G1 X96.034 Y88.906 E221.98536
G1 X96.034 Y88.400 E222.00041
G1 X91.404 Y93.030 E222.19518
G1 X90.898 Y93.030 E222.21024
G1 X96.034 Y87.894 E222.42629
G1 X96.034 Y87.504 E222.43790
G1 X95.918 Y87.504 E222.44134
G1 X90.392 Y93.030 E222.67382
G1 X89.886 Y93.030 E222.68887
G1 X95.412 Y87.504 E222.92135
G1 X94.906 Y87.504 E222.93640
G1 X89.380 Y93.030 E223.16888
G1 X88.874 Y93.030 E223.18393
G1 X94.400 Y87.504 E223.41640
G1 X93.894 Y87.504 E223.43146
G1 X88.368 Y93.030 E223.66393
G1 X87.862 Y93.030 E223.67898
G1 X93.388 Y87.504 E223.91146
G1 X92.882 Y87.504 E223.92651
G1 X87.356 Y93.030 E224.15899
G1 X86.850 Y93.030 E224.17404
G1 X92.376 Y87.504 E224.40651
G1 X91.870 Y87.504 E224.42157
G1 X86.345 Y93.030 E224.65404
G1 X85.839 Y93.030 E224.66909
G1 X91.364 Y87.504 E224.90157
G1 X90.858 Y87.504 E224.91662
G1 X85.333 Y93.030 E225.14910
G1 X84.827 Y93.030 E225.16415
G1 X90.352 Y87.504 E225.39663
G1 X89.846 Y87.504 E225.41168
G1 X84.321 Y93.030 E225.64415
G1 X83.815 Y93.030 E225.65921
G1 X89.340 Y87.504 E225.89168
G1 X88.835 Y87.504 E225.90673
G1 X83.309 Y93.030 E226.13921
G1 X82.803 Y93.030 E226.15426
G1 X88.329 Y87.504 E226.38674
G1 X87.823 Y87.504 E226.40179
G1 X82.297 Y93.030 E226.63426
G1 X81.791 Y93.030 E226.64932
G1 X87.317 Y87.504 E226.88179
G1 X86.811 Y87.504 E226.89684
G1 X81.285 Y93.030 E227.12932
G1 X80.779 Y93.030 E227.14437
G1 X86.305 Y87.504 E227.37685
G1 X85.799 Y87.504 E227.39190
G1 X80.273 Y93.030 E227.62438
G1 X79.767 Y93.030 E227.63943
G1 X85.293 Y87.504 E227.87190
G1 X84.787 Y87.504 E227.88696
G1 X79.261 Y93.030 E228.11943
G1 X78.755 Y93.030 E228.13448
G1 X84.281 Y87.504 E228.36696
G1 X83.775 Y87.504 E228.38201
G1 X78.249 Y93.030 E228.61449
G1 X77.743 Y93.030 E228.62954
G1 X83.269 Y87.504 E228.86201
G1 X82.763 Y87.504 E228.87707
G1 X77.237 Y93.030 E229.10954
G1 X76.731 Y93.030 E229.12459
G1 X82.257 Y87.504 E229.35707
G1 X81.751 Y87.504 E229.37212
G1 X76.225 Y93.030 E229.60460
G1 X75.719 Y93.030 E229.61965
G1 X81.245 Y87.504 E229.85213
G1 X80.739 Y87.504 E229.86718
G1 X75.213 Y93.030 E230.09965
G1 X74.707 Y93.030 E230.11471
G1 X80.233 Y87.504 E230.34718
G1 X79.727 Y87.504 E230.36223
G1 X74.201 Y93.030 E230.59471
G1 X73.695 Y93.030 E230.60976
G1 X79.221 Y87.504 E230.84224
G1 X78.715 Y87.504 E230.85729
G1 X73.189 Y93.030 E231.08977
G1 X72.683 Y93.030 E231.10482
G1 X78.209 Y87.504 E231.33729
G1 X77.703 Y87.504 E231.35234
G1 X72.178 Y93.030 E231.58482
G1 X71.672 Y93.030 E231.59987
G1 X77.197 Y87.504 E231.83235
G1 X76.691 Y87.504 E231.84740
G1 X71.166 Y93.030 E232.07988
G1 X70.660 Y93.030 E232.09493
G1 X76.185 Y87.504 E232.32740
G1 X75.679 Y87.504 E232.34246
G1 X70.154 Y93.030 E232.57493
G1 X69.648 Y93.030 E232.58998
G1 X75.173 Y87.504 E232.82246
G1 X74.668 Y87.504 E232.83751
G1 X69.142 Y93.030 E233.06999
