; generated by Slic3r 1.3.0 on 2023-08-04 at 20:25:29

; external perimeters extrusion width = 0.44mm (2.78mm^3/s)
; perimeters extrusion width = 0.40mm (7.14mm^3/s)
; infill extrusion width = 0.50mm (10.97mm^3/s)
; solid infill extrusion width = 0.60mm (6.68mm^3/s)
; top infill extrusion width = 0.40mm (2.14mm^3/s)

M107
M190 S80 ; set bed temperature and wait for it to be reached
M104 S250 ; set temperature
G28 ; home all axes
G1 Z5 F5000 ; lift nozzle

; Filament gcode

M109 S250 ; set temperature and wait for it to be reached
G21 ; set units to millimeters
G90 ; use absolute coordinates
M82 ; use absolute distances for extrusion
G92 E0
G1 Z0.300 F30000.000
G1 E-2.00000 F2400.00000
G92 E0
G1 X31.240 Y31.150 F30000.000
G1 E2.00000 F2400.00000
G1 F2100
G1 X32.799 Y29.642 E2.14485
G1 X34.308 Y28.269 E2.28116
G1 X36.054 Y26.778 E2.43455
G1 X37.646 Y25.502 E2.57086
G1 X39.379 Y24.199 E2.71572
G1 X41.257 Y22.878 E2.86911
G1 X43.071 Y21.690 E3.01396
G1 X44.921 Y20.558 E3.15881
G1 X46.693 Y19.547 E3.29512
G1 X48.608 Y18.531 E3.43997
G1 X50.670 Y17.521 E3.59337
G1 X52.530 Y16.681 E3.72968
G1 X54.532 Y15.850 E3.87453
G1 X56.680 Y15.038 E4.02792
G1 X58.611 Y14.377 E4.16423
G1 X60.682 Y13.738 E4.30908
G1 X62.897 Y13.132 E4.46248
G1 X64.881 Y12.655 E4.59879
G1 X67.004 Y12.214 E4.74364
G1 X69.266 Y11.819 E4.89703
G1 X71.286 Y11.532 E5.03334
G1 X73.441 Y11.292 E5.17819
G1 X75.602 Y11.119 E5.32304
G1 X77.768 Y11.015 E5.46790
G1 X80.064 Y10.979 E5.62129
G1 X82.104 Y11.011 E5.75760
G1 X84.270 Y11.111 E5.90245
G1 X86.559 Y11.292 E6.05584
G1 X88.587 Y11.515 E6.19215
G1 X90.734 Y11.819 E6.33701
G1 X92.996 Y12.214 E6.49040
G1 X94.994 Y12.628 E6.62671
G1 X97.103 Y13.132 E6.77156
G1 X99.318 Y13.738 E6.92495
G1 X101.389 Y14.377 E7.06981
G1 X103.440 Y15.081 E7.21466
G1 X105.349 Y15.803 E7.35097
G1 X107.353 Y16.631 E7.49582
G1 X109.445 Y17.575 E7.64921
G1 X111.392 Y18.531 E7.79406
G1 X113.195 Y19.486 E7.93037
G1 X115.189 Y20.623 E8.08377
G1 X116.929 Y21.690 E8.22008
G1 X118.743 Y22.878 E8.36493
G1 X120.621 Y24.199 E8.51832
G1 X122.253 Y25.424 E8.65463
G1 X123.946 Y26.778 E8.79948
G1 X125.918 Y28.475 E8.97328
G1 X127.295 Y29.730 E9.09772
G1 X128.850 Y31.240 E9.24257
G1 X130.270 Y32.705 E9.37888
G1 X131.731 Y34.308 E9.52373
G1 X133.222 Y36.054 E9.67712
G1 X134.498 Y37.646 E9.81344
G1 X135.801 Y39.379 E9.95829
G1 X137.050 Y41.152 E10.10314
G1 X138.074 Y42.707 E10.22758
G1 X139.442 Y44.921 E10.40137
G1 X140.453 Y46.693 E10.53769
G1 X141.469 Y48.608 E10.68253
G1 X142.479 Y50.670 E10.83593
G1 X143.319 Y52.530 E10.97224
G1 X144.150 Y54.532 E11.11709
G1 X144.962 Y56.680 E11.27048
G1 X145.623 Y58.611 E11.40679
G1 X146.262 Y60.682 E11.55164
G1 X146.868 Y62.897 E11.70504
G1 X147.345 Y64.881 E11.84135
G1 X147.786 Y67.004 E11.98620
G1 X148.181 Y69.266 E12.13959
G1 X148.468 Y71.286 E12.27590
G1 X148.708 Y73.441 E12.42076
G1 X148.881 Y75.602 E12.56560
G1 X148.985 Y77.768 E12.71046
G1 X149.021 Y80.064 E12.86385
G1 X148.989 Y82.104 E13.00016
G1 X148.889 Y84.270 E13.14501
G1 X148.708 Y86.559 E13.29841
G1 X148.484 Y88.587 E13.43471
G1 X148.181 Y90.734 E13.57957
G1 X147.786 Y92.996 E13.73296
G1 X147.345 Y95.119 E13.87781
G1 X146.868 Y97.103 E14.01412
G1 X146.298 Y99.195 E14.15897
G1 X145.752 Y100.976 E14.28341
G1 X144.919 Y103.440 E14.45721
G1 X144.150 Y105.468 E14.60206
G1 X143.369 Y107.353 E14.73837
G1 X142.425 Y109.445 E14.89176
G1 X141.527 Y111.278 E15.02807
G1 X140.514 Y113.195 E15.17293
G1 X139.376 Y115.189 E15.32632
G1 X138.310 Y116.929 E15.46263
G1 X137.122 Y118.743 E15.60748
G1 X135.801 Y120.621 E15.76087
G1 X134.498 Y122.354 E15.90573
G1 X133.222 Y123.946 E16.04204
G1 X131.815 Y125.596 E16.18689
G1 X130.358 Y127.201 E16.33174
G1 X128.760 Y128.850 E16.48513
G1 X127.295 Y130.270 E16.62144
G1 X125.692 Y131.731 E16.76629
G1 X124.045 Y133.141 E16.91114
G1 X122.354 Y134.498 E17.05600
G1 X120.518 Y135.877 E17.20939
G1 X118.848 Y137.050 E17.34570
G1 X117.037 Y138.242 E17.49055
G1 X115.079 Y139.442 E17.64395
G1 X113.195 Y140.514 E17.78879
G1 X111.392 Y141.469 E17.92511
G1 X109.330 Y142.479 E18.07850
G1 X107.470 Y143.319 E18.21481
G1 X105.468 Y144.150 E18.35966
G1 X103.320 Y144.962 E18.51305
G1 X101.389 Y145.623 E18.64936
G1 X99.318 Y146.262 E18.79422
G1 X97.103 Y146.868 E18.94761
G1 X94.994 Y147.372 E19.09246
G1 X92.870 Y147.810 E19.23731
G1 X90.860 Y148.161 E19.37362
G1 X88.714 Y148.468 E19.51847
G1 X86.432 Y148.720 E19.67187
G1 X84.270 Y148.889 E19.81672
G1 X82.232 Y148.985 E19.95303
G1 X79.936 Y149.021 E20.10642
G1 X77.896 Y148.989 E20.24273
G1 X75.730 Y148.889 E20.38758
G1 X73.441 Y148.708 E20.54098
G1 X71.286 Y148.468 E20.68583
G1 X69.266 Y148.181 E20.82214
G1 X67.004 Y147.786 E20.97553
G1 X65.006 Y147.372 E21.11184
G1 X62.897 Y146.868 E21.25669
G1 X60.682 Y146.262 E21.41009
G1 X58.611 Y145.623 E21.55494
G1 X56.560 Y144.919 E21.69979
G1 X54.651 Y144.197 E21.83610
G1 X52.647 Y143.369 E21.98095
G1 X50.555 Y142.425 E22.13434
G1 X48.722 Y141.527 E22.27065
G1 X46.805 Y140.514 E22.41551
G1 X44.811 Y139.377 E22.56890
G1 X43.071 Y138.310 E22.70521
G1 X41.257 Y137.122 E22.85006
G1 X39.482 Y135.877 E22.99491
G1 X37.747 Y134.576 E23.13976
G1 X35.955 Y133.141 E23.29316
G1 X34.308 Y131.731 E23.43801
G1 X32.799 Y130.358 E23.57432
G1 X31.150 Y128.760 E23.72771
G1 X29.730 Y127.295 E23.86402
G1 X28.269 Y125.692 E24.00887
G1 X26.778 Y123.946 E24.16227
G1 X25.424 Y122.253 E24.30712
G1 X24.199 Y120.621 E24.44343
G1 X22.878 Y118.743 E24.59682
G1 X21.758 Y117.037 E24.73313
G1 X20.623 Y115.189 E24.87798
G1 X19.547 Y113.307 E25.02283
G1 X18.531 Y111.392 E25.16768
G1 X17.521 Y109.330 E25.32108
G1 X16.681 Y107.470 E25.45739
G1 X15.850 Y105.468 E25.60224
G1 X15.038 Y103.320 E25.75564
G1 X14.377 Y101.389 E25.89194
G1 X13.738 Y99.318 E26.03679
G1 X13.132 Y97.103 E26.19019
G1 X12.655 Y95.119 E26.32650
G1 X12.214 Y92.996 E26.47135
G1 X11.819 Y90.734 E26.62474
G1 X11.515 Y88.587 E26.76960
G1 X11.292 Y86.559 E26.90591
G1 X11.119 Y84.398 E27.05076
G1 X11.015 Y82.232 E27.19561
G1 X10.979 Y79.936 E27.34900
G1 X11.011 Y77.896 E27.48531
G1 X11.111 Y75.730 E27.63016
G1 X11.280 Y73.568 E27.77502
G1 X11.515 Y71.413 E27.91986
G1 X11.839 Y69.140 E28.07326
G1 X12.190 Y67.130 E28.20957
G1 X12.628 Y65.006 E28.35442
G1 X13.164 Y62.773 E28.50781
G1 X13.702 Y60.805 E28.64412
G1 X14.338 Y58.732 E28.78898
G1 X15.081 Y56.560 E28.94237
G1 X15.803 Y54.651 E29.07868
G1 X16.631 Y52.647 E29.22353
G1 X17.575 Y50.555 E29.37692
G1 X18.473 Y48.722 E29.51323
G1 X19.486 Y46.805 E29.65808
G1 X20.624 Y44.811 E29.81148
G1 X21.690 Y43.071 E29.94779
G1 X22.878 Y41.257 E30.09264
G1 X24.199 Y39.379 E30.24603
G1 X25.424 Y37.747 E30.38234
G1 X26.778 Y36.054 E30.52720
G1 X28.269 Y34.308 E30.68059
G1 X29.730 Y32.705 E30.82544
G1 X31.198 Y31.192 E30.96628
G1 X31.613 Y31.534 F30000.000
G1 F2100
G1 X33.078 Y30.114 E31.10259
G1 X34.668 Y28.665 E31.24632
G1 X36.389 Y27.196 E31.39747
G1 X37.981 Y25.920 E31.53378
G1 X39.700 Y24.627 E31.67750
G1 X41.552 Y23.326 E31.82865
G1 X43.257 Y22.206 E31.96496
G1 X45.090 Y21.080 E32.10869
G1 X46.958 Y20.013 E32.25241
G1 X48.859 Y19.004 E32.39614
G1 X50.891 Y18.009 E32.54729
G1 X52.750 Y17.169 E32.68360
G1 X54.737 Y16.345 E32.82732
G1 X56.854 Y15.545 E32.97847
G1 X58.890 Y14.850 E33.12220
G1 X60.840 Y14.250 E33.25851
G1 X63.022 Y13.653 E33.40965
G1 X65.006 Y13.176 E33.54596
G1 X67.113 Y12.738 E33.68969
G1 X69.341 Y12.349 E33.84084
G1 X71.361 Y12.062 E33.97714
G1 X73.500 Y11.824 E34.12087
G1 X75.644 Y11.653 E34.26460
G1 X77.793 Y11.550 E34.40833
G1 X80.056 Y11.515 E34.55947
G1 X82.096 Y11.547 E34.69578
G1 X84.245 Y11.646 E34.83951
G1 X86.500 Y11.824 E34.99066
G1 X88.528 Y12.048 E35.12697
G1 X90.659 Y12.349 E35.27069
G1 X92.887 Y12.738 E35.42184
G1 X94.885 Y13.152 E35.55815
G1 X96.978 Y13.653 E35.70188
G1 X99.160 Y14.250 E35.85302
G1 X101.216 Y14.884 E35.99675
G1 X103.251 Y15.582 E36.14048
G1 X105.159 Y16.304 E36.27679
G1 X107.148 Y17.125 E36.42052
G1 X109.210 Y18.056 E36.57166
G1 X111.042 Y18.954 E36.70797
G1 X112.944 Y19.959 E36.85170
G1 X114.910 Y21.080 E37.00284
G1 X116.649 Y22.146 E37.13915
G1 X118.448 Y23.326 E37.28288
G1 X120.300 Y24.627 E37.43403
G1 X121.931 Y25.852 E37.57034
G1 X123.611 Y27.196 E37.71406
G1 X125.558 Y28.871 E37.88561
G1 X126.922 Y30.114 E38.00893
G1 X128.466 Y31.613 E38.15266
G1 X129.886 Y33.078 E38.28897
G1 X131.335 Y34.668 E38.43270
G1 X132.804 Y36.389 E38.58384
G1 X134.080 Y37.981 E38.72015
G1 X135.373 Y39.700 E38.86388
G1 X136.612 Y41.460 E39.00760
G1 X137.626 Y43.002 E39.13092
G1 X138.976 Y45.186 E39.30247
G1 X139.987 Y46.958 E39.43878
G1 X140.996 Y48.859 E39.58250
G1 X141.991 Y50.891 E39.73365
G1 X142.831 Y52.750 E39.86996
G1 X143.655 Y54.737 E40.01369
G1 X144.455 Y56.854 E40.16484
G1 X145.116 Y58.784 E40.30114
G1 X145.750 Y60.840 E40.44487
G1 X146.347 Y63.022 E40.59602
G1 X146.824 Y65.006 E40.73233
G1 X147.262 Y67.113 E40.87605
G1 X147.651 Y69.341 E41.02720
G1 X147.938 Y71.361 E41.16351
G1 X148.176 Y73.500 E41.30724
G1 X148.347 Y75.644 E41.45096
G1 X148.450 Y77.793 E41.59469
G1 X148.485 Y80.056 E41.74584
G1 X148.453 Y82.096 E41.88215
G1 X148.354 Y84.245 E42.02588
G1 X148.176 Y86.500 E42.17702
G1 X147.938 Y88.639 E42.32075
G1 X147.651 Y90.659 E42.45706
G1 X147.262 Y92.887 E42.60820
G1 X146.848 Y94.885 E42.74451
G1 X146.347 Y96.978 E42.88824
G1 X145.781 Y99.053 E43.03197
G1 X145.240 Y100.818 E43.15529
G1 X144.418 Y103.251 E43.32683
G1 X143.696 Y105.159 E43.46314
G1 X142.875 Y107.148 E43.60687
G1 X141.944 Y109.210 E43.75802
G1 X141.046 Y111.042 E43.89433
G1 X140.041 Y112.944 E44.03806
G1 X138.920 Y114.910 E44.18920
G1 X137.854 Y116.649 E44.32551
G1 X136.674 Y118.448 E44.46924
G1 X135.373 Y120.299 E44.62038
G1 X134.148 Y121.931 E44.75669
G1 X132.804 Y123.611 E44.90042
G1 X131.408 Y125.248 E45.04415
G1 X129.962 Y126.841 E45.18787
G1 X128.387 Y128.466 E45.33902
G1 X126.922 Y129.886 E45.47533
G1 X125.332 Y131.335 E45.61906
G1 X123.697 Y132.733 E45.76278
G1 X122.019 Y134.080 E45.90651
G1 X120.210 Y135.438 E46.05766
G1 X118.540 Y136.612 E46.19397
G1 X116.743 Y137.794 E46.33770
G1 X114.814 Y138.976 E46.48884
G1 X113.042 Y139.987 E46.62515
G1 X111.141 Y140.996 E46.76888
G1 X109.109 Y141.991 E46.92002
G1 X107.148 Y142.875 E47.06375
G1 X105.263 Y143.655 E47.20006
G1 X102.857 Y144.554 E47.37161
G1 X101.110 Y145.150 E47.49493
G1 X99.053 Y145.781 E47.63865
G1 X97.085 Y146.320 E47.77496
G1 X94.994 Y146.824 E47.91869
G1 X92.778 Y147.283 E48.06983
G1 X90.768 Y147.633 E48.20615
G1 X88.639 Y147.938 E48.34987
G1 X86.390 Y148.186 E48.50102
G1 X84.245 Y148.354 E48.64475
G1 X82.207 Y148.450 E48.78106
G1 X79.945 Y148.485 E48.93220
G1 X77.904 Y148.453 E49.06851
G1 X75.755 Y148.354 E49.21224
G1 X73.610 Y148.186 E49.35597
G1 X71.472 Y147.952 E49.49969
G1 X69.232 Y147.633 E49.65084
G1 X67.222 Y147.283 E49.78715
G1 X65.115 Y146.848 E49.93088
G1 X62.915 Y146.320 E50.08202
G1 X60.947 Y145.781 E50.21833
G1 X58.890 Y145.150 E50.36206
G1 X56.749 Y144.418 E50.51321
G1 X54.841 Y143.696 E50.64952
G1 X52.852 Y142.875 E50.79324
G1 X50.790 Y141.944 E50.94439
G1 X48.859 Y140.996 E51.08812
G1 X47.056 Y140.041 E51.22443
G1 X45.090 Y138.920 E51.37557
G1 X43.351 Y137.854 E51.51188
G1 X41.552 Y136.674 E51.65561
G1 X39.790 Y135.438 E51.79934
G1 X38.069 Y134.148 E51.94306
G1 X36.303 Y132.733 E52.09421
G1 X34.668 Y131.335 E52.23794
G1 X33.159 Y129.962 E52.37425
G1 X31.534 Y128.387 E52.52539
G1 X30.038 Y126.841 E52.66912
G1 X28.592 Y125.248 E52.81285
G1 X27.267 Y123.697 E52.94916
G1 X25.920 Y122.019 E53.09289
G1 X24.562 Y120.210 E53.24403
G1 X23.388 Y118.540 E53.38034
G1 X22.206 Y116.743 E53.52407
G1 X21.024 Y114.814 E53.67522
G1 X20.013 Y113.042 E53.81152
G1 X19.004 Y111.141 E53.95525
G1 X18.009 Y109.109 E54.10640
G1 X17.169 Y107.250 E54.24271
G1 X16.345 Y105.263 E54.38643
G1 X15.545 Y103.146 E54.53758
G1 X14.884 Y101.216 E54.67389
G1 X14.250 Y99.160 E54.81762
G1 X13.653 Y96.978 E54.96876
G1 X13.152 Y94.885 E55.11249
G1 X12.738 Y92.887 E55.24880
G1 X12.349 Y90.659 E55.39995
G1 X12.062 Y88.639 E55.53626
G1 X11.824 Y86.500 E55.67998
G1 X11.653 Y84.356 E55.82371
G1 X11.550 Y82.207 E55.96744
G1 X11.515 Y79.944 E56.11859
G1 X11.547 Y77.904 E56.25489
G1 X11.646 Y75.755 E56.39862
G1 X11.824 Y73.500 E56.54977
G1 X12.048 Y71.472 E56.68608
G1 X12.349 Y69.341 E56.82981
G1 X12.738 Y67.113 E56.98095
G1 X13.176 Y65.006 E57.12468
G1 X13.653 Y63.022 E57.26099
G1 X14.250 Y60.840 E57.41213
G1 X14.850 Y58.890 E57.54844
G1 X15.545 Y56.854 E57.69217
G1 X16.304 Y54.841 E57.83590
G1 X17.125 Y52.852 E57.97963
G1 X18.056 Y50.790 E58.13077
G1 X18.954 Y48.958 E58.26708
G1 X19.959 Y47.056 E58.41081
G1 X21.080 Y45.090 E58.56196
G1 X22.146 Y43.351 E58.69826
G1 X23.326 Y41.552 E58.84199
G1 X24.627 Y39.700 E58.99314
G1 X25.852 Y38.069 E59.12945
G1 X27.196 Y36.389 E59.27318
G1 X28.665 Y34.668 E59.42432
G1 X30.114 Y33.078 E59.56805
G1 X31.571 Y31.577 E59.70777
G1 E57.70777 F2400.00000
G92 E0
G1 X93.614 Y107.997 F30000.000
G1 E2.00000 F2400.00000
G1 F2100
G1 X126.386 Y107.997 E4.18930
G1 X126.386 Y116.498 E4.75718
G1 X93.614 Y116.498 E6.94647
G1 X93.614 Y108.057 E7.51035
G1 X94.150 Y108.533 F30000.000
G1 F2100
G1 X125.850 Y108.533 E9.62808
G1 X125.850 Y115.962 E10.12440
G1 X94.150 Y115.962 E12.24213
G1 X94.150 Y108.593 E12.73444
G1 X93.977 Y108.172 F30000.000
G1 E10.73444 F2400.00000
G92 E0
G1 X91.438 Y103.210 F30000.000
G1 E2.00000 F2400.00000
G1 F2100
G1 X91.022 Y103.422 E2.03117
G1 X89.647 Y104.019 E2.13134
G1 X88.764 Y104.357 E2.19449
G1 X87.228 Y104.856 E2.30237
G1 X86.431 Y105.074 E2.35757
G1 X84.851 Y105.428 E2.46577
G1 X83.251 Y105.681 E2.57397
G1 X82.436 Y105.771 E2.62874
G1 X81.619 Y105.835 E2.68350
G1 X80.001 Y105.886 E2.79166
G1 X78.502 Y105.841 E2.89183
G1 X77.566 Y105.771 E2.95455
G1 X76.749 Y105.681 E3.00943
G1 X75.150 Y105.428 E3.11759
G1 X73.686 Y105.102 E3.21776
G1 X72.780 Y104.858 E3.28047
G1 X71.995 Y104.617 E3.33535
G1 X70.471 Y104.068 E3.44352
G1 X69.094 Y103.475 E3.54368
G1 X68.244 Y103.062 E3.60684
G1 X66.823 Y102.281 E3.71512
G1 X65.556 Y101.480 E3.81528
G1 X64.781 Y100.939 E3.87844
G1 X63.500 Y99.946 E3.98672
G1 X62.374 Y98.956 E4.08688
G1 X61.697 Y98.305 E4.14960
G1 X61.126 Y97.715 E4.20448
G1 X60.059 Y96.505 E4.31224
G1 X59.542 Y95.860 E4.36744
G1 X58.590 Y94.550 E4.47564
G1 X57.719 Y93.177 E4.58428
G1 X56.938 Y91.756 E4.69260
G1 X56.525 Y90.906 E4.75576
G1 X55.934 Y89.533 E4.85560
G1 X55.603 Y88.648 E4.91872
G1 X55.142 Y87.221 E5.01888
G1 X54.739 Y85.653 E5.12705
G1 X54.571 Y84.844 E5.18225
G1 X54.319 Y83.251 E5.29001
G1 X54.229 Y82.436 E5.34478
G1 X54.165 Y81.619 E5.39954
G1 X54.114 Y80.005 E5.50742
G1 X54.133 Y79.060 E5.57057
G1 X54.228 Y77.570 E5.67030
G1 X54.319 Y76.749 E5.72547
G1 X54.572 Y75.154 E5.83334
G1 X54.767 Y74.229 E5.89650
G1 X55.142 Y72.778 E5.99666
G1 X55.642 Y71.238 E6.10483
G1 X55.934 Y70.465 E6.16003
G1 X56.575 Y68.984 E6.26779
G1 X56.939 Y68.242 E6.32299
G1 X57.716 Y66.827 E6.43087
G1 X58.213 Y66.024 E6.49395
G1 X59.005 Y64.856 E6.58825
G1 X59.546 Y64.134 E6.64849
G1 X60.059 Y63.495 E6.70325
G1 X61.126 Y62.285 E6.81101
G1 X61.696 Y61.696 E6.86578
G1 X62.285 Y61.126 E6.92054
G1 X63.495 Y60.059 E7.02830
G1 X64.134 Y59.546 E7.08307
G1 X64.851 Y59.008 E7.14293
G1 X65.457 Y58.586 E7.19226
G1 X66.817 Y57.722 E7.29992
G1 X67.535 Y57.313 E7.35512
G1 X68.972 Y56.581 E7.46289
G1 X69.725 Y56.241 E7.51805
G1 X71.112 Y55.689 E7.61778
G1 X72.005 Y55.380 E7.68094
G1 X73.556 Y54.929 E7.78881
G1 X74.359 Y54.736 E7.84398
G1 X75.825 Y54.455 E7.94370
G1 X76.760 Y54.318 E8.00686
G1 X78.374 Y54.165 E8.11514
G1 X79.873 Y54.116 E8.21530
G1 X80.818 Y54.127 E8.27846
G1 X82.436 Y54.229 E8.38674
G1 X83.923 Y54.415 E8.48690
G1 X84.849 Y54.572 E8.54962
G1 X85.653 Y54.739 E8.60450
G1 X87.221 Y55.142 E8.71267
G1 X88.648 Y55.603 E8.81283
G1 X89.534 Y55.934 E8.87599
G1 X91.022 Y56.578 E8.98431
G1 X92.465 Y57.313 E9.09250
G1 X93.183 Y57.722 E9.14771
G1 X94.550 Y58.590 E9.25591
G1 X95.860 Y59.542 E9.36411
G1 X96.505 Y60.059 E9.41931
G1 X97.715 Y61.126 E9.52707
G1 X98.305 Y61.697 E9.58195
G1 X98.956 Y62.374 E9.64467
G1 X99.946 Y63.500 E9.74483
G1 X100.939 Y64.781 E9.85311
G1 X101.480 Y65.556 E9.91627
G1 X102.281 Y66.823 E10.01643
G1 X103.062 Y68.244 E10.12471
G1 X103.475 Y69.094 E10.18787
