; generated by Slic3r 1.3.0 on 2023-08-07 at 21:26:30

; external perimeters extrusion width = 0.44mm (2.78mm^3/s)
; perimeters extrusion width = 0.40mm (7.14mm^3/s)
; infill extrusion width = 0.50mm (10.97mm^3/s)
; solid infill extrusion width = 0.60mm (6.68mm^3/s)
; top infill extrusion width = 0.40mm (2.14mm^3/s)

M107
M190 S80 ; set bed temperature and wait for it to be reached
M104 S250 ; set temperature
G28 ; home all axes
G1 Z5 F5000 ; lift nozzle

; Filament gcode

M109 S250 ; set temperature and wait for it to be reached
G21 ; set units to millimeters
G90 ; use absolute coordinates
M82 ; use absolute distances for extrusion
G92 E0
G1 Z0.300 F30000.000
G1 E-2.00000 F2400.00000
G92 E0
G1 X54.910 Y56.240 F30000.000
G1 E2.00000 F2400.00000
G1 F2100
G1 X56.451 Y54.712 E2.14501
G1 X57.863 Y53.467 E2.27071
G1 X59.806 Y51.960 E2.43506
G1 X61.363 Y50.902 E2.56075
G1 X63.226 Y49.789 E2.70577
G1 X65.157 Y48.796 E2.85080
G1 X67.145 Y47.925 E2.99581
G1 X69.460 Y47.092 E3.16016
G1 X71.266 Y46.567 E3.28585
G1 X73.383 Y46.085 E3.43088
G1 X75.813 Y45.700 E3.59522
G1 X77.975 Y45.505 E3.74024
G1 X79.855 Y45.445 E3.86593
G1 X82.314 Y45.523 E4.03028
G1 X84.474 Y45.736 E4.17530
G1 X86.333 Y46.030 E4.30099
G1 X88.734 Y46.567 E4.46533
G1 X90.540 Y47.092 E4.59103
G1 X92.586 Y47.819 E4.73605
G1 X94.843 Y48.796 E4.90039
G1 X96.520 Y49.650 E5.02609
G1 X98.393 Y50.747 E5.17111
G1 X100.194 Y51.960 E5.31613
G1 X100.482 Y52.172 E5.34008
G1 X102.137 Y53.467 E5.48048
G1 X103.760 Y54.910 E5.62550
G1 X105.090 Y56.240 E5.75120
G1 X106.533 Y57.863 E5.89622
G1 X108.040 Y59.806 E6.06056
G1 X109.098 Y61.363 E6.18626
G1 X110.211 Y63.226 E6.33128
G1 X111.204 Y65.157 E6.47630
G1 X112.075 Y67.145 E6.62132
G1 X112.908 Y69.460 E6.78566
G1 X113.433 Y71.267 E6.91136
G1 X113.915 Y73.383 E7.05638
G1 X114.300 Y75.813 E7.22072
G1 X114.477 Y77.686 E7.34641
G1 X114.555 Y79.855 E7.49143
G1 X114.477 Y82.314 E7.65578
G1 X114.300 Y84.187 E7.78148
G1 X113.970 Y86.333 E7.92650
G1 X113.433 Y88.734 E8.09084
G1 X112.819 Y90.816 E8.23586
G1 X112.181 Y92.586 E8.36156
G1 X111.204 Y94.844 E8.52590
G1 X110.350 Y96.520 E8.65159
G1 X109.253 Y98.393 E8.79661
G1 X108.040 Y100.194 E8.94163
G1 X106.717 Y101.914 E9.08665
G1 X105.090 Y103.760 E9.25100
G1 X103.760 Y105.090 E9.37669
G1 X102.137 Y106.533 E9.52171
G1 X100.194 Y108.040 E9.68605
G1 X98.637 Y109.098 E9.81175
G1 X96.774 Y110.211 E9.95677
G1 X94.844 Y111.204 E10.10179
G1 X92.855 Y112.075 E10.24681
G1 X90.540 Y112.908 E10.41115
G1 X88.734 Y113.433 E10.53685
G1 X86.617 Y113.915 E10.68187
G1 X84.187 Y114.300 E10.84621
G1 X82.314 Y114.477 E10.97191
G1 X80.145 Y114.555 E11.11693
G1 X77.686 Y114.477 E11.28127
G1 X75.526 Y114.264 E11.42629
G1 X73.383 Y113.915 E11.57131
G1 X71.267 Y113.433 E11.71633
G1 X69.460 Y112.908 E11.84203
G1 X67.145 Y112.075 E12.00637
G1 X65.418 Y111.328 E12.13207
G1 X63.480 Y110.350 E12.27709
G1 X61.363 Y109.098 E12.44143
G1 X59.572 Y107.870 E12.58645
G1 X58.086 Y106.717 E12.71214
G1 X56.240 Y105.090 E12.87649
G1 X54.910 Y103.760 E13.00218
G1 X53.467 Y102.137 E13.14720
G1 X52.130 Y100.428 E13.29222
G1 X51.921 Y100.136 E13.31617
G1 X50.747 Y98.393 E13.45658
G1 X49.650 Y96.520 E13.60160
G1 X48.796 Y94.844 E13.72729
G1 X47.925 Y92.855 E13.87231
G1 X47.092 Y90.540 E14.03666
G1 X46.567 Y88.734 E14.16235
G1 X46.085 Y86.617 E14.30738
G1 X45.700 Y84.187 E14.47171
G1 X45.523 Y82.314 E14.59741
G1 X45.445 Y80.145 E14.74243
G1 X45.523 Y77.686 E14.90677
G1 X45.700 Y75.813 E15.03247
G1 X46.030 Y73.667 E15.17749
G1 X46.567 Y71.266 E15.34183
G1 X47.092 Y69.460 E15.46753
G1 X47.819 Y67.414 E15.61255
G1 X48.796 Y65.156 E15.77689
G1 X49.650 Y63.480 E15.90259
G1 X50.747 Y61.607 E16.04761
G1 X52.130 Y59.572 E16.21195
G1 X53.467 Y57.863 E16.35697
G1 X54.869 Y56.284 E16.49798
G1 X55.289 Y56.619 F30000.000
G1 F2100
G1 X56.805 Y55.114 E16.64075
G1 X58.217 Y53.869 E16.76645
G1 X60.107 Y52.403 E16.92630
G1 X61.664 Y51.345 E17.05200
G1 X63.499 Y50.250 E17.19477
G1 X65.400 Y49.273 E17.33755
G1 X67.358 Y48.417 E17.48032
G1 X69.609 Y47.606 E17.64017
G1 X71.416 Y47.081 E17.76586
G1 X73.500 Y46.607 E17.90864
G1 X75.863 Y46.233 E18.06849
G1 X77.736 Y46.056 E18.19418
G1 X79.872 Y45.981 E18.33696
G1 X82.264 Y46.056 E18.49680
G1 X84.137 Y46.233 E18.62250
G1 X86.249 Y46.559 E18.76527
G1 X88.584 Y47.081 E18.92512
G1 X90.391 Y47.606 E19.05082
G1 X92.404 Y48.323 E19.19359
G1 X94.600 Y49.273 E19.35344
G1 X96.277 Y50.127 E19.47913
G1 X98.120 Y51.208 E19.62191
G1 X100.099 Y52.553 E19.78176
G1 X101.783 Y53.869 E19.92453
G1 X103.381 Y55.289 E20.06730
G1 X104.711 Y56.619 E20.19300
G1 X106.131 Y58.217 E20.33577
G1 X107.597 Y60.107 E20.49562
G1 X108.655 Y61.664 E20.62132
G1 X109.750 Y63.499 E20.76409
G1 X110.727 Y65.400 E20.90687
G1 X111.583 Y67.358 E21.04964
G1 X112.394 Y69.609 E21.20949
G1 X112.919 Y71.416 E21.33519
G1 X113.393 Y73.500 E21.47796
G1 X113.767 Y75.863 E21.63781
G1 X113.944 Y77.736 E21.76350
G1 X114.019 Y79.872 E21.90628
G1 X113.944 Y82.264 E22.06613
G1 X113.767 Y84.137 E22.19183
G1 X113.441 Y86.249 E22.33460
G1 X112.919 Y88.584 E22.49444
G1 X112.315 Y90.634 E22.63722
G1 X111.677 Y92.404 E22.76291
G1 X110.836 Y94.369 E22.90569
G1 X109.873 Y96.277 E23.04846
G1 X108.655 Y98.336 E23.20831
G1 X107.597 Y99.893 E23.33400
G1 X106.294 Y101.586 E23.47678
G1 X104.711 Y103.381 E23.63663
G1 X103.381 Y104.711 E23.76232
G1 X101.783 Y106.131 E23.90509
G1 X99.893 Y107.597 E24.06494
G1 X98.336 Y108.655 E24.19064
G1 X96.501 Y109.750 E24.33341
G1 X94.600 Y110.727 E24.47619
G1 X92.642 Y111.583 E24.61896
G1 X90.391 Y112.394 E24.77881
G1 X88.584 Y112.919 E24.90450
G1 X86.500 Y113.393 E25.04728
G1 X84.137 Y113.767 E25.20713
G1 X82.264 Y113.944 E25.33282
G1 X80.128 Y114.019 E25.47560
G1 X77.736 Y113.944 E25.63545
G1 X75.609 Y113.735 E25.77822
G1 X73.751 Y113.441 E25.90391
G1 X71.416 Y112.919 E26.06376
G1 X69.609 Y112.394 E26.18946
G1 X67.596 Y111.677 E26.33223
G1 X65.631 Y110.836 E26.47501
G1 X63.723 Y109.873 E26.61778
G1 X61.664 Y108.655 E26.77763
G1 X60.107 Y107.597 E26.90332
G1 X58.414 Y106.294 E27.04610
G1 X56.619 Y104.711 E27.20595
G1 X55.114 Y103.195 E27.34872
G1 X53.869 Y101.783 E27.47441
G1 X52.364 Y99.835 E27.63887
G1 X51.208 Y98.120 E27.77703
G1 X50.127 Y96.277 E27.91980
G1 X49.273 Y94.600 E28.04550
G1 X48.417 Y92.642 E28.18827
G1 X47.606 Y90.391 E28.34812
G1 X47.081 Y88.584 E28.47382
G1 X46.607 Y86.500 E28.61659
G1 X46.233 Y84.137 E28.77644
G1 X46.056 Y82.264 E28.90213
G1 X45.981 Y80.128 E29.04491
G1 X46.056 Y77.736 E29.20476
G1 X46.233 Y75.863 E29.33045
G1 X46.559 Y73.751 E29.47323
G1 X47.081 Y71.416 E29.63308
G1 X47.606 Y69.609 E29.75877
G1 X48.323 Y67.596 E29.90154
G1 X49.273 Y65.400 E30.06139
G1 X50.127 Y63.723 E30.18709
G1 X51.208 Y61.880 E30.32986
G1 X52.553 Y59.901 E30.48971
G1 X53.869 Y58.217 E30.63249
G1 X55.248 Y56.663 E30.77125
G1 X55.667 Y56.998 F30000.000
G1 F2100
G1 X57.160 Y55.515 E30.91177
G1 X58.571 Y54.271 E31.03747
G1 X60.409 Y52.846 E31.19283
G1 X61.965 Y51.788 E31.31852
G1 X63.772 Y50.711 E31.45905
G1 X65.643 Y49.750 E31.59958
G1 X67.571 Y48.908 E31.74010
G1 X69.759 Y48.121 E31.89546
G1 X71.565 Y47.596 E32.02115
G1 X73.617 Y47.130 E32.16168
G1 X75.914 Y46.766 E32.31704
G1 X77.787 Y46.589 E32.44273
G1 X79.889 Y46.516 E32.58326
G1 X82.213 Y46.589 E32.73862
G1 X84.086 Y46.766 E32.86431
G1 X86.165 Y47.088 E33.00484
G1 X88.435 Y47.596 E33.16019
G1 X90.241 Y48.121 E33.28589
G1 X92.223 Y48.827 E33.42642
G1 X94.357 Y49.750 E33.58177
G1 X96.228 Y50.711 E33.72230
G1 X97.848 Y51.669 E33.84799
G1 X99.592 Y52.846 E33.98852
G1 X101.258 Y54.129 E34.12904
G1 X103.002 Y55.667 E34.28440
G1 X104.333 Y56.998 E34.41010
G1 X105.729 Y58.571 E34.55062
G1 X107.154 Y60.409 E34.70598
G1 X108.212 Y61.965 E34.83167
G1 X109.289 Y63.772 E34.97220
G1 X110.250 Y65.643 E35.11273
G1 X111.092 Y67.571 E35.25325
G1 X111.879 Y69.759 E35.40861
G1 X112.404 Y71.565 E35.53431
G1 X112.870 Y73.617 E35.67483
G1 X113.234 Y75.914 E35.83019
G1 X113.425 Y78.008 E35.97071
G1 X113.484 Y79.889 E36.09641
G1 X113.411 Y82.213 E36.25176
G1 X113.234 Y84.087 E36.37746
G1 X112.912 Y86.165 E36.51799
G1 X112.404 Y88.435 E36.67334
G1 X111.879 Y90.241 E36.79904
G1 X111.173 Y92.223 E36.93956
G1 X110.250 Y94.357 E37.09492
G1 X109.289 Y96.228 E37.23545
G1 X108.331 Y97.848 E37.36114
G1 X107.154 Y99.591 E37.50167
G1 X105.871 Y101.258 E37.64219
G1 X104.333 Y103.002 E37.79755
G1 X103.002 Y104.333 E37.92324
G1 X101.429 Y105.729 E38.06377
G1 X99.591 Y107.154 E38.21913
G1 X98.035 Y108.212 E38.34482
G1 X96.228 Y109.289 E38.48535
G1 X94.357 Y110.250 E38.62587
G1 X92.429 Y111.092 E38.76640
G1 X90.241 Y111.879 E38.92176
G1 X88.435 Y112.404 E39.04745
G1 X86.383 Y112.870 E39.18798
G1 X84.086 Y113.234 E39.34333
G1 X81.992 Y113.425 E39.48386
G1 X80.111 Y113.484 E39.60956
G1 X77.787 Y113.411 E39.76491
G1 X75.693 Y113.206 E39.90544
G1 X73.835 Y112.912 E40.03113
G1 X71.565 Y112.404 E40.18649
G1 X69.759 Y111.879 E40.31218
G1 X67.777 Y111.173 E40.45271
G1 X65.844 Y110.344 E40.59324
G1 X63.966 Y109.396 E40.73376
G1 X61.965 Y108.212 E40.88912
G1 X60.409 Y107.154 E41.01481
G1 X58.742 Y105.871 E41.15534
G1 X56.998 Y104.333 E41.31070
G1 X55.515 Y102.840 E41.45122
G1 X54.271 Y101.429 E41.57692
G1 X52.807 Y99.534 E41.73688
G1 X51.669 Y97.848 E41.87279
G1 X50.604 Y96.034 E42.01332
G1 X49.750 Y94.357 E42.13901
G1 X48.908 Y92.429 E42.27954
G1 X48.121 Y90.241 E42.43490
G1 X47.540 Y88.220 E42.57542
G1 X47.130 Y86.383 E42.70112
G1 X46.766 Y84.086 E42.85647
G1 X46.589 Y82.213 E42.98217
G1 X46.516 Y80.111 E43.12270
G1 X46.589 Y77.787 E43.27805
G1 X46.766 Y75.914 E43.40375
G1 X47.088 Y73.835 E43.54428
G1 X47.596 Y71.565 E43.69963
G1 X48.121 Y69.759 E43.82532
G1 X48.827 Y67.777 E43.96585
G1 X49.750 Y65.643 E44.12121
G1 X50.604 Y63.966 E44.24690
G1 X51.669 Y62.152 E44.38743
G1 X52.976 Y60.229 E44.54278
G1 X54.271 Y58.571 E44.68331
G1 X55.626 Y57.042 E44.81983
G1 E42.81983 F2400.00000
G92 E0
G1 X99.930 Y101.223 F30000.000
G1 E2.00000 F2400.00000
G1 F2100
G1 X98.558 Y102.433 E2.12219
G1 X97.113 Y103.554 E2.24437
G1 X95.600 Y104.582 E2.36656
G1 X94.026 Y105.513 E2.48874
G1 X92.396 Y106.343 E2.61093
G1 X90.718 Y107.069 E2.73312
G1 X88.997 Y107.689 E2.85530
G1 X87.240 Y108.199 E2.97749
G1 X85.455 Y108.598 E3.09967
G1 X83.649 Y108.884 E3.22186
G1 X81.828 Y109.056 E3.34405
G1 X80.000 Y109.114 E3.46623
G1 X78.172 Y109.056 E3.58842
G1 X76.351 Y108.884 E3.71060
G1 X74.546 Y108.598 E3.83273
G1 X72.694 Y108.180 E3.95952
G1 X71.003 Y107.689 E4.07715
G1 X69.282 Y107.069 E4.19934
G1 X67.604 Y106.343 E4.32152
G1 X65.974 Y105.513 E4.44371
G1 X64.400 Y104.582 E4.56590
G1 X62.888 Y103.554 E4.68802
G1 X61.391 Y102.388 E4.81481
G1 X60.070 Y101.223 E4.93244
G1 X58.777 Y99.930 E5.05463
G1 X57.567 Y98.558 E5.17682
G1 X56.446 Y97.113 E5.29900
G1 X55.418 Y95.600 E5.42119
G1 X54.487 Y94.026 E5.54337
G1 X53.657 Y92.396 E5.66556
G1 X52.931 Y90.718 E5.78775
G1 X52.311 Y88.997 E5.90993
G1 X51.820 Y87.306 E6.02756
G1 X51.402 Y85.454 E6.15436
G1 X51.116 Y83.649 E6.27648
G1 X50.944 Y81.828 E6.39867
G1 X50.886 Y80.000 E6.52085
G1 X50.944 Y78.172 E6.64304
G1 X51.116 Y76.351 E6.76522
G1 X51.402 Y74.545 E6.88741
G1 X51.801 Y72.760 E7.00960
G1 X52.311 Y71.003 E7.13178
G1 X52.931 Y69.282 E7.25397
G1 X53.657 Y67.604 E7.37615
G1 X54.487 Y65.974 E7.49834
G1 X55.418 Y64.400 E7.62052
G1 X56.446 Y62.887 E7.74271
G1 X57.567 Y61.442 E7.86490
G1 X58.732 Y60.121 E7.98253
G1 X60.071 Y58.776 E8.10932
G1 X61.442 Y57.567 E8.23145
G1 X62.887 Y56.446 E8.35363
G1 X64.400 Y55.418 E8.47582
G1 X65.974 Y54.487 E8.59800
G1 X67.604 Y53.657 E8.72019
G1 X69.282 Y52.931 E8.84238
G1 X71.003 Y52.311 E8.96456
G1 X72.760 Y51.801 E9.08675
G1 X74.545 Y51.402 E9.20893
G1 X76.351 Y51.116 E9.33112
G1 X78.171 Y50.944 E9.45324
G1 X80.068 Y50.888 E9.58004
G1 X81.828 Y50.944 E9.69767
G1 X83.649 Y51.116 E9.81985
G1 X85.455 Y51.402 E9.94204
G1 X87.240 Y51.801 E10.06423
G1 X88.997 Y52.311 E10.18641
G1 X90.653 Y52.907 E10.30404
G1 X92.397 Y53.657 E10.43084
G1 X94.026 Y54.487 E10.55296
G1 X95.600 Y55.418 E10.67515
G1 X97.113 Y56.446 E10.79733
G1 X98.558 Y57.567 E10.91952
G1 X99.930 Y58.777 E11.04170
G1 X101.223 Y60.070 E11.16389
G1 X102.433 Y61.442 E11.28608
G1 X103.554 Y62.887 E11.40826
G1 X104.582 Y64.400 E11.53045
G1 X105.513 Y65.974 E11.65263
G1 X106.343 Y67.604 E11.77482
G1 X107.069 Y69.282 E11.89701
G1 X107.689 Y71.003 E12.01919
G1 X108.180 Y72.694 E12.13682
G1 X108.598 Y74.546 E12.26362
G1 X108.884 Y76.351 E12.38574
G1 X109.056 Y78.172 E12.50793
G1 X109.114 Y80.000 E12.63011
G1 X109.056 Y81.828 E12.75230
G1 X108.884 Y83.649 E12.87448
G1 X108.598 Y85.455 E12.99667
G1 X108.199 Y87.240 E13.11886
G1 X107.689 Y88.997 E13.24104
G1 X107.069 Y90.718 E13.36323
G1 X106.343 Y92.396 E13.48541
G1 X105.544 Y93.965 E13.60304
G1 X104.581 Y95.601 E13.72984
G1 X103.554 Y97.113 E13.85196
G1 X102.433 Y98.558 E13.97415
G1 X101.223 Y99.930 E14.09633
G1 X99.972 Y101.181 E14.21451
G1 X100.284 Y101.625 F30000.000
G1 F2100
G1 X98.900 Y102.846 E14.33782
G1 X97.428 Y103.987 E14.46226
G1 X95.887 Y105.034 E14.58669
G1 X94.284 Y105.982 E14.71113
G1 X92.624 Y106.828 E14.83556
G1 X90.915 Y107.568 E14.96000
G1 X89.162 Y108.199 E15.08443
G1 X87.374 Y108.718 E15.20887
G1 X85.556 Y109.125 E15.33330
G1 X83.716 Y109.416 E15.45774
G1 X81.862 Y109.591 E15.58217
G1 X80.000 Y109.650 E15.70661
G1 X78.138 Y109.591 E15.83104
G1 X76.284 Y109.416 E15.95548
G1 X74.445 Y109.125 E16.07989
G1 X72.560 Y108.699 E16.20893
G1 X70.838 Y108.199 E16.32877
G1 X69.085 Y107.568 E16.45321
G1 X67.376 Y106.828 E16.57764
G1 X65.716 Y105.982 E16.70208
G1 X64.113 Y105.034 E16.82651
G1 X62.573 Y103.987 E16.95092
G1 X61.049 Y102.800 E17.07997
G1 X59.703 Y101.614 E17.19981
G1 X58.386 Y100.297 E17.32424
G1 X57.154 Y98.900 E17.44868
G1 X56.013 Y97.428 E17.57311
G1 X54.966 Y95.887 E17.69755
G1 X54.018 Y94.284 E17.82198
G1 X53.172 Y92.624 E17.94642
G1 X52.432 Y90.915 E18.07085
G1 X51.801 Y89.162 E18.19529
G1 X51.301 Y87.440 E18.31513
G1 X50.875 Y85.555 E18.44417
G1 X50.584 Y83.716 E18.56858
G1 X50.409 Y81.862 E18.69302
G1 X50.350 Y80.000 E18.81745
G1 X50.409 Y78.138 E18.94189
G1 X50.584 Y76.284 E19.06632
G1 X50.875 Y74.444 E19.19076
G1 X51.282 Y72.626 E19.31519
G1 X51.801 Y70.838 E19.43963
G1 X52.432 Y69.085 E19.56406
G1 X53.172 Y67.376 E19.68850
G1 X54.018 Y65.716 E19.81293
G1 X54.966 Y64.113 E19.93737
G1 X56.013 Y62.572 E20.06180
G1 X57.154 Y61.100 E20.18624
G1 X58.341 Y59.755 E20.30608
G1 X59.704 Y58.386 E20.43512
G1 X61.100 Y57.154 E20.55953
G1 X62.572 Y56.013 E20.68397
G1 X64.113 Y54.966 E20.80840
G1 X65.716 Y54.018 E20.93284
G1 X67.376 Y53.172 E21.05727
G1 X69.085 Y52.432 E21.18171
G1 X70.838 Y51.801 E21.30614
G1 X72.626 Y51.282 E21.43058
G1 X74.444 Y50.875 E21.55501
G1 X76.284 Y50.584 E21.67945
G1 X78.138 Y50.409 E21.80386
G1 X80.069 Y50.352 E21.93290
G1 X81.862 Y50.409 E22.05274
G1 X83.716 Y50.584 E22.17718
G1 X85.556 Y50.875 E22.30161
G1 X87.374 Y51.282 E22.42605
G1 X89.162 Y51.801 E22.55048
G1 X90.850 Y52.409 E22.67032
G1 X92.625 Y53.172 E22.79936
G1 X94.284 Y54.018 E22.92378
G1 X95.887 Y54.966 E23.04821
G1 X97.428 Y56.013 E23.17265
G1 X98.900 Y57.154 E23.29708
G1 X100.297 Y58.386 E23.42152
G1 X101.614 Y59.703 E23.54595
G1 X102.846 Y61.100 E23.67039
G1 X103.987 Y62.572 E23.79482
G1 X105.034 Y64.113 E23.91926
G1 X105.982 Y65.716 E24.04369
G1 X106.828 Y67.376 E24.16813
G1 X107.568 Y69.085 E24.29256
G1 X108.199 Y70.838 E24.41700
G1 X108.699 Y72.560 E24.53684
G1 X109.125 Y74.445 E24.66588
G1 X109.416 Y76.284 E24.79029
G1 X109.591 Y78.138 E24.91473
G1 X109.650 Y80.000 E25.03916
G1 X109.591 Y81.862 E25.16360
G1 X109.416 Y83.716 E25.28803
G1 X109.125 Y85.556 E25.41247
G1 X108.718 Y87.374 E25.53690
G1 X108.199 Y89.162 E25.66134
G1 X107.568 Y90.915 E25.78577
G1 X106.828 Y92.624 E25.91021
G1 X106.014 Y94.223 E26.03005
G1 X105.034 Y95.887 E26.15909
G1 X103.987 Y97.428 E26.28350
G1 X102.846 Y98.900 E26.40794
G1 X101.614 Y100.297 E26.53237
G1 X100.327 Y101.583 E26.65392
G1 X99.901 Y101.509 F30000.000
G1 X99.505 Y100.890 F30000.000
G1 F2100
G1 X100.890 Y99.505 E26.78562
G1 X102.077 Y98.160 E26.90619
G1 X103.177 Y96.741 E27.02687
G1 X103.781 Y95.852 E27.09908
G1 X95.852 Y103.781 E27.85277
G1 X95.256 Y104.186 E27.90124
G1 X93.858 Y105.013 E28.01040
