; generated by Slic3r 1.3.0 on 2023-07-21 at 16:44:02

; external perimeters extrusion width = 0.44mm (2.78mm^3/s)
; perimeters extrusion width = 0.40mm (7.14mm^3/s)
; infill extrusion width = 0.50mm (10.97mm^3/s)
; solid infill extrusion width = 0.60mm (6.68mm^3/s)
; top infill extrusion width = 0.40mm (2.14mm^3/s)

M107
M190 S80 ; set bed temperature and wait for it to be reached
M104 S250 ; set temperature
G28 ; home all axes
G1 Z5 F5000 ; lift nozzle

; Filament gcode

M109 S250 ; set temperature and wait for it to be reached
G21 ; set units to millimeters
G90 ; use absolute coordinates
M82 ; use absolute distances for extrusion
G92 E0
G1 Z0.300 F30000.000
G1 E-2.00000 F2400.00000
G92 E0
G1 X13.629 Y51.269 F30000.000
G1 E2.00000 F2400.00000
G1 F2100
G1 X126.098 Y6.336 E10.09095
G1 X127.869 Y6.054 E10.21077
G1 X129.644 Y6.591 E10.33464
G1 X146.878 Y16.541 E11.66407
G1 X148.195 Y17.758 E11.78389
G1 X148.862 Y19.423 E11.90372
G1 X148.871 Y20.649 E11.98563
G1 X131.551 Y140.516 E20.07657
G1 X130.910 Y142.191 E20.19639
G1 X129.557 Y143.459 E20.32027
G1 X112.323 Y153.409 E21.64970
G1 X110.610 Y153.942 E21.76952
G1 X108.835 Y153.687 E21.88934
G1 X107.769 Y153.082 E21.97125
G1 X12.621 Y78.148 E30.06220
G1 X11.491 Y76.756 E30.18202
G1 X11.069 Y74.950 E30.30590
G1 X11.069 Y55.050 E31.63533
G1 X11.464 Y53.300 E31.75515
G1 X12.572 Y51.890 E31.87497
G1 X13.578 Y51.300 E31.95287
G1 X13.828 Y51.767 F30000.000
G1 F2100
G1 X126.296 Y6.833 E40.04382
G1 X127.949 Y6.597 E40.15537
G1 X129.376 Y7.054 E40.25544
G1 X146.610 Y17.004 E41.58487
G1 X147.818 Y18.157 E41.69642
G1 X148.341 Y20.572 E41.86149
G1 X131.021 Y140.439 E49.95243
G1 X130.398 Y141.989 E50.06399
G1 X129.289 Y142.996 E50.16406
G1 X112.055 Y152.946 E51.49348
G1 X110.453 Y153.415 E51.60504
G1 X108.100 Y152.661 E51.77010
G1 X12.952 Y77.728 E59.86105
G1 X11.921 Y76.414 E59.97261
G1 X11.604 Y74.950 E60.07267
G1 X11.604 Y55.050 E61.40210
G1 X11.998 Y53.427 E61.51366
G1 X13.784 Y51.807 E61.67471
G1 E59.67471 F2400.00000
G92 E0
G1 X67.507 Y74.114 F30000.000
G1 E2.00000 F2400.00000
G1 F2100
G1 X15.975 Y74.114 E5.44260
G1 X15.975 Y55.886 E6.66038
G1 X102.148 Y55.886 E12.41718
G1 X127.914 Y11.258 E15.85977
G1 X143.700 Y20.372 E17.07755
G1 X100.614 Y95.000 E22.83436
G1 X126.380 Y139.628 E26.27695
G1 X110.593 Y148.742 E27.49473
G1 X67.537 Y74.166 E33.24752
G1 X67.198 Y74.650 F30000.000
G1 F2100
G1 X15.440 Y74.650 E36.70524
G1 X15.440 Y55.350 E37.99459
G1 X101.839 Y55.350 E43.76651
G1 X127.718 Y10.526 E47.22423
G1 X144.432 Y20.176 E48.51358
G1 X101.233 Y95.000 E54.28550
G1 X127.112 Y139.824 E57.74322
G1 X110.397 Y149.474 E59.03256
G1 X67.228 Y74.702 E64.80048
G1 X67.100 Y74.262 F30000.000
G1 E62.80048 F2400.00000
G92 E0
G1 X102.571 Y56.182 F30000.000
G1 E2.00000 F2400.00000
G1 F2100
G1 X139.993 Y18.761 E5.54478
G1 X139.511 Y18.483 E5.58202
G1 X103.609 Y54.385 E8.98292
G1 X104.646 Y52.588 E9.12190
G1 X139.030 Y18.205 E12.37891
G1 X138.548 Y17.927 E12.41615
G1 X105.684 Y50.791 E15.52929
G1 X106.721 Y48.994 E15.66827
G1 X138.067 Y17.649 E18.63751
G1 X137.585 Y17.371 E18.67475
G1 X107.759 Y47.197 E21.50012
G1 X108.796 Y45.400 E21.63910
G1 X137.104 Y17.093 E24.32058
G1 X136.622 Y16.815 E24.35782
G1 X109.834 Y43.603 E26.89541
G1 X110.871 Y41.806 E27.03439
G1 X136.141 Y16.537 E29.42810
G1 X135.659 Y16.259 E29.46534
G1 X111.909 Y40.010 E31.71517
G1 X112.946 Y38.213 E31.85415
G1 X135.178 Y15.981 E33.96010
G1 X134.697 Y15.703 E33.99734
G1 X113.983 Y36.416 E35.95940
G1 X115.021 Y34.619 E36.09838
G1 X134.215 Y15.425 E37.91655
G1 X133.734 Y15.147 E37.95379
G1 X116.058 Y32.822 E39.62808
G1 X117.096 Y31.025 E39.76707
G1 X133.252 Y14.869 E41.29747
G1 X132.771 Y14.591 E41.33471
G1 X118.133 Y29.228 E42.72124
G1 X119.171 Y27.431 E42.86022
G1 X132.289 Y14.313 E44.10286
G1 X131.808 Y14.035 E44.14010
G1 X120.208 Y25.634 E45.23886
G1 X121.246 Y23.837 E45.37784
G1 X131.326 Y13.757 E46.33271
G1 X130.845 Y13.479 E46.36995
G1 X122.283 Y22.040 E47.18094
G1 X123.321 Y20.243 E47.31992
G1 X130.363 Y13.201 E47.98703
G1 X129.882 Y12.923 E48.02427
G1 X124.358 Y18.446 E48.54749
G1 X125.396 Y16.649 E48.68647
G1 X129.400 Y12.645 E49.06581
G1 X128.919 Y12.367 E49.10305
G1 X126.433 Y14.852 E49.33850
G1 X127.470 Y13.056 E49.47748
G1 X128.437 Y12.089 E49.56905
G1 E47.56905 F2400.00000
G92 E0
G1 X127.974 Y11.482 F30000.000
G1 X131.250 Y23.708 F30000.000
G1 X109.994 Y60.525 F30000.000
G1 X102.243 Y67.983 F30000.000
G1 X90.090 Y75.000 F30000.000
G1 X77.937 Y67.983 F30000.000
G1 X67.602 Y65.000 F30000.000
G1 X25.090 Y65.000 F30000.000
G1 X16.140 Y56.050 F30000.000
G1 X16.455 Y56.478 F30000.000
G1 E2.00000 F2400.00000
G1 F2100
G1 X16.568 Y56.364 E2.01076
G1 X17.328 Y56.364 E2.06163
G1 X16.454 Y57.238 E2.14439
G1 X16.454 Y57.997 E2.19526
G1 X18.087 Y56.364 E2.34995
G1 X18.847 Y56.364 E2.40082
G1 X16.454 Y58.757 E2.62746
G1 X16.454 Y59.516 E2.67833
G1 X19.606 Y56.364 E2.97690
G1 X20.366 Y56.364 E3.02778
G1 X16.454 Y60.276 E3.39830
G1 X16.454 Y61.035 E3.44917
G1 X21.125 Y56.364 E3.89163
G1 X21.885 Y56.364 E3.94250
G1 X16.454 Y61.795 E4.45690
G1 X16.454 Y62.554 E4.50777
G1 X22.644 Y56.364 E5.09412
G1 X23.404 Y56.364 E5.14499
G1 X16.454 Y63.314 E5.80328
G1 X16.454 Y64.073 E5.85415
G1 X24.163 Y56.364 E6.58438
G1 X24.922 Y56.364 E6.63525
G1 X16.454 Y64.833 E7.43742
G1 X16.454 Y65.592 E7.48829
G1 X25.682 Y56.364 E8.36240
G1 X26.441 Y56.364 E8.41327
G1 X16.454 Y66.352 E9.35933
G1 X16.454 Y67.111 E9.41020
G1 X27.201 Y56.364 E10.42820
G1 X27.960 Y56.364 E10.47907
G1 X16.454 Y67.871 E11.56901
G1 X16.454 Y68.630 E11.61988
G1 X28.720 Y56.364 E12.78176
G1 X29.479 Y56.364 E12.83263
G1 X16.454 Y69.390 E14.06645
G1 X16.454 Y70.149 E14.11732
G1 X30.239 Y56.364 E15.42309
G1 X30.998 Y56.364 E15.47396
G1 X16.454 Y70.909 E16.85167
G1 X16.454 Y71.668 E16.90254
G1 X31.758 Y56.364 E18.35219
G1 X32.517 Y56.364 E18.40306
G1 X16.454 Y72.427 E19.92465
G1 X16.454 Y73.187 E19.97552
G1 X33.277 Y56.364 E21.56905
G1 X34.036 Y56.364 E21.61992
G1 X16.765 Y73.636 E23.25595
G1 X17.524 Y73.636 E23.30682
G1 X34.796 Y56.364 E24.94285
G1 X35.555 Y56.364 E24.99372
G1 X18.284 Y73.636 E26.62975
G1 X19.043 Y73.636 E26.68062
G1 X36.315 Y56.364 E28.31665
G1 X37.074 Y56.364 E28.36752
G1 X19.803 Y73.636 E30.00355
G1 X20.562 Y73.636 E30.05442
G1 X37.834 Y56.364 E31.69045
G1 X38.593 Y56.364 E31.74132
G1 X21.322 Y73.636 E33.37735
G1 X22.081 Y73.636 E33.42822
G1 X39.353 Y56.364 E35.06425
G1 X40.112 Y56.364 E35.11512
G1 X22.841 Y73.636 E36.75115
G1 X23.600 Y73.636 E36.80203
G1 X40.871 Y56.364 E38.43805
G1 X41.631 Y56.364 E38.48893
G1 X24.360 Y73.636 E40.12495
G1 X25.119 Y73.636 E40.17583
G1 X42.390 Y56.364 E41.81185
G1 X43.150 Y56.364 E41.86273
G1 X25.879 Y73.636 E43.49875
G1 X26.638 Y73.636 E43.54963
G1 X43.909 Y56.364 E45.18565
G1 X44.669 Y56.364 E45.23653
G1 X27.398 Y73.636 E46.87255
G1 X28.157 Y73.636 E46.92343
G1 X45.428 Y56.364 E48.55945
G1 X46.188 Y56.364 E48.61033
G1 X28.917 Y73.636 E50.24635
G1 X29.676 Y73.636 E50.29723
G1 X46.947 Y56.364 E51.93325
G1 X47.707 Y56.364 E51.98413
G1 X30.436 Y73.636 E53.62015
G1 X31.195 Y73.636 E53.67103
G1 X48.466 Y56.364 E55.30705
G1 X49.226 Y56.364 E55.35793
G1 X31.955 Y73.636 E56.99395
G1 X32.714 Y73.636 E57.04483
G1 X49.985 Y56.364 E58.68085
G1 X50.745 Y56.364 E58.73173
G1 X33.473 Y73.636 E60.36775
G1 X34.233 Y73.636 E60.41863
G1 X51.504 Y56.364 E62.05465
G1 X52.264 Y56.364 E62.10553
G1 X34.992 Y73.636 E63.74155
G1 X35.752 Y73.636 E63.79243
G1 X53.023 Y56.364 E65.42845
G1 X53.783 Y56.364 E65.47933
G1 X36.511 Y73.636 E67.11535
G1 X37.271 Y73.636 E67.16622
G1 X54.542 Y56.364 E68.80225
G1 X55.302 Y56.364 E68.85312
G1 X38.030 Y73.636 E70.48915
G1 X38.790 Y73.636 E70.54002
G1 X56.061 Y56.364 E72.17605
G1 X56.820 Y56.364 E72.22692
G1 X39.549 Y73.636 E73.86295
G1 X40.309 Y73.636 E73.91382
G1 X57.580 Y56.364 E75.54985
G1 X58.339 Y56.364 E75.60072
G1 X41.068 Y73.636 E77.23675
G1 X41.828 Y73.636 E77.28762
G1 X59.099 Y56.364 E78.92365
G1 X59.858 Y56.364 E78.97452
G1 X42.587 Y73.636 E80.61055
G1 X43.347 Y73.636 E80.66142
G1 X60.618 Y56.364 E82.29745
G1 X61.377 Y56.364 E82.34832
G1 X44.106 Y73.636 E83.98435
G1 X44.866 Y73.636 E84.03522
G1 X62.137 Y56.364 E85.67125
G1 X62.896 Y56.364 E85.72212
G1 X45.625 Y73.636 E87.35815
G1 X46.385 Y73.636 E87.40902
G1 X63.656 Y56.364 E89.04505
G1 X64.415 Y56.364 E89.09592
G1 X47.144 Y73.636 E90.73195
G1 X47.903 Y73.636 E90.78282
G1 X65.175 Y56.364 E92.41885
G1 X65.934 Y56.364 E92.46972
G1 X48.663 Y73.636 E94.10575
G1 X49.422 Y73.636 E94.15662
G1 X66.694 Y56.364 E95.79265
G1 X67.453 Y56.364 E95.84352
G1 X50.182 Y73.636 E97.47955
G1 X50.941 Y73.636 E97.53042
G1 X68.213 Y56.364 E99.16645
G1 X68.972 Y56.364 E99.21732
G1 X51.701 Y73.636 E100.85335
G1 X52.460 Y73.636 E100.90422
G1 X69.732 Y56.364 E102.54025
G1 X70.491 Y56.364 E102.59112
G1 X53.220 Y73.636 E104.22715
G1 X53.979 Y73.636 E104.27802
G1 X71.250 Y56.364 E105.91405
G1 X72.010 Y56.364 E105.96492
G1 X54.739 Y73.636 E107.60095
G1 X55.498 Y73.636 E107.65182
G1 X72.769 Y56.364 E109.28785
G1 X73.529 Y56.364 E109.33872
G1 X56.258 Y73.636 E110.97475
G1 X57.017 Y73.636 E111.02562
G1 X74.288 Y56.364 E112.66165
G1 X75.048 Y56.364 E112.71252
G1 X57.777 Y73.636 E114.34855
G1 X58.536 Y73.636 E114.39942
G1 X75.807 Y56.364 E116.03545
G1 X76.567 Y56.364 E116.08632
G1 X59.296 Y73.636 E117.72235
G1 X60.055 Y73.636 E117.77322
G1 X77.326 Y56.364 E119.40925
G1 X78.086 Y56.364 E119.46012
G1 X60.815 Y73.636 E121.09615
G1 X61.574 Y73.636 E121.14702
G1 X78.845 Y56.364 E122.78305
G1 X79.605 Y56.364 E122.83392
G1 X62.334 Y73.636 E124.46995
G1 X63.093 Y73.636 E124.52082
G1 X80.364 Y56.364 E126.15685
G1 X81.124 Y56.364 E126.20772
G1 X63.852 Y73.636 E127.84375
G1 X64.612 Y73.636 E127.89462
G1 X81.883 Y56.364 E129.53065
G1 X82.643 Y56.364 E129.58152
G1 X65.371 Y73.636 E131.21755
G1 X66.131 Y73.636 E131.26842
G1 X83.402 Y56.364 E132.90445
G1 X84.162 Y56.364 E132.95532
G1 X66.890 Y73.636 E134.59135
G1 X67.650 Y73.636 E134.64222
G1 X84.921 Y56.364 E136.27825
G1 X85.681 Y56.364 E136.32912
G1 X67.997 Y74.048 E138.00418
G1 X68.275 Y74.529 E138.04142
G1 X86.440 Y56.364 E139.76208
G1 X87.199 Y56.364 E139.81295
G1 X68.553 Y75.011 E141.57923
G1 X68.831 Y75.492 E141.61647
G1 X87.959 Y56.364 E143.42835
G1 X88.718 Y56.364 E143.47922
G1 X69.109 Y75.974 E145.33671
G1 X69.387 Y76.455 E145.37395
G1 X89.478 Y56.364 E147.27706
G1 X90.237 Y56.364 E147.32793
G1 X69.665 Y76.937 E149.27664
G1 X69.943 Y77.418 E149.31388
G1 X90.997 Y56.364 E151.30820
G1 X91.756 Y56.364 E151.35907
G1 X70.221 Y77.899 E153.39900
G1 X70.499 Y78.381 E153.43624
G1 X92.516 Y56.364 E155.52178
G1 X93.275 Y56.364 E155.57265
G1 X70.777 Y78.862 E157.70380
G1 X71.055 Y79.344 E157.74104
G1 X94.035 Y56.364 E159.91780
G1 X94.794 Y56.364 E159.96867
G1 X71.333 Y79.825 E162.19104
G1 X71.611 Y80.307 E162.22828
G1 X95.554 Y56.364 E164.49626
G1 X96.313 Y56.364 E164.54713
G1 X71.889 Y80.788 E166.86072
G1 X72.167 Y81.270 E166.89796
G1 X97.073 Y56.364 E169.25715
G1 X97.832 Y56.364 E169.30802
G1 X72.445 Y81.751 E171.71283
G1 X72.723 Y82.233 E171.75007
G1 X98.592 Y56.364 E174.20048
G1 X99.351 Y56.364 E174.25135
G1 X73.001 Y82.714 E176.74738
G1 X73.279 Y83.196 E176.78462
G1 X100.111 Y56.364 E179.32625
G1 X100.870 Y56.364 E179.37712
G1 X73.557 Y83.677 E181.96437
G1 X73.835 Y84.159 E182.00161
G1 X101.629 Y56.364 E184.63446
G1 X102.389 Y56.364 E184.68533
G1 X74.113 Y84.640 E187.36379
G1 X74.391 Y85.122 E187.40103
G1 X140.474 Y19.039 E193.66084
G1 X140.956 Y19.316 E193.69808
G1 X74.669 Y85.603 E199.97715
G1 X74.947 Y86.085 E200.01439
G1 X141.437 Y19.594 E206.31275
G1 X141.919 Y19.872 E206.34999
G1 X75.225 Y86.566 E212.66762
G1 X75.503 Y87.048 E212.70486
G1 X142.400 Y20.150 E219.04177
G1 X142.882 Y20.428 E219.07901
G1 X75.781 Y87.529 E225.43520
G1 X76.059 Y88.011 E225.47244
G1 X142.298 Y21.772 E231.74701
G1 X141.261 Y23.569 E231.88599
G1 X76.337 Y88.492 E238.03594
G1 X76.615 Y88.974 E238.07318
G1 X140.223 Y25.365 E244.09853
G1 X139.186 Y27.162 E244.23751
G1 X76.893 Y89.455 E250.13826
G1 X77.171 Y89.937 E250.17550
G1 X138.148 Y28.959 E255.95163
G1 X137.111 Y30.756 E256.09061
G1 X77.449 Y90.418 E261.74214
G1 X77.727 Y90.900 E261.77938
G1 X136.073 Y32.553 E267.30630
G1 X135.036 Y34.350 E267.44528
G1 X78.005 Y91.381 E272.84760
G1 X78.283 Y91.863 E272.88484
G1 X133.998 Y36.147 E278.16255
G1 X132.961 Y37.944 E278.30153
G1 X78.561 Y92.344 E283.45463
G1 X78.839 Y92.826 E283.49187
G1 X131.923 Y39.741 E288.52036
G1 X130.886 Y41.538 E288.65934
G1 X79.117 Y93.307 E293.56323
G1 X79.395 Y93.789 E293.60047
G1 X129.849 Y43.335 E298.37975
G1 X128.811 Y45.132 E298.51873
G1 X79.673 Y94.270 E303.17340
G1 X79.951 Y94.752 E303.21064
G1 X127.774 Y46.929 E307.74070
G1 X126.736 Y48.726 E307.87968
G1 X80.229 Y95.233 E312.28514
G1 X80.507 Y95.715 E312.32238
G1 X125.699 Y50.523 E316.60323
G1 X124.661 Y52.320 E316.74221
G1 X80.785 Y96.196 E320.89846
G1 X81.063 Y96.678 E320.93570
G1 X123.624 Y54.116 E324.96733
G1 X122.586 Y55.913 E325.10631
G1 X81.341 Y97.159 E329.01334
G1 X81.619 Y97.640 E329.05058
G1 X121.549 Y57.710 E332.83301
G1 X120.511 Y59.507 E332.97199
G1 X81.897 Y98.122 E336.62980
G1 X82.175 Y98.603 E336.66704
G1 X119.474 Y61.304 E340.20025
G1 X118.436 Y63.101 E340.33923
G1 X82.453 Y99.085 E343.74783
G1 X82.731 Y99.566 E343.78507
G1 X117.399 Y64.898 E347.06907
G1 X116.362 Y66.695 E347.20805
G1 X83.009 Y100.048 E350.36743
G1 X83.287 Y100.529 E350.40467
G1 X115.324 Y68.492 E353.43945
G1 X114.287 Y70.289 E353.57843
G1 X83.565 Y101.011 E356.48861
G1 X83.843 Y101.492 E356.52585
G1 X113.249 Y72.086 E359.31141
G1 X112.212 Y73.883 E359.45039
G1 X84.121 Y101.974 E362.11135
G1 X84.399 Y102.455 E362.14859
G1 X111.174 Y75.680 E364.68494
G1 X110.137 Y77.477 E364.82392
G1 X84.677 Y102.937 E367.23567
G1 X84.955 Y103.418 E367.27291
G1 X109.099 Y79.274 E369.56004
G1 X108.062 Y81.071 E369.69903
G1 X85.233 Y103.900 E371.86155
G1 X85.511 Y104.381 E371.89879
G1 X107.024 Y82.867 E373.93672
G1 X105.987 Y84.664 E374.07570
G1 X85.789 Y104.863 E375.98901
G1 X86.066 Y105.344 E376.02625
G1 X104.949 Y86.461 E377.81496
G1 X103.912 Y88.258 E377.95394
G1 X86.344 Y105.826 E379.61805
G1 X86.622 Y106.307 E379.65529
G1 X102.875 Y90.055 E381.19478
G1 X101.837 Y91.852 E381.33376
G1 X86.900 Y106.789 E382.74865
G1 X87.178 Y107.270 E382.78589
G1 X100.800 Y93.649 E384.07617
G1 X100.052 Y94.943 E384.17626
G1 X100.130 Y95.078 E384.18668
G1 X87.456 Y107.752 E385.38722
G1 X87.734 Y108.233 E385.42446
G1 X100.408 Y95.559 E386.62500
G1 X100.686 Y96.041 E386.66224
G1 X88.012 Y108.715 E387.86278
G1 X88.290 Y109.196 E387.90002
G1 X100.964 Y96.522 E389.10056
G1 X101.242 Y97.004 E389.13780
G1 X88.568 Y109.678 E390.33834
G1 X88.846 Y110.159 E390.37558
G1 X101.520 Y97.485 E391.57612
G1 X101.798 Y97.967 E391.61336
G1 X89.124 Y110.641 E392.81390
G1 X89.402 Y111.122 E392.85114
G1 X102.076 Y98.448 E394.05168
G1 X102.354 Y98.930 E394.08892
G1 X89.680 Y111.604 E395.28946
G1 X89.958 Y112.085 E395.32670
G1 X102.632 Y99.411 E396.52724
G1 X102.910 Y99.893 E396.56448
G1 X90.236 Y112.567 E397.76502
G1 X90.514 Y113.048 E397.80226
G1 X103.188 Y100.374 E399.00280
G1 X103.466 Y100.856 E399.04004
G1 X90.792 Y113.530 E400.24058
G1 X91.070 Y114.011 E400.27782
G1 X103.744 Y101.337 E401.47836
G1 X104.022 Y101.819 E401.51560
G1 X91.348 Y114.493 E402.71614
G1 X91.626 Y114.974 E402.75338
G1 X104.300 Y102.300 E403.95392
G1 X104.578 Y102.782 E403.99116
G1 X91.904 Y115.456 E405.19170
G1 X92.182 Y115.937 E405.22894
G1 X104.856 Y103.263 E406.42949
G1 X105.134 Y103.745 E406.46672
G1 X92.460 Y116.419 E407.66727
G1 X92.738 Y116.900 E407.70451
G1 X105.412 Y104.226 E408.90505
G1 X105.690 Y104.708 E408.94229
G1 X93.016 Y117.381 E410.14283
G1 X93.294 Y117.863 E410.18007
G1 X105.968 Y105.189 E411.38061
G1 X106.246 Y105.671 E411.41785
G1 X93.572 Y118.344 E412.61839
G1 X93.850 Y118.826 E412.65563
G1 X106.524 Y106.152 E413.85617
G1 X106.802 Y106.634 E413.89341
G1 X94.128 Y119.307 E415.09395
G1 X94.406 Y119.789 E415.13119
G1 X107.080 Y107.115 E416.33173
G1 X107.358 Y107.597 E416.36897
G1 X94.684 Y120.270 E417.56951
G1 X94.962 Y120.752 E417.60675
G1 X107.636 Y108.078 E418.80729
G1 X107.914 Y108.560 E418.84453
G1 X95.240 Y121.233 E420.04507
