; generated by Slic3r 1.3.0 on 2023-08-04 at 15:42:15

; external perimeters extrusion width = 0.44mm (2.78mm^3/s)
; perimeters extrusion width = 0.40mm (7.14mm^3/s)
; infill extrusion width = 0.50mm (10.97mm^3/s)
; solid infill extrusion width = 0.60mm (6.68mm^3/s)
; top infill extrusion width = 0.40mm (2.14mm^3/s)

M107
M190 S80 ; set bed temperature and wait for it to be reached
M104 S250 ; set temperature
G28 ; home all axes
G1 Z5 F5000 ; lift nozzle

; Filament gcode

M109 S250 ; set temperature and wait for it to be reached
G21 ; set units to millimeters
G90 ; use absolute coordinates
M82 ; use absolute distances for extrusion
G92 E0
G1 Z0.300 F30000.000
G1 E-2.00000 F2400.00000
G92 E0
G1 X40.342 Y40.433 F30000.000
G1 E2.00000 F2400.00000
G1 F2100
G1 X41.698 Y39.119 E2.12611
G1 X42.905 Y38.021 E2.23514
G1 X44.242 Y36.876 E2.35271
G1 X45.715 Y35.696 E2.47882
G1 X47.020 Y34.716 E2.58784
G1 X48.459 Y33.702 E2.70541
G1 X50.037 Y32.666 E2.83152
G1 X51.428 Y31.813 E2.94055
G1 X52.956 Y30.939 E3.05812
G1 X54.510 Y30.114 E3.17569
G1 X56.090 Y29.338 E3.29326
G1 X57.810 Y28.561 E3.41937
G1 X59.318 Y27.937 E3.52840
G1 X60.963 Y27.313 E3.64596
G1 X62.749 Y26.701 E3.77207
G1 X64.309 Y26.221 E3.88110
G1 X66.006 Y25.755 E3.99867
G1 X67.842 Y25.314 E4.12478
G1 X69.440 Y24.984 E4.23381
G1 X71.173 Y24.679 E4.35138
G1 X73.042 Y24.413 E4.47749
G1 X74.792 Y24.222 E4.59506
G1 X76.546 Y24.086 E4.71263
G1 X78.304 Y24.005 E4.83020
G1 X79.936 Y23.979 E4.93922
G1 X81.824 Y24.009 E5.06533
G1 X83.581 Y24.094 E5.18290
G1 X85.208 Y24.222 E5.29193
G1 X87.085 Y24.429 E5.41804
G1 X88.700 Y24.659 E5.52707
G1 X90.434 Y24.960 E5.64464
G1 X92.283 Y25.342 E5.77075
G1 X93.870 Y25.723 E5.87977
G1 X95.568 Y26.186 E5.99734
G1 X97.251 Y26.701 E6.11491
G1 X98.916 Y27.270 E6.23248
G1 X100.682 Y27.937 E6.35859
G1 X102.190 Y28.561 E6.46762
G1 X103.795 Y29.284 E6.58519
G1 X105.490 Y30.114 E6.71130
G1 X106.932 Y30.878 E6.82032
G1 X108.462 Y31.748 E6.93789
G1 X110.071 Y32.734 E7.06401
G1 X111.541 Y33.702 E7.18158
G1 X112.876 Y34.641 E7.29060
G1 X114.577 Y35.927 E7.43302
G1 X115.758 Y36.876 E7.53427
G1 X117.095 Y38.021 E7.65184
G1 X118.395 Y39.206 E7.76941
G1 X119.567 Y40.342 E7.87844
G1 X120.881 Y41.698 E8.00455
G1 X121.979 Y42.905 E8.11358
G1 X123.124 Y44.242 E8.23115
G1 X124.304 Y45.715 E8.35726
G1 X125.284 Y47.020 E8.46628
G1 X126.298 Y48.459 E8.58385
G1 X127.334 Y50.037 E8.70996
G1 X128.252 Y51.538 E8.82753
G1 X129.061 Y52.956 E8.93656
G1 X129.886 Y54.510 E9.05413
G1 X130.554 Y55.870 E9.15538
G1 X131.439 Y57.810 E9.29780
G1 X132.063 Y59.318 E9.40683
G1 X132.687 Y60.963 E9.52440
G1 X133.299 Y62.749 E9.65051
G1 X133.814 Y64.432 E9.76808
G1 X134.245 Y66.006 E9.87710
G1 X134.686 Y67.842 E10.00322
G1 X135.016 Y69.440 E10.11224
G1 X135.321 Y71.173 E10.22981
G1 X135.587 Y73.042 E10.35592
G1 X135.766 Y74.664 E10.46495
G1 X135.906 Y76.419 E10.58252
G1 X135.991 Y78.176 E10.70008
G1 X136.021 Y79.936 E10.81766
G1 X135.991 Y81.824 E10.94377
G1 X135.914 Y83.454 E11.05279
G1 X135.778 Y85.208 E11.17036
G1 X135.571 Y87.085 E11.29647
G1 X135.341 Y88.700 E11.40550
G1 X135.040 Y90.434 E11.52307
G1 X134.658 Y92.283 E11.64918
G1 X134.277 Y93.870 E11.75821
G1 X133.814 Y95.568 E11.87577
G1 X133.259 Y97.372 E12.00189
G1 X132.687 Y99.037 E12.11946
G1 X132.063 Y100.682 E12.23702
G1 X131.439 Y102.190 E12.34605
G1 X130.716 Y103.795 E12.46362
G1 X129.886 Y105.490 E12.58973
G1 X129.061 Y107.044 E12.70730
G1 X128.252 Y108.462 E12.81633
G1 X127.266 Y110.071 E12.94244
G1 X126.370 Y111.435 E13.05146
G1 X125.359 Y112.876 E13.16903
G1 X124.226 Y114.386 E13.29515
G1 X123.205 Y115.660 E13.40417
G1 X122.064 Y116.999 E13.52174
G1 X120.881 Y118.302 E13.63931
G1 X119.658 Y119.567 E13.75688
G1 X118.302 Y120.881 E13.88299
G1 X117.095 Y121.979 E13.99202
G1 X115.758 Y123.124 E14.10959
G1 X114.285 Y124.304 E14.23570
G1 X112.876 Y125.359 E14.35326
G1 X111.541 Y126.298 E14.46229
G1 X109.963 Y127.334 E14.58840
G1 X108.572 Y128.187 E14.69743
G1 X107.044 Y129.061 E14.81500
G1 X105.490 Y129.886 E14.93257
G1 X103.910 Y130.662 E15.05014
G1 X102.190 Y131.439 E15.17625
G1 X100.563 Y132.110 E15.29381
G1 X99.037 Y132.687 E15.40284
G1 X97.251 Y133.299 E15.52896
G1 X95.568 Y133.814 E15.64652
G1 X93.994 Y134.245 E15.75555
G1 X92.158 Y134.686 E15.88166
G1 X90.560 Y135.016 E15.99069
G1 X88.827 Y135.321 E16.10826
G1 X86.958 Y135.587 E16.23437
G1 X85.208 Y135.778 E16.35194
G1 X83.454 Y135.914 E16.46950
G1 X81.824 Y135.991 E16.57853
G1 X80.064 Y136.021 E16.69610
G1 X78.176 Y135.991 E16.82221
G1 X76.419 Y135.906 E16.93978
G1 X74.792 Y135.778 E17.04881
G1 X72.915 Y135.571 E17.17492
G1 X71.300 Y135.341 E17.28395
G1 X69.566 Y135.040 E17.40151
G1 X67.717 Y134.658 E17.52762
G1 X66.130 Y134.277 E17.63665
G1 X64.432 Y133.814 E17.75422
G1 X62.397 Y133.180 E17.89664
G1 X60.963 Y132.687 E17.99789
G1 X59.318 Y132.063 E18.11546
G1 X57.810 Y131.439 E18.22449
G1 X56.205 Y130.716 E18.34206
G1 X54.510 Y129.886 E18.46817
G1 X53.068 Y129.122 E18.57720
G1 X51.538 Y128.252 E18.69477
G1 X49.724 Y127.132 E18.83719
G1 X48.459 Y126.298 E18.93844
G1 X47.020 Y125.284 E19.05601
G1 X45.715 Y124.304 E19.16503
G1 X44.340 Y123.205 E19.28260
G1 X42.905 Y121.979 E19.40871
G1 X41.605 Y120.794 E19.52628
G1 X40.433 Y119.658 E19.63531
G1 X39.119 Y118.302 E19.76142
G1 X38.021 Y117.095 E19.87045
G1 X36.876 Y115.758 E19.98802
G1 X35.696 Y114.285 E20.11413
G1 X34.716 Y112.980 E20.22315
G1 X33.702 Y111.541 E20.34072
G1 X32.666 Y109.963 E20.46684
G1 X31.748 Y108.462 E20.58440
G1 X30.878 Y106.932 E20.70197
G1 X30.114 Y105.490 E20.81100
G1 X29.338 Y103.910 E20.92857
G1 X28.561 Y102.190 E21.05468
G1 X27.937 Y100.682 E21.16371
G1 X27.313 Y99.037 E21.28127
G1 X26.701 Y97.251 E21.40739
G1 X26.221 Y95.691 E21.51641
G1 X25.755 Y93.994 E21.63398
G1 X25.314 Y92.158 E21.76009
G1 X24.984 Y90.560 E21.86912
G1 X24.679 Y88.827 E21.98669
G1 X24.413 Y86.958 E22.11280
G1 X24.234 Y85.336 E22.22183
G1 X24.094 Y83.581 E22.33940
G1 X24.009 Y81.824 E22.45696
G1 X23.979 Y80.064 E22.57454
G1 X24.009 Y78.176 E22.70064
G1 X24.086 Y76.546 E22.80967
G1 X24.222 Y74.792 E22.92724
G1 X24.429 Y72.915 E23.05335
G1 X24.659 Y71.300 E23.16238
G1 X24.960 Y69.566 E23.27995
G1 X25.342 Y67.717 E23.40606
G1 X25.755 Y66.006 E23.52363
G1 X26.186 Y64.432 E23.63265
G1 X26.701 Y62.749 E23.75022
G1 X27.270 Y61.084 E23.86779
G1 X27.937 Y59.318 E23.99390
G1 X28.561 Y57.810 E24.10293
G1 X29.284 Y56.205 E24.22050
G1 X30.114 Y54.510 E24.34661
G1 X30.939 Y52.956 E24.46418
G1 X31.748 Y51.538 E24.57321
G1 X32.734 Y49.929 E24.69932
G1 X33.630 Y48.565 E24.80834
G1 X34.641 Y47.124 E24.92591
G1 X35.774 Y45.614 E25.05202
G1 X36.795 Y44.340 E25.16105
G1 X37.936 Y43.001 E25.27862
G1 X39.119 Y41.698 E25.39619
G1 X40.300 Y40.476 E25.50975
G1 X40.727 Y40.805 F30000.000
G1 F2100
G1 X42.058 Y39.515 E25.63361
G1 X43.349 Y38.343 E25.75006
G1 X44.590 Y37.283 E25.85908
G1 X46.037 Y36.124 E25.98295
G1 X47.342 Y35.144 E26.09197
G1 X48.767 Y34.141 E26.20842
G1 X50.316 Y33.123 E26.33228
G1 X51.708 Y32.270 E26.44131
G1 X53.221 Y31.405 E26.55775
G1 X54.761 Y30.588 E26.67420
G1 X56.325 Y29.819 E26.79064
G1 X58.015 Y29.056 E26.91450
G1 X59.523 Y28.432 E27.02353
G1 X61.153 Y27.814 E27.13998
G1 X62.907 Y27.213 E27.26384
G1 X64.573 Y26.702 E27.38029
G1 X66.148 Y26.272 E27.48931
G1 X67.950 Y25.839 E27.61318
G1 X69.549 Y25.508 E27.72220
G1 X71.265 Y25.207 E27.83865
G1 X73.101 Y24.945 E27.96251
G1 X74.723 Y24.766 E28.07154
G1 X76.461 Y24.628 E28.18798
G1 X78.202 Y24.544 E28.30443
G1 X79.944 Y24.515 E28.42087
G1 X81.798 Y24.544 E28.54474
G1 X83.539 Y24.628 E28.66118
G1 X85.166 Y24.756 E28.77021
G1 X87.251 Y24.994 E28.91038
G1 X88.735 Y25.207 E29.01051
G1 X90.451 Y25.508 E29.12695
G1 X92.050 Y25.839 E29.23598
G1 X93.745 Y26.244 E29.35242
G1 X95.533 Y26.733 E29.47629
G1 X97.093 Y27.213 E29.58531
G1 X98.743 Y27.776 E29.70176
G1 X100.477 Y28.432 E29.82562
G1 X102.087 Y29.100 E29.94207
G1 X103.574 Y29.772 E30.05109
G1 X105.140 Y30.537 E30.16754
G1 X106.682 Y31.351 E30.28398
G1 X108.292 Y32.270 E30.40785
G1 X109.684 Y33.123 E30.51687
G1 X111.141 Y34.078 E30.63332
G1 X112.658 Y35.144 E30.75718
G1 X113.963 Y36.124 E30.86621
G1 X115.325 Y37.213 E30.98265
G1 X116.735 Y38.417 E31.10652
G1 X118.023 Y39.591 E31.22296
G1 X119.195 Y40.727 E31.33199
G1 X120.485 Y42.058 E31.45585
G1 X121.583 Y43.265 E31.56488
G1 X122.717 Y44.590 E31.68132
G1 X123.808 Y45.949 E31.79777
G1 X124.709 Y47.146 E31.89790
G1 X125.922 Y48.859 E32.03807
G1 X126.818 Y50.223 E32.14710
G1 X127.730 Y51.708 E32.26354
G1 X128.649 Y53.318 E32.38740
G1 X129.412 Y54.761 E32.49643
G1 X130.181 Y56.325 E32.61288
G1 X130.944 Y58.015 E32.73674
G1 X131.568 Y59.523 E32.84577
G1 X132.186 Y61.153 E32.96221
G1 X132.787 Y62.907 E33.08608
G1 X133.267 Y64.467 E33.19510
G1 X133.728 Y66.148 E33.31155
G1 X134.161 Y67.950 E33.43541
G1 X134.492 Y69.549 E33.54444
G1 X134.793 Y71.265 E33.66088
G1 X135.055 Y73.101 E33.78474
G1 X135.234 Y74.723 E33.89377
G1 X135.372 Y76.461 E34.01022
G1 X135.456 Y78.202 E34.12666
G1 X135.485 Y79.944 E34.24311
G1 X135.456 Y81.798 E34.36697
G1 X135.379 Y83.429 E34.47600
G1 X135.244 Y85.166 E34.59244
G1 X135.041 Y87.009 E34.71631
G1 X134.793 Y88.735 E34.83275
G1 X134.492 Y90.451 E34.94919
G1 X134.161 Y92.050 E35.05822
G1 X133.756 Y93.745 E35.17466
G1 X133.267 Y95.533 E35.29853
G1 X132.787 Y97.093 E35.40755
G1 X132.224 Y98.743 E35.52400
G1 X131.568 Y100.477 E35.64786
G1 X130.944 Y101.985 E35.75689
G1 X130.228 Y103.574 E35.87333
G1 X129.412 Y105.239 E35.99720
G1 X128.595 Y106.779 E36.11364
G1 X127.787 Y108.196 E36.22267
G1 X126.818 Y109.777 E36.34653
G1 X125.922 Y111.141 E36.45556
G1 X124.921 Y112.568 E36.57201
G1 X123.808 Y114.051 E36.69587
G1 X122.717 Y115.410 E36.81231
G1 X121.583 Y116.735 E36.92876
G1 X120.485 Y117.942 E37.03779
G1 X119.273 Y119.195 E37.15423
G1 X117.942 Y120.485 E37.27809
G1 X116.735 Y121.583 E37.38712
G1 X115.410 Y122.717 E37.50357
G1 X113.963 Y123.876 E37.62743
G1 X112.568 Y124.921 E37.74387
G1 X111.233 Y125.859 E37.85290
G1 X109.684 Y126.877 E37.97676
G1 X108.292 Y127.730 E38.08579
G1 X106.779 Y128.595 E38.20223
G1 X105.239 Y129.412 E38.31868
G1 X103.675 Y130.181 E38.43512
G1 X101.985 Y130.944 E38.55899
G1 X100.477 Y131.568 E38.66801
G1 X98.847 Y132.186 E38.78446
G1 X97.093 Y132.787 E38.90832
G1 X95.533 Y133.267 E39.01735
G1 X93.852 Y133.728 E39.13379
G1 X92.050 Y134.161 E39.25766
G1 X90.451 Y134.492 E39.36668
G1 X88.735 Y134.793 E39.48313
G1 X86.899 Y135.055 E39.60699
G1 X85.277 Y135.234 E39.71602
G1 X83.539 Y135.372 E39.83246
G1 X81.798 Y135.456 E39.94891
G1 X80.056 Y135.485 E40.06535
G1 X78.202 Y135.456 E40.18922
G1 X76.571 Y135.379 E40.29825
G1 X74.834 Y135.244 E40.41469
G1 X72.991 Y135.041 E40.53855
G1 X71.375 Y134.811 E40.64758
G1 X69.658 Y134.513 E40.76402
G1 X67.605 Y134.080 E40.90420
G1 X66.148 Y133.728 E41.00432
G1 X64.467 Y133.267 E41.12077
G1 X62.907 Y132.787 E41.22980
G1 X61.257 Y132.224 E41.34624
G1 X59.523 Y131.568 E41.47010
G1 X58.015 Y130.944 E41.57913
G1 X56.426 Y130.228 E41.69558
G1 X54.761 Y129.412 E41.81944
G1 X53.318 Y128.649 E41.92847
G1 X51.804 Y127.787 E42.04491
G1 X50.019 Y126.684 E42.18509
G1 X48.767 Y125.859 E42.28521
G1 X47.342 Y124.856 E42.40166
G1 X46.037 Y123.876 E42.51068
G1 X44.675 Y122.787 E42.62713
G1 X43.265 Y121.583 E42.75099
G1 X41.977 Y120.409 E42.86744
G1 X40.805 Y119.273 E42.97647
G1 X39.515 Y117.942 E43.10033
G1 X38.417 Y116.735 E43.20935
G1 X37.283 Y115.410 E43.32580
G1 X36.124 Y113.963 E43.44966
G1 X35.144 Y112.658 E43.55869
G1 X34.141 Y111.233 E43.67513
G1 X33.123 Y109.684 E43.79900
G1 X32.270 Y108.292 E43.90803
G1 X31.405 Y106.779 E44.02447
G1 X30.588 Y105.239 E44.14091
G1 X29.819 Y103.675 E44.25736
G1 X29.056 Y101.985 E44.38122
G1 X28.432 Y100.477 E44.49025
G1 X27.814 Y98.847 E44.60669
G1 X27.213 Y97.093 E44.73056
G1 X26.733 Y95.533 E44.83958
G1 X26.272 Y93.852 E44.95603
G1 X25.839 Y92.050 E45.07989
G1 X25.508 Y90.451 E45.18892
G1 X25.207 Y88.735 E45.30536
G1 X24.945 Y86.899 E45.42923
G1 X24.766 Y85.277 E45.53825
G1 X24.628 Y83.539 E45.65470
G1 X24.544 Y81.798 E45.77114
G1 X24.515 Y80.055 E45.88759
G1 X24.544 Y78.202 E46.01145
G1 X24.621 Y76.571 E46.12048
G1 X24.756 Y74.834 E46.23692
G1 X24.959 Y72.991 E46.36079
G1 X25.189 Y71.375 E46.46981
G1 X25.487 Y69.658 E46.58626
G1 X25.863 Y67.842 E46.71012
G1 X26.244 Y66.255 E46.81915
G1 X26.702 Y64.573 E46.93559
G1 X27.213 Y62.907 E47.05204
G1 X27.776 Y61.257 E47.16848
G1 X28.432 Y59.523 E47.29235
G1 X29.056 Y58.015 E47.40137
G1 X29.772 Y56.426 E47.51782
G1 X30.588 Y54.761 E47.64168
G1 X31.351 Y53.318 E47.75071
G1 X32.213 Y51.804 E47.86715
G1 X33.182 Y50.223 E47.99102
G1 X34.078 Y48.859 E48.10004
G1 X35.079 Y47.432 E48.21649
G1 X36.192 Y45.949 E48.34035
G1 X37.283 Y44.590 E48.45680
G1 X38.343 Y43.349 E48.56582
G1 X39.515 Y42.058 E48.68227
G1 X40.685 Y40.848 E48.79470
G1 E46.79470 F2400.00000
G92 E0
G1 X62.469 Y85.599 F30000.000
G1 E2.00000 F2400.00000
G1 F2100
G1 X69.831 Y89.849 E2.56788
G1 X53.445 Y118.230 E4.75718
G1 X46.084 Y113.980 E5.32506
G1 X62.439 Y85.651 E7.51035
G1 X62.665 Y86.331 F30000.000
G1 F2100
G1 X69.099 Y90.045 E8.00666
G1 X53.249 Y117.498 E10.12439
G1 X46.815 Y113.784 E10.62071
G1 X62.635 Y86.383 E12.73443
G1 X62.865 Y85.984 F30000.000
G1 E10.73443 F2400.00000
G92 E0
G1 X93.614 Y83.882 F30000.000
G1 E2.00000 F2400.00000
G1 F2100
G1 X126.386 Y83.882 E4.18930
G1 X126.386 Y92.383 E4.75718
G1 X93.614 Y92.383 E6.94647
G1 X93.614 Y83.942 E7.51035
G1 X94.150 Y84.418 F30000.000
G1 F2100
G1 X125.850 Y84.418 E9.62808
G1 X125.850 Y91.847 E10.12439
G1 X94.150 Y91.847 E12.24213
G1 X94.150 Y84.478 E12.73443
G1 X93.977 Y84.057 F30000.000
G1 E10.73443 F2400.00000
G92 E0
G1 X83.916 Y62.018 F30000.000
G1 E2.00000 F2400.00000
G1 F2100
G1 X76.555 Y66.269 E2.56788
G1 X60.169 Y37.888 E4.75718
G1 X67.531 Y33.638 E5.32506
G1 X83.886 Y61.966 E7.51035
G1 X83.185 Y61.822 F30000.000
G1 F2100
G1 X76.751 Y65.537 E8.00666
G1 X60.901 Y38.084 E10.12440
G1 X67.335 Y34.369 E10.62071
G1 X83.155 Y61.770 E12.73444
G1 X83.406 Y62.155 F30000.000
G1 E10.73444 F2400.00000
G92 E0
G1 X88.799 Y29.655 F30000.000
G1 E2.00000 F2400.00000
G1 F2100
G1 X89.578 Y29.791 E2.05283
G1 X91.150 Y30.117 E2.16011
G1 X92.712 Y30.492 E2.26738
G1 X94.260 Y30.915 E2.37465
G1 X95.795 Y31.387 E2.48192
G1 X97.314 Y31.908 E2.58919
G1 X98.816 Y32.475 E2.69646
G1 X100.300 Y33.090 E2.80374
G1 X101.763 Y33.750 E2.91101
G1 X103.205 Y34.457 E3.01828
G1 X104.624 Y35.208 E3.12555
G1 X106.019 Y36.004 E3.23282
G1 X107.388 Y36.843 E3.34010
G1 X108.730 Y37.724 E3.44737
G1 X110.044 Y38.648 E3.55464
G1 X111.328 Y39.612 E3.66191
G1 X112.581 Y40.616 E3.76918
G1 X113.802 Y41.659 E3.87646
G1 X114.990 Y42.739 E3.98373
G1 X116.143 Y43.857 E4.09100
G1 X117.261 Y45.010 E4.19827
G1 X118.341 Y46.198 E4.30554
G1 X119.384 Y47.419 E4.41281
G1 X120.388 Y48.672 E4.52009
G1 X121.207 Y49.762 E4.61116
G1 X122.277 Y51.271 E4.73474
G1 X123.157 Y52.612 E4.84189
G1 X123.996 Y53.981 E4.94917
G1 X124.792 Y55.376 E5.05644
G1 X125.543 Y56.795 E5.16371
G1 X126.250 Y58.237 E5.27098
G1 X126.910 Y59.700 E5.37825
G1 X127.432 Y60.960 E5.46932
G1 X128.093 Y62.687 E5.59291
G1 X128.613 Y64.205 E5.70006
G1 X129.085 Y65.740 E5.80733
G1 X129.508 Y67.288 E5.91461
G1 X129.883 Y68.850 E6.02188
G1 X130.209 Y70.422 E6.12915
G1 X130.485 Y72.004 E6.23642
G1 X130.711 Y73.594 E6.34369
G1 X130.887 Y75.190 E6.45097
G1 X131.013 Y76.791 E6.55824
G1 X131.089 Y78.394 E6.66551
G1 X131.114 Y80.000 E6.77278
G1 X131.089 Y81.606 E6.88005
G1 X131.013 Y83.209 E6.98733
G1 X130.887 Y84.810 E7.09460
G1 X130.711 Y86.406 E7.20187
G1 X130.485 Y87.996 E7.30914
G1 X130.209 Y89.578 E7.41641
G1 X129.883 Y91.150 E7.52368
G1 X129.508 Y92.712 E7.63096
G1 X129.085 Y94.260 E7.73823
G1 X128.613 Y95.795 E7.84550
G1 X128.092 Y97.314 E7.95277
G1 X127.525 Y98.816 E8.06004
G1 X126.910 Y100.300 E8.16732
G1 X126.250 Y101.763 E8.27459
G1 X125.543 Y103.205 E8.38186
G1 X124.792 Y104.624 E8.48913
G1 X123.996 Y106.019 E8.59640
G1 X123.284 Y107.182 E8.68747
G1 X122.275 Y108.732 E8.81105
G1 X121.352 Y110.044 E8.91821
G1 X120.388 Y111.328 E9.02548
G1 X119.384 Y112.581 E9.13276
G1 X118.341 Y113.802 E9.24003
G1 X117.424 Y114.811 E9.33110
G1 X116.143 Y116.143 E9.45456
G1 X114.811 Y117.424 E9.57803
