; generated by Slic3r 1.3.0 on 2023-03-13 at 14:54:10

; external perimeters extrusion width = 0.44mm (2.78mm^3/s)
; perimeters extrusion width = 0.40mm (7.14mm^3/s)
; infill extrusion width = 0.50mm (10.97mm^3/s)
; solid infill extrusion width = 0.60mm (6.68mm^3/s)
; top infill extrusion width = 0.40mm (2.14mm^3/s)

M107
M190 S80 ; set bed temperature and wait for it to be reached
M104 S210 ; set temperature
G28 ; home all axes
G1 Z5 F5000 ; lift nozzle

; Filament gcode

M109 S210 ; set temperature and wait for it to be reached
G21 ; set units to millimeters
G90 ; use absolute coordinates
M82 ; use absolute distances for extrusion
G92 E0
G1 Z0.300 F30000.000
G1 E-2.00000 F2400.00000
G92 E0
G1 X66.460 Y66.240 F30000.000
G1 E2.00000 F2400.00000
G1 F2100
G1 X66.794 Y65.927 E2.03057
G1 X67.380 Y65.430 E2.08190
G1 X68.253 Y64.795 E2.15402
G1 X68.907 Y64.392 E2.20536
G1 X69.317 Y64.167 E2.23662
G1 X69.999 Y63.836 E2.28724
G1 X70.709 Y63.544 E2.33857
G1 X71.737 Y63.210 E2.41072
G1 X72.483 Y63.028 E2.46206
G1 X72.933 Y62.942 E2.49263
G1 X74.004 Y62.807 E2.56473
G1 X74.460 Y62.778 E2.59531
G1 X75.229 Y62.769 E2.64665
G1 X76.306 Y62.836 E2.71875
G1 X76.760 Y62.894 E2.74932
G1 X77.516 Y63.028 E2.80065
G1 X78.562 Y63.297 E2.87277
G1 X78.997 Y63.438 E2.90334
G1 X79.715 Y63.712 E2.95468
G1 X80.692 Y64.171 E3.02678
G1 X81.093 Y64.392 E3.05736
G1 X81.747 Y64.795 E3.10870
G1 X82.373 Y65.238 E3.15994
G1 X82.973 Y65.721 E3.21137
G1 X83.760 Y66.460 E3.28348
G1 X84.279 Y67.027 E3.33482
G1 X84.570 Y67.380 E3.36540
G1 X85.205 Y68.253 E3.43750
G1 X85.608 Y68.907 E3.48884
G1 X85.829 Y69.308 E3.51942
G1 X86.288 Y70.285 E3.59152
G1 X86.457 Y70.710 E3.62209
G1 X86.703 Y71.438 E3.67343
G1 X86.972 Y72.483 E3.74554
G1 X87.106 Y73.240 E3.79688
G1 X87.193 Y74.004 E3.84822
G1 X87.231 Y74.771 E3.89956
G1 X87.231 Y75.229 E3.93013
G1 X87.163 Y76.307 E4.00229
G1 X87.058 Y77.067 E4.05358
G1 X86.904 Y77.820 E4.10492
G1 X86.790 Y78.263 E4.13549
G1 X86.562 Y78.997 E4.18683
G1 X86.165 Y80.001 E4.25893
G1 X85.970 Y80.415 E4.28951
G1 X85.608 Y81.093 E4.34085
G1 X85.030 Y82.004 E4.41296
G1 X84.570 Y82.620 E4.46429
G1 X84.279 Y82.973 E4.49487
G1 X83.540 Y83.760 E4.56697
G1 X83.199 Y84.080 E4.59821
G1 X82.620 Y84.570 E4.64888
G1 X81.747 Y85.205 E4.72098
G1 X81.093 Y85.608 E4.77233
G1 X80.683 Y85.833 E4.80357
G1 X80.001 Y86.165 E4.85424
G1 X79.290 Y86.457 E4.90558
G1 X78.263 Y86.790 E4.97768
G1 X77.820 Y86.904 E5.00826
G1 X77.067 Y87.058 E5.05959
G1 X75.996 Y87.193 E5.13170
G1 X75.229 Y87.231 E5.18304
G1 X74.771 Y87.231 E5.21362
G1 X73.694 Y87.164 E5.28572
G1 X73.240 Y87.106 E5.31629
G1 X72.483 Y86.972 E5.36763
G1 X71.438 Y86.703 E5.43974
G1 X70.993 Y86.559 E5.47097
G1 X70.285 Y86.288 E5.52165
G1 X69.308 Y85.829 E5.59375
G1 X68.907 Y85.608 E5.62432
G1 X68.253 Y85.205 E5.67567
G1 X67.380 Y84.570 E5.74777
G1 X66.794 Y84.073 E5.79911
G1 X66.240 Y83.540 E5.85045
G1 X65.927 Y83.206 E5.88102
G1 X65.430 Y82.620 E5.93236
G1 X64.795 Y81.747 E6.00447
G1 X64.550 Y81.361 E6.03504
G1 X64.171 Y80.692 E6.08638
G1 X63.712 Y79.715 E6.15848
G1 X63.441 Y79.007 E6.20916
G1 X63.297 Y78.562 E6.24040
G1 X63.028 Y77.516 E6.31252
G1 X62.894 Y76.760 E6.36384
G1 X62.808 Y76.006 E6.41453
G1 X62.778 Y75.540 E6.44576
G1 X62.769 Y74.771 E6.49710
G1 X62.836 Y73.694 E6.56921
G1 X62.942 Y72.933 E6.62054
G1 X63.028 Y72.483 E6.65112
G1 X63.297 Y71.438 E6.72322
G1 X63.438 Y71.003 E6.75379
G1 X63.712 Y70.285 E6.80513
G1 X64.172 Y69.308 E6.87727
G1 X64.550 Y68.639 E6.92858
G1 X64.795 Y68.253 E6.95915
G1 X65.430 Y67.380 E7.03126
G1 X65.927 Y66.794 E7.08259
G1 X66.418 Y66.283 E7.12993
G1 X66.839 Y66.619 F30000.000
G1 F2100
G1 X67.148 Y66.329 E7.15825
G1 X67.708 Y65.853 E7.20733
G1 X68.554 Y65.238 E7.27720
G1 X69.180 Y64.853 E7.32629
G1 X69.560 Y64.644 E7.35527
G1 X70.212 Y64.327 E7.40369
G1 X70.891 Y64.048 E7.45277
G1 X71.886 Y63.724 E7.52266
G1 X72.600 Y63.551 E7.57175
G1 X73.017 Y63.471 E7.60008
G1 X74.054 Y63.340 E7.66993
G1 X74.477 Y63.314 E7.69826
G1 X75.212 Y63.304 E7.74735
G1 X76.256 Y63.370 E7.81721
G1 X76.676 Y63.423 E7.84553
G1 X77.400 Y63.551 E7.89461
G1 X78.413 Y63.811 E7.96448
G1 X78.816 Y63.942 E7.99280
G1 X79.503 Y64.203 E8.04190
G1 X80.449 Y64.649 E8.11175
G1 X80.820 Y64.853 E8.14008
G1 X81.446 Y65.238 E8.18917
G1 X82.045 Y65.662 E8.23817
G1 X82.618 Y66.123 E8.28735
G1 X83.381 Y66.839 E8.35721
G1 X83.671 Y67.148 E8.38554
G1 X84.147 Y67.708 E8.43463
G1 X84.587 Y68.297 E8.48373
G1 X84.989 Y68.912 E8.53282
G1 X85.493 Y69.828 E8.60268
G1 X85.797 Y70.497 E8.65177
G1 X85.953 Y70.892 E8.68010
G1 X86.276 Y71.886 E8.74995
G1 X86.381 Y72.297 E8.77828
G1 X86.529 Y73.017 E8.82737
G1 X86.660 Y74.054 E8.89722
G1 X86.696 Y74.788 E8.94631
G1 X86.696 Y75.212 E8.97464
G1 X86.630 Y76.256 E9.04455
G1 X86.530 Y76.973 E9.09291
G1 X86.449 Y77.400 E9.12191
G1 X86.189 Y78.413 E9.19177
G1 X85.953 Y79.108 E9.24086
G1 X85.673 Y79.788 E9.28996
G1 X85.493 Y80.172 E9.31828
G1 X85.147 Y80.820 E9.36738
G1 X84.587 Y81.703 E9.43723
G1 X84.147 Y82.292 E9.48632
G1 X83.877 Y82.619 E9.51465
G1 X83.161 Y83.381 E9.58450
G1 X82.619 Y83.877 E9.63360
G1 X82.292 Y84.147 E9.66192
G1 X81.446 Y84.762 E9.73178
G1 X81.088 Y84.989 E9.76010
G1 X80.449 Y85.351 E9.80918
G1 X79.503 Y85.797 E9.87905
G1 X78.816 Y86.058 E9.92814
G1 X78.413 Y86.189 E9.95647
G1 X77.703 Y86.381 E10.00556
G1 X76.983 Y86.529 E10.05465
G1 X75.946 Y86.660 E10.12451
G1 X75.212 Y86.696 E10.17360
G1 X74.788 Y86.696 E10.20193
G1 X73.744 Y86.630 E10.27178
G1 X73.324 Y86.577 E10.30011
G1 X72.600 Y86.449 E10.34920
G1 X71.587 Y86.189 E10.41906
G1 X70.892 Y85.953 E10.46815
G1 X70.497 Y85.797 E10.49648
G1 X69.551 Y85.351 E10.56633
G1 X69.180 Y85.147 E10.59466
G1 X68.554 Y84.762 E10.64375
G1 X67.708 Y84.147 E10.71360
G1 X67.148 Y83.671 E10.76270
G1 X66.619 Y83.161 E10.81179
G1 X66.329 Y82.852 E10.84012
G1 X65.853 Y82.292 E10.88921
G1 X65.238 Y81.446 E10.95906
G1 X65.011 Y81.088 E10.98739
G1 X64.649 Y80.449 E11.03648
G1 X64.203 Y79.503 E11.10634
G1 X63.945 Y78.825 E11.15476
G1 X63.811 Y78.413 E11.18376
G1 X63.551 Y77.400 E11.25362
G1 X63.423 Y76.676 E11.30270
G1 X63.341 Y75.956 E11.35112
G1 X63.314 Y75.523 E11.38012
G1 X63.304 Y74.788 E11.42922
G1 X63.370 Y73.744 E11.49908
G1 X63.471 Y73.017 E11.54816
G1 X63.551 Y72.600 E11.57649
G1 X63.811 Y71.587 E11.64634
G1 X63.942 Y71.184 E11.67467
G1 X64.203 Y70.497 E11.72376
G1 X64.649 Y69.551 E11.79365
G1 X65.011 Y68.912 E11.84271
G1 X65.238 Y68.554 E11.87104
G1 X65.853 Y67.708 E11.94090
G1 X66.329 Y67.148 E11.98998
G1 X66.797 Y66.662 E12.03507
G1 X67.218 Y66.998 F30000.000
G1 F2100
G1 X68.036 Y66.276 E12.10796
G1 X68.855 Y65.681 E12.17558
G1 X69.794 Y65.126 E12.24845
G1 X70.424 Y64.819 E12.29531
G1 X71.072 Y64.551 E12.34214
G1 X72.035 Y64.239 E12.40978
G1 X73.100 Y64.000 E12.48269
G1 X74.104 Y63.874 E12.55029
G1 X75.195 Y63.839 E12.62320
G1 X76.205 Y63.903 E12.69080
G1 X77.283 Y64.074 E12.76369
G1 X78.263 Y64.325 E12.83131
G1 X79.290 Y64.695 E12.90422
G1 X80.206 Y65.126 E12.97182
G1 X81.145 Y65.681 E13.04473
G1 X81.717 Y66.085 E13.09149
G1 X82.264 Y66.525 E13.13840
G1 X83.002 Y67.218 E13.20602
G1 X83.724 Y68.036 E13.27893
G1 X84.144 Y68.598 E13.32577
G1 X84.528 Y69.185 E13.37262
G1 X85.015 Y70.071 E13.44023
G1 X85.449 Y71.073 E13.51313
G1 X85.761 Y72.035 E13.58073
G1 X86.000 Y73.100 E13.65364
G1 X86.126 Y74.104 E13.72124
G1 X86.161 Y75.195 E13.79415
G1 X86.097 Y76.206 E13.86180
G1 X85.926 Y77.283 E13.93466
G1 X85.675 Y78.263 E14.00227
G1 X85.305 Y79.290 E14.07517
G1 X84.874 Y80.206 E14.14279
G1 X84.528 Y80.815 E14.18962
G1 X84.150 Y81.394 E14.23578
G1 X83.914 Y81.718 E14.26254
G1 X83.475 Y82.264 E14.30939
G1 X82.782 Y83.002 E14.37700
G1 X81.964 Y83.724 E14.44990
G1 X81.145 Y84.319 E14.51751
G1 X80.206 Y84.874 E14.59040
G1 X79.290 Y85.305 E14.65802
G1 X78.263 Y85.675 E14.73092
G1 X77.586 Y85.859 E14.77777
G1 X76.900 Y85.999 E14.82461
G1 X75.896 Y86.126 E14.89222
G1 X74.805 Y86.161 E14.96512
G1 X73.795 Y86.097 E15.03273
G1 X72.717 Y85.926 E15.10563
G1 X71.737 Y85.675 E15.17324
G1 X70.710 Y85.305 E15.24614
G1 X69.794 Y84.874 E15.31375
G1 X68.855 Y84.319 E15.38665
G1 X68.036 Y83.724 E15.45426
G1 X67.502 Y83.269 E15.50110
G1 X66.998 Y82.782 E15.54795
G1 X66.276 Y81.964 E15.62085
G1 X65.681 Y81.145 E15.68846
G1 X65.126 Y80.206 E15.76136
G1 X64.695 Y79.290 E15.82897
G1 X64.325 Y78.263 E15.90187
G1 X64.074 Y77.283 E15.96949
G1 X63.952 Y76.592 E16.01633
G1 X63.875 Y75.906 E16.06249
G1 X63.849 Y75.506 E16.08925
G1 X63.839 Y74.805 E16.13609
G1 X63.903 Y73.795 E16.20371
G1 X64.074 Y72.717 E16.27661
G1 X64.325 Y71.737 E16.34421
G1 X64.695 Y70.710 E16.41711
G1 X65.126 Y69.794 E16.48475
G1 X65.681 Y68.855 E16.55762
G1 X66.276 Y68.036 E16.62524
G1 X66.731 Y67.502 E16.67208
G1 X67.175 Y67.040 E16.71491
G1 X67.596 Y67.377 F30000.000
G1 F2100
G1 X68.364 Y66.699 E16.78331
G1 X69.156 Y66.124 E16.84868
G1 X70.037 Y65.603 E16.91706
G1 X70.637 Y65.310 E16.96167
G1 X71.254 Y65.055 E17.00626
G1 X72.185 Y64.753 E17.07165
G1 X73.184 Y64.530 E17.14006
G1 X74.155 Y64.407 E17.20542
G1 X75.178 Y64.375 E17.27383
G1 X76.155 Y64.436 E17.33919
G1 X77.166 Y64.596 E17.40758
G1 X78.114 Y64.840 E17.47295
G1 X78.746 Y65.055 E17.51755
G1 X79.363 Y65.310 E17.56215
G1 X80.275 Y65.775 E17.63056
G1 X81.101 Y66.299 E17.69592
G1 X81.910 Y66.927 E17.76432
G1 X82.623 Y67.596 E17.82969
G1 X83.301 Y68.365 E17.89810
G1 X83.876 Y69.156 E17.96345
G1 X84.397 Y70.038 E18.03187
G1 X84.813 Y70.923 E18.09722
G1 X85.160 Y71.886 E18.16563
G1 X85.404 Y72.834 E18.23099
G1 X85.519 Y73.491 E18.27559
G1 X85.593 Y74.155 E18.32019
G1 X85.625 Y75.178 E18.38860
G1 X85.564 Y76.155 E18.45400
G1 X85.470 Y76.816 E18.49856
G1 X85.336 Y77.470 E18.54315
G1 X85.050 Y78.453 E18.61156
G1 X84.690 Y79.363 E18.67692
G1 X84.225 Y80.275 E18.74533
G1 X83.701 Y81.101 E18.81069
G1 X83.073 Y81.910 E18.87910
G1 X82.404 Y82.623 E18.94446
G1 X81.635 Y83.301 E19.01287
G1 X80.844 Y83.876 E19.07823
G1 X79.963 Y84.397 E19.14663
G1 X79.077 Y84.813 E19.21200
G1 X78.114 Y85.160 E19.28040
G1 X77.470 Y85.336 E19.32500
G1 X76.816 Y85.470 E19.36960
G1 X75.845 Y85.593 E19.43496
G1 X74.822 Y85.625 E19.50337
G1 X73.845 Y85.564 E19.56873
G1 X72.834 Y85.404 E19.63714
G1 X71.886 Y85.160 E19.70250
G1 X70.923 Y84.813 E19.77091
G1 X70.038 Y84.397 E19.83626
G1 X69.156 Y83.876 E19.90468
G1 X68.365 Y83.301 E19.97003
G1 X67.857 Y82.868 E20.01463
G1 X67.377 Y82.404 E20.05923
G1 X66.699 Y81.635 E20.12764
G1 X66.124 Y80.844 E20.19300
G1 X65.603 Y79.962 E20.26141
G1 X65.187 Y79.077 E20.32677
G1 X64.840 Y78.114 E20.39518
G1 X64.596 Y77.166 E20.46055
G1 X64.481 Y76.509 E20.50513
G1 X64.408 Y75.855 E20.54907
G1 X64.375 Y74.822 E20.61814
G1 X64.436 Y73.845 E20.68351
G1 X64.596 Y72.834 E20.75191
G1 X64.840 Y71.886 E20.81727
G1 X65.187 Y70.923 E20.88568
G1 X65.603 Y70.037 E20.95106
G1 X66.124 Y69.156 E21.01945
G1 X66.699 Y68.364 E21.08482
G1 X67.132 Y67.857 E21.12940
G1 X67.554 Y67.419 E21.16999
G1 X67.975 Y67.755 F30000.000
G1 F2100
G1 X68.693 Y67.123 E21.23390
G1 X69.457 Y66.567 E21.29702
G1 X70.289 Y66.076 E21.36159
G1 X70.850 Y65.802 E21.40327
G1 X71.435 Y65.559 E21.44561
G1 X72.334 Y65.267 E21.50875
G1 X73.268 Y65.059 E21.57267
G1 X74.205 Y64.940 E21.63577
G1 X75.162 Y64.910 E21.69969
G1 X76.104 Y64.969 E21.76280
G1 X77.049 Y65.119 E21.82671
G1 X77.964 Y65.354 E21.88983
G1 X78.865 Y65.678 E21.95374
G1 X79.719 Y66.080 E22.01686
G1 X80.543 Y66.567 E22.08077
G1 X81.061 Y66.931 E22.12305
G1 X81.556 Y67.328 E22.16546
G1 X82.245 Y67.975 E22.22858
G1 X82.877 Y68.693 E22.29250
G1 X83.433 Y69.457 E22.35561
G1 X83.920 Y70.281 E22.41953
G1 X84.322 Y71.135 E22.48264
G1 X84.646 Y72.036 E22.54655
G1 X84.881 Y72.951 E22.60967
G1 X84.990 Y73.575 E22.65202
G1 X85.060 Y74.205 E22.69436
G1 X85.090 Y75.162 E22.75828
G1 X85.031 Y76.105 E22.82143
G1 X84.941 Y76.732 E22.86375
G1 X84.813 Y77.353 E22.90609
G1 X84.546 Y78.272 E22.97001
G1 X84.198 Y79.150 E23.03312
G1 X83.764 Y80.002 E23.09704
G1 X83.258 Y80.800 E23.16015
G1 X82.671 Y81.556 E23.22406
G1 X82.025 Y82.245 E23.28717
G1 X81.307 Y82.877 E23.35109
G1 X80.543 Y83.433 E23.41420
G1 X79.719 Y83.920 E23.47811
G1 X78.865 Y84.322 E23.54123
G1 X77.964 Y84.646 E23.60514
G1 X77.353 Y84.813 E23.64750
G1 X76.732 Y84.941 E23.68984
G1 X75.795 Y85.060 E23.75296
G1 X74.838 Y85.090 E23.81688
G1 X73.896 Y85.031 E23.87998
G1 X72.951 Y84.881 E23.94390
G1 X72.036 Y84.646 E24.00701
G1 X71.135 Y84.322 E24.07093
G1 X70.281 Y83.920 E24.13404
G1 X69.457 Y83.433 E24.19795
G1 X68.693 Y82.877 E24.26106
G1 X68.211 Y82.466 E24.30342
G1 X67.755 Y82.025 E24.34577
G1 X67.123 Y81.307 E24.40968
G1 X66.567 Y80.543 E24.47279
G1 X66.080 Y79.719 E24.53671
G1 X65.678 Y78.865 E24.59982
G1 X65.354 Y77.964 E24.66374
G1 X65.119 Y77.049 E24.72686
G1 X65.010 Y76.425 E24.76920
G1 X64.941 Y75.805 E24.81087
G1 X64.910 Y74.838 E24.87546
G1 X64.969 Y73.896 E24.93858
G1 X65.119 Y72.951 E25.00249
G1 X65.354 Y72.036 E25.06560
G1 X65.678 Y71.135 E25.12952
G1 X66.080 Y70.280 E25.19265
G1 X66.567 Y69.457 E25.25654
G1 X67.123 Y68.693 E25.31966
G1 X67.534 Y68.211 E25.36200
G1 X67.933 Y67.798 E25.40035
G1 X68.354 Y68.134 F30000.000
G1 F2100
G1 X69.021 Y67.546 E25.45976
G1 X69.758 Y67.010 E25.52063
G1 X70.524 Y66.558 E25.58003
G1 X71.063 Y66.293 E25.62014
G1 X71.617 Y66.063 E25.66024
G1 X72.484 Y65.782 E25.72112
G1 X73.352 Y65.588 E25.78055
G1 X74.256 Y65.473 E25.84141
G1 X75.145 Y65.445 E25.90083
G1 X76.054 Y65.503 E25.96170
G1 X76.932 Y65.642 E26.02111
G1 X77.815 Y65.868 E26.08198
G1 X78.383 Y66.063 E26.12208
G1 X78.937 Y66.293 E26.16219
G1 X79.730 Y66.697 E26.22161
G1 X80.499 Y67.185 E26.28247
G1 X81.202 Y67.730 E26.34189
G1 X81.866 Y68.354 E26.40276
G1 X82.454 Y69.021 E26.46218
G1 X82.815 Y69.501 E26.50228
G1 X83.145 Y70.003 E26.54239
G1 X83.584 Y70.801 E26.60325
G1 X83.937 Y71.617 E26.66267
G1 X84.218 Y72.484 E26.72353
G1 X84.412 Y73.352 E26.78296
G1 X84.527 Y74.256 E26.84382
G1 X84.555 Y75.145 E26.90325
G1 X84.497 Y76.054 E26.96414
G1 X84.412 Y76.648 E27.00421
G1 X84.290 Y77.236 E27.04431
G1 X84.042 Y78.090 E27.10374
G1 X83.707 Y78.937 E27.16460
G1 X83.303 Y79.730 E27.22402
G1 X82.815 Y80.499 E27.28489
G1 X82.270 Y81.202 E27.34431
G1 X81.646 Y81.866 E27.40517
G1 X80.979 Y82.454 E27.46459
G1 X80.242 Y82.990 E27.52545
G1 X79.476 Y83.442 E27.58487
G1 X78.652 Y83.830 E27.64574
G1 X77.815 Y84.132 E27.70516
G1 X77.236 Y84.290 E27.74527
G1 X76.648 Y84.412 E27.78536
G1 X75.744 Y84.527 E27.84623
G1 X74.855 Y84.555 E27.90566
G1 X73.946 Y84.497 E27.96652
G1 X73.068 Y84.358 E28.02594
G1 X72.185 Y84.132 E28.08680
G1 X71.348 Y83.830 E28.14623
G1 X70.524 Y83.442 E28.20709
G1 X69.758 Y82.990 E28.26651
G1 X69.267 Y82.645 E28.30659
G1 X68.798 Y82.270 E28.34672
G1 X68.134 Y81.646 E28.40758
G1 X67.730 Y81.202 E28.44769
G1 X67.362 Y80.741 E28.48710
G1 X66.855 Y79.997 E28.54721
G1 X66.416 Y79.199 E28.60807
G1 X66.063 Y78.383 E28.66749
G1 X65.782 Y77.516 E28.72837
G1 X65.588 Y76.648 E28.78778
G1 X65.473 Y75.744 E28.84866
G1 X65.445 Y74.855 E28.90806
G1 X65.503 Y73.946 E28.96893
G1 X65.642 Y73.067 E29.02835
G1 X65.868 Y72.185 E29.08921
G1 X66.170 Y71.348 E29.14863
G1 X66.558 Y70.524 E29.20952
G1 X67.010 Y69.758 E29.26892
G1 X67.546 Y69.021 E29.32979
G1 X67.936 Y68.565 E29.36988
G1 X68.312 Y68.177 E29.40598
G1 X68.733 Y68.513 F30000.000
G1 F2100
G1 X69.349 Y67.969 E29.46090
G1 X70.059 Y67.453 E29.51952
G1 X70.776 Y67.030 E29.57511
G1 X71.275 Y66.785 E29.61229
G1 X71.798 Y66.567 E29.65014
G1 X72.633 Y66.296 E29.70878
G1 X73.436 Y66.117 E29.76371
G1 X74.306 Y66.007 E29.82232
G1 X75.128 Y65.981 E29.87725
G1 X76.004 Y66.036 E29.93587
G1 X76.816 Y66.164 E29.99079
G1 X77.665 Y66.383 E30.04941
G1 X78.439 Y66.661 E30.10434
G1 X79.233 Y67.035 E30.16295
G1 X79.941 Y67.453 E30.21788
G1 X80.404 Y67.778 E30.25568
G1 X80.847 Y68.132 E30.29359
G1 X81.487 Y68.733 E30.35221
G1 X82.031 Y69.349 E30.40714
G1 X82.547 Y70.059 E30.46575
G1 X82.965 Y70.767 E30.52068
G1 X83.339 Y71.561 E30.57930
G1 X83.617 Y72.335 E30.63422
G1 X83.835 Y73.184 E30.69284
G1 X83.932 Y73.743 E30.73070
G1 X83.993 Y74.306 E30.76855
G1 X84.019 Y75.128 E30.82348
G1 X83.964 Y76.004 E30.88213
G1 X83.835 Y76.816 E30.93702
G1 X83.617 Y77.665 E30.99564
G1 X83.433 Y78.201 E31.03349
G1 X83.215 Y78.724 E31.07135
