; generated by Slic3r 1.3.0 on 2022-04-10 at 21:02:48

; external perimeters extrusion width = 0.44mm (2.78mm^3/s)
; perimeters extrusion width = 0.40mm (7.14mm^3/s)
; infill extrusion width = 0.50mm (10.97mm^3/s)
; solid infill extrusion width = 0.60mm (6.68mm^3/s)
; top infill extrusion width = 0.40mm (2.14mm^3/s)

M107
M190 S80 ; set bed temperature and wait for it to be reached
M104 S210 ; set temperature
G28 ; home all axes
G1 Z5 F5000 ; lift nozzle

; Filament gcode

M109 S210 ; set temperature and wait for it to be reached
G21 ; set units to millimeters
G90 ; use absolute coordinates
M82 ; use absolute distances for extrusion
G92 E0
G1 Z0.300 F30000.000
G1 E-2.00000 F2400.00000
G92 E0
G1 X35.347 Y35.647 F30000.000
G1 E2.00000 F2400.00000
G1 F2100
G1 X36.997 Y34.687 E2.12755
G1 X38.439 Y34.455 E2.22512
G1 X90.740 Y34.455 E5.71911
G1 X92.428 Y34.776 E5.83392
G1 X93.132 Y35.073 E5.88491
G1 X94.626 Y36.261 E6.01247
G1 X95.195 Y37.137 E6.08226
G1 X95.710 Y38.381 E6.17219
G1 X96.039 Y39.988 E6.28175
G1 X96.168 Y46.151 E6.69358
G1 X96.142 Y46.634 E6.72589
G1 X96.014 Y47.849 E6.80753
G1 X95.555 Y49.423 E6.91705
G1 X95.372 Y49.790 E6.94448
G1 X94.509 Y50.988 E7.04308
G1 X51.432 Y94.064 E11.11278
G1 X50.224 Y94.932 E11.21218
G1 X49.019 Y95.337 E11.29715
G1 X48.337 Y95.465 E11.34346
G1 X47.486 Y95.545 E11.40059
G1 X39.616 Y95.545 E11.92634
G1 X37.928 Y95.224 E12.04116
G1 X37.226 Y94.928 E12.09202
G1 X36.025 Y94.064 E12.19086
G1 X35.669 Y93.708 E12.22450
G1 X34.806 Y92.510 E12.32309
G1 X34.446 Y91.789 E12.37698
G1 X34.040 Y90.582 E12.46207
G1 X33.911 Y89.900 E12.50838
G1 X33.832 Y89.049 E12.56550
G1 X33.832 Y39.062 E15.90490
G1 X34.228 Y37.194 E16.03246
G1 X35.312 Y35.696 E16.15600
G1 X35.871 Y35.902 F30000.000
G1 F2100
G1 X37.478 Y35.106 E16.27582
G1 X38.439 Y34.991 E16.34046
G1 X90.740 Y34.991 E19.83445
G1 X92.232 Y35.274 E19.93590
G1 X92.892 Y35.552 E19.98375
G1 X94.716 Y37.376 E20.15609
G1 X95.213 Y38.580 E20.24307
G1 X95.503 Y40.000 E20.33989
G1 X95.632 Y46.151 E20.75092
G1 X95.610 Y46.578 E20.77948
G1 X95.482 Y47.793 E20.86111
G1 X95.076 Y49.184 E20.95790
G1 X94.892 Y49.551 E20.98530
G1 X94.130 Y50.609 E21.07243
G1 X51.054 Y93.685 E25.14214
G1 X49.985 Y94.453 E25.23004
G1 X48.920 Y94.811 E25.30514
G1 X48.238 Y94.939 E25.35144
G1 X47.486 Y95.009 E25.40193
G1 X39.616 Y95.009 E25.92769
G1 X38.124 Y94.726 E26.02915
G1 X37.465 Y94.449 E26.07688
G1 X36.404 Y93.685 E26.16423
G1 X36.048 Y93.329 E26.19787
G1 X35.286 Y92.271 E26.28500
G1 X34.925 Y91.549 E26.33888
G1 X34.566 Y90.483 E26.41407
G1 X34.438 Y89.801 E26.46038
G1 X34.368 Y89.049 E26.51086
G1 X34.368 Y39.062 E29.85026
G1 X34.763 Y37.312 E29.97008
G1 X35.834 Y35.950 E30.08590
G1 X36.393 Y36.179 F30000.000
G1 F2100
G1 X38.439 Y35.526 E30.22937
G1 X90.740 Y35.526 E33.72336
G1 X92.036 Y35.772 E33.81147
G1 X92.653 Y36.031 E33.85617
G1 X94.237 Y37.615 E34.00583
G1 X94.716 Y38.779 E34.08988
G1 X94.968 Y40.012 E34.17396
G1 X95.097 Y46.151 E34.58418
G1 X95.077 Y46.522 E34.60898
G1 X94.949 Y47.737 E34.69061
G1 X94.597 Y48.945 E34.77467
G1 X94.413 Y49.311 E34.80203
G1 X93.751 Y50.230 E34.87770
G1 X50.675 Y93.306 E38.94741
G1 X49.746 Y93.973 E39.02382
G1 X48.821 Y94.285 E39.08904
G1 X48.139 Y94.413 E39.13535
G1 X47.486 Y94.474 E39.17919
G1 X39.616 Y94.474 E39.70495
G1 X38.320 Y94.228 E39.79306
G1 X37.704 Y93.970 E39.83766
G1 X36.783 Y93.306 E39.91352
G1 X36.427 Y92.950 E39.94716
G1 X35.765 Y92.031 E40.02283
G1 X35.404 Y91.310 E40.07668
G1 X35.092 Y90.384 E40.14199
G1 X34.964 Y89.702 E40.18829
G1 X34.903 Y89.049 E40.23213
G1 X34.903 Y39.062 E43.57154
G1 X35.298 Y37.439 E43.68309
G1 X36.353 Y36.224 E43.79064
G1 E41.79064 F2400.00000
G92 E0
G1 X47.746 Y89.973 F30000.000
G1 E2.00000 F2400.00000
G1 F2100
G1 X47.433 Y89.976 E2.02090
G1 X47.180 Y90.102 E2.03983
G1 X39.922 Y90.102 E2.52466
G1 X39.758 Y90.020 E2.53693
G1 X39.757 Y89.885 E2.54599
G1 X39.490 Y89.352 E2.58574
G1 X39.403 Y89.309 E2.59229
G1 X39.403 Y88.999 E2.61298
G1 X39.275 Y88.743 E2.63212
G1 X39.275 Y88.427 E2.65319
G1 X39.507 Y87.962 E2.68794
G1 X39.403 Y87.753 E2.70356
G1 X39.403 Y87.219 E2.73923
G1 X39.374 Y87.161 E2.74356
G1 X39.507 Y86.894 E2.76350
G1 X39.275 Y86.429 E2.79825
G1 X39.275 Y86.291 E2.80744
G1 X39.403 Y86.035 E2.82657
G1 X39.403 Y85.439 E2.86640
G1 X39.374 Y85.381 E2.87072
G1 X39.403 Y85.323 E2.87505
G1 X39.403 Y84.549 E2.92677
G1 X39.329 Y84.402 E2.93774
G1 X39.403 Y84.255 E2.94872
G1 X39.403 Y60.047 E4.56594
G1 X39.581 Y59.691 E4.59253
G1 X39.581 Y57.315 E4.75127
G1 X39.507 Y57.168 E4.76225
G1 X39.581 Y57.021 E4.77322
G1 X39.581 Y56.131 E4.83268
G1 X39.759 Y55.775 E4.85927
G1 X39.759 Y54.823 E4.92287
G1 X39.581 Y54.467 E4.94946
G1 X39.581 Y49.367 E5.29016
G1 X39.759 Y49.011 E5.31675
G1 X39.759 Y40.691 E5.87255
G1 X39.847 Y40.648 E5.87911
G1 X39.906 Y40.529 E5.88797
G1 X40.380 Y40.291 E5.92342
G1 X40.577 Y39.898 E5.95283
G1 X90.315 Y39.902 E9.27555
G1 X90.448 Y40.169 E9.29551
G1 X90.419 Y40.227 E9.29983
G1 X90.419 Y41.713 E9.39912
G1 X90.597 Y42.069 E9.42570
G1 X90.597 Y45.807 E9.67543
G1 X90.671 Y45.954 E9.68640
G1 X90.597 Y46.101 E9.69737
G1 X90.597 Y47.076 E9.76250
G1 X90.331 Y47.078 E9.78028
G1 X89.978 Y47.254 E9.80668
G1 X89.796 Y47.256 E9.81884
G1 X89.444 Y47.432 E9.84511
G1 X87.664 Y47.432 E9.96402
G1 X87.308 Y47.610 E9.99061
G1 X86.952 Y47.610 E10.01440
G1 X86.240 Y47.966 E10.06758
G1 X85.884 Y47.966 E10.09136
G1 X85.528 Y48.144 E10.11795
G1 X85.350 Y48.144 E10.12984
G1 X84.813 Y48.413 E10.16991
G1 X84.770 Y48.500 E10.17647
G1 X84.638 Y48.500 E10.18526
G1 X84.282 Y48.678 E10.21185
G1 X84.104 Y48.678 E10.22374
G1 X83.567 Y48.947 E10.26381
G1 X83.523 Y49.035 E10.27041
G1 X83.388 Y49.036 E10.27947
G1 X82.499 Y49.481 E10.34582
G1 X82.455 Y49.569 E10.35242
G1 X82.320 Y49.570 E10.36147
G1 X80.364 Y50.548 E10.50758
G1 X80.245 Y50.786 E10.52531
G1 X80.007 Y50.905 E10.54304
G1 X79.948 Y51.023 E10.55190
G1 X79.829 Y51.082 E10.56077
G1 X79.770 Y51.201 E10.56963
G1 X79.295 Y51.439 E10.60509
G1 X79.236 Y51.557 E10.61395
G1 X78.405 Y51.973 E10.67599
G1 X78.346 Y52.091 E10.68485
G1 X78.227 Y52.150 E10.69372
G1 X78.168 Y52.269 E10.70258
G1 X78.049 Y52.328 E10.71144
G1 X77.990 Y52.447 E10.72031
G1 X77.871 Y52.506 E10.72917
G1 X77.812 Y52.625 E10.73803
G1 X77.693 Y52.684 E10.74690
G1 X77.634 Y52.803 E10.75576
G1 X77.515 Y52.862 E10.76463
G1 X77.456 Y52.981 E10.77349
G1 X77.337 Y53.040 E10.78235
G1 X77.278 Y53.159 E10.79122
G1 X77.160 Y53.218 E10.80007
G1 X76.922 Y53.693 E10.83553
G1 X76.803 Y53.752 E10.84440
G1 X76.744 Y53.871 E10.85326
G1 X76.625 Y53.930 E10.86212
G1 X76.566 Y54.049 E10.87099
G1 X76.447 Y54.108 E10.87985
G1 X76.388 Y54.227 E10.88872
G1 X76.269 Y54.286 E10.89758
G1 X76.210 Y54.405 E10.90644
G1 X76.091 Y54.464 E10.91531
G1 X76.032 Y54.583 E10.92417
G1 X75.914 Y54.642 E10.93303
G1 X75.676 Y55.117 E10.96849
G1 X75.557 Y55.176 E10.97735
G1 X75.498 Y55.295 E10.98621
G1 X75.023 Y55.533 E11.02167
G1 X74.964 Y55.651 E11.03053
G1 X74.846 Y55.710 E11.03939
G1 X74.608 Y56.185 E11.07485
G1 X74.489 Y56.245 E11.08371
G1 X74.430 Y56.363 E11.09257
G1 X74.312 Y56.422 E11.10143
G1 X74.074 Y56.897 E11.13689
G1 X73.956 Y56.956 E11.14575
G1 X73.540 Y57.787 E11.20780
G1 X73.421 Y57.846 E11.21666
G1 X73.362 Y57.965 E11.22552
G1 X73.244 Y58.024 E11.23438
G1 X72.975 Y58.561 E11.27445
G1 X72.975 Y58.693 E11.28325
G1 X72.888 Y58.736 E11.28980
G1 X72.472 Y59.567 E11.35185
G1 X72.354 Y59.626 E11.36071
G1 X72.116 Y60.101 E11.39616
G1 X71.822 Y60.248 E11.41814
G1 X70.932 Y60.248 E11.47760
G1 X70.576 Y60.426 E11.50419
G1 X68.146 Y60.426 E11.66652
G1 X67.790 Y60.248 E11.69310
G1 X65.058 Y60.248 E11.87563
G1 X64.702 Y60.426 E11.90224
G1 X64.520 Y60.428 E11.91439
G1 X64.168 Y60.604 E11.94067
G1 X63.812 Y60.604 E11.96445
G1 X63.275 Y60.873 E12.00452
G1 X63.216 Y60.991 E12.01338
G1 X62.741 Y61.229 E12.04884
G1 X62.682 Y61.347 E12.05770
G1 X62.563 Y61.406 E12.06656
G1 X62.504 Y61.525 E12.07543
G1 X62.385 Y61.584 E12.08429
G1 X62.326 Y61.703 E12.09315
G1 X62.207 Y61.762 E12.10202
G1 X62.148 Y61.881 E12.11088
G1 X62.030 Y61.940 E12.11974
G1 X61.911 Y62.178 E12.13747
G1 X61.673 Y62.296 E12.15520
G1 X61.227 Y63.189 E12.22185
G1 X61.227 Y66.393 E12.43590
G1 X60.945 Y66.958 E12.47810
G1 X61.078 Y67.225 E12.49805
G1 X60.945 Y67.492 E12.51799
G1 X61.227 Y68.057 E12.56020
G1 X61.227 Y69.953 E12.68685
G1 X61.050 Y70.307 E12.71331
G1 X61.047 Y70.976 E12.75796
G1 X60.606 Y71.196 E12.79096
G1 X60.561 Y71.285 E12.79755
G1 X60.427 Y71.286 E12.80652
G1 X58.825 Y72.087 E12.92615
G1 X58.766 Y72.205 E12.93501
G1 X57.935 Y72.621 E12.99706
G1 X57.876 Y72.739 E13.00591
G1 X57.757 Y72.798 E13.01478
G1 X57.698 Y72.917 E13.02364
G1 X57.579 Y72.976 E13.03251
G1 X57.520 Y73.095 E13.04137
G1 X57.045 Y73.333 E13.07682
G1 X56.927 Y73.570 E13.09455
G1 X56.689 Y73.689 E13.11228
G1 X56.630 Y73.807 E13.12114
G1 X56.512 Y73.866 E13.13000
G1 X56.393 Y74.104 E13.14773
G1 X56.155 Y74.223 E13.16546
G1 X56.096 Y74.341 E13.17432
G1 X55.977 Y74.400 E13.18318
G1 X55.918 Y74.519 E13.19205
G1 X55.443 Y74.757 E13.22750
G1 X55.384 Y74.875 E13.23636
G1 X55.265 Y74.934 E13.24523
G1 X55.206 Y75.053 E13.25409
G1 X55.088 Y75.112 E13.26295
G1 X54.969 Y75.350 E13.28068
G1 X54.731 Y75.469 E13.29841
G1 X54.494 Y75.943 E13.33386
G1 X54.375 Y76.002 E13.34272
G1 X54.316 Y76.121 E13.35159
G1 X54.197 Y76.180 E13.36045
G1 X54.138 Y76.299 E13.36931
G1 X54.020 Y76.358 E13.37817
G1 X53.901 Y76.596 E13.39590
G1 X53.663 Y76.715 E13.41363
G1 X53.426 Y77.189 E13.44908
G1 X53.307 Y77.248 E13.45795
G1 X53.248 Y77.367 E13.46681
G1 X53.129 Y77.426 E13.47567
G1 X53.070 Y77.545 E13.48454
G1 X52.952 Y77.604 E13.49340
G1 X52.714 Y78.079 E13.52885
G1 X52.595 Y78.138 E13.53772
G1 X52.536 Y78.257 E13.54658
G1 X52.418 Y78.316 E13.55544
G1 X52.180 Y78.791 E13.59090
G1 X52.061 Y78.850 E13.59976
G1 X52.002 Y78.969 E13.60862
G1 X51.884 Y79.028 E13.61748
G1 X51.646 Y79.503 E13.65294
G1 X51.527 Y79.562 E13.66180
G1 X51.468 Y79.681 E13.67067
G1 X51.350 Y79.740 E13.67953
G1 X51.112 Y80.215 E13.71498
G1 X50.994 Y80.274 E13.72384
G1 X50.191 Y81.879 E13.84368
G1 X50.191 Y82.057 E13.85558
G1 X49.657 Y83.125 E13.93535
G1 X49.657 Y83.303 E13.94724
G1 X49.479 Y83.659 E13.97383
G1 X49.479 Y83.837 E13.98572
G1 X49.123 Y84.549 E14.03890
G1 X49.123 Y84.727 E14.05079
G1 X48.945 Y85.083 E14.07738
G1 X48.945 Y85.261 E14.08927
G1 X48.767 Y85.617 E14.11586
G1 X48.767 Y85.795 E14.12775
G1 X48.589 Y86.151 E14.15434
G1 X48.589 Y86.685 E14.19002
G1 X48.411 Y87.041 E14.21661
G1 X48.411 Y87.753 E14.26417
G1 X48.233 Y88.109 E14.29076
G1 X48.233 Y88.465 E14.31455
G1 X48.055 Y88.821 E14.34114
G1 X48.055 Y89.355 E14.37681
G1 X47.879 Y89.707 E14.40308
G1 X47.878 Y89.842 E14.41214
G1 X47.789 Y89.886 E14.41875
G1 X47.773 Y89.920 E14.42123
G1 E12.42123 F2400.00000
G92 E0
G1 X40.062 Y39.362 F30000.000
G1 E2.00000 F2400.00000
G1 F2100
G1 X90.569 Y39.366 E5.37408
G1 X90.776 Y39.470 E5.38957
G1 X90.778 Y39.630 E5.40027
G1 X90.909 Y39.892 E5.41986
G1 X90.955 Y39.915 E5.42330
G1 X90.956 Y39.988 E5.42813
G1 X91.047 Y40.169 E5.44168
G1 X90.955 Y40.353 E5.45545
G1 X90.955 Y41.587 E5.53784
G1 X91.084 Y41.845 E5.55712
G1 X91.133 Y41.872 E5.56084
G1 X91.133 Y45.681 E5.81531
G1 X91.270 Y45.954 E5.83573
G1 X91.133 Y46.227 E5.85615
G1 X91.133 Y47.188 E5.92035
G1 X91.084 Y47.215 E5.92408
G1 X90.956 Y47.470 E5.94314
G1 X90.955 Y47.543 E5.94797
G1 X90.909 Y47.566 E5.95141
G1 X90.887 Y47.609 E5.95467
G1 X90.459 Y47.612 E5.98323
G1 X90.197 Y47.744 E6.00285
G1 X90.175 Y47.788 E6.00616
G1 X89.925 Y47.791 E6.02284
G1 X89.668 Y47.919 E6.04201
G1 X89.641 Y47.968 E6.04573
G1 X87.790 Y47.968 E6.16940
G1 X87.532 Y48.097 E6.18867
G1 X87.505 Y48.146 E6.19240
G1 X87.078 Y48.146 E6.22093
G1 X86.815 Y48.278 E6.24063
G1 X86.792 Y48.324 E6.24407
G1 X86.719 Y48.325 E6.24890
G1 X86.464 Y48.453 E6.26796
G1 X86.437 Y48.502 E6.27168
G1 X86.010 Y48.502 E6.30022
G1 X85.752 Y48.631 E6.31950
G1 X85.725 Y48.680 E6.32322
G1 X85.476 Y48.680 E6.33986
G1 X85.213 Y48.812 E6.35956
G1 X85.153 Y48.930 E6.36842
G1 X85.040 Y48.987 E6.37687
G1 X85.013 Y49.036 E6.38060
G1 X84.764 Y49.036 E6.39724
G1 X84.506 Y49.165 E6.41652
G1 X84.479 Y49.214 E6.42024
G1 X84.230 Y49.214 E6.43688
G1 X83.967 Y49.346 E6.45658
G1 X83.907 Y49.464 E6.46544
G1 X83.789 Y49.524 E6.47430
G1 X83.767 Y49.568 E6.47761
G1 X83.517 Y49.571 E6.49429
G1 X83.255 Y49.702 E6.51388
G1 X83.232 Y49.748 E6.51732
G1 X83.159 Y49.749 E6.52215
G1 X82.899 Y49.880 E6.54162
G1 X82.839 Y49.998 E6.55048
G1 X82.721 Y50.058 E6.55934
G1 X82.699 Y50.102 E6.56265
G1 X82.449 Y50.105 E6.57934
G1 X82.187 Y50.236 E6.59892
G1 X82.164 Y50.282 E6.60236
G1 X82.091 Y50.283 E6.60719
G1 X81.831 Y50.414 E6.62666
G1 X81.808 Y50.460 E6.63011
G1 X81.735 Y50.461 E6.63493
G1 X81.475 Y50.592 E6.65441
G1 X81.452 Y50.638 E6.65785
G1 X81.379 Y50.639 E6.66268
G1 X81.119 Y50.770 E6.68215
G1 X81.096 Y50.816 E6.68559
G1 X81.023 Y50.817 E6.69042
G1 X80.763 Y50.948 E6.70989
G1 X80.644 Y51.185 E6.72762
G1 X80.407 Y51.304 E6.74535
G1 X80.347 Y51.422 E6.75421
G1 X80.229 Y51.482 E6.76307
G1 X80.169 Y51.600 E6.77194
G1 X80.051 Y51.660 E6.78080
G1 X80.028 Y51.706 E6.78425
G1 X79.955 Y51.707 E6.78907
G1 X79.695 Y51.838 E6.80855
G1 X79.635 Y51.956 E6.81741
G1 X79.517 Y52.016 E6.82627
G1 X79.494 Y52.062 E6.82972
G1 X79.421 Y52.063 E6.83454
G1 X79.161 Y52.194 E6.85402
G1 X79.138 Y52.240 E6.85746
G1 X79.065 Y52.241 E6.86229
G1 X78.805 Y52.372 E6.88176
G1 X78.745 Y52.490 E6.89062
G1 X78.627 Y52.550 E6.89949
G1 X78.567 Y52.668 E6.90835
G1 X78.449 Y52.728 E6.91722
G1 X78.389 Y52.846 E6.92608
G1 X78.271 Y52.906 E6.93494
G1 X78.211 Y53.024 E6.94381
G1 X78.093 Y53.084 E6.95267
G1 X78.033 Y53.202 E6.96153
G1 X77.915 Y53.262 E6.97040
G1 X77.855 Y53.380 E6.97926
G1 X77.737 Y53.440 E6.98813
G1 X77.677 Y53.558 E6.99699
G1 X77.559 Y53.618 E7.00585
G1 X77.428 Y53.878 E7.02533
G1 X77.427 Y53.951 E7.03015
G1 X77.381 Y53.974 E7.03360
G1 X77.321 Y54.092 E7.04246
G1 X77.203 Y54.152 E7.05133
G1 X77.143 Y54.270 E7.06019
G1 X77.025 Y54.330 E7.06905
G1 X76.965 Y54.448 E7.07792
G1 X76.847 Y54.508 E7.08678
G1 X76.787 Y54.626 E7.09564
G1 X76.669 Y54.686 E7.10451
G1 X76.609 Y54.804 E7.11337
G1 X76.491 Y54.864 E7.12223
G1 X76.431 Y54.982 E7.13110
G1 X76.313 Y55.042 E7.13996
G1 X76.182 Y55.302 E7.15943
G1 X76.181 Y55.375 E7.16426
G1 X76.135 Y55.398 E7.16771
G1 X76.075 Y55.516 E7.17657
G1 X75.957 Y55.576 E7.18543
G1 X75.897 Y55.694 E7.19430
G1 X75.779 Y55.754 E7.20316
G1 X75.756 Y55.800 E7.20661
G1 X75.683 Y55.801 E7.21144
G1 X75.423 Y55.932 E7.23091
G1 X75.363 Y56.050 E7.23977
G1 X75.245 Y56.110 E7.24863
G1 X75.114 Y56.372 E7.26821
G1 X75.112 Y56.532 E7.27892
G1 X74.889 Y56.644 E7.29559
G1 X74.829 Y56.762 E7.30446
G1 X74.711 Y56.822 E7.31332
G1 X74.580 Y57.082 E7.33279
G1 X74.579 Y57.155 E7.33762
G1 X74.533 Y57.178 E7.34106
G1 X74.473 Y57.296 E7.34993
G1 X74.355 Y57.356 E7.35879
G1 X74.224 Y57.616 E7.37826
G1 X74.223 Y57.689 E7.38309
G1 X74.177 Y57.712 E7.38653
G1 X74.046 Y57.972 E7.40601
G1 X74.045 Y58.045 E7.41083
G1 X73.999 Y58.068 E7.41428
G1 X73.939 Y58.186 E7.42314
G1 X73.821 Y58.246 E7.43201
G1 X73.761 Y58.364 E7.44087
G1 X73.643 Y58.424 E7.44973
G1 X73.511 Y58.687 E7.46943
G1 X73.511 Y58.936 E7.48607
G1 X73.462 Y58.963 E7.48979
G1 X73.405 Y59.076 E7.49824
G1 X73.287 Y59.136 E7.50711
G1 X73.156 Y59.396 E7.52658
G1 X73.155 Y59.469 E7.53141
G1 X73.109 Y59.492 E7.53485
G1 X72.978 Y59.752 E7.55432
G1 X72.977 Y59.825 E7.55915
G1 X72.931 Y59.848 E7.56260
G1 X72.871 Y59.966 E7.57146
G1 X72.753 Y60.026 E7.58032
G1 X72.622 Y60.286 E7.59980
G1 X72.621 Y60.359 E7.60462
G1 X72.575 Y60.382 E7.60807
G1 X72.515 Y60.500 E7.61693
G1 X72.397 Y60.560 E7.62580
G1 X72.374 Y60.606 E7.62924
G1 X72.301 Y60.607 E7.63407
G1 X72.046 Y60.735 E7.65313
G1 X72.019 Y60.784 E7.65686
G1 X71.058 Y60.784 E7.72106
G1 X70.800 Y60.913 E7.74034
G1 X70.773 Y60.962 E7.74407
G1 X67.949 Y60.962 E7.93279
G1 X67.922 Y60.913 E7.93651
G1 X67.664 Y60.784 E7.95579
G1 X65.184 Y60.784 E8.12142
G1 X64.921 Y60.916 E8.14112
G1 X64.899 Y60.960 E8.14442
G1 X64.649 Y60.963 E8.16110
G1 X64.392 Y61.091 E8.18027
G1 X64.365 Y61.140 E8.18400
G1 X63.938 Y61.140 E8.21253
G1 X63.675 Y61.272 E8.23222
G1 X63.615 Y61.390 E8.24108
G1 X63.497 Y61.450 E8.24995
