; generated by Slic3r 1.3.0 on 2023-03-16 at 14:37:01

; external perimeters extrusion width = 0.44mm (2.78mm^3/s)
; perimeters extrusion width = 0.40mm (7.14mm^3/s)
; infill extrusion width = 0.50mm (10.97mm^3/s)
; solid infill extrusion width = 0.60mm (6.68mm^3/s)
; top infill extrusion width = 0.40mm (2.14mm^3/s)

M107
M190 S80 ; set bed temperature and wait for it to be reached
M104 S210 ; set temperature
G28 ; home all axes
G1 Z5 F5000 ; lift nozzle

; Filament gcode

M109 S210 ; set temperature and wait for it to be reached
G21 ; set units to millimeters
G90 ; use absolute coordinates
M82 ; use absolute distances for extrusion
G92 E0
G1 Z0.300 F30000.000
G1 E-2.00000 F2400.00000
G92 E0
G1 X31.636 Y36.457 F30000.000
G1 E2.00000 F2400.00000
G1 F2100
G1 X33.550 Y35.979 E2.13182
G1 X116.450 Y35.979 E7.66999
G1 X118.200 Y36.374 E7.78981
G1 X119.723 Y37.628 E7.92163
G1 X138.223 Y62.628 E9.99932
G1 X139.021 Y65.050 E10.16967
G1 X139.021 Y84.950 E11.49910
G1 X138.223 Y87.372 E11.66946
G1 X119.723 Y112.372 E13.74715
G1 X118.364 Y113.543 E13.86697
G1 X116.450 Y114.021 E13.99879
G1 X33.550 Y114.021 E19.53695
G1 X31.800 Y113.626 E19.65678
G1 X30.277 Y112.372 E19.78859
G1 X11.777 Y87.372 E21.86628
G1 X10.979 Y84.950 E22.03664
G1 X10.979 Y65.050 E23.36607
G1 X11.777 Y62.628 E23.53642
G1 X30.277 Y37.628 E25.61411
G1 X31.590 Y36.496 E25.72993
G1 X31.990 Y36.877 F30000.000
G1 F2100
G1 X33.550 Y36.514 E25.83692
G1 X116.450 Y36.514 E31.37508
G1 X118.073 Y36.909 E31.48664
G1 X119.292 Y37.947 E31.59363
G1 X137.792 Y62.947 E33.67132
G1 X138.486 Y65.050 E33.81926
G1 X138.486 Y84.950 E35.14869
G1 X137.792 Y87.053 E35.29663
G1 X119.292 Y112.053 E37.37433
G1 X118.010 Y113.123 E37.48588
G1 X116.450 Y113.486 E37.59287
G1 X33.550 Y113.486 E43.13104
G1 X31.927 Y113.091 E43.24260
G1 X30.708 Y112.053 E43.34958
G1 X12.208 Y87.053 E45.42727
G1 X11.514 Y84.950 E45.57522
G1 X11.514 Y65.050 E46.90465
G1 X12.208 Y62.947 E47.05259
G1 X30.708 Y37.947 E49.13028
G1 X31.944 Y36.916 E49.23783
G1 E47.23783 F2400.00000
G92 E0
G1 X34.386 Y84.114 F30000.000
G1 E2.00000 F2400.00000
G1 F2100
G1 X15.886 Y84.114 E3.23590
G1 X15.886 Y65.886 E4.45368
G1 X34.386 Y65.886 E5.68958
G1 X34.386 Y40.886 E7.35972
G1 X47.614 Y40.886 E8.24347
G1 X47.614 Y95.886 E11.91777
G1 X102.386 Y95.886 E15.57678
G1 X102.386 Y40.886 E19.25108
G1 X115.614 Y40.886 E20.13483
G1 X115.614 Y65.886 E21.80497
G1 X134.114 Y65.886 E23.04087
G1 X134.114 Y84.114 E24.25865
G1 X115.614 Y84.114 E25.49455
G1 X115.614 Y109.114 E27.16468
G1 X34.386 Y109.114 E32.59120
G1 X34.386 Y84.174 E34.25733
G1 X33.850 Y84.650 F30000.000
G1 F2100
G1 X15.350 Y84.650 E35.49323
G1 X15.350 Y65.350 E36.78257
G1 X33.850 Y65.350 E38.01847
G1 X33.850 Y40.350 E39.68861
G1 X48.150 Y40.350 E40.64393
G1 X48.150 Y95.350 E44.31822
G1 X101.850 Y95.350 E47.90567
G1 X101.850 Y40.350 E51.57997
G1 X116.150 Y40.350 E52.53529
G1 X116.150 Y65.350 E54.20542
G1 X134.650 Y65.350 E55.44132
G1 X134.650 Y84.650 E56.73067
G1 X116.150 Y84.650 E57.96657
G1 X116.150 Y109.650 E59.63670
G1 X33.850 Y109.650 E65.13479
G1 X33.850 Y84.710 E66.80092
G1 X33.685 Y84.286 F30000.000
G1 E64.80092 F2400.00000
G92 E0
G1 X17.007 Y83.636 F30000.000
G1 E2.00000 F2400.00000
G1 F2100
G1 X34.278 Y66.364 E3.63577
G1 X33.518 Y66.364 E3.68662
G1 X16.364 Y83.518 E5.31129
G1 X16.364 Y82.759 E5.36214
G1 X32.759 Y66.364 E6.91489
G1 X32.000 Y66.364 E6.96574
G1 X16.364 Y82.000 E8.44657
G1 X16.364 Y81.240 E8.49743
G1 X31.240 Y66.364 E9.90634
G1 X30.481 Y66.364 E9.95719
G1 X16.364 Y80.481 E11.29418
G1 X16.364 Y79.722 E11.34504
G1 X29.722 Y66.364 E12.61011
G1 X28.962 Y66.364 E12.66096
G1 X16.364 Y78.962 E13.85412
G1 X16.364 Y78.203 E13.90497
G1 X28.203 Y66.364 E15.02621
G1 X27.444 Y66.364 E15.07706
G1 X16.364 Y77.444 E16.12637
G1 X16.364 Y76.684 E16.17723
G1 X26.684 Y66.364 E17.15463
G1 X25.925 Y66.364 E17.20548
G1 X16.364 Y75.925 E18.11096
G1 X16.364 Y75.166 E18.16181
G1 X25.166 Y66.364 E18.99537
G1 X24.406 Y66.364 E19.04622
G1 X16.364 Y74.406 E19.80786
G1 X16.364 Y73.647 E19.85872
G1 X23.647 Y66.364 E20.54844
G1 X22.887 Y66.364 E20.59929
G1 X16.364 Y72.887 E21.21709
G1 X16.364 Y72.128 E21.26795
G1 X22.128 Y66.364 E21.81383
G1 X21.369 Y66.364 E21.86469
G1 X16.364 Y71.369 E22.33865
G1 X16.364 Y70.609 E22.38950
G1 X20.609 Y66.364 E22.79155
G1 X19.850 Y66.364 E22.84240
G1 X16.364 Y69.850 E23.17253
G1 X16.364 Y69.091 E23.22338
G1 X19.091 Y66.364 E23.48159
G1 X18.331 Y66.364 E23.53244
G1 X16.364 Y68.331 E23.71873
G1 X16.364 Y67.572 E23.76959
G1 X17.572 Y66.364 E23.88396
G1 X16.813 Y66.364 E23.93481
G1 X16.364 Y66.813 E23.97726
G1 X16.364 Y66.478 E23.99967
G1 X16.699 Y66.478 E24.02207
G1 E22.02207 F2400.00000
G92 E0
G1 X16.050 Y66.050 F30000.000
G1 X25.000 Y75.000 F30000.000
G1 X37.895 Y75.000 F30000.000
G1 X41.000 Y66.050 F30000.000
G1 X41.000 Y47.500 F30000.000
G1 X34.550 Y41.050 F30000.000
G1 X34.865 Y41.478 F30000.000
G1 E2.00000 F2400.00000
G1 F2100
G1 X34.978 Y41.364 E2.01076
G1 X35.738 Y41.364 E2.06162
G1 X34.864 Y42.238 E2.14433
G1 X34.864 Y42.997 E2.19519
G1 X36.497 Y41.364 E2.34983
G1 X37.257 Y41.364 E2.40068
G1 X34.864 Y43.757 E2.62724
G1 X34.864 Y44.516 E2.67809
G1 X38.016 Y41.364 E2.97657
G1 X38.775 Y41.364 E3.02742
G1 X34.864 Y45.275 E3.39782
G1 X34.864 Y46.035 E3.44867
G1 X39.535 Y41.364 E3.89099
G1 X40.294 Y41.364 E3.94184
G1 X34.864 Y46.794 E4.45607
G1 X34.864 Y47.553 E4.50693
G1 X41.053 Y41.364 E5.09308
G1 X41.813 Y41.364 E5.14393
G1 X34.864 Y48.313 E5.80200
G1 X34.864 Y49.072 E5.85286
G1 X42.572 Y41.364 E6.58285
G1 X43.331 Y41.364 E6.63370
G1 X34.864 Y49.831 E7.43561
G1 X34.864 Y50.591 E7.48647
G1 X44.091 Y41.364 E8.36029
G1 X44.850 Y41.364 E8.41115
G1 X34.864 Y51.350 E9.35689
G1 X34.864 Y52.109 E9.40775
G1 X45.609 Y41.364 E10.42541
G1 X46.369 Y41.364 E10.47627
G1 X34.864 Y52.869 E11.56585
G1 X34.864 Y53.628 E11.61671
G1 X47.136 Y41.364 E12.77856
G1 X47.136 Y42.116 E12.82892
G1 X34.864 Y54.387 E13.99113
G1 X34.864 Y55.147 E14.04198
G1 X47.136 Y42.876 E15.20420
G1 X47.136 Y43.635 E15.25505
G1 X34.864 Y55.906 E16.41727
G1 X34.864 Y56.666 E16.46812
G1 X47.136 Y44.394 E17.63033
G1 X47.136 Y45.154 E17.68119
G1 X34.864 Y57.425 E18.84340
G1 X34.864 Y58.184 E18.89425
G1 X47.136 Y45.913 E20.05647
G1 X47.136 Y46.672 E20.10732
G1 X34.864 Y58.944 E21.26954
G1 X34.864 Y59.703 E21.32039
G1 X47.136 Y47.432 E22.48260
G1 X47.136 Y48.191 E22.53346
G1 X34.864 Y60.462 E23.69567
G1 X34.864 Y61.222 E23.74652
G1 X47.136 Y48.950 E24.90874
G1 X47.136 Y49.710 E24.95959
G1 X34.864 Y61.981 E26.12180
G1 X34.864 Y62.740 E26.17266
G1 X47.136 Y50.469 E27.33487
G1 X47.136 Y51.229 E27.38573
G1 X34.864 Y63.500 E28.54794
G1 X34.864 Y64.259 E28.59879
G1 X47.136 Y51.988 E29.76101
G1 X47.136 Y52.747 E29.81186
G1 X34.864 Y65.018 E30.97407
G1 X34.864 Y65.778 E31.02493
G1 X47.136 Y53.507 E32.18714
G1 X47.136 Y54.266 E32.23800
G1 X17.766 Y83.636 E35.01962
G1 X18.525 Y83.636 E35.07048
G1 X47.136 Y55.025 E37.78018
G1 X47.136 Y55.785 E37.83103
G1 X19.285 Y83.636 E40.46882
G1 X20.044 Y83.636 E40.51968
G1 X47.136 Y56.544 E43.08554
G1 X47.136 Y57.303 E43.13640
G1 X20.803 Y83.636 E45.63035
G1 X21.563 Y83.636 E45.68120
G1 X47.136 Y58.063 E48.10323
G1 X47.136 Y58.822 E48.15408
G1 X22.322 Y83.636 E50.50420
G1 X23.081 Y83.636 E50.55505
G1 X47.136 Y59.581 E52.83324
G1 X47.136 Y60.341 E52.88410
G1 X23.841 Y83.636 E55.09037
G1 X24.600 Y83.636 E55.14122
G1 X47.136 Y61.100 E57.27558
G1 X47.136 Y61.859 E57.32643
G1 X25.359 Y83.636 E59.38887
G1 X26.119 Y83.636 E59.43972
G1 X47.136 Y62.619 E61.43024
G1 X47.136 Y63.378 E61.48109
G1 X26.878 Y83.636 E63.39969
G1 X27.638 Y83.636 E63.45054
G1 X47.136 Y64.138 E65.29722
G1 X47.136 Y64.897 E65.34808
G1 X28.397 Y83.636 E67.12283
G1 X29.156 Y83.636 E67.17369
G1 X47.136 Y65.656 E68.87653
G1 X47.136 Y66.416 E68.92738
G1 X29.916 Y83.636 E70.55831
G1 X30.675 Y83.636 E70.60916
G1 X47.136 Y67.175 E72.16816
G1 X47.136 Y67.934 E72.21902
G1 X31.434 Y83.636 E73.70610
G1 X32.194 Y83.636 E73.75695
G1 X47.136 Y68.694 E75.17212
G1 X47.136 Y69.453 E75.22297
G1 X32.953 Y83.636 E76.56622
G1 X33.712 Y83.636 E76.61707
G1 X47.136 Y70.212 E77.88840
G1 X47.136 Y70.972 E77.93925
G1 X34.472 Y83.636 E79.13866
G1 X34.864 Y83.636 E79.16496
G1 X34.864 Y84.002 E79.18952
G1 X47.136 Y71.731 E80.35173
G1 X47.136 Y72.490 E80.40258
G1 X34.864 Y84.762 E81.56480
G1 X34.864 Y85.521 E81.61565
G1 X47.136 Y73.250 E82.77786
G1 X47.136 Y74.009 E82.82872
G1 X34.864 Y86.280 E83.99093
G1 X34.864 Y87.040 E84.04179
G1 X47.136 Y74.768 E85.20400
G1 X47.136 Y75.528 E85.25485
G1 X34.864 Y87.799 E86.41707
G1 X34.864 Y88.558 E86.46792
G1 X47.136 Y76.287 E87.63013
G1 X47.136 Y77.047 E87.68099
G1 X34.864 Y89.318 E88.84320
G1 X34.864 Y90.077 E88.89406
G1 X47.136 Y77.806 E90.05627
G1 X47.136 Y78.565 E90.10712
G1 X34.864 Y90.836 E91.26934
G1 X34.864 Y91.596 E91.32019
G1 X47.136 Y79.325 E92.48240
G1 X47.136 Y80.084 E92.53326
G1 X34.864 Y92.355 E93.69547
G1 X34.864 Y93.114 E93.74633
G1 X47.136 Y80.843 E94.90854
G1 X47.136 Y81.603 E94.95939
G1 X34.864 Y93.874 E96.12161
G1 X34.864 Y94.633 E96.17246
G1 X47.136 Y82.362 E97.33467
G1 X47.136 Y83.121 E97.38553
G1 X34.864 Y95.393 E98.54774
G1 X34.864 Y96.152 E98.59860
G1 X47.136 Y83.881 E99.76081
G1 X47.136 Y84.640 E99.81166
G1 X34.864 Y96.911 E100.97388
G1 X34.864 Y97.671 E101.02473
G1 X47.136 Y85.399 E102.18694
G1 X47.136 Y86.159 E102.23780
G1 X34.864 Y98.430 E103.40001
G1 X34.864 Y99.189 E103.45087
G1 X47.136 Y86.918 E104.61308
G1 X47.136 Y87.677 E104.66393
G1 X34.864 Y99.949 E105.82615
G1 X34.864 Y100.708 E105.87700
G1 X47.136 Y88.437 E107.03921
G1 X47.136 Y89.196 E107.09007
G1 X34.864 Y101.467 E108.25228
G1 X34.864 Y102.227 E108.30314
G1 X47.136 Y89.956 E109.46535
G1 X47.136 Y90.715 E109.51620
G1 X34.864 Y102.986 E110.67842
G1 X34.864 Y103.745 E110.72927
G1 X47.136 Y91.474 E111.89148
G1 X47.136 Y92.234 E111.94234
G1 X34.864 Y104.505 E113.10455
G1 X34.864 Y105.264 E113.15541
G1 X47.136 Y92.993 E114.31762
G1 X47.136 Y93.752 E114.36847
G1 X34.864 Y106.023 E115.53069
G1 X34.864 Y106.783 E115.58154
G1 X47.136 Y94.512 E116.74375
G1 X47.136 Y95.271 E116.79461
G1 X34.864 Y107.542 E117.95682
G1 X34.864 Y108.302 E118.00767
G1 X47.136 Y96.030 E119.16989
G1 X47.136 Y96.364 E119.19226
G1 X47.561 Y96.364 E119.22074
G1 X35.290 Y108.636 E120.38296
G1 X36.049 Y108.636 E120.43381
G1 X48.320 Y96.364 E121.59602
G1 X49.080 Y96.364 E121.64688
G1 X36.808 Y108.636 E122.80909
G1 X37.568 Y108.636 E122.85995
G1 X49.839 Y96.364 E124.02216
G1 X50.598 Y96.364 E124.07301
G1 X38.327 Y108.636 E125.23523
G1 X39.086 Y108.636 E125.28608
G1 X51.358 Y96.364 E126.44829
G1 X52.117 Y96.364 E126.49915
G1 X39.846 Y108.636 E127.66136
G1 X40.605 Y108.636 E127.71222
G1 X52.876 Y96.364 E128.87443
G1 X53.636 Y96.364 E128.92528
G1 X41.365 Y108.636 E130.08750
G1 X42.124 Y108.636 E130.13835
G1 X54.395 Y96.364 E131.30057
G1 X55.154 Y96.364 E131.35142
G1 X42.883 Y108.636 E132.51363
G1 X43.643 Y108.636 E132.56449
G1 X55.914 Y96.364 E133.72670
G1 X56.673 Y96.364 E133.77756
G1 X44.402 Y108.636 E134.93977
G1 X45.161 Y108.636 E134.99062
G1 X57.432 Y96.364 E136.15284
G1 X58.192 Y96.364 E136.20369
G1 X45.921 Y108.636 E137.36590
G1 X46.680 Y108.636 E137.41676
G1 X58.951 Y96.364 E138.57897
G1 X59.711 Y96.364 E138.62983
G1 X47.439 Y108.636 E139.79204
G1 X48.199 Y108.636 E139.84289
G1 X60.470 Y96.364 E141.00511
G1 X61.229 Y96.364 E141.05596
G1 X48.958 Y108.636 E142.21818
G1 X49.717 Y108.636 E142.26903
G1 X61.989 Y96.364 E143.43124
G1 X62.748 Y96.364 E143.48210
G1 X50.477 Y108.636 E144.64431
G1 X51.236 Y108.636 E144.69517
G1 X63.507 Y96.364 E145.85738
G1 X64.267 Y96.364 E145.90823
G1 X51.995 Y108.636 E147.07045
G1 X52.755 Y108.636 E147.12130
G1 X65.026 Y96.364 E148.28352
G1 X65.785 Y96.364 E148.33437
G1 X53.514 Y108.636 E149.49658
G1 X54.274 Y108.636 E149.54744
G1 X66.545 Y96.364 E150.70965
G1 X67.304 Y96.364 E150.76051
G1 X55.033 Y108.636 E151.92272
G1 X55.792 Y108.636 E151.97357
G1 X68.063 Y96.364 E153.13579
G1 X68.823 Y96.364 E153.18664
G1 X56.552 Y108.636 E154.34886
G1 X57.311 Y108.636 E154.39971
G1 X69.582 Y96.364 E155.56192
G1 X70.342 Y96.364 E155.61278
G1 X58.070 Y108.636 E156.77499
G1 X58.830 Y108.636 E156.82585
G1 X71.101 Y96.364 E157.98806
G1 X71.860 Y96.364 E158.03891
G1 X59.589 Y108.636 E159.20113
G1 X60.348 Y108.636 E159.25198
G1 X72.620 Y96.364 E160.41419
G1 X73.379 Y96.364 E160.46505
G1 X61.108 Y108.636 E161.62726
G1 X61.867 Y108.636 E161.67812
G1 X74.138 Y96.364 E162.84033
G1 X74.898 Y96.364 E162.89118
G1 X62.626 Y108.636 E164.05340
G1 X63.386 Y108.636 E164.10425
G1 X75.657 Y96.364 E165.26646
G1 X76.416 Y96.364 E165.31732
G1 X64.145 Y108.636 E166.47953
G1 X64.904 Y108.636 E166.53039
G1 X77.176 Y96.364 E167.69260
G1 X77.935 Y96.364 E167.74345
G1 X65.664 Y108.636 E168.90567
G1 X66.423 Y108.636 E168.95652
G1 X78.694 Y96.364 E170.11874
G1 X79.454 Y96.364 E170.16959
G1 X67.183 Y108.636 E171.33180
G1 X67.942 Y108.636 E171.38266
G1 X80.213 Y96.364 E172.54487
G1 X80.972 Y96.364 E172.59573
G1 X68.701 Y108.636 E173.75794
G1 X69.461 Y108.636 E173.80879
G1 X81.732 Y96.364 E174.97101
G1 X82.491 Y96.364 E175.02186
G1 X70.220 Y108.636 E176.18408
G1 X70.979 Y108.636 E176.23493
G1 X83.251 Y96.364 E177.39714
G1 X84.010 Y96.364 E177.44800
G1 X71.739 Y108.636 E178.61021
G1 X72.498 Y108.636 E178.66107
G1 X84.769 Y96.364 E179.82328
G1 X85.529 Y96.364 E179.87413
G1 X73.257 Y108.636 E181.03635
G1 X74.017 Y108.636 E181.08720
G1 X86.288 Y96.364 E182.24941
G1 X87.047 Y96.364 E182.30027
G1 X74.776 Y108.636 E183.46248
G1 X75.535 Y108.636 E183.51334
G1 X87.807 Y96.364 E184.67555
G1 X88.566 Y96.364 E184.72641
G1 X76.295 Y108.636 E185.88862
G1 X77.054 Y108.636 E185.93947
G1 X89.325 Y96.364 E187.10169
G1 X90.085 Y96.364 E187.15254
G1 X77.814 Y108.636 E188.31475
G1 X78.573 Y108.636 E188.36561
G1 X90.844 Y96.364 E189.52782
G1 X91.603 Y96.364 E189.57868
G1 X79.332 Y108.636 E190.74089
G1 X80.092 Y108.636 E190.79174
G1 X92.363 Y96.364 E191.95396
G1 X93.122 Y96.364 E192.00481
G1 X80.851 Y108.636 E193.16703
G1 X81.610 Y108.636 E193.21788
G1 X93.881 Y96.364 E194.38009
G1 X94.641 Y96.364 E194.43095
G1 X82.370 Y108.636 E195.59316
G1 X83.129 Y108.636 E195.64402
G1 X95.400 Y96.364 E196.80623
G1 X96.160 Y96.364 E196.85708
G1 X83.888 Y108.636 E198.01930
G1 X84.648 Y108.636 E198.07015
G1 X96.919 Y96.364 E199.23236
G1 X97.678 Y96.364 E199.28322
G1 X85.407 Y108.636 E200.44543
G1 X86.166 Y108.636 E200.49629
G1 X98.438 Y96.364 E201.65850
G1 X99.197 Y96.364 E201.70935
G1 X86.926 Y108.636 E202.87157
G1 X87.685 Y108.636 E202.92242
G1 X99.956 Y96.364 E204.08464
G1 X100.716 Y96.364 E204.13549
G1 X88.444 Y108.636 E205.29770
G1 X89.204 Y108.636 E205.34856
G1 X101.475 Y96.364 E206.51077
G1 X102.234 Y96.364 E206.56163
G1 X89.963 Y108.636 E207.72384
G1 E205.72384 F2400.00000
G92 E0
G1 X102.864 Y95.734 F30000.000
G1 E2.00000 F2400.00000
G1 F2100
G1 X132.234 Y66.364 E4.78165
G1 X131.475 Y66.364 E4.83250
G1 X102.864 Y94.975 E7.54224
G1 X102.864 Y94.216 E7.59309
G1 X130.716 Y66.364 E10.23090
G1 X129.956 Y66.364 E10.28176
G1 X102.864 Y93.456 E12.84765
G1 X102.864 Y92.697 E12.89850
G1 X129.197 Y66.364 E15.39248
G1 X128.438 Y66.364 E15.44333
G1 X102.864 Y91.938 E17.86539
G1 X102.864 Y91.178 E17.91624
G1 X127.678 Y66.364 E20.26638
G1 X126.919 Y66.364 E20.31723
G1 X102.864 Y90.419 E22.59545
G1 X102.864 Y89.660 E22.64631
G1 X126.160 Y66.364 E24.85260
G1 X125.400 Y66.364 E24.90346
G1 X102.864 Y88.900 E27.03784
G1 X102.864 Y88.141 E27.08869
G1 X124.641 Y66.364 E29.15115
G1 X123.881 Y66.364 E29.20201
G1 X102.864 Y87.381 E31.19255
G1 X102.864 Y86.622 E31.24340
G1 X123.122 Y66.364 E33.16203
G1 X122.363 Y66.364 E33.21288
G1 X102.864 Y85.863 E35.05959
G1 X102.864 Y85.103 E35.11044
G1 X121.603 Y66.364 E36.88523
G1 X120.844 Y66.364 E36.93608
G1 X102.864 Y84.344 E38.63895
G1 X102.864 Y83.585 E38.68980
G1 X120.085 Y66.364 E40.32075
G1 X119.325 Y66.364 E40.37160
G1 X102.864 Y82.825 E41.93063
G1 X102.864 Y82.066 E41.98148
G1 X118.566 Y66.364 E43.46859
G1 X117.807 Y66.364 E43.51945
G1 X102.864 Y81.307 E44.93464
G1 X102.864 Y80.547 E44.98549
G1 X117.047 Y66.364 E46.32876
G1 X116.288 Y66.364 E46.37962
G1 X102.864 Y79.788 E47.65097
G1 X102.864 Y79.029 E47.70183
G1 X115.529 Y66.364 E48.90126
