; generated by Slic3r 1.3.0 on 2021-02-02 at 05:01:52

; external perimeters extrusion width = 0.44mm (2.78mm^3/s)
; perimeters extrusion width = 0.40mm (7.14mm^3/s)
; infill extrusion width = 0.50mm (10.97mm^3/s)
; solid infill extrusion width = 0.60mm (6.68mm^3/s)
; top infill extrusion width = 0.40mm (2.14mm^3/s)

M107
M190 S80 ; set bed temperature and wait for it to be reached
M104 S210 ; set temperature
G28 ; home all axes
G1 Z5 F5000 ; lift nozzle

; Filament gcode

M109 S210 ; set temperature and wait for it to be reached
G21 ; set units to millimeters
G90 ; use absolute coordinates
M82 ; use absolute distances for extrusion
G92 E0
G1 Z0.300 F30000.000
G1 E-2.00000 F2400.00000
G92 E0
G1 X64.877 Y66.852 F30000.000
G1 E2.00000 F2400.00000
G1 F2100
G1 X65.975 Y65.884 E2.09778
G1 X66.856 Y65.214 E2.17176
G1 X67.778 Y64.601 E2.24572
G1 X68.737 Y64.047 E2.31970
G1 X69.406 Y63.706 E2.36986
G1 X70.750 Y63.125 E2.46765
G1 X71.795 Y62.760 E2.54161
G1 X72.516 Y62.551 E2.59177
G1 X73.944 Y62.232 E2.68953
G1 X74.686 Y62.114 E2.73972
G1 X75.787 Y61.999 E2.81369
G1 X77.250 Y61.953 E2.91148
G1 X78.001 Y61.976 E2.96163
G1 X79.104 Y62.069 E3.03560
G1 X80.550 Y62.298 E3.13339
G1 X81.283 Y62.462 E3.18354
G1 X82.349 Y62.760 E3.25752
G1 X83.726 Y63.256 E3.35531
G1 X84.738 Y63.706 E3.42927
G1 X85.719 Y64.219 E3.50324
G1 X86.667 Y64.792 E3.57722
G1 X87.288 Y65.214 E3.62738
G1 X88.444 Y66.111 E3.72517
G1 X89.007 Y66.608 E3.77532
G1 X89.798 Y67.383 E3.84929
G1 X90.766 Y68.481 E3.94708
G1 X91.226 Y69.074 E3.99724
G1 X91.858 Y69.984 E4.07123
G1 X92.603 Y71.244 E4.16902
G1 X93.096 Y72.235 E4.24296
G1 X93.525 Y73.255 E4.31692
G1 X93.780 Y73.962 E4.36710
G1 X94.099 Y75.022 E4.44108
G1 X94.418 Y76.450 E4.53882
G1 X94.536 Y77.192 E4.58897
G1 X94.651 Y78.294 E4.66300
G1 X94.697 Y79.757 E4.76078
G1 X94.674 Y80.507 E4.81093
G1 X94.581 Y81.610 E4.88487
G1 X94.352 Y83.056 E4.98266
G1 X94.188 Y83.788 E5.03281
G1 X93.890 Y84.855 E5.10680
G1 X93.525 Y85.901 E5.18080
G1 X93.103 Y86.905 E5.25361
G1 X92.431 Y88.226 E5.35257
G1 X92.049 Y88.872 E5.40276
G1 X91.436 Y89.794 E5.47666
G1 X90.539 Y90.950 E5.57445
G1 X90.042 Y91.514 E5.62461
G1 X89.267 Y92.305 E5.69860
G1 X88.169 Y93.273 E5.79639
G1 X87.287 Y93.942 E5.87036
G1 X86.366 Y94.555 E5.94425
G1 X85.720 Y94.937 E5.99445
G1 X84.738 Y95.450 E6.06846
G1 X83.395 Y96.031 E6.16621
G1 X82.688 Y96.286 E6.21637
G1 X81.628 Y96.605 E6.29037
G1 X80.200 Y96.924 E6.38810
G1 X79.459 Y97.042 E6.43826
G1 X78.356 Y97.157 E6.51229
G1 X76.894 Y97.203 E6.61007
G1 X76.143 Y97.180 E6.66022
G1 X75.040 Y97.087 E6.73416
G1 X73.595 Y96.858 E6.83193
G1 X72.862 Y96.694 E6.88210
G1 X71.795 Y96.396 E6.95609
G1 X70.402 Y95.893 E7.05504
G1 X69.407 Y95.450 E7.12782
G1 X68.424 Y94.937 E7.20186
G1 X67.478 Y94.364 E7.27576
G1 X66.857 Y93.942 E7.32595
G1 X65.700 Y93.045 E7.42374
G1 X65.136 Y92.548 E7.47393
G1 X64.346 Y91.774 E7.54785
G1 X63.378 Y90.675 E7.64567
G1 X62.708 Y89.794 E7.71965
G1 X62.286 Y89.172 E7.76983
G1 X61.541 Y87.913 E7.86760
G1 X61.048 Y86.921 E7.94155
G1 X60.619 Y85.901 E8.01550
G1 X60.365 Y85.194 E8.06567
G1 X60.045 Y84.134 E8.13967
G1 X59.726 Y82.706 E8.23740
G1 X59.608 Y81.964 E8.28759
G1 X59.493 Y80.863 E8.36158
G1 X59.447 Y79.400 E8.45936
G1 X59.470 Y78.649 E8.50951
G1 X59.563 Y77.546 E8.58345
G1 X59.792 Y76.101 E8.68124
G1 X60.045 Y75.022 E8.75523
G1 X60.254 Y74.301 E8.80538
G1 X60.750 Y72.924 E8.90318
G1 X61.048 Y72.235 E8.95334
G1 X61.541 Y71.244 E9.02729
G1 X62.286 Y69.984 E9.12508
G1 X62.918 Y69.074 E9.19906
G1 X63.378 Y68.481 E9.24923
G1 X64.102 Y67.643 E9.32319
G1 X64.834 Y66.894 E9.39316
G1 X65.255 Y67.231 F30000.000
G1 F2100
G1 X66.303 Y66.307 E9.48644
G1 X67.158 Y65.657 E9.55818
G1 X68.051 Y65.062 E9.62989
G1 X68.980 Y64.524 E9.70162
G1 X69.649 Y64.183 E9.75178
G1 X70.931 Y63.629 E9.84508
G1 X71.944 Y63.275 E9.91680
G1 X72.665 Y63.065 E9.96696
G1 X74.028 Y62.761 E10.06022
G1 X74.770 Y62.643 E10.11040
G1 X75.838 Y62.532 E10.18213
G1 X77.234 Y62.488 E10.27542
G1 X78.306 Y62.532 E10.34715
G1 X79.054 Y62.603 E10.39730
G1 X80.433 Y62.821 E10.49060
G1 X81.166 Y62.985 E10.54075
G1 X82.200 Y63.275 E10.61248
G1 X83.513 Y63.748 E10.70577
G1 X84.495 Y64.183 E10.77749
G1 X85.447 Y64.680 E10.84921
G1 X86.366 Y65.235 E10.92094
G1 X86.987 Y65.657 E10.97110
G1 X88.090 Y66.513 E11.06440
G1 X88.653 Y67.010 E11.11455
G1 X89.419 Y67.762 E11.18627
G1 X90.343 Y68.809 E11.27957
G1 X90.993 Y69.664 E11.35131
G1 X91.415 Y70.285 E11.40146
G1 X92.126 Y71.487 E11.49476
G1 X92.604 Y72.448 E11.56646
G1 X93.021 Y73.437 E11.63818
G1 X93.276 Y74.143 E11.68835
G1 X93.585 Y75.172 E11.76008
G1 X93.889 Y76.534 E11.85333
G1 X94.007 Y77.275 E11.90349
G1 X94.118 Y78.344 E11.97526
G1 X94.162 Y79.740 E12.06855
G1 X94.138 Y80.490 E12.11870
G1 X94.048 Y81.560 E12.19040
G1 X93.829 Y82.939 E12.28369
G1 X93.665 Y83.671 E12.33384
G1 X93.375 Y84.705 E12.40558
G1 X93.021 Y85.719 E12.47734
G1 X92.611 Y86.693 E12.54790
G1 X91.970 Y87.953 E12.64236
G1 X91.588 Y88.600 E12.69255
G1 X90.993 Y89.493 E12.76420
G1 X90.137 Y90.596 E12.85750
G1 X89.641 Y91.159 E12.90766
G1 X88.888 Y91.926 E12.97941
G1 X87.841 Y92.849 E13.07270
G1 X86.986 Y93.499 E13.14442
G1 X86.094 Y94.094 E13.21608
G1 X85.447 Y94.476 E13.26627
G1 X84.494 Y94.973 E13.33803
G1 X83.213 Y95.527 E13.43129
G1 X82.507 Y95.782 E13.48144
G1 X81.478 Y96.091 E13.55319
G1 X80.116 Y96.395 E13.64644
G1 X79.375 Y96.513 E13.69660
G1 X78.306 Y96.624 E13.76838
G1 X76.910 Y96.668 E13.86166
G1 X76.160 Y96.644 E13.91182
G1 X75.091 Y96.554 E13.98351
G1 X73.712 Y96.335 E14.07679
G1 X72.979 Y96.171 E14.12696
G1 X71.945 Y95.882 E14.19870
G1 X70.615 Y95.402 E14.29313
G1 X69.650 Y94.973 E14.36369
G1 X68.697 Y94.476 E14.43547
G1 X67.779 Y93.921 E14.50714
G1 X67.158 Y93.499 E14.55732
G1 X66.054 Y92.643 E14.65062
G1 X65.491 Y92.146 E14.70080
G1 X64.725 Y91.395 E14.77248
G1 X63.801 Y90.347 E14.86580
G1 X63.151 Y89.493 E14.93753
G1 X62.729 Y88.871 E14.98771
G1 X62.018 Y87.669 E15.08099
G1 X61.540 Y86.709 E15.15269
G1 X61.123 Y85.719 E15.22440
G1 X60.868 Y85.013 E15.27457
G1 X60.559 Y83.984 E15.34632
G1 X60.255 Y82.622 E15.43956
G1 X60.137 Y81.880 E15.48975
G1 X60.026 Y80.812 E15.56149
G1 X59.982 Y79.416 E15.65478
G1 X60.026 Y78.344 E15.72647
G1 X60.097 Y77.597 E15.77663
G1 X60.315 Y76.217 E15.86992
G1 X60.479 Y75.485 E15.92007
G1 X60.769 Y74.451 E15.99181
G1 X61.242 Y73.137 E16.08512
G1 X61.540 Y72.448 E16.13528
G1 X62.018 Y71.487 E16.20698
G1 X62.729 Y70.285 E16.30028
G1 X63.341 Y69.402 E16.37201
G1 X63.801 Y68.809 E16.42218
G1 X64.504 Y67.997 E16.49389
G1 X65.213 Y67.273 E16.56161
G1 X65.634 Y67.609 F30000.000
G1 F2100
G1 X66.645 Y66.720 E16.65155
G1 X67.459 Y66.100 E16.71989
G1 X68.324 Y65.523 E16.78935
G1 X69.224 Y65.002 E16.85884
G1 X69.893 Y64.661 E16.90900
G1 X71.112 Y64.133 E16.99780
G1 X72.094 Y63.789 E17.06727
G1 X72.815 Y63.580 E17.11743
G1 X74.112 Y63.290 E17.20620
G1 X74.854 Y63.172 E17.25638
G1 X75.888 Y63.065 E17.32586
G1 X77.217 Y63.024 E17.41466
G1 X77.967 Y63.047 E17.46482
G1 X79.003 Y63.136 E17.53429
G1 X80.316 Y63.344 E17.62310
G1 X81.049 Y63.508 E17.67325
G1 X82.050 Y63.789 E17.74273
G1 X83.301 Y64.239 E17.83153
G1 X84.251 Y64.661 E17.90100
G1 X85.174 Y65.141 E17.97048
G1 X86.065 Y65.678 E18.03996
G1 X86.686 Y66.100 E18.09012
G1 X87.736 Y66.915 E18.17892
G1 X88.299 Y67.411 E18.22907
G1 X89.041 Y68.140 E18.29855
G1 X89.920 Y69.137 E18.38735
G1 X90.380 Y69.731 E18.43750
G1 X90.972 Y70.586 E18.50700
G1 X91.649 Y71.730 E18.59580
G1 X92.113 Y72.660 E18.66526
G1 X92.517 Y73.618 E18.73472
G1 X92.772 Y74.325 E18.78489
G1 X93.071 Y75.321 E18.85438
G1 X93.360 Y76.618 E18.94314
G1 X93.478 Y77.359 E18.99330
G1 X93.585 Y78.395 E19.06282
G1 X93.627 Y79.723 E19.15161
G1 X93.603 Y80.473 E19.20176
G1 X93.514 Y81.509 E19.27122
G1 X93.306 Y82.822 E19.36002
G1 X93.143 Y83.555 E19.41017
G1 X92.861 Y84.556 E19.47966
G1 X92.517 Y85.538 E19.54916
G1 X92.120 Y86.480 E19.61747
G1 X91.509 Y87.680 E19.70744
G1 X91.127 Y88.327 E19.75763
G1 X90.550 Y89.191 E19.82704
G1 X89.735 Y90.242 E19.91585
G1 X89.239 Y90.805 E19.96601
G1 X88.510 Y91.547 E20.03550
G1 X87.513 Y92.426 E20.12430
G1 X86.685 Y93.056 E20.19378
G1 X85.821 Y93.633 E20.26319
G1 X85.174 Y94.015 E20.31338
G1 X84.251 Y94.496 E20.38289
G1 X83.032 Y95.023 E20.47166
G1 X82.326 Y95.278 E20.52182
G1 X81.329 Y95.577 E20.59132
G1 X80.032 Y95.866 E20.68007
G1 X79.291 Y95.984 E20.73023
G1 X78.256 Y96.091 E20.79976
G1 X76.927 Y96.133 E20.88855
G1 X76.177 Y96.109 E20.93870
G1 X75.141 Y96.020 E21.00816
G1 X73.828 Y95.812 E21.09694
G1 X73.096 Y95.649 E21.14711
G1 X72.094 Y95.367 E21.21660
G1 X70.828 Y94.910 E21.30654
G1 X69.893 Y94.496 E21.37485
G1 X68.970 Y94.015 E21.44438
G1 X68.080 Y93.478 E21.51381
G1 X67.459 Y93.056 E21.56398
G1 X66.408 Y92.241 E21.65279
G1 X65.845 Y91.745 E21.70297
G1 X65.104 Y91.016 E21.77241
G1 X64.224 Y90.019 E21.86123
G1 X63.594 Y89.191 E21.93072
G1 X63.172 Y88.570 E21.98089
G1 X62.495 Y87.426 E22.06968
G1 X62.031 Y86.496 E22.13913
G1 X61.627 Y85.538 E22.20860
G1 X61.372 Y84.831 E22.25876
G1 X61.074 Y83.835 E22.32826
G1 X60.784 Y82.538 E22.41702
G1 X60.666 Y81.797 E22.46720
G1 X60.559 Y80.762 E22.53670
G1 X60.517 Y79.433 E22.62549
G1 X60.559 Y78.395 E22.69494
G1 X60.630 Y77.647 E22.74509
G1 X60.838 Y76.334 E22.83389
G1 X61.002 Y75.602 E22.88404
G1 X61.283 Y74.600 E22.95354
G1 X61.733 Y73.349 E23.04235
G1 X62.032 Y72.660 E23.09251
G1 X62.495 Y71.730 E23.16197
G1 X63.172 Y70.586 E23.25077
G1 X63.764 Y69.731 E23.32025
G1 X64.224 Y69.137 E23.37042
G1 X64.905 Y68.351 E23.43989
G1 X65.592 Y67.652 E23.50536
G1 X66.013 Y67.988 F30000.000
G1 F2100
G1 X66.959 Y67.154 E23.58966
G1 X67.553 Y66.693 E23.63982
G1 X68.381 Y66.121 E23.70705
G1 X69.467 Y65.479 E23.79135
G1 X70.367 Y65.029 E23.85858
G1 X71.056 Y64.731 E23.90874
G1 X72.243 Y64.303 E23.99304
G1 X73.212 Y64.030 E24.06027
G1 X74.196 Y63.819 E24.12749
G1 X74.937 Y63.701 E24.17766
G1 X75.939 Y63.599 E24.24490
G1 X77.200 Y63.559 E24.32920
G1 X77.950 Y63.583 E24.37935
G1 X78.953 Y63.669 E24.44658
G1 X80.199 Y63.867 E24.53089
G1 X80.932 Y64.030 E24.58105
G1 X81.901 Y64.303 E24.64828
G1 X83.088 Y64.731 E24.73259
G1 X84.008 Y65.138 E24.79981
G1 X84.901 Y65.602 E24.86704
G1 X85.763 Y66.121 E24.93427
G1 X86.384 Y66.543 E24.98443
G1 X87.382 Y67.317 E25.06874
G1 X88.131 Y67.988 E25.13597
G1 X88.662 Y68.519 E25.18612
G1 X89.497 Y69.466 E25.27043
G1 X90.107 Y70.266 E25.33767
G1 X90.529 Y70.887 E25.38783
G1 X91.172 Y71.973 E25.47214
G1 X91.621 Y72.873 E25.53935
G1 X92.013 Y73.800 E25.60657
G1 X92.268 Y74.506 E25.65674
G1 X92.556 Y75.471 E25.72397
G1 X92.831 Y76.702 E25.80825
G1 X92.981 Y77.698 E25.87552
G1 X93.052 Y78.445 E25.92568
G1 X93.091 Y79.706 E26.00997
G1 X93.068 Y80.456 E26.06013
G1 X92.981 Y81.459 E26.12734
G1 X92.784 Y82.705 E26.21164
G1 X92.620 Y83.438 E26.26179
G1 X92.347 Y84.407 E26.32904
G1 X92.013 Y85.356 E26.39629
G1 X91.628 Y86.267 E26.46235
G1 X91.048 Y87.408 E26.54783
G1 X90.666 Y88.054 E26.59801
G1 X90.107 Y88.890 E26.66519
G1 X89.334 Y89.888 E26.74950
G1 X88.837 Y90.451 E26.79966
G1 X88.131 Y91.168 E26.86690
G1 X87.184 Y92.003 E26.95121
G1 X86.384 Y92.613 E27.01843
G1 X85.548 Y93.172 E27.08561
G1 X84.902 Y93.554 E27.13579
G1 X84.008 Y94.018 E27.20305
G1 X82.850 Y94.519 E27.28733
G1 X82.144 Y94.774 E27.33749
G1 X81.180 Y95.062 E27.40474
G1 X79.949 Y95.337 E27.48901
G1 X79.207 Y95.455 E27.53917
G1 X78.205 Y95.558 E27.60644
G1 X76.944 Y95.597 E27.69074
G1 X76.194 Y95.574 E27.74089
G1 X75.191 Y95.487 E27.80810
G1 X73.945 Y95.290 E27.89239
G1 X73.212 Y95.126 E27.94256
G1 X72.244 Y94.853 E28.00980
G1 X71.040 Y94.419 E28.09525
G1 X70.136 Y94.018 E28.16131
G1 X69.242 Y93.554 E28.22859
G1 X68.381 Y93.035 E28.29577
G1 X67.760 Y92.613 E28.34595
G1 X66.763 Y91.840 E28.43026
G1 X66.199 Y91.343 E28.48044
G1 X65.482 Y90.637 E28.54763
G1 X64.647 Y89.691 E28.63196
G1 X64.037 Y88.890 E28.69920
G1 X63.615 Y88.269 E28.74937
G1 X62.973 Y87.183 E28.83366
G1 X62.523 Y86.283 E28.90088
G1 X62.131 Y85.356 E28.96810
G1 X61.876 Y84.650 E29.01826
G1 X61.588 Y83.686 E29.08551
G1 X61.313 Y82.455 E29.16978
G1 X61.195 Y81.713 E29.21995
G1 X61.092 Y80.711 E29.28720
G1 X61.053 Y79.450 E29.37150
G1 X61.076 Y78.700 E29.42165
G1 X61.163 Y77.698 E29.48886
G1 X61.361 Y76.451 E29.57317
G1 X61.524 Y75.718 E29.62332
G1 X61.797 Y74.750 E29.69056
G1 X62.225 Y73.562 E29.77488
G1 X62.523 Y72.873 E29.82504
G1 X62.973 Y71.973 E29.89225
G1 X63.615 Y70.887 E29.97656
G1 X64.187 Y70.059 E30.04380
G1 X64.648 Y69.466 E30.09396
G1 X65.307 Y68.705 E30.16118
G1 X65.971 Y68.031 E30.22441
G1 X66.392 Y68.367 F30000.000
G1 F2100
G1 X67.288 Y67.577 E30.30421
G1 X68.061 Y66.986 E30.36920
G1 X68.869 Y66.445 E30.43418
G1 X69.710 Y65.956 E30.49917
G1 X70.379 Y65.615 E30.54933
G1 X71.475 Y65.141 E30.62914
G1 X72.393 Y64.818 E30.69412
G1 X73.114 Y64.608 E30.74428
G1 X74.279 Y64.348 E30.82407
G1 X75.021 Y64.230 E30.87424
G1 X75.989 Y64.132 E30.93923
G1 X77.183 Y64.094 E31.01904
G1 X77.933 Y64.118 E31.06919
G1 X78.902 Y64.202 E31.13418
G1 X80.083 Y64.389 E31.21399
G1 X80.815 Y64.553 E31.26414
G1 X81.751 Y64.818 E31.32913
G1 X82.875 Y65.223 E31.40894
G1 X83.765 Y65.615 E31.47392
G1 X84.434 Y65.956 E31.52408
G1 X85.477 Y66.574 E31.60504
G1 X86.263 Y67.117 E31.66886
G1 X87.027 Y67.718 E31.73386
G1 X87.752 Y68.367 E31.79884
G1 X88.283 Y68.898 E31.84899
G1 X89.073 Y69.794 E31.92881
G1 X89.533 Y70.387 E31.97896
G1 X90.086 Y71.188 E32.04396
G1 X90.694 Y72.216 E32.12377
G1 X91.130 Y73.086 E32.18874
G1 X91.509 Y73.981 E32.25372
G1 X91.764 Y74.688 E32.30388
G1 X92.042 Y75.620 E32.36887
G1 X92.302 Y76.786 E32.44866
G1 X92.420 Y77.527 E32.49881
G1 X92.518 Y78.495 E32.56383
G1 X92.556 Y79.689 E32.64363
G1 X92.532 Y80.440 E32.69379
G1 X92.448 Y81.408 E32.75875
G1 X92.261 Y82.588 E32.83856
G1 X92.097 Y83.321 E32.88871
G1 X91.832 Y84.257 E32.95371
G1 X91.509 Y85.175 E33.01871
G1 X91.136 Y86.055 E33.08253
G1 X90.587 Y87.135 E33.16351
G1 X90.205 Y87.782 E33.21369
G1 X89.664 Y88.589 E33.27862
G1 X88.932 Y89.533 E33.35844
G1 X88.435 Y90.097 E33.40860
G1 X87.752 Y90.789 E33.47359
G1 X86.856 Y91.580 E33.55341
G1 X86.083 Y92.170 E33.61839
G1 X85.275 Y92.711 E33.68333
G1 X84.629 Y93.093 E33.73350
G1 X83.765 Y93.541 E33.79851
G1 X82.669 Y94.015 E33.87830
G1 X81.963 Y94.270 E33.92846
G1 X81.030 Y94.548 E33.99346
G1 X79.865 Y94.808 E34.07324
G1 X79.123 Y94.926 E34.12340
G1 X78.155 Y95.024 E34.18842
G1 X76.961 Y95.062 E34.26822
G1 X76.211 Y95.038 E34.31837
G1 X75.242 Y94.954 E34.38334
G1 X74.062 Y94.767 E34.46314
G1 X73.329 Y94.603 E34.51330
G1 X72.393 Y94.339 E34.57830
G1 X71.253 Y93.927 E34.65926
G1 X70.379 Y93.541 E34.72307
G1 X69.515 Y93.093 E34.78810
G1 X68.682 Y92.592 E34.85304
G1 X68.061 Y92.170 E34.90321
G1 X67.117 Y91.438 E34.98303
G1 X66.553 Y90.941 E35.03320
G1 X65.861 Y90.259 E35.09816
G1 X65.071 Y89.362 E35.17799
G1 X64.480 Y88.589 E35.24298
G1 X64.058 Y87.968 E35.29315
G1 X63.450 Y86.940 E35.37295
G1 X63.015 Y86.070 E35.43792
G1 X62.635 Y85.175 E35.50289
G1 X62.380 Y84.469 E35.55305
G1 X62.102 Y83.536 E35.61805
G1 X61.842 Y82.371 E35.69783
G1 X61.724 Y81.629 E35.74801
G1 X61.626 Y80.661 E35.81300
G1 X61.588 Y79.467 E35.89281
G1 X61.612 Y78.717 E35.94296
G1 X61.696 Y77.748 E36.00793
G1 X61.883 Y76.568 E36.08774
G1 X62.102 Y75.620 E36.15273
G1 X62.312 Y74.899 E36.20289
G1 X62.716 Y73.775 E36.28271
G1 X63.015 Y73.086 E36.33286
G1 X63.450 Y72.216 E36.39783
G1 X64.058 Y71.188 E36.47765
G1 X64.611 Y70.387 E36.54264
G1 X65.071 Y69.794 E36.59280
G1 X65.709 Y69.060 E36.65778
G1 X66.349 Y68.409 E36.71875
G1 X66.948 Y68.923 F30000.000
G1 F2100
G1 X67.736 Y68.225 E36.79754
G1 X68.397 Y67.711 E36.86019
G1 X69.159 Y67.190 E36.92929
G1 X70.028 Y66.676 E37.00486
G1 X70.852 Y66.259 E37.07396
G1 X71.621 Y65.927 E37.13662
G1 X72.629 Y65.568 E37.21669
G1 X73.458 Y65.330 E37.28127
G1 X74.360 Y65.131 E37.35037
G1 X75.187 Y65.000 E37.41303
G1 X76.106 Y64.911 E37.48214
G1 X77.115 Y64.879 E37.55770
G1 X77.952 Y64.905 E37.62035
G1 X78.871 Y64.989 E37.68945
G1 X79.869 Y65.147 E37.76502
G1 X80.686 Y65.330 E37.82766
G1 X81.573 Y65.585 E37.89677
G1 X82.523 Y65.927 E37.97234
G1 X83.370 Y66.296 E38.04144
G1 X84.191 Y66.718 E38.11054
G1 X84.985 Y67.190 E38.17965
G1 X85.677 Y67.661 E38.24229
