; generated by Slic3r 1.3.0 on 2021-02-03 at 22:16:29

; external perimeters extrusion width = 0.44mm (2.78mm^3/s)
; perimeters extrusion width = 0.40mm (7.14mm^3/s)
; infill extrusion width = 0.50mm (10.97mm^3/s)
; solid infill extrusion width = 0.60mm (6.68mm^3/s)
; top infill extrusion width = 0.40mm (2.14mm^3/s)

M107
M190 S80 ; set bed temperature and wait for it to be reached
M104 S210 ; set temperature
G28 ; home all axes
G1 Z5 F5000 ; lift nozzle

; Filament gcode

M109 S210 ; set temperature and wait for it to be reached
G21 ; set units to millimeters
G90 ; use absolute coordinates
M82 ; use absolute distances for extrusion
G92 E0
G1 Z0.300 F30000.000
G1 E-2.00000 F2400.00000
G92 E0
G1 X46.509 Y43.516 F30000.000
G1 E2.00000 F2400.00000
G1 F2100
G1 X47.300 Y42.741 E2.07396
G1 X47.863 Y42.244 E2.12412
G1 X49.027 Y41.342 E2.22254
G1 X49.941 Y40.734 E2.29587
G1 X50.900 Y40.180 E2.36986
G1 X51.569 Y39.839 E2.42001
G1 X52.581 Y39.389 E2.49398
G1 X53.958 Y38.893 E2.59176
G1 X54.679 Y38.684 E2.64193
G1 X55.757 Y38.431 E2.71590
G1 X57.203 Y38.202 E2.81369
G1 X58.306 Y38.109 E2.88766
G1 X59.057 Y38.086 E2.93781
G1 X60.520 Y38.132 E3.03560
G1 X61.620 Y38.247 E3.10954
G1 X62.362 Y38.365 E3.15973
G1 X63.790 Y38.684 E3.25747
G1 X64.851 Y39.003 E3.33147
G1 X65.557 Y39.258 E3.38164
G1 X66.901 Y39.839 E3.47941
G1 X67.882 Y40.352 E3.55341
G1 X68.829 Y40.925 E3.62736
G1 X69.739 Y41.557 E3.70133
G1 X70.332 Y42.017 E3.75150
G1 X71.430 Y42.985 E3.84929
G1 X71.961 Y43.516 E3.89944
G1 X72.702 Y44.339 E3.97341
G1 X73.599 Y45.496 E4.07122
G1 X74.212 Y46.417 E4.14515
G1 X74.766 Y47.377 E4.21918
G1 X75.107 Y48.046 E4.26934
G1 X75.557 Y49.057 E4.34328
G1 X76.053 Y50.434 E4.44108
G1 X76.262 Y51.155 E4.49123
G1 X76.515 Y52.234 E4.56522
G1 X76.744 Y53.679 E4.66300
G1 X76.814 Y54.427 E4.71315
G1 X76.860 Y55.533 E4.78710
G1 X76.814 Y56.995 E4.88487
G1 X76.744 Y57.743 E4.93504
G1 X76.581 Y58.839 E5.00906
G1 X76.262 Y60.267 E5.10680
G1 X75.942 Y61.327 E5.18080
G1 X75.688 Y62.034 E5.23095
G1 X75.107 Y63.377 E5.32870
G1 X74.594 Y64.359 E5.40272
G1 X74.212 Y65.005 E5.45291
G1 X73.599 Y65.927 E5.52682
G1 X72.929 Y66.808 E5.60079
G1 X71.961 Y67.907 E5.69861
G1 X71.430 Y68.438 E5.74879
G1 X70.607 Y69.178 E5.82268
G1 X69.451 Y70.075 E5.92050
G1 X68.529 Y70.688 E5.99441
G1 X67.569 Y71.242 E6.06847
G1 X66.579 Y71.734 E6.14236
G1 X65.889 Y72.033 E6.19257
G1 X64.512 Y72.529 E6.29037
G1 X63.445 Y72.827 E6.36436
G1 X62.712 Y72.991 E6.41451
G1 X61.267 Y73.220 E6.51228
G1 X60.164 Y73.313 E6.58621
G1 X59.414 Y73.336 E6.63639
G1 X57.951 Y73.290 E6.73417
G1 X57.203 Y73.220 E6.78432
G1 X56.107 Y73.057 E6.85835
G1 X54.680 Y72.739 E6.95603
G1 X53.619 Y72.419 E7.03007
G1 X52.912 Y72.164 E7.08025
G1 X51.570 Y71.583 E7.17796
G1 X50.901 Y71.242 E7.22815
G1 X49.941 Y70.688 E7.30217
G1 X49.020 Y70.075 E7.37610
G1 X48.138 Y69.405 E7.45007
G1 X47.040 Y68.437 E7.54786
G1 X46.509 Y67.907 E7.59801
G1 X45.768 Y67.083 E7.67201
G1 X44.871 Y65.926 E7.76980
G1 X44.449 Y65.305 E7.81999
G1 X43.876 Y64.359 E7.89391
G1 X43.363 Y63.376 E7.96793
G1 X42.913 Y62.365 E8.04186
G1 X42.417 Y60.988 E8.13966
G1 X42.208 Y60.267 E8.18982
G1 X41.955 Y59.188 E8.26383
G1 X41.726 Y57.743 E8.36159
G1 X41.633 Y56.640 E8.43553
G1 X41.610 Y55.889 E8.48572
G1 X41.656 Y54.427 E8.58346
G1 X41.726 Y53.679 E8.63363
G1 X41.889 Y52.583 E8.70765
G1 X42.208 Y51.155 E8.80538
G1 X42.417 Y50.434 E8.85555
G1 X42.782 Y49.388 E8.92955
G1 X43.363 Y48.045 E9.02729
G1 X43.704 Y47.376 E9.07745
G1 X44.258 Y46.417 E9.15149
G1 X45.081 Y45.207 E9.24922
G1 X45.768 Y44.339 E9.32320
G1 X46.468 Y43.559 E9.39316
G1 X46.888 Y43.894 F30000.000
G1 F2100
G1 X47.654 Y43.143 E9.46487
G1 X48.217 Y42.646 E9.51504
G1 X49.328 Y41.785 E9.60896
G1 X50.214 Y41.195 E9.68005
G1 X51.143 Y40.657 E9.75179
G1 X51.812 Y40.316 E9.80194
G1 X52.794 Y39.881 E9.87366
G1 X54.107 Y39.408 E9.96695
G1 X54.828 Y39.198 E10.01711
G1 X55.874 Y38.954 E10.08884
G1 X57.253 Y38.736 E10.18213
G1 X58.323 Y38.645 E10.25385
G1 X59.073 Y38.621 E10.30401
G1 X60.469 Y38.665 E10.39730
G1 X61.537 Y38.776 E10.46900
G1 X62.279 Y38.894 E10.51918
G1 X63.641 Y39.198 E10.61244
G1 X64.669 Y39.507 E10.68419
G1 X65.376 Y39.762 E10.73436
G1 X66.666 Y40.321 E10.82828
G1 X67.610 Y40.813 E10.89938
G1 X68.528 Y41.368 E10.97109
G1 X69.411 Y41.980 E11.04281
G1 X70.004 Y42.440 E11.09298
G1 X71.052 Y43.364 E11.18628
G1 X71.582 Y43.894 E11.23643
G1 X72.300 Y44.693 E11.30815
G1 X73.156 Y45.797 E11.40146
G1 X73.751 Y46.690 E11.47315
G1 X74.289 Y47.620 E11.54492
G1 X74.630 Y48.289 E11.59509
G1 X75.065 Y49.270 E11.66678
G1 X75.538 Y50.584 E11.76008
G1 X75.748 Y51.305 E11.81023
G1 X75.992 Y52.350 E11.88198
G1 X76.210 Y53.730 E11.97527
G1 X76.281 Y54.477 E12.02542
G1 X76.325 Y55.549 E12.09712
G1 X76.281 Y56.945 E12.19040
G1 X76.210 Y57.693 E12.24057
G1 X76.052 Y58.755 E12.31233
G1 X75.748 Y60.118 E12.40559
G1 X75.438 Y61.146 E12.47734
G1 X75.184 Y61.852 E12.52749
G1 X74.630 Y63.133 E12.62075
G1 X74.133 Y64.086 E12.69251
G1 X73.751 Y64.733 E12.74270
G1 X73.156 Y65.626 E12.81437
G1 X72.506 Y66.480 E12.88609
G1 X71.582 Y67.528 E12.97941
G1 X71.051 Y68.059 E13.02959
G1 X70.253 Y68.776 E13.10125
G1 X69.149 Y69.632 E13.19457
G1 X68.257 Y70.227 E13.26624
G1 X67.326 Y70.765 E13.33804
G1 X66.366 Y71.243 E13.40969
G1 X65.676 Y71.541 E13.45989
G1 X64.362 Y72.015 E13.55320
G1 X63.328 Y72.304 E13.62494
G1 X62.596 Y72.468 E13.67509
G1 X61.217 Y72.686 E13.76837
G1 X60.147 Y72.777 E13.84005
G1 X59.397 Y72.801 E13.89023
G1 X58.001 Y72.757 E13.98352
G1 X57.254 Y72.687 E14.03367
G1 X56.191 Y72.528 E14.10545
G1 X54.829 Y72.224 E14.19865
G1 X53.800 Y71.915 E14.27043
G1 X53.094 Y71.660 E14.32061
G1 X51.813 Y71.106 E14.41383
G1 X51.144 Y70.765 E14.46402
G1 X50.214 Y70.227 E14.53578
G1 X49.321 Y69.632 E14.60748
G1 X48.466 Y68.982 E14.67920
G1 X47.419 Y68.059 E14.77249
G1 X46.888 Y67.528 E14.82264
G1 X46.170 Y66.729 E14.89439
G1 X45.314 Y65.625 E14.98769
G1 X44.892 Y65.004 E15.03788
G1 X44.337 Y64.086 E15.10955
G1 X43.840 Y63.133 E15.18132
G1 X43.409 Y62.161 E15.25236
G1 X42.932 Y60.838 E15.34631
G1 X42.722 Y60.117 E15.39647
G1 X42.478 Y59.071 E15.46823
G1 X42.260 Y57.692 E15.56150
G1 X42.169 Y56.623 E15.63320
G1 X42.145 Y55.872 E15.68339
G1 X42.189 Y54.477 E15.77663
G1 X42.260 Y53.729 E15.82681
G1 X42.418 Y52.667 E15.89857
G1 X42.722 Y51.305 E15.99182
G1 X42.932 Y50.584 E16.04198
G1 X43.286 Y49.570 E16.11373
G1 X43.840 Y48.289 E16.20698
G1 X44.181 Y47.620 E16.25715
G1 X44.719 Y46.690 E16.32893
G1 X45.504 Y45.535 E16.42217
G1 X46.170 Y44.693 E16.49390
G1 X46.846 Y43.938 E16.56162
G1 X47.266 Y44.273 F30000.000
G1 F2100
G1 X48.008 Y43.544 E16.63108
G1 X48.571 Y43.048 E16.68124
G1 X49.629 Y42.228 E16.77068
G1 X50.487 Y41.656 E16.83951
G1 X51.387 Y41.134 E16.90901
G1 X52.055 Y40.794 E16.95916
G1 X53.006 Y40.372 E17.02864
G1 X54.257 Y39.922 E17.11743
G1 X54.978 Y39.713 E17.16759
G1 X55.991 Y39.477 E17.23707
G1 X57.304 Y39.269 E17.32587
G1 X58.340 Y39.180 E17.39535
G1 X59.090 Y39.157 E17.44550
G1 X60.419 Y39.198 E17.53430
G1 X61.453 Y39.305 E17.60375
G1 X62.195 Y39.423 E17.65393
G1 X63.492 Y39.712 E17.74270
G1 X64.488 Y40.011 E17.81220
G1 X65.195 Y40.266 E17.86237
G1 X66.414 Y40.794 E17.95115
G1 X67.337 Y41.274 E18.02065
G1 X68.227 Y41.811 E18.09011
G1 X69.082 Y42.403 E18.15958
G1 X69.676 Y42.863 E18.20975
G1 X70.673 Y43.742 E18.29856
G1 X71.204 Y44.273 E18.34871
G1 X71.898 Y45.047 E18.41818
G1 X72.713 Y46.098 E18.50700
G1 X73.290 Y46.963 E18.57645
G1 X73.812 Y47.863 E18.64597
G1 X74.153 Y48.532 E18.69613
G1 X74.574 Y49.482 E18.76557
G1 X75.024 Y50.733 E18.85439
G1 X75.234 Y51.454 E18.90454
G1 X75.469 Y52.467 E18.97403
G1 X75.677 Y53.780 E19.06283
G1 X75.748 Y54.527 E19.11298
G1 X75.790 Y55.566 E19.18243
G1 X75.748 Y56.895 E19.27122
G1 X75.677 Y57.642 E19.32139
G1 X75.523 Y58.671 E19.39090
G1 X75.234 Y59.968 E19.47967
G1 X74.935 Y60.965 E19.54917
G1 X74.680 Y61.671 E19.59932
G1 X74.152 Y62.890 E19.68809
G1 X73.672 Y63.813 E19.75760
G1 X73.290 Y64.460 E19.80779
G1 X72.713 Y65.324 E19.87721
G1 X72.083 Y66.152 E19.94669
G1 X71.204 Y67.149 E20.03552
G1 X70.672 Y67.680 E20.08569
G1 X69.899 Y68.374 E20.15511
G1 X68.848 Y69.189 E20.24393
G1 X67.984 Y69.766 E20.31336
G1 X67.083 Y70.288 E20.38290
G1 X66.153 Y70.751 E20.45232
G1 X65.464 Y71.050 E20.50252
G1 X64.213 Y71.500 E20.59133
G1 X63.492 Y71.710 E20.64148
G1 X62.479 Y71.945 E20.71097
G1 X61.166 Y72.153 E20.79975
G1 X60.131 Y72.242 E20.86920
G1 X59.380 Y72.266 E20.91937
G1 X58.051 Y72.224 E21.00817
G1 X57.304 Y72.153 E21.05832
G1 X56.275 Y71.999 E21.12784
G1 X54.979 Y71.710 E21.21656
G1 X53.982 Y71.411 E21.28609
G1 X53.275 Y71.156 E21.33626
G1 X52.056 Y70.629 E21.42500
G1 X51.387 Y70.288 E21.47518
G1 X50.487 Y69.766 E21.54470
G1 X49.622 Y69.189 E21.61415
G1 X48.794 Y68.559 E21.68362
G1 X47.797 Y67.680 E21.77242
G1 X47.266 Y67.149 E21.82257
G1 X46.572 Y66.375 E21.89207
G1 X45.757 Y65.324 E21.98088
G1 X45.335 Y64.703 E22.03106
G1 X44.798 Y63.813 E22.10049
G1 X44.317 Y62.890 E22.17001
G1 X43.900 Y61.949 E22.23881
G1 X43.446 Y60.689 E22.32827
G1 X43.236 Y59.968 E22.37842
G1 X43.001 Y58.955 E22.44793
G1 X42.793 Y57.642 E22.53671
G1 X42.704 Y56.606 E22.60616
G1 X42.680 Y55.855 E22.65635
G1 X42.722 Y54.527 E22.74511
G1 X42.793 Y53.780 E22.79528
G1 X42.947 Y52.751 E22.86479
G1 X43.236 Y51.454 E22.95355
G1 X43.446 Y50.733 E23.00371
G1 X43.790 Y49.751 E23.07321
G1 X44.318 Y48.532 E23.16197
G1 X44.658 Y47.863 E23.21213
G1 X45.180 Y46.962 E23.28167
G1 X45.927 Y45.863 E23.37042
G1 X46.572 Y45.047 E23.43990
G1 X47.225 Y44.317 E23.50537
G1 X47.645 Y44.652 F30000.000
G1 F2100
G1 X48.362 Y43.946 E23.57259
G1 X48.925 Y43.450 E23.62275
G1 X49.930 Y42.671 E23.70769
G1 X50.759 Y42.117 E23.77428
G1 X51.630 Y41.612 E23.84153
G1 X52.299 Y41.271 E23.89168
G1 X53.219 Y40.864 E23.95891
G1 X54.406 Y40.436 E24.04321
G1 X55.127 Y40.227 E24.09337
G1 X56.108 Y40.000 E24.16060
G1 X57.354 Y39.802 E24.24491
G1 X58.357 Y39.715 E24.31213
G1 X59.107 Y39.692 E24.36229
G1 X60.368 Y39.731 E24.44660
G1 X61.369 Y39.834 E24.51380
G1 X62.111 Y39.952 E24.56398
G1 X63.342 Y40.227 E24.64826
G1 X64.307 Y40.515 E24.71551
G1 X65.013 Y40.770 E24.76567
G1 X66.180 Y41.275 E24.85061
G1 X67.064 Y41.735 E24.91721
G1 X67.926 Y42.254 E24.98443
G1 X68.754 Y42.826 E25.05166
G1 X69.347 Y43.287 E25.10182
G1 X70.294 Y44.121 E25.18613
G1 X71.000 Y44.838 E25.25336
G1 X71.496 Y45.401 E25.30351
G1 X72.270 Y46.399 E25.38783
G1 X72.829 Y47.235 E25.45504
G1 X73.334 Y48.106 E25.52230
G1 X73.675 Y48.775 E25.57247
G1 X74.082 Y49.695 E25.63967
G1 X74.510 Y50.883 E25.72398
G1 X74.719 Y51.603 E25.77414
G1 X74.947 Y52.584 E25.84138
G1 X75.144 Y53.830 E25.92569
G1 X75.231 Y54.833 E25.99289
G1 X75.254 Y55.583 E26.04305
G1 X75.215 Y56.844 E26.12735
G1 X75.144 Y57.592 E26.17751
G1 X74.994 Y58.588 E26.24477
G1 X74.719 Y59.819 E26.32905
G1 X74.431 Y60.783 E26.39630
G1 X74.176 Y61.489 E26.44645
G1 X73.675 Y62.647 E26.53073
G1 X73.211 Y63.541 E26.59799
G1 X72.829 Y64.187 E26.64817
G1 X72.270 Y65.023 E26.71536
G1 X71.660 Y65.824 E26.78259
G1 X70.825 Y66.770 E26.86692
G1 X70.294 Y67.301 E26.91709
G1 X69.545 Y67.972 E26.98426
G1 X68.547 Y68.746 E27.06859
G1 X67.711 Y69.305 E27.13578
G1 X66.840 Y69.811 E27.20307
G1 X65.941 Y70.260 E27.27024
G1 X65.251 Y70.558 E27.32043
G1 X64.063 Y70.986 E27.40475
G1 X63.095 Y71.259 E27.47199
G1 X62.362 Y71.423 E27.52214
G1 X61.116 Y71.620 E27.60644
G1 X60.114 Y71.707 E27.67364
G1 X59.363 Y71.730 E27.72381
G1 X58.102 Y71.691 E27.80811
G1 X57.354 Y71.620 E27.85826
G1 X56.359 Y71.470 E27.92554
G1 X55.128 Y71.195 E28.00977
G1 X54.163 Y70.907 E28.07705
G1 X53.457 Y70.652 E28.12722
G1 X52.299 Y70.151 E28.21147
G1 X51.630 Y69.811 E28.26165
G1 X50.759 Y69.305 E28.32891
G1 X49.923 Y68.746 E28.39612
G1 X49.123 Y68.136 E28.46334
G1 X48.176 Y67.301 E28.54765
G1 X47.645 Y66.770 E28.59780
G1 X46.973 Y66.021 E28.66505
G1 X46.200 Y65.023 E28.74936
G1 X45.778 Y64.402 E28.79954
G1 X45.259 Y63.541 E28.86673
G1 X44.795 Y62.647 E28.93400
G1 X44.392 Y61.736 E29.00055
G1 X43.960 Y60.540 E29.08551
G1 X43.751 Y59.819 E29.13567
G1 X43.523 Y58.838 E29.20293
G1 X43.326 Y57.592 E29.28722
G1 X43.239 Y56.589 E29.35442
G1 X43.216 Y55.839 E29.40460
G1 X43.255 Y54.578 E29.48888
G1 X43.326 Y53.830 E29.53904
G1 X43.476 Y52.835 E29.60631
G1 X43.751 Y51.603 E29.69058
G1 X43.960 Y50.882 E29.74074
G1 X44.294 Y49.933 E29.80799
G1 X44.795 Y48.775 E29.89226
G1 X45.136 Y48.106 E29.94242
G1 X45.641 Y47.235 E30.00970
G1 X46.350 Y46.192 E30.09396
G1 X46.974 Y45.401 E30.16120
G1 X47.604 Y44.696 E30.22442
G1 X48.024 Y45.031 F30000.000
G1 F2100
G1 X48.716 Y44.348 E30.28940
G1 X49.280 Y43.851 E30.33955
G1 X50.232 Y43.114 E30.42002
G1 X51.032 Y42.578 E30.48434
G1 X51.873 Y42.089 E30.54934
G1 X52.542 Y41.748 E30.59949
G1 X53.432 Y41.355 E30.66447
G1 X54.556 Y40.951 E30.74428
G1 X55.492 Y40.686 E30.80927
G1 X56.225 Y40.522 E30.85943
G1 X57.405 Y40.335 E30.93924
G1 X58.374 Y40.251 E31.00422
G1 X59.124 Y40.227 E31.05438
G1 X60.318 Y40.265 E31.13419
G1 X61.285 Y40.363 E31.19915
G1 X62.027 Y40.481 E31.24933
G1 X63.193 Y40.741 E31.32911
G1 X64.125 Y41.019 E31.39411
G1 X64.832 Y41.274 E31.44428
G1 X65.937 Y41.753 E31.52474
G1 X66.792 Y42.196 E31.58908
G1 X67.625 Y42.697 E31.65405
G1 X68.426 Y43.249 E31.71903
G1 X69.019 Y43.710 E31.76919
G1 X69.915 Y44.500 E31.84901
G1 X70.446 Y45.031 E31.89916
G1 X71.095 Y45.756 E31.96414
G1 X71.827 Y46.700 E32.04397
G1 X72.368 Y47.508 E32.10893
G1 X72.857 Y48.349 E32.17394
G1 X73.198 Y49.018 E32.22410
G1 X73.591 Y49.908 E32.28906
G1 X73.995 Y51.032 E32.36888
G1 X74.205 Y51.753 E32.41904
G1 X74.424 Y52.701 E32.48403
G1 X74.611 Y53.881 E32.56384
G1 X74.681 Y54.628 E32.61399
G1 X74.719 Y55.600 E32.67896
G1 X74.681 Y56.794 E32.75877
G1 X74.611 Y57.541 E32.80893
G1 X74.465 Y58.504 E32.87394
G1 X74.205 Y59.669 E32.95372
G1 X73.927 Y60.602 E33.01872
G1 X73.672 Y61.308 E33.06888
G1 X73.198 Y62.404 E33.14867
G1 X72.750 Y63.268 E33.21368
G1 X72.368 Y63.914 E33.26385
G1 X71.827 Y64.722 E33.32880
G1 X71.236 Y65.495 E33.39378
G1 X70.446 Y66.392 E33.47361
G1 X69.915 Y66.923 E33.52378
G1 X69.191 Y67.571 E33.58872
G1 X68.246 Y68.303 E33.66855
G1 X67.438 Y68.844 E33.73350
G1 X66.597 Y69.333 E33.79853
G1 X65.728 Y69.768 E33.86347
G1 X65.038 Y70.067 E33.91365
G1 X63.914 Y70.471 E33.99347
G1 X63.193 Y70.681 E34.04363
G1 X62.245 Y70.900 E34.10862
G1 X61.065 Y71.087 E34.18842
G1 X60.097 Y71.171 E34.25338
G1 X59.346 Y71.195 E34.30355
G1 X58.152 Y71.157 E34.38336
G1 X57.405 Y71.087 E34.43351
G1 X56.442 Y70.941 E34.49853
G1 X55.277 Y70.681 E34.57828
G1 X54.345 Y70.403 E34.64330
G1 X53.638 Y70.148 E34.69347
G1 X52.542 Y69.674 E34.77324
G1 X51.873 Y69.333 E34.82341
G1 X51.032 Y68.844 E34.88842
G1 X50.224 Y68.303 E34.95338
G1 X49.451 Y67.713 E35.01836
G1 X48.555 Y66.922 E35.09818
G1 X48.024 Y66.392 E35.14833
G1 X47.375 Y65.666 E35.21333
G1 X46.643 Y64.722 E35.29315
G1 X46.221 Y64.101 E35.34332
G1 X45.720 Y63.268 E35.40827
G1 X45.272 Y62.404 E35.47328
G1 X44.883 Y61.523 E35.53759
G1 X44.475 Y60.390 E35.61806
G1 X44.265 Y59.669 E35.66822
G1 X44.046 Y58.721 E35.73323
G1 X43.859 Y57.541 E35.81302
G1 X43.775 Y56.573 E35.87799
G1 X43.751 Y55.822 E35.92816
G1 X43.789 Y54.628 E36.00795
G1 X43.859 Y53.881 E36.05811
G1 X44.005 Y52.918 E36.12312
G1 X44.265 Y51.753 E36.20290
G1 X44.475 Y51.032 E36.25306
G1 X44.798 Y50.114 E36.31806
G1 X45.272 Y49.018 E36.39785
G1 X45.613 Y48.349 E36.44801
G1 X46.102 Y47.508 E36.51303
G1 X46.774 Y46.520 E36.59281
G1 X47.375 Y45.756 E36.65780
G1 X47.983 Y45.074 E36.71877
G1 X48.580 Y45.587 F30000.000
G1 F2100
G1 X49.204 Y44.966 E36.78464
G1 X49.899 Y44.357 E36.85375
G1 X50.630 Y43.794 E36.92285
G1 X51.322 Y43.323 E36.98550
G1 X52.191 Y42.809 E37.06108
G1 X52.937 Y42.429 E37.12371
G1 X53.784 Y42.060 E37.19281
G1 X54.734 Y41.718 E37.26838
G1 X55.538 Y41.484 E37.33103
G1 X56.438 Y41.280 E37.40013
G1 X57.436 Y41.122 E37.47570
G1 X58.355 Y41.038 E37.54481
G1 X59.192 Y41.012 E37.60745
G1 X60.201 Y41.043 E37.68303
G1 X61.120 Y41.133 E37.75211
G1 X61.947 Y41.264 E37.81477
G1 X62.932 Y41.484 E37.89032
G1 X63.818 Y41.744 E37.95944
G1 X64.606 Y42.028 E38.02209
G1 X65.455 Y42.392 E38.09119
G1 X66.279 Y42.809 E38.16030
G1 X67.148 Y43.323 E38.23586
