; generated by Slic3r 1.3.0 on 2020-03-24 at 20:00:35

; external perimeters extrusion width = 0.44mm (2.78mm^3/s)
; perimeters extrusion width = 0.40mm (7.14mm^3/s)
; infill extrusion width = 0.50mm (10.97mm^3/s)
; solid infill extrusion width = 0.60mm (6.68mm^3/s)
; top infill extrusion width = 0.40mm (2.14mm^3/s)

M107
M190 S80 ; set bed temperature and wait for it to be reached
M104 S200 ; set temperature
G28 ; home all axes
G1 Z5 F5000 ; lift nozzle

; Filament gcode

M109 S200 ; set temperature and wait for it to be reached
G21 ; set units to millimeters
G90 ; use absolute coordinates
M82 ; use absolute distances for extrusion
G92 E0
G1 Z0.300 F30000.000
G1 E-2.00000 F2400.00000
G92 E0
G1 X62.173 Y61.433 F30000.000
G1 E2.00000 F2400.00000
G1 F2100
G1 X62.989 Y60.650 E2.07558
G1 X63.884 Y59.827 E2.15682
G1 X65.599 Y58.349 E2.30803
G1 X66.478 Y57.638 E2.38361
G1 X68.206 Y56.326 E2.52851
G1 X70.070 Y55.028 E2.68028
G1 X71.019 Y54.411 E2.75587
G1 X72.052 Y53.770 E2.83708
G1 X73.027 Y53.195 E2.91269
G1 X74.927 Y52.150 E3.05758
G1 X76.960 Y51.138 E3.20929
G1 X77.989 Y50.667 E3.28489
G1 X79.106 Y50.183 E3.36618
G1 X81.210 Y49.352 E3.51732
G1 X82.275 Y48.970 E3.59290
G1 X84.345 Y48.297 E3.73836
G1 X85.513 Y47.958 E3.81962
G1 X86.607 Y47.665 E3.89525
G1 X88.726 Y47.168 E4.04067
G1 X89.836 Y46.944 E4.11627
G1 X92.066 Y46.565 E4.26743
G1 X93.187 Y46.410 E4.34302
G1 X94.396 Y46.270 E4.42429
G1 X96.557 Y46.089 E4.56920
G1 X97.695 Y46.028 E4.64534
G1 X98.826 Y45.992 E4.72092
G1 X100.043 Y45.979 E4.80221
G1 X101.174 Y45.992 E4.87778
G1 X103.341 Y46.083 E5.02270
G1 X105.604 Y46.270 E5.17439
G1 X107.850 Y46.552 E5.32559
G1 X108.967 Y46.728 E5.40116
G1 X110.164 Y46.944 E5.48243
G1 X111.274 Y47.168 E5.55803
G1 X113.393 Y47.665 E5.70346
G1 X115.573 Y48.272 E5.85461
G1 X116.653 Y48.610 E5.93023
G1 X117.806 Y48.998 E6.01148
G1 X118.870 Y49.382 E6.08708
G1 X120.895 Y50.184 E6.23255
G1 X121.934 Y50.632 E6.30814
G1 X123.040 Y51.138 E6.38941
G1 X125.066 Y52.146 E6.54057
G1 X126.966 Y53.191 E6.68546
G1 X127.948 Y53.771 E6.76164
G1 X128.982 Y54.411 E6.84286
G1 X129.930 Y55.028 E6.91846
G1 X131.787 Y56.321 E7.06963
G1 X133.522 Y57.638 E7.21508
G1 X134.401 Y58.349 E7.29067
G1 X135.266 Y59.079 E7.36626
G1 X136.178 Y59.882 E7.44743
G1 X137.011 Y60.650 E7.52312
G1 X138.567 Y62.173 E7.66860
G1 X140.117 Y63.821 E7.81975
G1 X140.922 Y64.734 E7.90102
G1 X141.651 Y65.599 E7.97660
G1 X142.367 Y66.484 E8.05265
G1 X143.679 Y68.213 E8.19764
G1 X144.972 Y70.070 E8.34880
G1 X145.634 Y71.089 E8.43001
G1 X146.230 Y72.052 E8.50566
G1 X146.805 Y73.027 E8.58126
G1 X147.854 Y74.934 E8.72670
G1 X148.406 Y76.018 E8.80793
G1 X148.898 Y77.037 E8.88356
G1 X149.817 Y79.106 E9.03475
G1 X150.618 Y81.130 E9.18019
G1 X151.002 Y82.194 E9.25579
G1 X151.390 Y83.347 E9.33704
G1 X151.728 Y84.427 E9.41265
G1 X152.335 Y86.607 E9.56382
G1 X152.832 Y88.726 E9.70924
G1 X153.056 Y89.836 E9.78484
G1 X153.271 Y91.032 E9.86607
G1 X153.448 Y92.151 E9.94171
G1 X153.730 Y94.404 E10.09343
G1 X153.912 Y96.565 E10.23833
G1 X153.972 Y97.695 E10.31391
G1 X154.010 Y98.911 E10.39517
G1 X154.021 Y100.042 E10.47076
G1 X153.975 Y102.220 E10.61624
G1 X153.917 Y103.349 E10.69182
G1 X153.835 Y104.478 E10.76740
G1 X153.721 Y105.688 E10.84863
G1 X153.448 Y107.849 E10.99414
G1 X153.272 Y108.967 E11.06972
G1 X152.849 Y111.190 E11.22089
G1 X152.584 Y112.376 E11.30210
G1 X152.314 Y113.474 E11.37764
G1 X151.701 Y115.662 E11.52939
G1 X151.030 Y117.725 E11.67436
G1 X150.648 Y118.790 E11.74994
G1 X150.212 Y119.926 E11.83120
G1 X149.783 Y120.973 E11.90682
G1 X148.862 Y123.040 E12.05798
G1 X147.893 Y124.990 E12.20344
G1 X147.359 Y125.988 E12.27903
G1 X146.230 Y127.948 E12.43018
G1 X145.634 Y128.910 E12.50577
G1 X144.972 Y129.930 E12.58704
G1 X143.679 Y131.787 E12.73821
G1 X142.362 Y133.522 E12.88366
G1 X141.651 Y134.401 E12.95924
G1 X140.866 Y135.330 E13.04050
G1 X140.118 Y136.178 E13.11603
G1 X139.350 Y137.011 E13.19169
G1 X137.827 Y138.567 E13.33715
G1 X137.011 Y139.350 E13.41273
G1 X136.116 Y140.173 E13.49396
G1 X134.401 Y141.651 E13.64517
G1 X133.522 Y142.362 E13.72076
G1 X131.792 Y143.675 E13.86579
G1 X129.930 Y144.972 E14.01738
G1 X128.982 Y145.589 E14.09298
G1 X127.948 Y146.230 E14.17423
G1 X126.973 Y146.805 E14.24984
G1 X125.066 Y147.854 E14.39528
G1 X123.040 Y148.862 E14.54644
G1 X122.011 Y149.334 E14.62207
G1 X120.894 Y149.817 E14.70333
G1 X118.790 Y150.648 E14.85447
G1 X117.725 Y151.030 E14.93005
G1 X115.654 Y151.703 E15.07556
G1 X114.567 Y152.020 E15.15117
G1 X113.393 Y152.335 E15.23240
G1 X111.281 Y152.830 E15.37732
G1 X110.164 Y153.056 E15.45342
G1 X107.934 Y153.435 E15.60458
G1 X106.813 Y153.590 E15.68017
G1 X105.604 Y153.730 E15.76145
G1 X103.435 Y153.912 E15.90690
G1 X102.305 Y153.972 E15.98249
G1 X101.173 Y154.008 E16.05816
G1 X99.957 Y154.021 E16.13936
G1 X97.780 Y153.975 E16.28481
G1 X96.651 Y153.917 E16.36040
G1 X94.394 Y153.729 E16.51163
G1 X93.271 Y153.600 E16.58719
G1 X92.066 Y153.435 E16.66841
G1 X89.919 Y153.072 E16.81387
G1 X88.809 Y152.849 E16.88957
G1 X87.623 Y152.584 E16.97071
G1 X86.524 Y152.313 E17.04634
G1 X84.323 Y151.696 E17.19904
G1 X82.283 Y151.033 E17.34237
G1 X81.210 Y150.648 E17.41852
G1 X80.153 Y150.243 E17.49415
G1 X79.027 Y149.783 E17.57540
G1 X77.045 Y148.901 E17.72029
G1 X76.026 Y148.410 E17.79590
G1 X74.011 Y147.359 E17.94772
G1 X72.052 Y146.229 E18.09879
G1 X71.089 Y145.634 E18.17440
G1 X70.070 Y144.972 E18.25561
G1 X68.213 Y143.679 E18.40678
G1 X66.485 Y142.367 E18.55168
G1 X65.599 Y141.651 E18.62782
G1 X64.734 Y140.922 E18.70340
G1 X63.822 Y140.117 E18.78463
G1 X62.989 Y139.350 E18.86027
G1 X61.433 Y137.827 E19.00572
G1 X60.650 Y137.011 E19.08130
G1 X59.827 Y136.116 E19.16253
G1 X58.349 Y134.401 E19.31375
G1 X57.638 Y133.522 E19.38933
G1 X56.321 Y131.787 E19.53478
G1 X55.028 Y129.930 E19.68595
G1 X54.411 Y128.982 E19.76155
G1 X53.771 Y127.948 E19.84277
G1 X53.192 Y126.967 E19.91888
G1 X52.146 Y125.066 E20.06385
G1 X51.138 Y123.040 E20.21501
G1 X50.632 Y121.934 E20.29627
G1 X50.183 Y120.894 E20.37190
G1 X49.382 Y118.870 E20.51733
G1 X48.998 Y117.806 E20.59294
G1 X48.610 Y116.653 E20.67419
G1 X48.272 Y115.573 E20.74980
G1 X47.665 Y113.393 E20.90096
G1 X47.168 Y111.274 E21.04639
G1 X46.944 Y110.164 E21.12200
G1 X46.743 Y109.051 E21.19759
G1 X46.552 Y107.850 E21.27883
G1 X46.270 Y105.604 E21.43003
G1 X46.088 Y103.435 E21.57547
G1 X46.028 Y102.305 E21.65106
G1 X45.990 Y101.089 E21.73231
G1 X45.979 Y99.958 E21.80789
G1 X46.028 Y97.695 E21.95908
G1 X46.089 Y96.558 E22.03518
G1 X46.270 Y94.396 E22.18011
G1 X46.400 Y93.272 E22.25572
G1 X46.565 Y92.066 E22.33698
G1 X46.944 Y89.836 E22.48815
G1 X47.171 Y88.717 E22.56441
G1 X47.665 Y86.607 E22.70917
G1 X47.958 Y85.513 E22.78479
G1 X48.297 Y84.345 E22.86606
G1 X48.970 Y82.275 E23.01151
G1 X49.352 Y81.210 E23.08709
G1 X50.183 Y79.106 E23.23824
G1 X50.632 Y78.067 E23.31385
G1 X51.138 Y76.960 E23.39513
G1 X52.150 Y74.927 E23.54684
G1 X53.195 Y73.027 E23.69173
G1 X53.770 Y72.052 E23.76733
G1 X54.411 Y71.019 E23.84855
G1 X55.028 Y70.070 E23.92414
G1 X56.321 Y68.213 E24.07535
G1 X57.638 Y66.478 E24.22081
G1 X58.349 Y65.599 E24.29639
G1 X59.078 Y64.734 E24.37198
G1 X59.883 Y63.821 E24.45324
G1 X60.650 Y62.989 E24.52885
G1 X62.131 Y61.476 E24.67029
G1 X62.552 Y61.812 F30000.000
G1 F2100
G1 X63.360 Y61.036 E24.74512
G1 X64.238 Y60.228 E24.82487
G1 X65.936 Y58.765 E24.97457
G1 X66.807 Y58.061 E25.04940
G1 X68.525 Y56.756 E25.19356
G1 X70.371 Y55.471 E25.34381
G1 X72.325 Y54.231 E25.49837
G1 X73.289 Y53.662 E25.57322
G1 X75.180 Y52.622 E25.71737
G1 X77.193 Y51.621 E25.86758
G1 X79.308 Y50.679 E26.02221
G1 X81.391 Y49.856 E26.17186
G1 X82.445 Y49.477 E26.24669
G1 X84.506 Y48.808 E26.39140
G1 X86.735 Y48.186 E26.54602
G1 X88.843 Y47.691 E26.69070
G1 X89.941 Y47.469 E26.76555
G1 X92.223 Y47.083 E26.92016
G1 X94.454 Y46.803 E27.07036
G1 X96.597 Y46.623 E27.21400
G1 X97.723 Y46.563 E27.28936
G1 X100.037 Y46.515 E27.44397
G1 X101.157 Y46.527 E27.51880
G1 X103.313 Y46.617 E27.66297
G1 X105.554 Y46.804 E27.81316
G1 X107.777 Y47.083 E27.96286
G1 X110.059 Y47.469 E28.11744
G1 X111.157 Y47.691 E28.19229
G1 X113.257 Y48.184 E28.33642
G1 X115.423 Y48.787 E28.48663
G1 X117.624 Y49.502 E28.64124
G1 X118.678 Y49.882 E28.71609
G1 X120.692 Y50.679 E28.86081
G1 X122.807 Y51.621 E29.01541
G1 X124.813 Y52.618 E29.16507
G1 X126.703 Y53.658 E29.30922
G1 X127.676 Y54.232 E29.38464
G1 X129.629 Y55.471 E29.53921
G1 X131.468 Y56.751 E29.68888
G1 X133.193 Y58.061 E29.83359
G1 X134.064 Y58.765 E29.90842
G1 X134.921 Y59.488 E29.98326
G1 X135.815 Y60.277 E30.06295
G1 X136.640 Y61.036 E30.13788
G1 X138.188 Y62.552 E30.28260
G1 X139.723 Y64.184 E30.43225
G1 X140.464 Y65.023 E30.50706
G1 X141.235 Y65.936 E30.58686
G1 X141.944 Y66.812 E30.66217
G1 X143.249 Y68.532 E30.80640
G1 X144.529 Y70.371 E30.95606
G1 X145.769 Y72.325 E31.11066
G1 X146.338 Y73.290 E31.18552
G1 X147.382 Y75.188 E31.33021
G1 X147.924 Y76.251 E31.40995
G1 X148.411 Y77.260 E31.48482
G1 X149.321 Y79.308 E31.63451
G1 X150.118 Y81.322 E31.77920
G1 X150.498 Y82.376 E31.85405
G1 X151.213 Y84.577 E32.00866
G1 X151.814 Y86.735 E32.15832
G1 X152.309 Y88.843 E32.30300
G1 X152.531 Y89.941 E32.37785
G1 X152.742 Y91.116 E32.45758
G1 X152.917 Y92.223 E32.53247
G1 X153.197 Y94.454 E32.68268
G1 X153.378 Y96.605 E32.82684
G1 X153.437 Y97.723 E32.90167
G1 X153.485 Y100.037 E33.05626
G1 X153.440 Y102.203 E33.20099
G1 X153.382 Y103.321 E33.27582
G1 X153.189 Y105.627 E33.43039
G1 X152.917 Y107.777 E33.57514
G1 X152.743 Y108.883 E33.64997
G1 X152.324 Y111.084 E33.79964
G1 X151.796 Y113.336 E33.95415
G1 X151.190 Y115.502 E34.10440
G1 X150.523 Y117.555 E34.24861
G1 X150.144 Y118.609 E34.32344
G1 X149.292 Y120.761 E34.47805
G1 X148.379 Y122.807 E34.62772
G1 X147.416 Y124.747 E34.77243
G1 X146.887 Y125.734 E34.84727
G1 X145.769 Y127.675 E34.99693
G1 X144.529 Y129.629 E35.15153
G1 X143.249 Y131.468 E35.30119
G1 X141.939 Y133.193 E35.44590
G1 X141.235 Y134.064 E35.52073
G1 X140.464 Y134.976 E35.60049
G1 X139.723 Y135.816 E35.67528
G1 X138.964 Y136.640 E35.75018
G1 X137.448 Y138.188 E35.89489
G1 X136.586 Y139.015 E35.97468
G1 X135.762 Y139.772 E36.04946
G1 X134.064 Y141.235 E36.19917
G1 X133.193 Y141.939 E36.27400
G1 X131.475 Y143.244 E36.41816
G1 X129.629 Y144.529 E36.56837
G1 X127.675 Y145.769 E36.72297
G1 X126.710 Y146.338 E36.79783
G1 X124.812 Y147.382 E36.94252
G1 X122.807 Y148.379 E37.09218
G1 X120.692 Y149.321 E37.24681
G1 X118.609 Y150.144 E37.39646
G1 X117.555 Y150.523 E37.47129
G1 X115.494 Y151.192 E37.61604
G1 X113.265 Y151.814 E37.77062
G1 X111.165 Y152.307 E37.91475
G1 X110.059 Y152.531 E37.99015
G1 X107.850 Y152.906 E38.13982
G1 X105.554 Y153.196 E38.29443
G1 X103.395 Y153.378 E38.43913
G1 X102.277 Y153.437 E38.51396
G1 X101.156 Y153.473 E38.58887
G1 X99.963 Y153.485 E38.66858
G1 X97.797 Y153.440 E38.81329
G1 X96.679 Y153.382 E38.88812
G1 X94.445 Y153.196 E39.03785
G1 X92.150 Y152.906 E39.19238
G1 X90.014 Y152.545 E39.33710
G1 X88.915 Y152.324 E39.41203
G1 X86.663 Y151.796 E39.56656
G1 X84.483 Y151.185 E39.71776
G1 X82.454 Y150.525 E39.86034
G1 X81.391 Y150.144 E39.93574
G1 X79.239 Y149.292 E40.09036
G1 X77.268 Y148.414 E40.23451
G1 X76.259 Y147.928 E40.30936
G1 X74.264 Y146.887 E40.45967
G1 X72.324 Y145.768 E40.60925
G1 X70.371 Y144.529 E40.76382
G1 X68.532 Y143.249 E40.91349
G1 X66.813 Y141.944 E41.05765
G1 X65.936 Y141.235 E41.13303
G1 X65.080 Y140.512 E41.20786
G1 X64.184 Y139.723 E41.28760
G1 X63.360 Y138.964 E41.36248
G1 X61.812 Y137.448 E41.50719
G1 X61.036 Y136.640 E41.58202
G1 X60.228 Y135.762 E41.66175
G1 X58.765 Y134.064 E41.81147
G1 X58.061 Y133.193 E41.88630
G1 X56.751 Y131.468 E42.03101
G1 X55.471 Y129.629 E42.18067
G1 X54.232 Y127.676 E42.33524
G1 X53.658 Y126.703 E42.41067
G1 X52.618 Y124.813 E42.55482
G1 X51.621 Y122.807 E42.70448
G1 X50.679 Y120.692 E42.85911
G1 X49.882 Y118.678 E43.00380
G1 X49.502 Y117.624 E43.07865
G1 X48.787 Y115.423 E43.23325
G1 X48.186 Y113.265 E43.38291
G1 X47.691 Y111.157 E43.52760
G1 X47.469 Y110.058 E43.60246
G1 X47.083 Y107.777 E43.75703
G1 X46.804 Y105.554 E43.90673
G1 X46.622 Y103.395 E44.05143
G1 X46.563 Y102.277 E44.12626
G1 X46.515 Y99.963 E44.28084
G1 X46.563 Y97.723 E44.43053
G1 X46.623 Y96.597 E44.50588
G1 X46.804 Y94.446 E44.65006
G1 X47.094 Y92.150 E44.80468
G1 X47.469 Y89.941 E44.95434
G1 X47.693 Y88.834 E45.02986
G1 X48.186 Y86.735 E45.17386
G1 X48.808 Y84.505 E45.32850
G1 X49.477 Y82.445 E45.47320
G1 X49.856 Y81.391 E45.54803
G1 X50.679 Y79.308 E45.69768
G1 X51.621 Y77.193 E45.85231
G1 X52.618 Y75.188 E46.00196
G1 X53.662 Y73.289 E46.14666
G1 X54.231 Y72.325 E46.22152
G1 X55.471 Y70.371 E46.37607
G1 X56.751 Y68.532 E46.52578
G1 X58.061 Y66.807 E46.67049
G1 X58.765 Y65.936 E46.74532
G1 X59.488 Y65.080 E46.82016
G1 X60.277 Y64.184 E46.89992
G1 X61.036 Y63.360 E46.97478
G1 X62.509 Y61.854 E47.11547
G1 X63.108 Y62.368 F30000.000
G1 F2100
G1 X64.727 Y60.846 E47.28174
G1 X66.419 Y59.385 E47.44908
G1 X67.277 Y58.691 E47.53167
G1 X68.994 Y57.387 E47.69301
G1 X70.825 Y56.113 E47.85992
G1 X72.713 Y54.915 E48.02723
G1 X73.663 Y54.354 E48.10984
G1 X75.552 Y53.315 E48.27116
G1 X77.549 Y52.322 E48.43803
G1 X79.592 Y51.413 E48.60538
G1 X81.644 Y50.601 E48.77056
G1 X82.683 Y50.227 E48.85315
G1 X84.754 Y49.554 E49.01619
G1 X86.908 Y48.953 E49.18353
G1 X89.029 Y48.455 E49.34654
G1 X90.111 Y48.237 E49.42913
G1 X92.316 Y47.864 E49.59649
G1 X94.528 Y47.586 E49.76335
G1 X96.677 Y47.406 E49.92472
G1 X97.778 Y47.348 E50.00727
G1 X100.015 Y47.301 E50.17465
G1 X101.118 Y47.313 E50.25724
G1 X103.272 Y47.403 E50.41859
G1 X105.494 Y47.588 E50.58544
G1 X107.684 Y47.864 E50.75065
G1 X109.889 Y48.237 E50.91797
G1 X110.971 Y48.455 E51.00058
G1 X113.092 Y48.953 E51.16360
G1 X115.218 Y49.546 E51.32877
G1 X117.345 Y50.237 E51.49611
G1 X118.383 Y50.611 E51.57873
G1 X120.409 Y51.413 E51.74176
G1 X122.425 Y52.310 E51.90693
G1 X124.428 Y53.304 E52.07427
G1 X126.318 Y54.343 E52.23562
G1 X127.288 Y54.916 E52.31992
G1 X129.175 Y56.113 E52.48723
G1 X130.946 Y57.344 E52.64859
G1 X131.850 Y58.014 E52.73283
G1 X133.603 Y59.403 E52.90019
G1 X134.446 Y60.116 E52.98281
G1 X136.052 Y61.562 E53.14454
G1 X137.642 Y63.118 E53.31103
G1 X139.154 Y64.727 E53.47622
G1 X140.615 Y66.420 E53.64358
G1 X141.323 Y67.295 E53.72781
G1 X142.626 Y69.012 E53.88915
G1 X143.887 Y70.825 E54.05435
G1 X145.085 Y72.713 E54.22172
G1 X145.647 Y73.663 E54.30434
G1 X146.696 Y75.572 E54.46731
G1 X147.690 Y77.575 E54.63464
G1 X148.587 Y79.592 E54.79985
G1 X149.399 Y81.645 E54.96508
G1 X149.780 Y82.704 E55.04930
G1 X150.446 Y84.754 E55.21065
G1 X151.047 Y86.909 E55.37802
G1 X151.545 Y89.029 E55.54102
G1 X151.763 Y90.109 E55.62344
G1 X152.136 Y92.316 E55.79097
G1 X152.414 Y94.528 E55.95779
G1 X152.594 Y96.677 E56.11917
G1 X152.653 Y97.779 E56.20177
G1 X152.699 Y100.014 E56.36909
G1 X152.654 Y102.192 E56.53214
G1 X152.596 Y103.295 E56.61474
G1 X152.409 Y105.522 E56.78204
G1 X152.136 Y107.684 E56.94511
G1 X151.964 Y108.774 E57.02769
G1 X151.551 Y110.943 E57.19288
G1 X151.040 Y113.119 E57.36015
G1 X150.439 Y115.267 E57.52706
G1 X149.773 Y117.317 E57.68841
G1 X149.399 Y118.356 E57.77103
G1 X148.576 Y120.435 E57.93836
G1 X147.678 Y122.452 E58.10358
G1 X146.709 Y124.403 E58.26661
G1 X146.188 Y125.375 E58.34917
G1 X145.085 Y127.288 E58.51438
G1 X143.886 Y129.175 E58.68170
G1 X142.626 Y130.988 E58.84689
G1 X141.309 Y132.723 E59.00988
G1 X140.615 Y133.581 E59.09251
G1 X139.154 Y135.273 E59.25981
G1 X138.406 Y136.086 E59.34250
G1 X136.882 Y137.642 E59.50547
G1 X135.252 Y139.173 E59.67279
G1 X133.581 Y140.615 E59.83800
G1 X132.723 Y141.309 E59.92063
G1 X131.006 Y142.613 E60.08195
G1 X129.175 Y143.886 E60.24881
G1 X127.287 Y145.085 E60.41614
G1 X126.337 Y145.646 E60.49876
G1 X124.429 Y146.695 E60.66168
G1 X122.425 Y147.690 E60.82911
G1 X120.408 Y148.587 E60.99431
G1 X118.356 Y149.399 E61.15948
G1 X117.317 Y149.773 E61.24211
G1 X115.245 Y150.446 E61.40514
G1 X113.091 Y151.047 E61.57248
G1 X110.993 Y151.540 E61.73378
G1 X109.890 Y151.763 E61.81803
G1 X107.684 Y152.136 E61.98540
G1 X105.494 Y152.412 E62.15062
G1 X103.324 Y152.594 E62.31361
G1 X102.221 Y152.653 E62.39621
G1 X99.985 Y152.699 E62.56359
G1 X97.808 Y152.654 E62.72656
