; generated by Slic3r 1.3.0 on 2020-03-28 at 19:51:45

; external perimeters extrusion width = 0.44mm (2.78mm^3/s)
; perimeters extrusion width = 0.40mm (7.14mm^3/s)
; infill extrusion width = 0.50mm (10.97mm^3/s)
; solid infill extrusion width = 0.60mm (6.68mm^3/s)
; top infill extrusion width = 0.40mm (2.14mm^3/s)

M107
M190 S80 ; set bed temperature and wait for it to be reached
M104 S200 ; set temperature
G28 ; home all axes
G1 Z5 F5000 ; lift nozzle

; Filament gcode

M109 S200 ; set temperature and wait for it to be reached
G21 ; set units to millimeters
G90 ; use absolute coordinates
M82 ; use absolute distances for extrusion
G92 E0
G1 Z0.300 F30000.000
G1 E-2.00000 F2400.00000
G92 E0
G1 X62.173 Y61.433 F30000.000
G1 E2.00000 F2400.00000
G1 F2100
G1 X63.821 Y59.883 E2.15118
G1 X64.670 Y59.134 E2.22678
G1 X65.599 Y58.349 E2.30803
G1 X66.478 Y57.638 E2.38361
G1 X68.207 Y56.326 E2.52857
G1 X70.070 Y55.028 E2.68025
G1 X71.019 Y54.411 E2.75586
G1 X72.052 Y53.770 E2.83707
G1 X73.026 Y53.195 E2.91267
G1 X74.928 Y52.150 E3.05764
G1 X76.960 Y51.138 E3.20929
G1 X77.990 Y50.666 E3.28496
G1 X79.106 Y50.183 E3.36618
G1 X81.123 Y49.385 E3.51112
G1 X82.195 Y48.998 E3.58724
G1 X83.266 Y48.636 E3.66281
G1 X84.427 Y48.272 E3.74408
G1 X86.607 Y47.665 E3.89525
G1 X88.719 Y47.170 E4.04018
G1 X89.836 Y46.944 E4.11630
G1 X90.950 Y46.742 E4.19191
G1 X92.151 Y46.552 E4.27314
G1 X94.400 Y46.270 E4.42461
G1 X96.558 Y46.089 E4.56926
G1 X97.696 Y46.028 E4.64536
G1 X98.826 Y45.992 E4.72093
G1 X100.043 Y45.979 E4.80221
G1 X101.174 Y45.992 E4.87778
G1 X103.342 Y46.083 E5.02275
G1 X105.604 Y46.270 E5.17439
G1 X106.730 Y46.400 E5.25007
G1 X107.934 Y46.565 E5.33126
G1 X110.164 Y46.944 E5.48243
G1 X111.274 Y47.168 E5.55803
G1 X113.393 Y47.665 E5.70344
G1 X115.573 Y48.272 E5.85461
G1 X116.653 Y48.610 E5.93022
G1 X117.806 Y48.998 E6.01148
G1 X118.870 Y49.382 E6.08708
G1 X120.895 Y50.183 E6.23254
G1 X121.933 Y50.632 E6.30813
G1 X123.040 Y51.138 E6.38941
G1 X125.066 Y52.146 E6.54057
G1 X126.967 Y53.191 E6.68552
G1 X127.950 Y53.771 E6.76175
G1 X128.910 Y54.366 E6.83723
G1 X129.930 Y55.028 E6.91846
G1 X131.713 Y56.267 E7.06347
G1 X132.628 Y56.945 E7.13955
G1 X133.522 Y57.638 E7.21509
G1 X134.467 Y58.403 E7.29637
G1 X135.331 Y59.134 E7.37197
G1 X136.949 Y60.591 E7.51741
G1 X138.567 Y62.173 E7.66860
G1 X139.408 Y63.050 E7.74977
G1 X140.174 Y63.884 E7.82542
G1 X141.655 Y65.604 E7.97705
G1 X143.004 Y67.305 E8.12206
G1 X143.679 Y68.213 E8.19764
G1 X144.383 Y69.204 E8.27888
G1 X145.018 Y70.140 E8.35445
G1 X146.185 Y71.979 E8.49996
G1 X146.762 Y72.953 E8.57555
G1 X147.854 Y74.934 E8.72670
G1 X148.368 Y75.942 E8.80229
G1 X148.897 Y77.036 E8.88349
G1 X149.819 Y79.112 E9.03520
G1 X150.618 Y81.130 E9.18019
G1 X151.002 Y82.194 E9.25579
G1 X151.390 Y83.346 E9.33694
G1 X151.728 Y84.427 E9.41265
G1 X152.335 Y86.607 E9.56382
G1 X152.832 Y88.726 E9.70924
G1 X153.056 Y89.836 E9.78484
G1 X153.435 Y92.066 E9.93601
G1 X153.600 Y93.271 E10.01722
G1 X153.730 Y94.396 E10.09288
G1 X153.912 Y96.565 E10.23833
G1 X153.972 Y97.695 E10.31391
G1 X154.010 Y98.911 E10.39517
G1 X154.021 Y100.043 E10.47077
G1 X153.972 Y102.310 E10.62228
G1 X153.835 Y104.478 E10.76739
G1 X153.730 Y105.604 E10.84296
G1 X153.590 Y106.812 E10.92422
G1 X153.435 Y107.934 E10.99983
G1 X153.072 Y110.081 E11.14530
G1 X152.849 Y111.190 E11.22089
G1 X152.603 Y112.295 E11.29654
G1 X152.313 Y113.475 E11.37769
G1 X151.703 Y115.655 E11.52892
G1 X151.030 Y117.725 E11.67436
G1 X150.648 Y118.790 E11.74994
G1 X150.243 Y119.847 E11.82554
G1 X149.783 Y120.973 E11.90682
G1 X148.859 Y123.045 E12.05839
G1 X147.893 Y124.990 E12.20344
G1 X147.359 Y125.988 E12.27903
G1 X146.805 Y126.973 E12.35459
G1 X146.186 Y128.021 E12.43587
G1 X144.972 Y129.930 E12.58704
G1 X143.665 Y131.805 E12.73971
G1 X142.362 Y133.522 E12.88366
G1 X141.651 Y134.401 E12.95924
G1 X140.922 Y135.266 E13.03482
G1 X140.117 Y136.179 E13.11609
G1 X139.345 Y137.016 E13.19219
G1 X137.827 Y138.567 E13.33715
G1 X136.179 Y140.117 E13.48832
G1 X135.331 Y140.866 E13.56391
G1 X134.401 Y141.651 E13.64517
G1 X133.522 Y142.362 E13.72076
G1 X131.793 Y143.674 E13.86572
G1 X129.930 Y144.972 E14.01737
G1 X128.982 Y145.589 E14.09298
G1 X127.948 Y146.230 E14.17423
G1 X126.973 Y146.805 E14.24984
G1 X125.072 Y147.850 E14.39479
G1 X123.039 Y148.862 E14.54649
G1 X121.933 Y149.368 E14.62771
G1 X120.894 Y149.817 E14.70333
G1 X118.790 Y150.648 E14.85447
G1 X117.725 Y151.030 E14.93005
G1 X115.654 Y151.703 E15.07558
G1 X114.487 Y152.042 E15.15677
G1 X113.393 Y152.335 E15.23240
G1 X111.281 Y152.830 E15.37733
G1 X110.164 Y153.056 E15.45345
G1 X108.967 Y153.272 E15.53470
G1 X107.849 Y153.448 E15.61029
G1 X105.591 Y153.731 E15.76234
G1 X103.435 Y153.912 E15.90690
G1 X102.303 Y153.972 E15.98262
G1 X101.089 Y154.010 E16.06375
G1 X99.957 Y154.021 E16.13935
G1 X97.695 Y153.972 E16.29050
G1 X96.565 Y153.912 E16.36609
G1 X94.396 Y153.730 E16.51154
G1 X93.270 Y153.600 E16.58723
G1 X92.066 Y153.435 E16.66841
G1 X89.836 Y153.056 E16.81957
G1 X88.726 Y152.832 E16.89517
G1 X86.607 Y152.335 E17.04059
G1 X84.427 Y151.728 E17.19176
G1 X83.266 Y151.364 E17.27304
G1 X82.194 Y151.002 E17.34862
G1 X81.130 Y150.618 E17.42423
G1 X79.105 Y149.816 E17.56972
G1 X77.036 Y148.897 E17.72093
G1 X75.942 Y148.368 E17.80213
G1 X74.934 Y147.854 E17.87771
G1 X73.033 Y146.809 E18.02266
G1 X72.052 Y146.229 E18.09878
G1 X71.018 Y145.589 E18.18001
G1 X70.070 Y144.972 E18.25561
G1 X68.213 Y143.679 E18.40678
G1 X66.484 Y142.367 E18.55174
G1 X65.598 Y141.651 E18.62786
G1 X64.733 Y140.921 E18.70348
G1 X63.822 Y140.117 E18.78465
G1 X62.989 Y139.350 E18.86027
G1 X61.433 Y137.827 E19.00572
G1 X60.650 Y137.011 E19.08130
G1 X59.827 Y136.116 E19.16251
G1 X58.349 Y134.401 E19.31375
G1 X57.638 Y133.522 E19.38933
G1 X56.321 Y131.787 E19.53478
G1 X55.665 Y130.865 E19.61040
G1 X54.982 Y129.860 E19.69160
G1 X53.815 Y128.021 E19.83711
G1 X53.238 Y127.047 E19.91270
G1 X52.146 Y125.066 E20.06385
G1 X51.138 Y123.040 E20.21501
G1 X50.632 Y121.934 E20.29627
G1 X50.183 Y120.894 E20.37190
G1 X49.382 Y118.870 E20.51733
G1 X48.998 Y117.806 E20.59294
G1 X48.610 Y116.653 E20.67419
G1 X48.272 Y115.573 E20.74980
G1 X47.666 Y113.393 E20.90094
G1 X47.168 Y111.274 E21.04639
G1 X46.944 Y110.164 E21.12203
G1 X46.565 Y107.934 E21.27315
G1 X46.400 Y106.728 E21.35442
G1 X46.270 Y105.604 E21.43003
G1 X46.088 Y103.435 E21.57547
G1 X46.028 Y102.305 E21.65106
G1 X45.990 Y101.089 E21.73232
G1 X45.979 Y99.958 E21.80790
G1 X46.029 Y97.688 E21.95955
G1 X46.165 Y95.522 E22.10454
G1 X46.270 Y94.396 E22.18011
G1 X46.410 Y93.187 E22.26138
G1 X46.565 Y92.066 E22.33697
G1 X46.947 Y89.822 E22.48910
G1 X47.395 Y87.711 E22.63326
G1 X47.665 Y86.607 E22.70917
G1 X47.980 Y85.433 E22.79041
G1 X48.297 Y84.345 E22.86606
G1 X48.970 Y82.275 E23.01151
G1 X49.352 Y81.210 E23.08709
G1 X50.183 Y79.106 E23.23824
G1 X50.632 Y78.067 E23.31385
G1 X51.138 Y76.960 E23.39512
G1 X52.150 Y74.928 E23.54676
G1 X53.195 Y73.027 E23.69173
G1 X53.770 Y72.052 E23.76733
G1 X54.411 Y71.019 E23.84855
G1 X55.028 Y70.070 E23.92416
G1 X56.321 Y68.213 E24.07535
G1 X57.638 Y66.478 E24.22081
G1 X58.349 Y65.599 E24.29639
G1 X59.134 Y64.670 E24.37764
G1 X59.883 Y63.821 E24.45324
G1 X60.650 Y62.989 E24.52884
G1 X62.131 Y61.476 E24.67029
G1 X62.552 Y61.812 F30000.000
G1 F2100
G1 X64.184 Y60.277 E24.81996
G1 X65.024 Y59.536 E24.89482
G1 X65.936 Y58.765 E24.97457
G1 X66.807 Y58.061 E25.04940
G1 X68.526 Y56.756 E25.19362
G1 X70.371 Y55.471 E25.34379
G1 X72.325 Y54.231 E25.49836
G1 X73.289 Y53.662 E25.57321
G1 X75.181 Y52.622 E25.71743
G1 X77.193 Y51.621 E25.86758
G1 X79.308 Y50.679 E26.02221
G1 X81.315 Y49.884 E26.16644
G1 X82.376 Y49.502 E26.24177
G1 X84.577 Y48.787 E26.39635
G1 X86.735 Y48.186 E26.54602
G1 X88.843 Y47.691 E26.69070
G1 X89.942 Y47.469 E26.76557
G1 X92.223 Y47.083 E26.92016
G1 X94.451 Y46.803 E27.07015
G1 X96.597 Y46.623 E27.21404
G1 X97.724 Y46.563 E27.28938
G1 X100.037 Y46.515 E27.44397
G1 X101.157 Y46.527 E27.51880
G1 X103.314 Y46.617 E27.66302
G1 X105.554 Y46.804 E27.81316
G1 X107.777 Y47.083 E27.96283
G1 X110.059 Y47.469 E28.11744
G1 X111.157 Y47.691 E28.19229
G1 X113.265 Y48.186 E28.33696
G1 X115.423 Y48.787 E28.48663
G1 X117.624 Y49.502 E28.64124
G1 X118.678 Y49.882 E28.71609
G1 X120.692 Y50.679 E28.86080
G1 X122.807 Y51.621 E29.01541
G1 X124.813 Y52.618 E29.16507
G1 X126.704 Y53.658 E29.30929
G1 X127.673 Y54.230 E29.38447
G1 X129.629 Y55.471 E29.53921
G1 X131.402 Y56.703 E29.68343
G1 X132.308 Y57.375 E29.75879
G1 X134.121 Y58.812 E29.91337
G1 X134.977 Y59.536 E29.98821
G1 X136.586 Y60.985 E30.13291
G1 X138.188 Y62.552 E30.28259
G1 X139.014 Y63.413 E30.36227
G1 X139.772 Y64.239 E30.43717
G1 X141.239 Y65.941 E30.58730
G1 X142.580 Y67.633 E30.73156
G1 X143.249 Y68.532 E30.80639
G1 X144.569 Y70.432 E30.96095
G1 X145.730 Y72.261 E31.10570
G1 X146.301 Y73.225 E31.18055
G1 X147.382 Y75.188 E31.33020
G1 X148.410 Y77.259 E31.48474
G1 X149.321 Y79.307 E31.63446
G1 X150.146 Y81.397 E31.78452
G1 X150.856 Y83.437 E31.92885
G1 X151.192 Y84.505 E32.00366
G1 X151.814 Y86.735 E32.15830
G1 X152.309 Y88.843 E32.30298
G1 X152.531 Y89.941 E32.37783
G1 X152.906 Y92.150 E32.52750
G1 X153.196 Y94.446 E32.68211
G1 X153.378 Y96.605 E32.82681
G1 X153.437 Y97.723 E32.90164
G1 X153.485 Y100.037 E33.05625
G1 X153.437 Y102.284 E33.20640
G1 X153.301 Y104.439 E33.35062
G1 X153.196 Y105.554 E33.42544
G1 X152.906 Y107.850 E33.58005
G1 X152.545 Y109.986 E33.72477
G1 X152.324 Y111.084 E33.79961
G1 X151.796 Y113.336 E33.95416
G1 X151.192 Y115.495 E34.10389
G1 X150.523 Y117.555 E34.24858
G1 X150.144 Y118.609 E34.32341
G1 X149.292 Y120.761 E34.47803
G1 X148.377 Y122.812 E34.62811
G1 X147.416 Y124.747 E34.77240
G1 X146.887 Y125.734 E34.84724
G1 X145.769 Y127.675 E34.99690
G1 X144.529 Y129.629 E35.15150
G1 X143.235 Y131.486 E35.30266
G1 X141.939 Y133.193 E35.44587
G1 X141.235 Y134.064 E35.52070
G1 X140.512 Y134.920 E35.59553
G1 X139.723 Y135.816 E35.67530
G1 X138.960 Y136.644 E35.75049
G1 X137.448 Y138.188 E35.89486
G1 X135.816 Y139.723 E36.04454
G1 X134.976 Y140.464 E36.11937
G1 X134.064 Y141.235 E36.19914
G1 X133.193 Y141.939 E36.27397
G1 X131.474 Y143.245 E36.41820
G1 X129.629 Y144.529 E36.56834
G1 X127.675 Y145.769 E36.72294
G1 X126.710 Y146.338 E36.79780
G1 X124.819 Y147.378 E36.94200
G1 X122.806 Y148.380 E37.09220
G1 X120.692 Y149.321 E37.24678
G1 X118.609 Y150.144 E37.39643
G1 X117.555 Y150.523 E37.47126
G1 X115.494 Y151.192 E37.61603
G1 X113.265 Y151.814 E37.77059
G1 X111.164 Y152.307 E37.91478
G1 X110.058 Y152.531 E37.99015
G1 X108.883 Y152.743 E38.06991
G1 X107.777 Y152.917 E38.14474
G1 X105.539 Y153.198 E38.29539
G1 X103.395 Y153.378 E38.43911
G1 X102.275 Y153.437 E38.51406
G1 X99.963 Y153.485 E38.66855
G1 X97.723 Y153.437 E38.81821
G1 X96.605 Y153.378 E38.89304
G1 X94.446 Y153.196 E39.03774
G1 X92.150 Y152.906 E39.19235
G1 X89.941 Y152.531 E39.34202
G1 X88.843 Y152.309 E39.41687
G1 X86.735 Y151.814 E39.56155
G1 X84.505 Y151.192 E39.71619
G1 X83.425 Y150.852 E39.79183
G1 X81.398 Y150.146 E39.93522
G1 X79.307 Y149.320 E40.08541
G1 X77.259 Y148.410 E40.23511
G1 X75.188 Y147.382 E40.38965
G1 X73.296 Y146.342 E40.53385
G1 X72.324 Y145.768 E40.60922
G1 X70.371 Y144.529 E40.76380
G1 X68.532 Y143.249 E40.91346
G1 X66.812 Y141.944 E41.05768
G1 X65.935 Y141.235 E41.13304
G1 X65.079 Y140.512 E41.20791
G1 X64.184 Y139.723 E41.28760
G1 X63.360 Y138.964 E41.36246
G1 X61.812 Y137.448 E41.50716
G1 X61.036 Y136.640 E41.58199
G1 X60.229 Y135.762 E41.66171
G1 X58.765 Y134.064 E41.81144
G1 X58.061 Y133.193 E41.88627
G1 X56.751 Y131.468 E42.03098
G1 X55.431 Y129.568 E42.18555
G1 X54.270 Y127.739 E42.33029
G1 X53.699 Y126.775 E42.40514
G1 X52.618 Y124.813 E42.55479
G1 X51.621 Y122.807 E42.70445
G1 X50.679 Y120.692 E42.85908
G1 X49.882 Y118.678 E43.00377
G1 X49.502 Y117.624 E43.07862
G1 X48.787 Y115.423 E43.23323
G1 X48.186 Y113.265 E43.38287
G1 X47.691 Y111.157 E43.52757
G1 X47.469 Y110.058 E43.60245
G1 X47.094 Y107.850 E43.75208
G1 X46.804 Y105.554 E43.90670
G1 X46.622 Y103.395 E44.05140
G1 X46.563 Y102.277 E44.12623
G1 X46.515 Y99.963 E44.28082
G1 X46.563 Y97.716 E44.43097
G1 X46.699 Y95.561 E44.57521
G1 X46.804 Y94.446 E44.65003
G1 X47.094 Y92.150 E44.80464
G1 X47.472 Y89.927 E44.95527
G1 X47.918 Y87.828 E45.09867
G1 X48.186 Y86.735 E45.17384
G1 X48.808 Y84.505 E45.32847
G1 X49.477 Y82.445 E45.47317
G1 X49.856 Y81.391 E45.54800
G1 X50.679 Y79.308 E45.69765
G1 X51.621 Y77.194 E45.85227
G1 X52.618 Y75.188 E46.00192
G1 X53.662 Y73.289 E46.14664
G1 X54.231 Y72.325 E46.22149
G1 X55.471 Y70.371 E46.37607
G1 X56.751 Y68.532 E46.52575
G1 X58.061 Y66.807 E46.67046
G1 X58.765 Y65.936 E46.74529
G1 X59.536 Y65.024 E46.82505
G1 X60.277 Y64.184 E46.89989
G1 X61.036 Y63.360 E46.97475
G1 X62.509 Y61.854 E47.11544
G1 X63.108 Y62.368 F30000.000
G1 F2100
G1 X64.727 Y60.846 E47.28172
G1 X66.419 Y59.385 E47.44905
G1 X67.277 Y58.691 E47.53165
G1 X68.995 Y57.387 E47.69305
G1 X70.825 Y56.113 E47.85987
G1 X72.713 Y54.915 E48.02719
G1 X73.663 Y54.354 E48.10979
G1 X75.553 Y53.315 E48.27119
G1 X77.549 Y52.322 E48.43800
G1 X79.592 Y51.413 E48.60536
G1 X81.597 Y50.619 E48.76675
G1 X82.656 Y50.237 E48.85100
G1 X84.782 Y49.546 E49.01831
G1 X86.908 Y48.953 E49.18350
G1 X89.029 Y48.455 E49.34652
G1 X90.111 Y48.237 E49.42914
G1 X92.316 Y47.864 E49.59646
G1 X94.526 Y47.586 E49.76314
G1 X96.655 Y47.407 E49.92306
G1 X97.779 Y47.347 E50.00728
G1 X100.014 Y47.301 E50.17461
G1 X102.221 Y47.347 E50.33979
G1 X103.323 Y47.406 E50.42239
G1 X105.494 Y47.588 E50.58540
G1 X107.713 Y47.868 E50.75275
G1 X109.889 Y48.237 E50.91796
G1 X110.971 Y48.455 E51.00055
G1 X113.091 Y48.953 E51.16354
G1 X115.246 Y49.554 E51.33091
G1 X116.299 Y49.884 E51.41352
G1 X118.336 Y50.593 E51.57491
G1 X120.409 Y51.413 E51.74172
G1 X122.451 Y52.322 E51.90905
G1 X124.428 Y53.304 E52.07424
G1 X125.401 Y53.826 E52.15684
G1 X127.272 Y54.906 E52.31853
G1 X129.176 Y56.114 E52.48722
G1 X130.947 Y57.344 E52.64861
G1 X131.851 Y58.015 E52.73286
G1 X133.603 Y59.404 E52.90017
G1 X134.446 Y60.116 E52.98277
G1 X136.064 Y61.573 E53.14572
G1 X137.642 Y63.118 E53.31101
G1 X139.173 Y64.748 E53.47836
G1 X140.628 Y66.436 E53.64511
G1 X141.968 Y68.127 E53.80656
G1 X142.626 Y69.012 E53.88912
G1 X143.902 Y70.848 E54.05644
G1 X145.070 Y72.688 E54.21948
G1 X145.632 Y73.638 E54.30209
G1 X146.696 Y75.572 E54.46727
G1 X147.690 Y77.574 E54.63457
G1 X148.595 Y79.611 E54.80143
G1 X149.389 Y81.617 E54.96281
G1 X149.763 Y82.656 E55.04545
G1 X150.454 Y84.782 E55.21278
G1 X151.047 Y86.909 E55.37799
G1 X151.545 Y89.028 E55.54094
G1 X151.763 Y90.111 E55.62356
G1 X152.132 Y92.287 E55.78878
G1 X152.412 Y94.507 E55.95618
G1 X152.594 Y96.677 E56.11916
G1 X152.653 Y97.779 E56.20173
G1 X152.699 Y100.014 E56.36907
G1 X152.651 Y102.243 E56.53586
G1 X152.516 Y104.395 E56.69727
G1 X152.412 Y105.494 E56.77988
G1 X152.132 Y107.714 E56.94731
G1 X151.959 Y108.803 E57.02986
G1 X151.750 Y109.955 E57.11744
G1 X151.310 Y112.020 E57.27547
G1 X151.047 Y113.092 E57.35802
G1 X150.446 Y115.247 E57.52546
G1 X149.773 Y117.318 E57.68843
G1 X149.399 Y118.356 E57.77102
G1 X148.587 Y120.409 E57.93618
G1 X147.678 Y122.451 E58.10348
G1 X146.696 Y124.428 E58.26872
G1 X145.646 Y126.337 E58.43175
G1 X145.085 Y127.287 E58.51434
G1 X143.886 Y129.176 E58.68170
G1 X142.604 Y131.017 E58.84963
G1 X141.309 Y132.723 E59.00989
G1 X140.615 Y133.581 E59.09249
G1 X139.154 Y135.274 E59.25984
G1 X138.392 Y136.100 E59.34395
G1 X136.882 Y137.642 E59.50545
G1 X135.273 Y139.154 E59.67065
G1 X133.581 Y140.615 E59.83797
G1 X132.723 Y141.309 E59.92057
G1 X130.988 Y142.626 E60.08361
G1 X129.151 Y143.902 E60.25094
G1 X127.331 Y145.058 E60.41234
G1 X126.362 Y145.632 E60.49658
G1 X124.428 Y146.696 E60.66175
G1 X122.451 Y147.678 E60.82697
G1 X120.409 Y148.587 E60.99428
G1 X118.356 Y149.399 E61.15945
G1 X117.318 Y149.773 E61.24203
G1 X115.246 Y150.446 E61.40508
G1 X113.092 Y151.047 E61.57245
G1 X110.992 Y151.540 E61.73383
G1 X109.889 Y151.763 E61.81807
G1 X107.685 Y152.136 E61.98537
G1 X105.466 Y152.415 E62.15271
G1 X103.324 Y152.594 E62.31358
G1 X102.243 Y152.651 E62.39460
G1 X99.985 Y152.699 E62.56355
G1 X97.779 Y152.653 E62.72873
G1 X96.677 Y152.594 E62.81130
