; generated by Slic3r 1.3.0 on 2020-03-31 at 11:09:30

; external perimeters extrusion width = 0.44mm (2.78mm^3/s)
; perimeters extrusion width = 0.40mm (7.14mm^3/s)
; infill extrusion width = 0.50mm (10.97mm^3/s)
; solid infill extrusion width = 0.60mm (6.68mm^3/s)
; top infill extrusion width = 0.40mm (2.14mm^3/s)

M107
M190 S80 ; set bed temperature and wait for it to be reached
M104 S200 ; set temperature
G28 ; home all axes
G1 Z5 F5000 ; lift nozzle

; Filament gcode

M109 S200 ; set temperature and wait for it to be reached
G21 ; set units to millimeters
G90 ; use absolute coordinates
M82 ; use absolute distances for extrusion
G92 E0
G1 Z0.300 F30000.000
G1 E-2.00000 F2400.00000
G92 E0
G1 X62.173 Y61.433 F30000.000
G1 E2.00000 F2400.00000
G1 F2100
G1 X63.821 Y59.883 E2.15118
G1 X64.669 Y59.134 E2.22676
G1 X65.599 Y58.349 E2.30803
G1 X66.478 Y57.638 E2.38361
G1 X68.213 Y56.321 E2.52906
G1 X70.070 Y55.028 E2.68023
G1 X71.020 Y54.410 E2.75594
G1 X72.052 Y53.770 E2.83708
G1 X73.027 Y53.195 E2.91269
G1 X74.934 Y52.146 E3.05813
G1 X76.960 Y51.138 E3.20930
G1 X78.066 Y50.632 E3.29055
G1 X79.108 Y50.183 E3.36632
G1 X81.122 Y49.385 E3.51107
G1 X82.194 Y48.998 E3.58721
G1 X83.347 Y48.610 E3.66847
G1 X84.427 Y48.272 E3.74408
G1 X86.607 Y47.665 E3.89525
G1 X88.726 Y47.168 E4.04067
G1 X89.836 Y46.944 E4.11633
G1 X92.066 Y46.565 E4.26743
G1 X93.187 Y46.410 E4.34303
G1 X94.396 Y46.270 E4.42430
G1 X96.559 Y46.089 E4.56935
G1 X97.695 Y46.028 E4.64534
G1 X98.901 Y45.990 E4.72590
G1 X100.043 Y45.979 E4.80221
G1 X102.220 Y46.025 E4.94766
G1 X103.349 Y46.083 E5.02324
G1 X105.604 Y46.270 E5.17439
G1 X106.728 Y46.400 E5.25000
G1 X107.934 Y46.565 E5.33126
G1 X109.053 Y46.743 E5.40700
G1 X111.186 Y47.150 E5.55206
G1 X113.393 Y47.665 E5.70344
G1 X114.487 Y47.958 E5.77907
G1 X115.655 Y48.297 E5.86035
G1 X117.725 Y48.970 E6.00579
G1 X118.790 Y49.352 E6.08137
G1 X120.898 Y50.185 E6.23274
G1 X121.934 Y50.632 E6.30819
G1 X123.040 Y51.138 E6.38941
G1 X125.066 Y52.146 E6.54057
G1 X126.973 Y53.195 E6.68601
G1 X127.948 Y53.771 E6.76164
G1 X128.979 Y54.409 E6.84262
G1 X129.929 Y55.027 E6.91833
G1 X131.712 Y56.267 E7.06344
G1 X132.627 Y56.945 E7.13952
G1 X133.522 Y57.638 E7.21516
G1 X134.467 Y58.403 E7.29637
G1 X135.331 Y59.134 E7.37197
G1 X136.944 Y60.587 E7.51701
G1 X138.571 Y62.177 E7.66895
G1 X139.352 Y62.990 E7.74427
G1 X140.174 Y63.884 E7.82542
G1 X140.921 Y64.734 E7.90102
G1 X142.309 Y66.412 E8.04649
G1 X143.055 Y67.372 E8.12773
G1 X143.728 Y68.281 E8.20325
G1 X145.019 Y70.141 E8.35453
G1 X146.185 Y71.979 E8.49996
G1 X146.762 Y72.953 E8.57555
G1 X147.854 Y74.934 E8.72670
G1 X148.368 Y75.942 E8.80229
G1 X148.897 Y77.036 E8.88344
G1 X149.817 Y79.107 E9.03486
G1 X150.616 Y81.124 E9.17977
G1 X151.002 Y82.194 E9.25579
G1 X151.390 Y83.346 E9.33695
G1 X151.728 Y84.427 E9.41265
G1 X152.335 Y86.607 E9.56382
G1 X152.832 Y88.727 E9.70925
G1 X153.056 Y89.836 E9.78484
G1 X153.435 Y92.066 E9.93601
G1 X153.600 Y93.271 E10.01727
G1 X153.730 Y94.396 E10.09288
G1 X153.912 Y96.565 E10.23833
G1 X153.972 Y97.695 E10.31391
G1 X154.010 Y98.911 E10.39515
G1 X154.021 Y100.043 E10.47078
G1 X153.972 Y102.305 E10.62193
G1 X153.911 Y103.441 E10.69792
G1 X153.730 Y105.604 E10.84296
G1 X153.600 Y106.729 E10.91857
G1 X153.435 Y107.934 E10.99983
G1 X153.255 Y109.064 E11.07633
G1 X152.850 Y111.188 E11.22078
G1 X152.335 Y113.393 E11.37202
G1 X152.020 Y114.567 E11.45323
G1 X151.703 Y115.655 E11.52893
G1 X151.030 Y117.725 E11.67437
G1 X150.648 Y118.790 E11.74994
G1 X149.816 Y120.896 E11.90123
G1 X149.368 Y121.934 E11.97672
G1 X148.862 Y123.039 E12.05793
G1 X147.854 Y125.066 E12.20914
G1 X146.805 Y126.973 E12.35458
G1 X146.230 Y127.948 E12.43019
G1 X145.590 Y128.979 E12.51122
G1 X144.972 Y129.930 E12.58704
G1 X143.744 Y131.698 E12.73081
G1 X143.055 Y132.627 E12.80810
G1 X142.310 Y133.588 E12.88934
G1 X141.597 Y134.467 E12.96491
G1 X140.863 Y135.334 E13.04086
G1 X139.409 Y136.949 E13.18599
G1 X137.827 Y138.567 E13.33715
G1 X137.010 Y139.351 E13.41279
G1 X136.116 Y140.174 E13.49400
G1 X135.266 Y140.922 E13.56960
G1 X133.593 Y142.306 E13.71466
G1 X131.787 Y143.679 E13.86622
G1 X130.802 Y144.379 E13.94699
G1 X129.859 Y145.019 E14.02309
G1 X128.021 Y146.185 E14.16853
G1 X127.053 Y146.759 E14.24372
G1 X125.066 Y147.854 E14.39528
G1 X123.039 Y148.862 E14.54649
G1 X121.936 Y149.367 E14.62757
G1 X120.890 Y149.819 E14.70367
G1 X118.890 Y150.611 E14.84737
G1 X117.805 Y151.003 E14.92445
G1 X116.653 Y151.390 E15.00562
G1 X115.573 Y151.728 E15.08123
G1 X113.393 Y152.335 E15.23240
G1 X111.274 Y152.832 E15.37782
G1 X110.164 Y153.056 E15.45343
G1 X107.934 Y153.435 E15.60458
G1 X106.813 Y153.590 E15.68017
G1 X105.604 Y153.730 E15.76145
G1 X103.441 Y153.911 E15.90650
G1 X102.305 Y153.972 E15.98249
G1 X101.090 Y154.010 E16.06368
G1 X99.958 Y154.021 E16.13933
G1 X97.695 Y153.972 E16.29051
G1 X96.565 Y153.912 E16.36609
G1 X94.396 Y153.730 E16.51154
G1 X93.271 Y153.600 E16.58715
G1 X92.066 Y153.435 E16.66841
G1 X89.833 Y153.056 E16.81973
G1 X88.726 Y152.832 E16.89518
G1 X86.607 Y152.335 E17.04059
G1 X85.513 Y152.042 E17.11626
G1 X84.345 Y151.703 E17.19750
G1 X82.280 Y151.032 E17.34254
G1 X81.210 Y150.648 E17.41852
G1 X79.105 Y149.816 E17.56973
G1 X77.036 Y148.897 E17.72098
G1 X75.942 Y148.368 E17.80213
G1 X74.934 Y147.854 E17.87771
G1 X73.032 Y146.808 E18.02275
G1 X72.052 Y146.230 E18.09876
G1 X71.021 Y145.591 E18.17977
G1 X70.070 Y144.972 E18.25560
G1 X68.213 Y143.679 E18.40678
G1 X66.478 Y142.362 E18.55224
G1 X65.598 Y141.651 E18.62786
G1 X64.733 Y140.921 E18.70344
G1 X63.821 Y140.117 E18.78467
G1 X62.978 Y139.340 E18.86126
G1 X61.433 Y137.827 E19.00577
G1 X60.592 Y136.949 E19.08696
G1 X59.826 Y136.116 E19.16257
G1 X59.078 Y135.266 E19.23817
G1 X57.691 Y133.588 E19.38364
G1 X56.996 Y132.695 E19.45922
G1 X56.271 Y131.719 E19.54048
G1 X54.981 Y129.859 E19.69167
G1 X53.815 Y128.021 E19.83711
G1 X53.238 Y127.047 E19.91270
G1 X52.146 Y125.066 E20.06385
G1 X51.632 Y124.058 E20.13944
G1 X51.102 Y122.962 E20.22073
G1 X50.182 Y120.892 E20.37211
G1 X49.386 Y118.880 E20.51661
G1 X48.998 Y117.806 E20.59294
G1 X48.636 Y116.734 E20.66852
G1 X48.272 Y115.573 E20.74980
G1 X47.665 Y113.393 E20.90097
G1 X47.168 Y111.274 E21.04639
G1 X46.943 Y110.162 E21.12216
G1 X46.742 Y109.050 E21.19767
G1 X46.552 Y107.849 E21.27886
G1 X46.270 Y105.604 E21.43003
G1 X46.088 Y103.435 E21.57548
G1 X46.028 Y102.305 E21.65106
G1 X45.990 Y101.094 E21.73198
G1 X45.979 Y99.957 E21.80793
G1 X46.025 Y97.780 E21.95339
G1 X46.083 Y96.651 E22.02897
G1 X46.270 Y94.396 E22.18011
G1 X46.410 Y93.187 E22.26140
G1 X46.565 Y92.066 E22.33699
G1 X46.944 Y89.833 E22.48829
G1 X47.168 Y88.726 E22.56375
G1 X47.665 Y86.607 E22.70917
G1 X47.958 Y85.513 E22.78480
G1 X48.297 Y84.345 E22.86607
G1 X48.970 Y82.275 E23.01151
G1 X49.352 Y81.210 E23.08709
G1 X50.184 Y79.105 E23.23828
G1 X50.632 Y78.066 E23.31390
G1 X51.138 Y76.960 E23.39512
G1 X52.146 Y74.934 E23.54629
G1 X53.195 Y73.027 E23.69173
G1 X53.770 Y72.052 E23.76733
G1 X54.411 Y71.019 E23.84851
G1 X55.028 Y70.070 E23.92419
G1 X56.321 Y68.213 E24.07536
G1 X57.638 Y66.478 E24.22081
G1 X58.349 Y65.599 E24.29639
G1 X59.078 Y64.734 E24.37198
G1 X59.883 Y63.821 E24.45324
G1 X60.650 Y62.989 E24.52884
G1 X62.131 Y61.476 E24.67029
G1 X62.552 Y61.812 F30000.000
G1 F2100
G1 X64.184 Y60.277 E24.81997
G1 X65.024 Y59.536 E24.89480
G1 X65.936 Y58.765 E24.97457
G1 X66.807 Y58.061 E25.04940
G1 X68.532 Y56.751 E25.19411
G1 X70.371 Y55.471 E25.34378
G1 X72.325 Y54.231 E25.49837
G1 X73.289 Y53.662 E25.57323
G1 X75.187 Y52.618 E25.71792
G1 X77.194 Y51.621 E25.86759
G1 X79.309 Y50.679 E26.02225
G1 X81.313 Y49.885 E26.16631
G1 X82.376 Y49.502 E26.24175
G1 X84.577 Y48.787 E26.39636
G1 X86.735 Y48.186 E26.54603
G1 X88.843 Y47.691 E26.69070
G1 X89.940 Y47.469 E26.76548
G1 X92.150 Y47.094 E26.91522
G1 X94.446 Y46.804 E27.06983
G1 X96.599 Y46.623 E27.21417
G1 X97.723 Y46.563 E27.28937
G1 X98.908 Y46.526 E27.36853
G1 X100.037 Y46.515 E27.44399
G1 X102.203 Y46.560 E27.58869
G1 X103.321 Y46.618 E27.66353
G1 X105.554 Y46.804 E27.81317
G1 X107.850 Y47.094 E27.96779
G1 X108.962 Y47.271 E28.04300
G1 X111.080 Y47.675 E28.18708
G1 X113.265 Y48.186 E28.33698
G1 X115.495 Y48.808 E28.49162
G1 X117.555 Y49.477 E28.63631
G1 X118.609 Y49.856 E28.71114
G1 X120.695 Y50.680 E28.86099
G1 X122.807 Y51.621 E29.01542
G1 X124.813 Y52.618 E29.16508
G1 X126.711 Y53.662 E29.30978
G1 X127.676 Y54.232 E29.38466
G1 X129.628 Y55.470 E29.53911
G1 X131.402 Y56.703 E29.68345
G1 X132.308 Y57.375 E29.75878
G1 X133.194 Y58.061 E29.83367
G1 X134.121 Y58.812 E29.91339
G1 X134.977 Y59.536 E29.98824
G1 X136.582 Y60.982 E30.13257
G1 X138.191 Y62.555 E30.28292
G1 X139.772 Y64.239 E30.43718
G1 X140.516 Y65.084 E30.51244
G1 X141.893 Y66.749 E30.65675
G1 X143.292 Y68.591 E30.81127
G1 X144.570 Y70.433 E30.96103
G1 X145.730 Y72.261 E31.10572
G1 X146.301 Y73.225 E31.18056
G1 X147.382 Y75.187 E31.33021
G1 X148.410 Y77.259 E31.48471
G1 X149.321 Y79.309 E31.63461
G1 X150.115 Y81.315 E31.77871
G1 X150.498 Y82.376 E31.85404
G1 X151.213 Y84.577 E32.00865
G1 X151.814 Y86.735 E32.15832
G1 X152.309 Y88.843 E32.30300
G1 X152.531 Y89.941 E32.37784
G1 X152.906 Y92.150 E32.52751
G1 X153.196 Y94.446 E32.68212
G1 X153.378 Y96.605 E32.82682
G1 X153.437 Y97.723 E32.90166
G1 X153.485 Y100.037 E33.05627
G1 X153.437 Y102.277 E33.20592
G1 X153.377 Y103.401 E33.28116
G1 X153.196 Y105.554 E33.42546
G1 X152.906 Y107.850 E33.58007
G1 X152.530 Y110.064 E33.73011
G1 X152.309 Y111.157 E33.80458
G1 X151.814 Y113.265 E33.94926
G1 X151.192 Y115.495 E34.10390
G1 X150.523 Y117.555 E34.24860
G1 X150.144 Y118.609 E34.32342
G1 X149.320 Y120.694 E34.47319
G1 X148.380 Y122.806 E34.62766
G1 X147.382 Y124.812 E34.77736
G1 X146.338 Y126.710 E34.92206
G1 X145.769 Y127.675 E34.99691
G1 X144.529 Y129.629 E35.15151
G1 X143.307 Y131.387 E35.29453
G1 X142.625 Y132.308 E35.37107
G1 X141.893 Y133.251 E35.45081
G1 X141.188 Y134.121 E35.52564
G1 X140.461 Y134.980 E35.60084
G1 X139.015 Y136.586 E35.74521
G1 X137.448 Y138.188 E35.89487
G1 X136.640 Y138.964 E35.96976
G1 X135.761 Y139.772 E36.04948
G1 X134.920 Y140.512 E36.12433
G1 X133.256 Y141.889 E36.26864
G1 X131.468 Y143.249 E36.41870
G1 X130.500 Y143.937 E36.49804
G1 X129.567 Y144.570 E36.57332
G1 X128.628 Y145.179 E36.64814
G1 X126.780 Y146.298 E36.79246
G1 X124.812 Y147.382 E36.94251
G1 X122.806 Y148.380 E37.09222
G1 X121.722 Y148.876 E37.17183
G1 X120.689 Y149.322 E37.24704
G1 X118.698 Y150.111 E37.39011
G1 X117.623 Y150.499 E37.46642
G1 X115.423 Y151.213 E37.62096
G1 X113.265 Y151.814 E37.77063
G1 X111.157 Y152.309 E37.91530
G1 X110.059 Y152.531 E37.99012
G1 X107.850 Y152.906 E38.13982
G1 X105.554 Y153.196 E38.29443
G1 X103.401 Y153.377 E38.43873
G1 X102.277 Y153.437 E38.51396
G1 X99.963 Y153.485 E38.66855
G1 X97.723 Y153.437 E38.81823
G1 X96.605 Y153.378 E38.89306
G1 X94.446 Y153.196 E39.03777
G1 X92.150 Y152.906 E39.19238
G1 X89.939 Y152.531 E39.34220
G1 X88.843 Y152.309 E39.41690
G1 X86.735 Y151.814 E39.56157
G1 X84.505 Y151.192 E39.71621
G1 X82.451 Y150.524 E39.86050
G1 X81.391 Y150.144 E39.93573
G1 X79.307 Y149.320 E40.08544
G1 X77.259 Y148.410 E40.23518
G1 X75.187 Y147.382 E40.38967
G1 X73.295 Y146.341 E40.53396
G1 X72.325 Y145.769 E40.60922
G1 X70.371 Y144.529 E40.76380
G1 X68.532 Y143.249 E40.91349
G1 X66.807 Y141.939 E41.05819
G1 X65.935 Y141.235 E41.13306
G1 X65.079 Y140.512 E41.20789
G1 X64.184 Y139.723 E41.28763
G1 X63.355 Y138.959 E41.36293
G1 X61.812 Y137.448 E41.50722
G1 X60.986 Y136.587 E41.58693
G1 X60.228 Y135.761 E41.66178
G1 X58.765 Y134.064 E41.81146
G1 X58.058 Y133.189 E41.88664
G1 X56.751 Y131.468 E42.03100
G1 X55.471 Y129.629 E42.18067
G1 X54.852 Y128.676 E42.25659
G1 X54.232 Y127.676 E42.33525
G1 X53.662 Y126.711 E42.41013
G1 X52.618 Y124.813 E42.55482
G1 X51.589 Y122.739 E42.70944
G1 X50.678 Y120.689 E42.85932
G1 X49.886 Y118.688 E43.00308
G1 X49.502 Y117.624 E43.07865
G1 X48.787 Y115.423 E43.23326
G1 X48.186 Y113.265 E43.38293
G1 X47.691 Y111.157 E43.52760
G1 X47.469 Y110.060 E43.60233
G1 X47.094 Y107.850 E43.75212
G1 X46.804 Y105.554 E43.90673
G1 X46.622 Y103.395 E44.05143
G1 X46.563 Y102.277 E44.12627
G1 X46.526 Y101.088 E44.20574
G1 X46.515 Y99.963 E44.28089
G1 X46.560 Y97.797 E44.42559
G1 X46.618 Y96.679 E44.50043
G1 X46.804 Y94.446 E44.65008
G1 X47.083 Y92.223 E44.79974
G1 X47.469 Y89.942 E44.95432
G1 X47.691 Y88.843 E45.02920
G1 X48.186 Y86.735 E45.17388
G1 X48.787 Y84.577 E45.32355
G1 X49.502 Y82.376 E45.47816
G1 X49.885 Y81.313 E45.55363
G1 X50.679 Y79.307 E45.69773
G1 X51.621 Y77.194 E45.85231
G1 X52.618 Y75.187 E46.00198
G1 X53.662 Y73.289 E46.14668
G1 X54.231 Y72.325 E46.22153
G1 X55.471 Y70.371 E46.37613
G1 X56.751 Y68.532 E46.52580
G1 X58.061 Y66.807 E46.67050
G1 X58.765 Y65.936 E46.74533
G1 X59.488 Y65.080 E46.82017
G1 X60.277 Y64.184 E46.89994
G1 X61.036 Y63.360 E46.97478
G1 X62.509 Y61.854 E47.11549
G1 X63.108 Y62.368 F30000.000
G1 F2100
G1 X64.727 Y60.846 E47.28175
G1 X66.419 Y59.385 E47.44909
G1 X67.277 Y58.691 E47.53169
G1 X69.012 Y57.374 E47.69470
G1 X70.848 Y56.098 E47.86204
G1 X72.671 Y54.941 E48.02355
G1 X73.638 Y54.368 E48.10767
G1 X75.572 Y53.304 E48.27286
G1 X77.575 Y52.310 E48.44021
G1 X79.606 Y51.407 E48.60658
G1 X81.595 Y50.619 E48.76668
G1 X82.655 Y50.237 E48.85101
G1 X84.782 Y49.546 E49.01835
G1 X86.908 Y48.953 E49.18354
G1 X87.994 Y48.687 E49.26722
G1 X90.093 Y48.240 E49.42779
G1 X92.287 Y47.868 E49.59434
G1 X94.506 Y47.588 E49.76168
G1 X96.656 Y47.407 E49.92320
G1 X97.779 Y47.347 E50.00732
G1 X100.014 Y47.301 E50.17466
G1 X102.192 Y47.346 E50.33765
G1 X103.295 Y47.404 E50.42028
G1 X105.494 Y47.588 E50.58545
G1 X107.713 Y47.868 E50.75280
G1 X108.821 Y48.044 E50.83675
G1 X110.936 Y48.448 E50.99789
G1 X113.091 Y48.953 E51.16358
G1 X115.246 Y49.554 E51.33095
G1 X117.317 Y50.227 E51.49396
G1 X118.356 Y50.601 E51.57654
G1 X120.410 Y51.413 E51.74188
G1 X122.451 Y52.322 E51.90911
G1 X124.402 Y53.291 E52.07211
G1 X125.375 Y53.812 E52.15471
G1 X127.312 Y54.930 E52.32208
G1 X129.188 Y56.122 E52.48835
G1 X130.964 Y57.357 E52.65028
G1 X131.850 Y58.015 E52.73287
G1 X133.603 Y59.404 E52.90021
G1 X134.446 Y60.116 E52.98282
G1 X136.050 Y61.560 E53.14432
G1 X137.644 Y63.120 E53.31124
G1 X139.173 Y64.748 E53.47835
G1 X139.903 Y65.576 E53.56096
G1 X141.291 Y67.255 E53.72401
G1 X142.643 Y69.035 E53.89128
G1 X143.902 Y70.848 E54.05643
G1 X145.070 Y72.688 E54.21956
G1 X145.632 Y73.638 E54.30212
G1 X146.696 Y75.572 E54.46734
G1 X147.698 Y77.592 E54.63612
G1 X148.575 Y79.563 E54.79756
G1 X148.989 Y80.577 E54.87950
G1 X149.763 Y82.655 E55.04548
G1 X150.455 Y84.783 E55.21287
G1 X151.040 Y86.880 E55.37585
G1 X151.304 Y87.952 E55.45844
G1 X151.769 Y90.139 E55.62574
G1 X152.136 Y92.316 E55.79099
G1 X152.409 Y94.477 E55.95399
G1 X152.513 Y95.576 E56.03660
G1 X152.654 Y97.807 E56.20388
G1 X152.699 Y100.014 E56.36912
G1 X152.652 Y102.222 E56.53432
G1 X152.593 Y103.344 E56.61842
G1 X152.412 Y105.494 E56.77992
G1 X152.132 Y107.713 E56.94726
G1 X151.763 Y109.891 E57.11256
G1 X151.545 Y110.972 E57.19511
G1 X151.047 Y113.092 E57.35808
G1 X150.454 Y115.218 E57.52327
G1 X149.756 Y117.364 E57.69210
G1 X149.004 Y119.388 E57.85371
G1 X148.587 Y120.409 E57.93629
G1 X147.678 Y122.451 E58.10354
G1 X146.695 Y124.429 E58.26880
G1 X145.646 Y126.337 E58.43175
G1 X145.085 Y127.288 E58.51439
G1 X143.886 Y129.176 E58.68173
G1 X142.665 Y130.933 E58.84191
G1 X141.985 Y131.850 E58.92733
G1 X140.597 Y133.603 E59.09465
G1 X139.870 Y134.461 E59.17880
G1 X138.426 Y136.065 E59.34030
G1 X136.882 Y137.642 E59.50549
G1 X135.252 Y139.173 E59.67279
G1 X133.581 Y140.615 E59.83802
G1 X132.723 Y141.309 E59.92062
G1 X131.004 Y142.614 E60.08211
G1 X129.174 Y143.888 E60.24897
G1 X127.288 Y145.085 E60.41615
G1 X126.337 Y145.646 E60.49879
G1 X124.429 Y146.695 E60.66173
G1 X122.451 Y147.678 E60.82700
G1 X120.407 Y148.588 E60.99444
G1 X119.387 Y149.004 E61.07689
G1 X117.364 Y149.756 E61.23844
G1 X115.218 Y150.454 E61.40727
G1 X113.092 Y151.047 E61.57246
G1 X112.002 Y151.314 E61.65645
G1 X109.901 Y151.761 E61.81714
G1 X107.713 Y152.132 E61.98327
G1 X105.494 Y152.412 E62.15061
G1 X103.344 Y152.593 E62.31212
G1 X102.222 Y152.652 E62.39621
