; generated by Slic3r 1.3.0 on 2020-03-24 at 19:23:35

; external perimeters extrusion width = 0.44mm (2.78mm^3/s)
; perimeters extrusion width = 0.40mm (7.14mm^3/s)
; infill extrusion width = 0.50mm (10.97mm^3/s)
; solid infill extrusion width = 0.60mm (6.68mm^3/s)
; top infill extrusion width = 0.40mm (2.14mm^3/s)

M107
M190 S80 ; set bed temperature and wait for it to be reached
M104 S200 ; set temperature
G28 ; home all axes
G1 Z5 F5000 ; lift nozzle

; Filament gcode

M109 S200 ; set temperature and wait for it to be reached
G21 ; set units to millimeters
G90 ; use absolute coordinates
M82 ; use absolute distances for extrusion
G92 E0
G1 Z0.300 F30000.000
G1 E-2.00000 F2400.00000
G92 E0
G1 X91.385 Y91.312 F30000.000
G1 E2.00000 F2400.00000
G1 F2100
G1 X91.758 Y90.958 E2.03433
G1 X92.260 Y90.525 E2.07866
G1 X92.747 Y90.147 E2.11979
G1 X93.170 Y89.849 E2.15434
G1 X93.727 Y89.496 E2.19845
G1 X94.263 Y89.194 E2.23952
G1 X94.726 Y88.960 E2.27416
G1 X95.329 Y88.692 E2.31829
G1 X95.908 Y88.470 E2.35972
G1 X96.524 Y88.269 E2.40299
G1 X97.028 Y88.132 E2.43790
G1 X97.632 Y87.996 E2.47927
G1 X98.281 Y87.886 E2.52323
G1 X98.798 Y87.824 E2.55799
G1 X99.411 Y87.779 E2.59909
G1 X100.069 Y87.765 E2.64304
G1 X100.588 Y87.779 E2.67774
G1 X101.204 Y87.825 E2.71895
G1 X101.717 Y87.886 E2.75351
G1 X102.368 Y87.996 E2.79757
G1 X102.968 Y88.131 E2.83867
G1 X103.477 Y88.269 E2.87389
G1 X104.095 Y88.471 E2.91736
G1 X104.671 Y88.692 E2.95855
G1 X105.278 Y88.962 E3.00294
G1 X105.736 Y89.193 E3.03722
G1 X106.274 Y89.497 E3.07850
G1 X106.834 Y89.852 E3.12278
G1 X107.336 Y90.209 E3.16395
G1 X107.742 Y90.526 E3.19835
G1 X108.243 Y90.959 E3.24257
G1 X108.688 Y91.385 E3.28376
G1 X109.141 Y91.868 E3.32797
G1 X109.474 Y92.259 E3.36230
G1 X109.853 Y92.747 E3.40357
G1 X110.232 Y93.291 E3.44787
G1 X110.557 Y93.816 E3.48914
G1 X110.877 Y94.398 E3.53349
G1 X111.103 Y94.861 E3.56790
G1 X111.347 Y95.425 E3.60897
G1 X111.529 Y95.905 E3.64323
G1 X111.734 Y96.535 E3.68752
G1 X111.894 Y97.133 E3.72884
G1 X112.032 Y97.780 E3.77303
G1 X112.114 Y98.288 E3.80746
G1 X112.185 Y98.901 E3.84864
G1 X112.227 Y99.555 E3.89245
G1 X112.235 Y100.077 E3.92730
G1 X112.215 Y100.692 E3.96843
G1 X112.160 Y101.355 E4.01288
G1 X112.076 Y101.965 E4.05401
G1 X111.983 Y102.469 E4.08827
G1 X111.831 Y103.117 E4.13271
G1 X111.690 Y103.609 E4.16692
G1 X111.494 Y104.193 E4.20805
G1 X111.249 Y104.811 E4.25246
G1 X110.993 Y105.371 E4.29362
G1 X110.758 Y105.827 E4.32791
G1 X110.504 Y106.273 E4.36215
G1 X110.148 Y106.834 E4.40654
G1 X109.791 Y107.336 E4.44771
G1 X109.380 Y107.855 E4.49194
G1 X109.041 Y108.243 E4.52633
G1 X108.615 Y108.688 E4.56752
G1 X108.130 Y109.143 E4.61191
G1 X107.660 Y109.540 E4.65301
G1 X107.253 Y109.853 E4.68733
G1 X106.707 Y110.233 E4.73178
G1 X106.184 Y110.557 E4.77289
G1 X105.732 Y110.809 E4.80742
G1 X105.140 Y111.102 E4.85156
G1 X104.575 Y111.347 E4.89273
G1 X103.951 Y111.579 E4.93717
G1 X103.459 Y111.736 E4.97171
G1 X102.867 Y111.894 E5.01261
G1 X102.221 Y112.032 E5.05677
G1 X101.714 Y112.114 E5.09107
G1 X101.099 Y112.185 E5.13240
G1 X100.436 Y112.227 E5.17680
G1 X99.923 Y112.235 E5.21106
G1 X99.309 Y112.215 E5.25209
G1 X98.791 Y112.175 E5.28682
G1 X98.137 Y112.092 E5.33085
G1 X97.531 Y111.983 E5.37201
G1 X97.002 Y111.862 E5.40824
G1 X96.390 Y111.690 E5.45069
G1 X95.807 Y111.494 E5.49181
G1 X95.189 Y111.249 E5.53622
G1 X94.630 Y110.993 E5.57729
G1 X94.171 Y110.757 E5.61179
G1 X93.725 Y110.503 E5.64607
G1 X93.166 Y110.148 E5.69030
G1 X92.664 Y109.791 E5.73146
G1 X92.259 Y109.474 E5.76582
G1 X91.757 Y109.041 E5.81009
G1 X91.312 Y108.615 E5.85128
G1 X90.857 Y108.130 E5.89567
G1 X90.524 Y107.739 E5.93004
G1 X90.147 Y107.253 E5.97109
G1 X89.769 Y106.709 E6.01537
G1 X89.496 Y106.273 E6.04971
G1 X89.193 Y105.736 E6.09089
G1 X88.962 Y105.278 E6.12518
G1 X88.692 Y104.671 E6.16957
G1 X88.471 Y104.095 E6.21075
G1 X88.265 Y103.463 E6.25518
G1 X88.130 Y102.967 E6.28954
G1 X87.996 Y102.367 E6.33055
G1 X87.908 Y101.863 E6.36479
G1 X87.825 Y101.205 E6.40909
G1 X87.779 Y100.588 E6.45037
G1 X87.765 Y99.924 E6.49477
G1 X87.779 Y99.410 E6.52912
G1 X87.824 Y98.797 E6.57016
G1 X87.908 Y98.137 E6.61459
G1 X87.997 Y97.631 E6.64894
G1 X88.131 Y97.032 E6.68995
G1 X88.310 Y96.390 E6.73445
G1 X88.506 Y95.807 E6.77557
G1 X88.692 Y95.329 E6.80982
G1 X88.960 Y94.726 E6.85395
G1 X89.192 Y94.266 E6.88835
G1 X89.496 Y93.727 E6.92966
G1 X89.849 Y93.170 E6.97377
G1 X90.146 Y92.748 E7.00822
G1 X90.525 Y92.260 E7.04945
G1 X90.958 Y91.758 E7.09378
G1 X91.343 Y91.355 E7.13103
G1 X91.764 Y91.691 F30000.000
G1 F2100
G1 X92.120 Y91.352 E7.16385
G1 X92.597 Y90.941 E7.20594
G1 X93.065 Y90.578 E7.24550
G1 X93.470 Y90.293 E7.27861
G1 X94.000 Y89.957 E7.32049
G1 X94.516 Y89.666 E7.36006
G1 X94.959 Y89.443 E7.39318
G1 X95.532 Y89.188 E7.43508
G1 X96.089 Y88.974 E7.47499
G1 X96.674 Y88.783 E7.51610
G1 X97.156 Y88.652 E7.54946
G1 X97.738 Y88.522 E7.58931
G1 X98.355 Y88.417 E7.63106
G1 X98.848 Y88.358 E7.66429
G1 X99.439 Y88.314 E7.70389
G1 X100.064 Y88.301 E7.74563
G1 X100.560 Y88.314 E7.77879
G1 X101.153 Y88.358 E7.81850
G1 X101.644 Y88.417 E7.85154
G1 X102.262 Y88.522 E7.89338
G1 X102.840 Y88.651 E7.93298
G1 X103.326 Y88.784 E7.96663
G1 X103.914 Y88.975 E8.00793
G1 X104.468 Y89.188 E8.04761
G1 X105.045 Y89.444 E8.08975
G1 X105.483 Y89.665 E8.12253
G1 X106.002 Y89.958 E8.16231
G1 X106.533 Y90.295 E8.20435
G1 X107.405 Y90.942 E8.27689
G1 X107.880 Y91.353 E8.31888
G1 X108.309 Y91.764 E8.35856
G1 X108.739 Y92.222 E8.40054
G1 X109.059 Y92.597 E8.43346
G1 X109.423 Y93.066 E8.47313
G1 X109.782 Y93.583 E8.51519
G1 X110.096 Y94.089 E8.55495
G1 X110.400 Y94.641 E8.59707
G1 X110.851 Y95.628 E8.66952
G1 X111.071 Y96.219 E8.71171
G1 X111.221 Y96.688 E8.74456
G1 X111.374 Y97.260 E8.78414
G1 X111.505 Y97.875 E8.82610
G1 X111.652 Y98.951 E8.89868
G1 X111.691 Y99.573 E8.94028
G1 X111.699 Y100.071 E8.97359
G1 X111.680 Y100.664 E9.01323
G1 X111.627 Y101.294 E9.05543
G1 X111.458 Y102.363 E9.12780
G1 X111.314 Y102.978 E9.16999
G1 X111.179 Y103.449 E9.20270
G1 X110.990 Y104.012 E9.24234
G1 X110.758 Y104.598 E9.28450
G1 X110.286 Y105.574 E9.35692
G1 X110.043 Y106.000 E9.38967
G1 X109.705 Y106.533 E9.43181
G1 X109.361 Y107.017 E9.47148
G1 X108.971 Y107.510 E9.51348
G1 X108.236 Y108.309 E9.58603
G1 X107.776 Y108.741 E9.62817
G1 X107.323 Y109.124 E9.66777
G1 X106.934 Y109.423 E9.70060
G1 X106.415 Y109.784 E9.74280
G1 X105.911 Y110.096 E9.78241
G1 X105.479 Y110.337 E9.81542
G1 X104.917 Y110.616 E9.85733
G1 X104.372 Y110.851 E9.89700
G1 X103.914 Y111.025 E9.92976
G1 X103.314 Y111.220 E9.97190
G1 X102.739 Y111.374 E10.01164
G1 X102.126 Y111.504 E10.05357
G1 X101.640 Y111.584 E10.08646
G1 X101.049 Y111.652 E10.12618
G1 X100.419 Y111.692 E10.16834
G1 X99.929 Y111.699 E10.20109
G1 X99.337 Y111.680 E10.24063
G1 X98.842 Y111.642 E10.27383
G1 X98.221 Y111.563 E10.31564
G1 X97.637 Y111.458 E10.35530
G1 X97.132 Y111.342 E10.38989
G1 X96.551 Y111.179 E10.43023
G1 X95.988 Y110.990 E10.46986
G1 X95.402 Y110.758 E10.51202
G1 X94.424 Y110.285 E10.58456
G1 X93.998 Y110.042 E10.61734
G1 X93.467 Y109.705 E10.65933
G1 X92.596 Y109.058 E10.73183
G1 X92.120 Y108.647 E10.77386
G1 X91.691 Y108.236 E10.81355
G1 X91.353 Y107.880 E10.84631
G1 X90.942 Y107.405 E10.88830
G1 X90.577 Y106.934 E10.92812
G1 X90.218 Y106.417 E10.97016
G1 X89.665 Y105.483 E11.04266
G1 X89.444 Y105.045 E11.07544
G1 X89.188 Y104.468 E11.11758
G1 X88.975 Y103.914 E11.15726
G1 X88.780 Y103.313 E11.19944
G1 X88.521 Y102.262 E11.27180
G1 X88.416 Y101.639 E11.31398
G1 X88.358 Y101.151 E11.34683
G1 X88.314 Y100.560 E11.38637
G1 X88.301 Y99.930 E11.42853
G1 X88.358 Y98.848 E11.50091
G1 X88.437 Y98.221 E11.54309
G1 X88.522 Y97.737 E11.57594
G1 X88.651 Y97.160 E11.61545
G1 X88.821 Y96.551 E11.65770
G1 X89.188 Y95.532 E11.73005
G1 X89.443 Y94.959 E11.77196
G1 X89.664 Y94.519 E11.80484
G1 X89.957 Y94.000 E11.84464
G1 X90.293 Y93.470 E11.88653
G1 X90.576 Y93.067 E11.91947
G1 X90.941 Y92.597 E11.95920
G1 X91.352 Y92.120 E12.00128
G1 X91.722 Y91.733 E12.03702
G1 X92.143 Y92.070 F30000.000
G1 F2100
G1 X92.483 Y91.747 E12.06834
G1 X92.934 Y91.357 E12.10819
G1 X93.771 Y90.736 E12.17782
G1 X94.272 Y90.418 E12.21747
G1 X94.771 Y90.137 E12.25567
G1 X95.191 Y89.925 E12.28714
G1 X95.734 Y89.684 E12.32682
G1 X96.270 Y89.478 E12.36521
G1 X96.825 Y89.297 E12.40416
G1 X97.844 Y89.047 E12.47429
G1 X98.893 Y88.891 E12.54512
G1 X99.468 Y88.849 E12.58360
G1 X100.059 Y88.837 E12.62312
G1 X101.103 Y88.891 E12.69294
G1 X101.571 Y88.948 E12.72446
G1 X102.156 Y89.047 E12.76408
G1 X103.176 Y89.298 E12.83424
G1 X103.732 Y89.479 E12.87336
G1 X104.266 Y89.684 E12.91155
G1 X104.812 Y89.927 E12.95144
G1 X105.230 Y90.137 E12.98272
G1 X105.729 Y90.418 E13.02099
G1 X106.232 Y90.738 E13.06079
G1 X107.067 Y91.358 E13.13032
G1 X107.518 Y91.747 E13.17008
G1 X107.930 Y92.143 E13.20826
G1 X108.642 Y92.933 E13.27931
G1 X108.993 Y93.386 E13.31757
G1 X109.333 Y93.875 E13.35739
G1 X109.635 Y94.362 E13.39564
G1 X109.923 Y94.885 E13.43551
G1 X110.355 Y95.830 E13.50496
G1 X110.705 Y96.834 E13.57602
G1 X110.854 Y97.388 E13.61432
G1 X110.977 Y97.970 E13.65404
G1 X111.119 Y99.001 E13.72361
G1 X111.156 Y99.590 E13.76301
G1 X111.163 Y100.065 E13.79477
G1 X111.145 Y100.636 E13.83292
G1 X111.095 Y101.232 E13.87286
G1 X110.933 Y102.258 E13.94224
G1 X110.796 Y102.840 E13.98218
G1 X110.668 Y103.291 E14.01351
G1 X110.486 Y103.830 E14.05154
G1 X110.266 Y104.386 E14.09145
G1 X109.814 Y105.321 E14.16088
G1 X109.582 Y105.728 E14.19212
G1 X109.262 Y106.232 E14.23202
G1 X108.931 Y106.698 E14.27019
G1 X108.562 Y107.164 E14.30995
G1 X107.857 Y107.930 E14.37949
G1 X107.422 Y108.339 E14.41939
G1 X106.986 Y108.707 E14.45749
G1 X106.614 Y108.993 E14.48881
G1 X106.123 Y109.334 E14.52877
G1 X105.227 Y109.864 E14.59835
G1 X104.695 Y110.129 E14.63804
G1 X104.170 Y110.355 E14.67621
G1 X103.733 Y110.521 E14.70746
G1 X103.165 Y110.706 E14.74736
G1 X102.612 Y110.854 E14.78559
G1 X102.030 Y110.977 E14.82529
G1 X100.999 Y111.119 E14.89488
G1 X100.402 Y111.156 E14.93479
G1 X99.935 Y111.163 E14.96604
G1 X98.893 Y111.109 E15.03574
G1 X98.305 Y111.034 E15.07532
G1 X97.743 Y110.933 E15.11349
G1 X97.262 Y110.823 E15.14643
G1 X96.711 Y110.668 E15.18467
G1 X96.170 Y110.486 E15.22280
G1 X95.614 Y110.266 E15.26272
G1 X94.677 Y109.813 E15.33225
G1 X93.768 Y109.262 E15.40326
G1 X92.933 Y108.642 E15.47275
G1 X92.482 Y108.253 E15.51255
G1 X92.070 Y107.857 E15.55074
G1 X91.357 Y107.066 E15.62183
G1 X91.007 Y106.614 E15.66004
G1 X90.667 Y106.125 E15.69985
G1 X90.137 Y105.230 E15.76934
G1 X89.927 Y104.812 E15.80061
G1 X89.684 Y104.266 E15.84051
G1 X89.479 Y103.732 E15.87870
G1 X89.294 Y103.164 E15.91862
G1 X89.047 Y102.156 E15.98799
G1 X88.891 Y101.103 E16.05904
G1 X88.849 Y100.532 E16.09730
G1 X88.837 Y99.935 E16.13720
G1 X88.891 Y98.898 E16.20659
G1 X88.966 Y98.305 E16.24652
G1 X89.047 Y97.843 E16.27787
G1 X89.171 Y97.287 E16.31589
G1 X89.332 Y96.711 E16.35588
G1 X89.684 Y95.734 E16.42524
G1 X89.925 Y95.191 E16.46492
G1 X90.136 Y94.772 E16.49629
G1 X90.418 Y94.272 E16.53458
G1 X90.736 Y93.771 E16.57424
G1 X91.357 Y92.934 E16.64387
G1 X91.747 Y92.483 E16.68372
G1 X92.100 Y92.112 E16.71795
G1 X92.522 Y92.448 F30000.000
G1 F2100
G1 X93.271 Y91.773 E16.78535
G1 X94.072 Y91.179 E16.85196
G1 X94.545 Y90.879 E16.88940
G1 X95.022 Y90.610 E16.92597
G1 X95.936 Y90.180 E16.99347
G1 X96.452 Y89.982 E17.03035
G1 X96.975 Y89.812 E17.06713
G1 X97.950 Y89.572 E17.13420
G1 X98.949 Y89.424 E17.20167
G1 X99.496 Y89.384 E17.23827
G1 X100.054 Y89.372 E17.27558
G1 X101.052 Y89.424 E17.34236
G1 X102.050 Y89.572 E17.40974
G1 X103.025 Y89.812 E17.47684
G1 X103.551 Y89.983 E17.51378
G1 X104.064 Y90.180 E17.55046
G1 X104.977 Y90.609 E17.61787
G1 X105.456 Y90.879 E17.65463
G1 X105.931 Y91.181 E17.69220
G1 X106.730 Y91.775 E17.75872
G1 X107.155 Y92.142 E17.79624
G1 X107.552 Y92.522 E17.83292
G1 X108.226 Y93.270 E17.90023
G1 X108.563 Y93.705 E17.93698
G1 X108.884 Y94.167 E17.97457
G1 X109.174 Y94.634 E18.01131
G1 X109.445 Y95.128 E18.04894
G1 X109.860 Y96.032 E18.11539
G1 X110.192 Y96.987 E18.18291
G1 X110.334 Y97.516 E18.21949
G1 X110.450 Y98.065 E18.25699
G1 X110.586 Y99.052 E18.32354
G1 X110.628 Y100.060 E18.39094
G1 X110.611 Y100.608 E18.42759
G1 X110.563 Y101.170 E18.46528
G1 X110.408 Y102.152 E18.53166
G1 X110.156 Y103.130 E18.59917
G1 X109.982 Y103.649 E18.63570
G1 X109.774 Y104.173 E18.67337
G1 X109.342 Y105.068 E18.73979
G1 X108.819 Y105.931 E18.80717
G1 X108.501 Y106.378 E18.84384
G1 X108.152 Y106.819 E18.88137
G1 X107.478 Y107.552 E18.94790
G1 X107.067 Y107.937 E18.98555
G1 X106.649 Y108.291 E19.02218
G1 X105.832 Y108.885 E19.08966
G1 X104.974 Y109.392 E19.15623
G1 X104.472 Y109.642 E19.19369
G1 X103.968 Y109.860 E19.23036
G1 X103.015 Y110.191 E19.29775
G1 X102.484 Y110.334 E19.33448
G1 X101.935 Y110.450 E19.37195
G1 X100.948 Y110.586 E19.43852
G1 X99.940 Y110.628 E19.50591
G1 X98.944 Y110.575 E19.57259
G1 X98.389 Y110.505 E19.60996
G1 X97.848 Y110.408 E19.64662
G1 X96.871 Y110.157 E19.71404
G1 X96.351 Y109.982 E19.75067
G1 X95.827 Y109.774 E19.78834
G1 X94.931 Y109.341 E19.85486
G1 X94.069 Y108.819 E19.92214
G1 X93.270 Y108.226 E19.98863
G1 X92.845 Y107.858 E20.02619
G1 X92.448 Y107.478 E20.06287
G1 X91.774 Y106.729 E20.13023
G1 X91.437 Y106.295 E20.16693
G1 X91.116 Y105.833 E20.20450
G1 X90.609 Y104.977 E20.27099
G1 X90.180 Y104.064 E20.33840
G1 X89.843 Y103.129 E20.40476
G1 X89.692 Y102.590 E20.44218
G1 X89.572 Y102.050 E20.47913
G1 X89.424 Y101.053 E20.54645
G1 X89.384 Y100.504 E20.58319
G1 X89.372 Y99.941 E20.62085
G1 X89.424 Y98.948 E20.68724
G1 X89.572 Y97.949 E20.75475
G1 X89.691 Y97.415 E20.79128
G1 X89.843 Y96.871 E20.82902
G1 X90.180 Y95.936 E20.89538
G1 X90.608 Y95.025 E20.96268
G1 X90.879 Y94.545 E20.99946
G1 X91.179 Y94.072 E21.03689
G1 X91.773 Y93.271 E21.10351
G1 X92.141 Y92.845 E21.14111
G1 X92.479 Y92.491 E21.17384
G1 X92.900 Y92.827 F30000.000
G1 F2100
G1 X93.608 Y92.190 E21.23749
G1 X94.373 Y91.622 E21.30109
G1 X94.818 Y91.340 E21.33630
G1 X95.275 Y91.082 E21.37137
G1 X96.139 Y90.676 E21.43513
G1 X96.633 Y90.486 E21.47048
G1 X97.126 Y90.326 E21.50510
G1 X98.056 Y90.097 E21.56911
G1 X99.000 Y89.957 E21.63284
G1 X99.524 Y89.919 E21.66793
G1 X100.049 Y89.908 E21.70303
G1 X101.002 Y89.958 E21.76678
G1 X101.944 Y90.097 E21.83041
G1 X102.875 Y90.326 E21.89445
G1 X103.370 Y90.487 E21.92921
G1 X103.861 Y90.676 E21.96439
G1 X104.724 Y91.081 E22.02805
G1 X105.183 Y91.340 E22.06331
G1 X105.630 Y91.624 E22.09863
G1 X106.393 Y92.191 E22.16215
G1 X106.793 Y92.536 E22.19744
G1 X107.173 Y92.900 E22.23262
G1 X107.811 Y93.610 E22.29638
G1 X108.133 Y94.024 E22.33144
G1 X108.435 Y94.459 E22.36678
G1 X108.713 Y94.907 E22.40202
G1 X108.968 Y95.371 E22.43741
G1 X109.364 Y96.235 E22.50085
G1 X109.677 Y97.133 E22.56443
G1 X109.813 Y97.643 E22.59971
G1 X109.923 Y98.160 E22.63497
G1 X110.052 Y99.102 E22.69851
G1 X110.092 Y100.054 E22.76216
G1 X110.076 Y100.580 E22.79731
G1 X110.031 Y101.109 E22.83276
G1 X109.883 Y102.046 E22.89614
G1 X109.646 Y102.969 E22.95979
G1 X109.478 Y103.467 E22.99494
G1 X109.283 Y103.960 E23.03036
G1 X108.870 Y104.815 E23.09378
G1 X108.376 Y105.630 E23.15742
G1 X108.071 Y106.059 E23.19259
G1 X107.743 Y106.473 E23.22789
G1 X107.100 Y107.173 E23.29140
G1 X106.713 Y107.536 E23.32681
G1 X106.312 Y107.875 E23.36191
G1 X105.540 Y108.436 E23.42567
G1 X104.721 Y108.920 E23.48923
G1 X104.249 Y109.155 E23.52446
G1 X103.765 Y109.364 E23.55963
G1 X102.866 Y109.677 E23.62328
G1 X102.356 Y109.813 E23.65850
G1 X101.840 Y109.923 E23.69374
G1 X100.898 Y110.052 E23.75730
G1 X99.946 Y110.092 E23.82095
G1 X98.994 Y110.042 E23.88460
G1 X98.472 Y109.976 E23.91975
G1 X97.954 Y109.883 E23.95491
G1 X97.031 Y109.646 E24.01859
G1 X96.533 Y109.478 E24.05372
G1 X96.040 Y109.283 E24.08915
G1 X95.184 Y108.869 E24.15265
G1 X94.370 Y108.376 E24.21620
G1 X93.607 Y107.810 E24.27968
G1 X93.207 Y107.464 E24.31500
G1 X92.827 Y107.100 E24.35019
G1 X92.191 Y106.393 E24.41372
G1 X91.867 Y105.976 E24.44900
G1 X91.565 Y105.541 E24.48434
G1 X91.081 Y104.724 E24.54781
G1 X90.676 Y103.861 E24.61148
G1 X90.487 Y103.370 E24.64666
G1 X90.323 Y102.865 E24.68209
G1 X90.097 Y101.944 E24.74546
