; generated by Slic3r 1.3.0 on 2020-03-24 at 19:06:26

; external perimeters extrusion width = 0.44mm (2.78mm^3/s)
; perimeters extrusion width = 0.40mm (7.14mm^3/s)
; infill extrusion width = 0.50mm (10.97mm^3/s)
; solid infill extrusion width = 0.60mm (6.68mm^3/s)
; top infill extrusion width = 0.40mm (2.14mm^3/s)

M107
M190 S80 ; set bed temperature and wait for it to be reached
M104 S200 ; set temperature
G28 ; home all axes
G1 Z5 F5000 ; lift nozzle

; Filament gcode

M109 S200 ; set temperature and wait for it to be reached
G21 ; set units to millimeters
G90 ; use absolute coordinates
M82 ; use absolute distances for extrusion
G92 E0
G1 Z0.300 F30000.000
G1 E-2.00000 F2400.00000
G92 E0
G1 X91.385 Y91.312 F30000.000
G1 E2.00000 F2400.00000
G1 F2100
G1 X91.867 Y90.859 E2.04418
G1 X92.261 Y90.524 E2.07876
G1 X92.747 Y90.147 E2.11981
G1 X93.292 Y89.768 E2.16420
G1 X93.816 Y89.443 E2.20538
G1 X94.264 Y89.193 E2.23962
G1 X94.858 Y88.898 E2.28396
G1 X95.329 Y88.692 E2.31829
G1 X95.905 Y88.471 E2.35947
G1 X96.537 Y88.265 E2.40390
G1 X97.032 Y88.131 E2.43817
G1 X97.633 Y87.996 E2.47927
G1 X98.288 Y87.886 E2.52370
G1 X98.799 Y87.824 E2.55806
G1 X99.412 Y87.779 E2.59909
G1 X100.071 Y87.765 E2.64316
G1 X100.590 Y87.779 E2.67785
G1 X101.203 Y87.824 E2.71888
G1 X101.862 Y87.908 E2.76326
G1 X102.368 Y87.996 E2.79758
G1 X102.968 Y88.131 E2.83867
G1 X103.610 Y88.310 E2.88318
G1 X104.193 Y88.506 E2.92429
G1 X104.671 Y88.692 E2.95855
G1 X105.274 Y88.960 E3.00266
G1 X105.736 Y89.193 E3.03722
G1 X106.273 Y89.496 E3.07838
G1 X106.834 Y89.852 E3.12277
G1 X107.336 Y90.209 E3.16395
G1 X107.856 Y90.621 E3.20826
G1 X108.244 Y90.960 E3.24267
G1 X108.688 Y91.385 E3.28376
G1 X109.143 Y91.870 E3.32815
G1 X109.540 Y92.340 E3.36925
G1 X109.856 Y92.750 E3.40385
G1 X110.233 Y93.293 E3.44803
G1 X110.557 Y93.816 E3.48913
G1 X110.808 Y94.266 E3.52352
G1 X111.102 Y94.859 E3.56780
G1 X111.347 Y95.425 E3.60897
G1 X111.529 Y95.905 E3.64323
G1 X111.735 Y96.537 E3.68766
G1 X111.895 Y97.135 E3.72899
G1 X112.027 Y97.753 E3.77120
G1 X112.114 Y98.284 E3.80718
G1 X112.185 Y98.901 E3.84864
G1 X112.227 Y99.562 E3.89292
G1 X112.235 Y100.077 E3.92729
G1 X112.215 Y100.694 E3.96854
G1 X112.160 Y101.355 E4.01287
G1 X112.076 Y101.965 E4.05400
G1 X111.982 Y102.474 E4.08857
G1 X111.831 Y103.117 E4.13270
G1 X111.659 Y103.709 E4.17386
G1 X111.494 Y104.193 E4.20805
G1 X111.249 Y104.811 E4.25246
G1 X110.993 Y105.371 E4.29362
G1 X110.758 Y105.827 E4.32790
G1 X110.503 Y106.274 E4.36226
G1 X110.148 Y106.834 E4.40654
G1 X109.853 Y107.253 E4.44078
G1 X109.475 Y107.740 E4.48195
G1 X109.041 Y108.243 E4.52633
G1 X108.615 Y108.688 E4.56752
G1 X108.130 Y109.143 E4.61191
G1 X107.659 Y109.541 E4.65310
G1 X107.130 Y109.942 E4.69745
G1 X106.707 Y110.233 E4.73179
G1 X106.184 Y110.557 E4.77289
G1 X105.601 Y110.878 E4.81734
G1 X105.046 Y111.146 E4.85848
G1 X104.575 Y111.347 E4.89273
G1 X104.095 Y111.529 E4.92699
G1 X103.468 Y111.733 E4.97105
G1 X102.969 Y111.869 E5.00559
G1 X102.368 Y112.004 E5.04677
G1 X101.712 Y112.114 E5.09122
G1 X101.201 Y112.176 E5.12557
G1 X100.589 Y112.221 E5.16661
G1 X99.923 Y112.235 E5.21105
G1 X99.308 Y112.215 E5.25219
G1 X98.645 Y112.160 E5.29664
G1 X98.035 Y112.076 E5.33777
G1 X97.531 Y111.983 E5.37202
G1 X96.883 Y111.831 E5.41646
G1 X96.389 Y111.690 E5.45080
G1 X95.807 Y111.494 E5.49181
G1 X95.189 Y111.249 E5.53622
G1 X94.629 Y110.993 E5.57738
G1 X94.173 Y110.758 E5.61166
G1 X93.597 Y110.426 E5.65602
G1 X93.166 Y110.148 E5.69030
G1 X92.664 Y109.791 E5.73146
G1 X92.144 Y109.379 E5.77578
G1 X91.758 Y109.042 E5.81002
G1 X91.312 Y108.615 E5.85128
G1 X90.958 Y108.242 E5.88561
G1 X90.524 Y107.740 E5.92994
G1 X90.147 Y107.253 E5.97108
G1 X89.849 Y106.830 E6.00562
G1 X89.496 Y106.273 E6.04972
G1 X89.193 Y105.736 E6.09089
G1 X88.960 Y105.274 E6.12545
G1 X88.692 Y104.671 E6.16956
G1 X88.506 Y104.193 E6.20382
G1 X88.310 Y103.610 E6.24494
G1 X88.131 Y102.968 E6.28943
G1 X87.996 Y102.368 E6.33054
G1 X87.908 Y101.863 E6.36479
G1 X87.825 Y101.206 E6.40899
G1 X87.779 Y100.589 E6.45036
G1 X87.765 Y99.936 E6.49397
G1 X87.779 Y99.411 E6.52902
G1 X87.825 Y98.788 E6.57077
G1 X87.887 Y98.279 E6.60503
G1 X87.996 Y97.633 E6.64884
G1 X88.130 Y97.033 E6.68985
G1 X88.265 Y96.537 E6.72421
G1 X88.471 Y95.905 E6.76864
G1 X88.692 Y95.329 E6.80982
G1 X88.898 Y94.859 E6.84412
G1 X89.193 Y94.264 E6.88849
G1 X89.496 Y93.727 E6.92966
G1 X89.852 Y93.166 E6.97406
G1 X90.208 Y92.665 E7.01512
G1 X90.526 Y92.258 E7.04962
G1 X90.959 Y91.757 E7.09384
G1 X91.343 Y91.355 E7.13103
G1 X91.764 Y91.691 F30000.000
G1 F2100
G1 X92.222 Y91.261 E7.17298
G1 X92.598 Y90.940 E7.20603
G1 X93.066 Y90.577 E7.24559
G1 X93.584 Y90.217 E7.28773
G1 X94.517 Y89.665 E7.36014
G1 X95.082 Y89.385 E7.40224
G1 X95.532 Y89.188 E7.43506
G1 X96.550 Y88.821 E7.50741
G1 X97.159 Y88.651 E7.54958
G1 X97.738 Y88.522 E7.58928
G1 X98.361 Y88.416 E7.63146
G1 X98.849 Y88.358 E7.66431
G1 X99.440 Y88.314 E7.70385
G1 X100.066 Y88.301 E7.74570
G1 X100.562 Y88.314 E7.77886
G1 X101.152 Y88.358 E7.81840
G1 X101.778 Y88.437 E7.86053
G1 X102.262 Y88.522 E7.89334
G1 X103.313 Y88.780 E7.96569
G1 X103.914 Y88.975 E8.00787
G1 X104.468 Y89.188 E8.04755
G1 X105.041 Y89.443 E8.08944
G1 X105.483 Y89.665 E8.12248
G1 X106.000 Y89.957 E8.16214
G1 X106.533 Y90.295 E8.20428
G1 X107.017 Y90.639 E8.24396
G1 X107.511 Y91.030 E8.28603
G1 X108.309 Y91.764 E8.35851
G1 X108.741 Y92.224 E8.40065
G1 X109.124 Y92.677 E8.44025
G1 X109.425 Y93.069 E8.47333
G1 X109.784 Y93.585 E8.51529
G1 X110.336 Y94.519 E8.58775
G1 X110.615 Y95.082 E8.62979
G1 X110.851 Y95.628 E8.66946
G1 X111.025 Y96.086 E8.70222
G1 X111.220 Y96.687 E8.74440
G1 X111.374 Y97.262 E8.78423
G1 X111.500 Y97.850 E8.82435
G1 X111.583 Y98.357 E8.85870
G1 X111.652 Y98.951 E8.89864
G1 X111.692 Y99.579 E8.94068
G1 X111.699 Y100.071 E8.97354
G1 X111.680 Y100.666 E9.01328
G1 X111.627 Y101.293 E9.05538
G1 X111.547 Y101.881 E9.09501
G1 X111.457 Y102.368 E9.12805
G1 X111.314 Y102.978 E9.16996
G1 X111.148 Y103.548 E9.20962
G1 X110.941 Y104.144 E9.25179
G1 X110.758 Y104.598 E9.28448
G1 X110.286 Y105.574 E9.35690
G1 X110.042 Y106.002 E9.38975
G1 X109.705 Y106.533 E9.43180
G1 X109.059 Y107.403 E9.50418
G1 X108.647 Y107.880 E9.54632
G1 X108.236 Y108.309 E9.58601
G1 X107.880 Y108.647 E9.61877
G1 X107.403 Y109.059 E9.66091
G1 X106.934 Y109.423 E9.70058
G1 X106.415 Y109.784 E9.74279
G1 X105.911 Y110.096 E9.78239
G1 X105.357 Y110.400 E9.82459
G1 X104.372 Y110.851 E9.89696
G1 X103.914 Y111.025 E9.92972
G1 X103.318 Y111.219 E9.97156
G1 X102.841 Y111.349 E10.00459
G1 X102.262 Y111.478 E10.04427
G1 X101.639 Y111.584 E10.08646
G1 X101.151 Y111.642 E10.11931
G1 X100.561 Y111.686 E10.15885
G1 X99.929 Y111.699 E10.20104
G1 X99.336 Y111.680 E10.24069
G1 X98.706 Y111.627 E10.28289
G1 X97.637 Y111.458 E10.35526
G1 X97.022 Y111.314 E10.39745
G1 X96.549 Y111.179 E10.43028
G1 X95.988 Y110.990 E10.46980
G1 X95.402 Y110.758 E10.51196
G1 X94.426 Y110.286 E10.58439
G1 X93.880 Y109.971 E10.62650
G1 X93.467 Y109.705 E10.65928
G1 X92.983 Y109.361 E10.69894
G1 X92.489 Y108.970 E10.74101
G1 X91.691 Y108.236 E10.81349
G1 X91.352 Y107.880 E10.84632
G1 X90.941 Y107.403 E10.88840
G1 X90.577 Y106.934 E10.92805
G1 X90.293 Y106.530 E10.96107
G1 X89.957 Y106.000 E11.00295
G1 X89.665 Y105.483 E11.04262
G1 X89.443 Y105.041 E11.07565
G1 X89.188 Y104.468 E11.11754
G1 X88.821 Y103.449 E11.18990
G1 X88.651 Y102.840 E11.23213
G1 X88.522 Y102.262 E11.27175
G1 X88.437 Y101.779 E11.30450
G1 X88.358 Y101.156 E11.34647
G1 X88.314 Y100.561 E11.38633
G1 X88.301 Y99.941 E11.42775
G1 X88.314 Y99.440 E11.46124
G1 X88.359 Y98.839 E11.50144
G1 X88.417 Y98.352 E11.53421
G1 X88.521 Y97.738 E11.57581
G1 X88.780 Y96.687 E11.64817
G1 X88.975 Y96.086 E11.69036
G1 X89.188 Y95.532 E11.73003
G1 X89.385 Y95.082 E11.76283
G1 X89.665 Y94.517 E11.80496
G1 X89.957 Y94.000 E11.84463
G1 X90.295 Y93.467 E11.88678
G1 X90.942 Y92.595 E11.95931
G1 X91.353 Y92.120 E12.00130
G1 X91.722 Y91.733 E12.03698
G1 X92.143 Y92.070 F30000.000
G1 F2100
G1 X92.576 Y91.663 E12.07670
G1 X92.935 Y91.356 E12.10824
G1 X93.386 Y91.007 E12.14630
G1 X93.876 Y90.666 E12.18620
G1 X94.770 Y90.137 E12.25560
G1 X95.305 Y89.872 E12.29546
G1 X95.734 Y89.684 E12.32678
G1 X96.268 Y89.479 E12.36496
G1 X96.836 Y89.294 E12.40489
G1 X97.844 Y89.047 E12.47425
G1 X98.434 Y88.947 E12.51419
G1 X98.900 Y88.891 E12.54554
G1 X99.468 Y88.849 E12.58358
G1 X100.061 Y88.837 E12.62321
G1 X101.102 Y88.891 E12.69287
G1 X101.694 Y88.966 E12.73275
G1 X102.156 Y89.047 E12.76406
G1 X103.164 Y89.294 E12.83341
G1 X103.733 Y89.479 E12.87335
G1 X104.266 Y89.684 E12.91153
G1 X104.809 Y89.925 E12.95119
G1 X105.230 Y90.137 E12.98271
G1 X105.728 Y90.418 E13.02087
G1 X106.232 Y90.738 E13.06077
G1 X106.698 Y91.069 E13.09894
G1 X107.165 Y91.439 E13.13878
G1 X107.930 Y92.143 E13.20825
G1 X108.339 Y92.578 E13.24815
G1 X108.707 Y93.014 E13.28624
G1 X108.995 Y93.388 E13.31781
G1 X109.334 Y93.877 E13.35753
G1 X109.864 Y94.772 E13.42699
G1 X110.129 Y95.305 E13.46679
G1 X110.355 Y95.830 E13.50497
G1 X110.521 Y96.267 E13.53622
G1 X110.706 Y96.836 E13.57616
G1 X110.854 Y97.390 E13.61447
G1 X110.973 Y97.947 E13.65251
G1 X111.053 Y98.430 E13.68523
G1 X111.119 Y99.001 E13.72365
G1 X111.156 Y99.596 E13.76345
G1 X111.163 Y100.065 E13.79481
G1 X111.145 Y100.637 E13.83304
G1 X111.095 Y101.232 E13.87289
G1 X110.932 Y102.261 E13.94253
G1 X110.796 Y102.840 E13.98221
G1 X110.637 Y103.388 E14.02037
G1 X110.440 Y103.952 E14.06029
G1 X110.266 Y104.386 E14.09149
G1 X109.814 Y105.321 E14.16091
G1 X109.582 Y105.729 E14.19225
G1 X109.262 Y106.232 E14.23206
G1 X108.643 Y107.066 E14.30145
G1 X108.253 Y107.518 E14.34135
G1 X107.857 Y107.930 E14.37953
G1 X107.422 Y108.339 E14.41943
G1 X106.985 Y108.708 E14.45762
G1 X106.510 Y109.069 E14.49749
G1 X106.123 Y109.334 E14.52881
G1 X105.638 Y109.635 E14.56692
G1 X105.114 Y109.923 E14.60687
G1 X104.170 Y110.355 E14.67625
G1 X103.169 Y110.704 E14.74710
G1 X102.156 Y110.953 E14.81677
G1 X101.566 Y111.053 E14.85672
G1 X101.100 Y111.109 E14.88807
G1 X100.532 Y111.151 E14.92611
G1 X99.935 Y111.163 E14.96605
G1 X99.364 Y111.145 E15.00420
G1 X98.768 Y111.095 E15.04415
G1 X97.742 Y110.933 E15.11352
G1 X97.160 Y110.796 E15.15346
G1 X96.709 Y110.668 E15.18480
G1 X96.170 Y110.486 E15.22282
G1 X95.614 Y110.266 E15.26274
G1 X94.679 Y109.814 E15.33216
G1 X94.162 Y109.515 E15.37203
G1 X93.768 Y109.262 E15.40331
G1 X93.302 Y108.931 E15.44147
G1 X92.835 Y108.561 E15.48130
G1 X92.070 Y107.857 E15.55077
G1 X91.747 Y107.517 E15.58210
G1 X91.357 Y107.066 E15.62194
G1 X90.736 Y106.229 E15.69157
G1 X90.418 Y105.728 E15.73122
G1 X90.137 Y105.230 E15.76939
G1 X89.925 Y104.809 E15.80090
G1 X89.684 Y104.266 E15.84057
G1 X89.332 Y103.289 E15.90993
G1 X89.171 Y102.713 E15.94992
G1 X89.047 Y102.156 E15.98804
G1 X88.891 Y101.104 E16.05907
G1 X88.849 Y100.532 E16.09735
G1 X88.837 Y99.945 E16.13658
G1 X88.892 Y98.890 E16.20716
G1 X89.047 Y97.844 E16.27780
G1 X89.294 Y96.836 E16.34717
G1 X89.479 Y96.267 E16.38710
G1 X89.684 Y95.734 E16.42528
G1 X89.872 Y95.305 E16.45657
G1 X90.137 Y94.770 E16.49646
G1 X90.418 Y94.272 E16.53463
G1 X90.738 Y93.768 E16.57453
G1 X91.358 Y92.933 E16.64406
G1 X91.747 Y92.482 E16.68381
G1 X92.100 Y92.112 E16.71799
G1 X92.522 Y92.448 F30000.000
G1 F2100
G1 X93.273 Y91.772 E16.78549
G1 X93.705 Y91.437 E16.82205
G1 X94.168 Y91.115 E16.85970
G1 X95.023 Y90.609 E16.92611
G1 X95.936 Y90.180 E16.99352
G1 X96.449 Y89.983 E17.03020
G1 X96.985 Y89.809 E17.06788
G1 X97.950 Y89.572 E17.13424
G1 X98.950 Y89.424 E17.20177
G1 X99.496 Y89.384 E17.23831
G1 X100.055 Y89.372 E17.27572
G1 X101.051 Y89.424 E17.34235
G1 X102.050 Y89.572 E17.40978
G1 X102.585 Y89.691 E17.44639
G1 X103.129 Y89.843 E17.48414
G1 X104.064 Y90.180 E17.55050
G1 X104.977 Y90.609 E17.61791
G1 X105.455 Y90.879 E17.65458
G1 X105.931 Y91.181 E17.69223
G1 X106.378 Y91.499 E17.72891
G1 X106.819 Y91.848 E17.76650
G1 X107.552 Y92.522 E17.83297
G1 X107.937 Y92.933 E17.87062
G1 X108.291 Y93.351 E17.90724
G1 X108.885 Y94.168 E17.97473
G1 X109.392 Y95.025 E18.04119
G1 X109.642 Y95.528 E18.07876
G1 X109.860 Y96.032 E18.11543
G1 X110.191 Y96.985 E18.18285
G1 X110.334 Y97.518 E18.21965
G1 X110.446 Y98.044 E18.25561
G1 X110.586 Y99.052 E18.32358
G1 X110.628 Y100.060 E18.39098
G1 X110.610 Y100.609 E18.42770
G1 X110.563 Y101.170 E18.46531
G1 X110.407 Y102.155 E18.53193
G1 X110.279 Y102.701 E18.56939
G1 X110.126 Y103.228 E18.60605
G1 X109.774 Y104.173 E18.67341
G1 X109.342 Y105.068 E18.73983
G1 X108.819 Y105.931 E18.80721
G1 X108.227 Y106.729 E18.87360
G1 X107.858 Y107.155 E18.91125
G1 X107.478 Y107.552 E18.94794
G1 X106.727 Y108.228 E19.01544
G1 X106.295 Y108.563 E19.05200
G1 X105.831 Y108.885 E19.08971
G1 X105.366 Y109.174 E19.12632
G1 X104.871 Y109.446 E19.16402
G1 X103.968 Y109.860 E19.23040
G1 X103.019 Y110.190 E19.29754
G1 X102.050 Y110.428 E19.36418
G1 X101.050 Y110.576 E19.43171
G1 X100.504 Y110.616 E19.46825
G1 X99.940 Y110.628 E19.50595
G1 X99.392 Y110.611 E19.54260
G1 X98.830 Y110.563 E19.58030
G1 X97.848 Y110.408 E19.64667
G1 X96.870 Y110.156 E19.71419
G1 X96.351 Y109.982 E19.75071
G1 X95.827 Y109.774 E19.78838
G1 X94.932 Y109.342 E19.85480
G1 X94.069 Y108.819 E19.92219
G1 X93.622 Y108.501 E19.95885
G1 X93.181 Y108.152 E19.99645
G1 X92.448 Y107.478 E20.06291
G1 X91.773 Y106.729 E20.13031
G1 X91.179 Y105.928 E20.19692
G1 X90.879 Y105.455 E20.23435
G1 X90.609 Y104.977 E20.27102
G1 X90.180 Y104.064 E20.33843
G1 X89.843 Y103.129 E20.40480
G1 X89.691 Y102.585 E20.44253
G1 X89.572 Y102.050 E20.47916
G1 X89.424 Y101.054 E20.54640
G1 X89.384 Y100.504 E20.58323
G1 X89.372 Y99.950 E20.62027
G1 X89.425 Y98.941 E20.68775
G1 X89.572 Y97.950 E20.75469
G1 X89.809 Y96.985 E20.82106
G1 X89.983 Y96.449 E20.85874
G1 X90.180 Y95.936 E20.89542
G1 X90.609 Y95.023 E20.96283
G1 X90.879 Y94.545 E20.99950
G1 X91.181 Y94.069 E21.03716
G1 X91.775 Y93.270 E21.10368
G1 X92.142 Y92.845 E21.14120
G1 X92.479 Y92.491 E21.17388
G1 X92.900 Y92.827 F30000.000
G1 F2100
G1 X93.610 Y92.189 E21.23763
G1 X94.024 Y91.867 E21.27269
G1 X94.460 Y91.564 E21.30810
G1 X95.276 Y91.081 E21.37151
G1 X96.139 Y90.676 E21.43517
G1 X96.630 Y90.487 E21.47035
G1 X97.135 Y90.323 E21.50578
G1 X98.056 Y90.097 E21.56915
G1 X99.000 Y89.957 E21.63293
G1 X99.524 Y89.919 E21.66798
G1 X100.050 Y89.908 E21.70316
G1 X101.001 Y89.957 E21.76677
G1 X101.944 Y90.097 E21.83045
G1 X102.865 Y90.323 E21.89381
G1 X103.370 Y90.487 E21.92925
G1 X103.861 Y90.676 E21.96443
G1 X104.724 Y91.081 E22.02810
G1 X105.182 Y91.340 E22.06326
G1 X105.630 Y91.624 E22.09867
G1 X106.059 Y91.929 E22.13385
G1 X106.474 Y92.257 E22.16920
G1 X107.173 Y92.900 E22.23266
G1 X107.536 Y93.287 E22.26807
G1 X107.875 Y93.688 E22.30316
G1 X108.436 Y94.460 E22.36694
G1 X108.919 Y95.278 E22.43039
G1 X109.155 Y95.751 E22.46572
G1 X109.364 Y96.235 E22.50089
G1 X109.677 Y97.135 E22.56457
G1 X109.814 Y97.645 E22.59985
G1 X109.920 Y98.141 E22.63372
G1 X110.052 Y99.102 E22.69855
G1 X110.092 Y100.054 E22.76220
G1 X110.076 Y100.581 E22.79742
G1 X110.031 Y101.109 E22.83279
G1 X109.882 Y102.049 E22.89639
G1 X109.762 Y102.562 E22.93162
G1 X109.615 Y103.068 E22.96679
G1 X109.283 Y103.960 E23.03040
G1 X108.870 Y104.815 E23.09382
G1 X108.376 Y105.630 E23.15746
G1 X107.810 Y106.392 E23.22086
G1 X107.464 Y106.793 E23.25626
G1 X107.100 Y107.173 E23.29144
G1 X106.713 Y107.536 E23.32685
G1 X106.311 Y107.876 E23.36204
G1 X105.540 Y108.436 E23.42572
G1 X105.093 Y108.713 E23.46084
G1 X104.628 Y108.969 E23.49629
G1 X103.765 Y109.364 E23.55967
G1 X102.869 Y109.676 E23.62309
G1 X101.944 Y109.903 E23.68671
G1 X101.000 Y110.043 E23.75049
G1 X100.476 Y110.081 E23.78554
G1 X99.946 Y110.092 E23.82098
G1 X99.420 Y110.076 E23.85614
G1 X98.891 Y110.031 E23.89158
G1 X97.954 Y109.883 E23.95496
G1 X97.030 Y109.645 E24.01873
G1 X96.533 Y109.478 E24.05376
G1 X96.040 Y109.283 E24.08918
G1 X95.185 Y108.870 E24.15261
G1 X94.370 Y108.376 E24.21624
G1 X93.941 Y108.071 E24.25141
G1 X93.526 Y107.743 E24.28677
G1 X92.827 Y107.100 E24.35023
G1 X92.189 Y106.392 E24.41388
G1 X91.622 Y105.627 E24.47747
G1 X91.340 Y105.182 E24.51268
G1 X91.081 Y104.724 E24.54785
G1 X90.676 Y103.861 E24.61151
G1 X90.354 Y102.969 E24.67489
