; generated by Slic3r 1.3.0 on 2020-03-24 at 19:31:34

; external perimeters extrusion width = 0.44mm (2.78mm^3/s)
; perimeters extrusion width = 0.40mm (7.14mm^3/s)
; infill extrusion width = 0.50mm (10.97mm^3/s)
; solid infill extrusion width = 0.60mm (6.68mm^3/s)
; top infill extrusion width = 0.40mm (2.14mm^3/s)

M107
M190 S80 ; set bed temperature and wait for it to be reached
M104 S200 ; set temperature
G28 ; home all axes
G1 Z5 F5000 ; lift nozzle

; Filament gcode

M109 S200 ; set temperature and wait for it to be reached
G21 ; set units to millimeters
G90 ; use absolute coordinates
M82 ; use absolute distances for extrusion
G92 E0
G1 Z0.300 F30000.000
G1 E-2.00000 F2400.00000
G92 E0
G1 X91.385 Y91.312 F30000.000
G1 E2.00000 F2400.00000
G1 F2100
G1 X91.758 Y90.958 E2.03433
G1 X92.260 Y90.525 E2.07866
G1 X92.747 Y90.147 E2.11979
G1 X93.170 Y89.849 E2.15434
G1 X93.727 Y89.496 E2.19845
G1 X94.263 Y89.194 E2.23952
G1 X94.726 Y88.960 E2.27416
G1 X95.329 Y88.692 E2.31829
G1 X95.908 Y88.470 E2.35972
G1 X96.537 Y88.266 E2.40387
G1 X97.034 Y88.130 E2.43827
G1 X97.633 Y87.996 E2.47927
G1 X98.137 Y87.908 E2.51352
G1 X98.797 Y87.824 E2.55796
G1 X99.412 Y87.779 E2.59909
G1 X100.067 Y87.765 E2.64291
G1 X100.588 Y87.779 E2.67774
G1 X101.205 Y87.825 E2.71904
G1 X101.863 Y87.908 E2.76332
G1 X102.368 Y87.996 E2.79757
G1 X102.966 Y88.130 E2.83856
G1 X103.464 Y88.266 E2.87305
G1 X104.095 Y88.471 E2.91736
G1 X104.671 Y88.692 E2.95855
G1 X105.278 Y88.962 E3.00294
G1 X105.736 Y89.193 E3.03722
G1 X106.274 Y89.497 E3.07850
G1 X106.834 Y89.852 E3.12278
G1 X107.336 Y90.209 E3.16394
G1 X107.742 Y90.526 E3.19835
G1 X108.243 Y90.959 E3.24257
G1 X108.688 Y91.385 E3.28375
G1 X109.141 Y91.868 E3.32797
G1 X109.474 Y92.259 E3.36229
G1 X109.853 Y92.747 E3.40357
G1 X110.232 Y93.291 E3.44787
G1 X110.557 Y93.816 E3.48913
G1 X110.877 Y94.398 E3.53349
G1 X111.103 Y94.861 E3.56790
G1 X111.347 Y95.425 E3.60897
G1 X111.529 Y95.905 E3.64323
G1 X111.734 Y96.535 E3.68752
G1 X111.894 Y97.133 E3.72884
G1 X112.032 Y97.780 E3.77302
G1 X112.114 Y98.288 E3.80746
G1 X112.185 Y98.901 E3.84864
G1 X112.227 Y99.555 E3.89245
G1 X112.235 Y100.077 E3.92730
G1 X112.215 Y100.692 E3.96843
G1 X112.160 Y101.355 E4.01288
G1 X112.076 Y101.965 E4.05401
G1 X111.983 Y102.469 E4.08827
G1 X111.831 Y103.117 E4.13270
G1 X111.690 Y103.609 E4.16692
G1 X111.494 Y104.193 E4.20805
G1 X111.249 Y104.811 E4.25246
G1 X110.993 Y105.371 E4.29362
G1 X110.758 Y105.827 E4.32791
G1 X110.504 Y106.273 E4.36215
G1 X110.148 Y106.834 E4.40654
G1 X109.791 Y107.336 E4.44771
G1 X109.380 Y107.855 E4.49194
G1 X109.041 Y108.243 E4.52633
G1 X108.615 Y108.688 E4.56752
G1 X108.130 Y109.143 E4.61191
G1 X107.660 Y109.540 E4.65301
G1 X107.253 Y109.853 E4.68733
G1 X106.707 Y110.233 E4.73178
G1 X106.184 Y110.557 E4.77289
G1 X105.732 Y110.809 E4.80742
G1 X105.140 Y111.102 E4.85155
G1 X104.575 Y111.347 E4.89273
G1 X104.095 Y111.529 E4.92698
G1 X103.463 Y111.735 E4.97142
G1 X102.867 Y111.894 E5.01260
G1 X102.226 Y112.031 E5.05642
G1 X101.712 Y112.114 E5.09117
G1 X101.099 Y112.185 E5.13240
G1 X100.437 Y112.227 E5.17672
G1 X99.923 Y112.235 E5.21105
G1 X99.312 Y112.215 E5.25192
G1 X98.795 Y112.175 E5.28657
G1 X98.137 Y112.092 E5.33083
G1 X97.530 Y111.983 E5.37204
G1 X97.016 Y111.865 E5.40730
G1 X96.390 Y111.690 E5.45069
G1 X95.807 Y111.494 E5.49181
G1 X95.189 Y111.249 E5.53622
G1 X94.630 Y110.993 E5.57729
G1 X94.171 Y110.757 E5.61179
G1 X93.725 Y110.503 E5.64607
G1 X93.166 Y110.148 E5.69030
G1 X92.664 Y109.791 E5.73146
G1 X92.259 Y109.474 E5.76582
G1 X91.757 Y109.041 E5.81009
G1 X91.312 Y108.615 E5.85128
G1 X90.857 Y108.130 E5.89567
G1 X90.524 Y107.739 E5.93004
G1 X90.147 Y107.253 E5.97109
G1 X89.769 Y106.709 E6.01537
G1 X89.496 Y106.273 E6.04971
G1 X89.193 Y105.736 E6.09089
G1 X88.962 Y105.278 E6.12517
G1 X88.692 Y104.671 E6.16956
G1 X88.471 Y104.095 E6.21075
G1 X88.265 Y103.463 E6.25517
G1 X88.130 Y102.967 E6.28954
G1 X87.996 Y102.367 E6.33055
G1 X87.908 Y101.863 E6.36479
G1 X87.825 Y101.205 E6.40909
G1 X87.779 Y100.588 E6.45037
G1 X87.765 Y99.924 E6.49476
G1 X87.779 Y99.410 E6.52912
G1 X87.824 Y98.797 E6.57016
G1 X87.908 Y98.137 E6.61459
G1 X87.997 Y97.631 E6.64894
G1 X88.131 Y97.032 E6.68995
G1 X88.310 Y96.390 E6.73445
G1 X88.506 Y95.807 E6.77556
G1 X88.692 Y95.329 E6.80982
G1 X88.960 Y94.726 E6.85395
G1 X89.192 Y94.266 E6.88835
G1 X89.496 Y93.727 E6.92966
G1 X89.849 Y93.170 E6.97377
G1 X90.146 Y92.748 E7.00822
G1 X90.525 Y92.260 E7.04945
G1 X90.958 Y91.758 E7.09378
G1 X91.343 Y91.355 E7.13103
G1 X91.764 Y91.691 F30000.000
G1 F2100
G1 X92.120 Y91.352 E7.16385
G1 X92.597 Y90.941 E7.20594
G1 X93.065 Y90.578 E7.24550
G1 X93.470 Y90.293 E7.27860
G1 X94.000 Y89.957 E7.32049
G1 X94.516 Y89.666 E7.36005
G1 X94.959 Y89.443 E7.39318
G1 X95.532 Y89.188 E7.43508
G1 X96.089 Y88.974 E7.47499
G1 X96.686 Y88.780 E7.51692
G1 X97.738 Y88.521 E7.58930
G1 X98.221 Y88.437 E7.62204
G1 X98.848 Y88.358 E7.66424
G1 X99.440 Y88.314 E7.70387
G1 X100.062 Y88.301 E7.74549
G1 X100.560 Y88.314 E7.77878
G1 X101.154 Y88.358 E7.81856
G1 X101.779 Y88.437 E7.86060
G1 X102.262 Y88.522 E7.89336
G1 X103.315 Y88.780 E7.96582
G1 X103.914 Y88.975 E8.00789
G1 X104.468 Y89.188 E8.04757
G1 X105.045 Y89.444 E8.08971
G1 X105.483 Y89.665 E8.12249
G1 X106.002 Y89.958 E8.16227
G1 X106.533 Y90.295 E8.20431
G1 X107.405 Y90.942 E8.27685
G1 X107.880 Y91.353 E8.31884
G1 X108.309 Y91.764 E8.35852
G1 X108.739 Y92.222 E8.40050
G1 X109.059 Y92.597 E8.43342
G1 X109.423 Y93.066 E8.47309
G1 X109.782 Y93.583 E8.51515
G1 X110.096 Y94.089 E8.55491
G1 X110.400 Y94.641 E8.59703
G1 X110.851 Y95.628 E8.66948
G1 X111.071 Y96.219 E8.71167
G1 X111.221 Y96.688 E8.74452
G1 X111.374 Y97.260 E8.78410
G1 X111.505 Y97.875 E8.82606
G1 X111.652 Y98.951 E8.89864
G1 X111.691 Y99.573 E8.94024
G1 X111.699 Y100.071 E8.97355
G1 X111.680 Y100.664 E9.01319
G1 X111.627 Y101.294 E9.05539
G1 X111.458 Y102.363 E9.12775
G1 X111.314 Y102.978 E9.16995
G1 X111.179 Y103.449 E9.20266
G1 X110.990 Y104.012 E9.24230
G1 X110.758 Y104.598 E9.28446
G1 X110.286 Y105.574 E9.35688
G1 X110.043 Y106.000 E9.38963
G1 X109.705 Y106.533 E9.43177
G1 X109.361 Y107.017 E9.47144
G1 X108.971 Y107.510 E9.51344
G1 X108.236 Y108.309 E9.58599
G1 X107.776 Y108.741 E9.62813
G1 X107.323 Y109.124 E9.66773
G1 X106.934 Y109.423 E9.70056
G1 X106.415 Y109.784 E9.74276
G1 X105.911 Y110.096 E9.78237
G1 X105.479 Y110.337 E9.81538
G1 X104.917 Y110.616 E9.85729
G1 X104.372 Y110.851 E9.89696
G1 X103.914 Y111.025 E9.92972
G1 X103.313 Y111.220 E9.97190
G1 X102.740 Y111.374 E10.01159
G1 X102.130 Y111.504 E10.05320
G1 X101.640 Y111.584 E10.08641
G1 X101.049 Y111.652 E10.12614
G1 X100.420 Y111.692 E10.16822
G1 X99.929 Y111.699 E10.20105
G1 X98.845 Y111.642 E10.27354
G1 X98.221 Y111.563 E10.31557
G1 X97.636 Y111.458 E10.35527
G1 X97.145 Y111.345 E10.38896
G1 X96.551 Y111.179 E10.43018
G1 X95.988 Y110.990 E10.46980
G1 X95.402 Y110.758 E10.51196
G1 X94.424 Y110.285 E10.58450
G1 X93.998 Y110.042 E10.61728
G1 X93.467 Y109.705 E10.65927
G1 X92.596 Y109.058 E10.73177
G1 X92.120 Y108.647 E10.77380
G1 X91.691 Y108.236 E10.81349
G1 X91.353 Y107.880 E10.84625
G1 X90.942 Y107.405 E10.88824
G1 X90.577 Y106.934 E10.92806
G1 X90.218 Y106.417 E10.97010
G1 X89.665 Y105.483 E11.04260
G1 X89.444 Y105.045 E11.07538
G1 X89.188 Y104.468 E11.11752
G1 X88.975 Y103.914 E11.15721
G1 X88.780 Y103.313 E11.19938
G1 X88.521 Y102.262 E11.27174
G1 X88.416 Y101.639 E11.31392
G1 X88.358 Y101.151 E11.34677
G1 X88.314 Y100.560 E11.38631
G1 X88.301 Y99.930 E11.42847
G1 X88.358 Y98.848 E11.50085
G1 X88.437 Y98.221 E11.54303
G1 X88.522 Y97.737 E11.57588
G1 X88.651 Y97.160 E11.61539
G1 X88.821 Y96.551 E11.65764
G1 X89.188 Y95.532 E11.72999
G1 X89.443 Y94.959 E11.77190
G1 X89.664 Y94.519 E11.80478
G1 X89.957 Y94.000 E11.84458
G1 X90.293 Y93.470 E11.88647
G1 X90.576 Y93.067 E11.91941
G1 X90.941 Y92.597 E11.95914
G1 X91.352 Y92.120 E12.00122
G1 X91.722 Y91.733 E12.03696
G1 X92.143 Y92.070 F30000.000
G1 F2100
G1 X92.483 Y91.747 E12.06828
G1 X92.934 Y91.357 E12.10813
G1 X93.771 Y90.736 E12.17776
G1 X94.272 Y90.418 E12.21741
G1 X94.771 Y90.137 E12.25561
G1 X95.191 Y89.925 E12.28708
G1 X95.734 Y89.684 E12.32676
G1 X96.270 Y89.478 E12.36515
G1 X96.836 Y89.294 E12.40485
G1 X97.844 Y89.047 E12.47423
G1 X98.305 Y88.966 E12.50548
G1 X98.898 Y88.891 E12.54543
G1 X99.468 Y88.849 E12.58356
G1 X100.057 Y88.837 E12.62297
G1 X101.104 Y88.891 E12.69298
G1 X102.156 Y89.047 E12.76402
G1 X103.165 Y89.295 E12.83347
G1 X103.732 Y89.479 E12.87330
G1 X104.266 Y89.684 E12.91149
G1 X104.812 Y89.927 E12.95139
G1 X105.230 Y90.137 E12.98266
G1 X105.729 Y90.418 E13.02093
G1 X106.232 Y90.738 E13.06073
G1 X107.067 Y91.358 E13.13026
G1 X107.518 Y91.747 E13.17002
G1 X107.930 Y92.143 E13.20820
G1 X108.642 Y92.933 E13.27925
G1 X108.993 Y93.386 E13.31751
G1 X109.333 Y93.875 E13.35733
G1 X109.635 Y94.362 E13.39558
G1 X109.923 Y94.885 E13.43545
G1 X110.355 Y95.830 E13.50491
G1 X110.705 Y96.834 E13.57596
G1 X110.854 Y97.388 E13.61426
G1 X110.977 Y97.970 E13.65398
G1 X111.119 Y99.001 E13.72355
G1 X111.156 Y99.590 E13.76295
G1 X111.163 Y100.065 E13.79471
G1 X111.145 Y100.636 E13.83286
G1 X111.095 Y101.232 E13.87280
G1 X110.933 Y102.258 E13.94218
G1 X110.796 Y102.840 E13.98212
G1 X110.668 Y103.291 E14.01345
G1 X110.486 Y103.830 E14.05148
G1 X110.266 Y104.386 E14.09139
G1 X109.814 Y105.321 E14.16082
G1 X109.582 Y105.728 E14.19206
G1 X109.262 Y106.232 E14.23196
G1 X108.931 Y106.698 E14.27013
G1 X108.562 Y107.164 E14.30989
G1 X107.857 Y107.930 E14.37943
G1 X107.422 Y108.339 E14.41933
G1 X106.986 Y108.707 E14.45743
G1 X106.614 Y108.993 E14.48875
G1 X106.123 Y109.334 E14.52871
G1 X105.227 Y109.864 E14.59829
G1 X104.695 Y110.129 E14.63798
G1 X104.170 Y110.355 E14.67615
G1 X103.733 Y110.521 E14.70740
G1 X103.164 Y110.706 E14.74734
G1 X102.612 Y110.854 E14.78553
G1 X102.035 Y110.977 E14.82494
G1 X100.999 Y111.119 E14.89481
G1 X100.403 Y111.156 E14.93465
G1 X99.935 Y111.163 E14.96598
G1 X98.896 Y111.109 E15.03546
G1 X98.305 Y111.034 E15.07525
G1 X97.742 Y110.933 E15.11345
G1 X97.274 Y110.826 E15.14557
G1 X96.711 Y110.668 E15.18462
G1 X96.170 Y110.486 E15.22274
G1 X95.614 Y110.266 E15.26266
G1 X94.677 Y109.813 E15.33219
G1 X93.768 Y109.262 E15.40320
G1 X92.933 Y108.642 E15.47269
G1 X92.482 Y108.253 E15.51249
G1 X92.070 Y107.857 E15.55068
G1 X91.357 Y107.066 E15.62177
G1 X91.007 Y106.614 E15.65998
G1 X90.667 Y106.125 E15.69979
G1 X90.137 Y105.230 E15.76928
G1 X89.927 Y104.812 E15.80055
G1 X89.684 Y104.266 E15.84045
G1 X89.479 Y103.732 E15.87864
G1 X89.294 Y103.164 E15.91856
G1 X89.047 Y102.156 E15.98793
G1 X88.891 Y101.103 E16.05899
G1 X88.849 Y100.532 E16.09724
G1 X88.837 Y99.935 E16.13714
G1 X88.891 Y98.898 E16.20653
G1 X88.966 Y98.305 E16.24646
G1 X89.047 Y97.843 E16.27781
G1 X89.171 Y97.287 E16.31583
G1 X89.332 Y96.711 E16.35582
G1 X89.684 Y95.734 E16.42518
G1 X89.925 Y95.191 E16.46486
G1 X90.136 Y94.772 E16.49623
G1 X90.418 Y94.272 E16.53452
G1 X90.736 Y93.771 E16.57418
G1 X91.357 Y92.934 E16.64381
G1 X91.747 Y92.483 E16.68366
G1 X92.100 Y92.112 E16.71789
G1 X92.522 Y92.448 F30000.000
G1 F2100
G1 X93.271 Y91.773 E16.78529
G1 X94.072 Y91.179 E16.85190
G1 X94.545 Y90.879 E16.88934
G1 X95.022 Y90.610 E16.92591
G1 X95.936 Y90.180 E16.99341
G1 X96.452 Y89.982 E17.03029
G1 X96.985 Y89.809 E17.06776
G1 X97.950 Y89.572 E17.13415
G1 X98.949 Y89.424 E17.20157
G1 X99.496 Y89.384 E17.23821
G1 X100.052 Y89.372 E17.27542
G1 X101.053 Y89.424 E17.34237
G1 X102.050 Y89.572 E17.40968
G1 X103.016 Y89.809 E17.47613
G1 X103.551 Y89.983 E17.51372
G1 X104.064 Y90.180 E17.55040
G1 X104.977 Y90.609 E17.61781
G1 X105.456 Y90.879 E17.65457
G1 X105.931 Y91.181 E17.69214
G1 X106.730 Y91.775 E17.75866
G1 X107.155 Y92.142 E17.79618
G1 X107.552 Y92.522 E17.83286
G1 X108.226 Y93.270 E17.90017
G1 X108.563 Y93.705 E17.93692
G1 X108.884 Y94.167 E17.97451
G1 X109.174 Y94.634 E18.01125
G1 X109.445 Y95.128 E18.04888
G1 X109.860 Y96.032 E18.11533
G1 X110.192 Y96.987 E18.18286
G1 X110.334 Y97.516 E18.21944
G1 X110.450 Y98.065 E18.25693
G1 X110.586 Y99.052 E18.32348
G1 X110.628 Y100.060 E18.39088
G1 X110.611 Y100.608 E18.42753
G1 X110.563 Y101.170 E18.46523
G1 X110.408 Y102.152 E18.53160
G1 X110.156 Y103.130 E18.59911
G1 X109.982 Y103.649 E18.63564
G1 X109.774 Y104.173 E18.67331
G1 X109.342 Y105.068 E18.73973
G1 X108.819 Y105.931 E18.80711
G1 X108.501 Y106.378 E18.84378
G1 X108.152 Y106.819 E18.88131
G1 X107.478 Y107.552 E18.94784
G1 X107.067 Y107.937 E18.98549
G1 X106.649 Y108.291 E19.02212
G1 X105.832 Y108.885 E19.08960
G1 X104.974 Y109.392 E19.15617
G1 X104.472 Y109.642 E19.19363
G1 X103.968 Y109.860 E19.23030
G1 X103.015 Y110.191 E19.29773
G1 X102.484 Y110.334 E19.33441
G1 X101.939 Y110.450 E19.37162
G1 X100.948 Y110.586 E19.43845
G1 X99.940 Y110.628 E19.50585
G1 X98.947 Y110.576 E19.57233
G1 X98.389 Y110.505 E19.60989
G1 X97.848 Y110.408 E19.64659
G1 X96.871 Y110.157 E19.71399
G1 X96.351 Y109.982 E19.75061
G1 X95.827 Y109.774 E19.78829
G1 X94.931 Y109.341 E19.85480
G1 X94.069 Y108.819 E19.92209
G1 X93.270 Y108.226 E19.98857
G1 X92.845 Y107.858 E20.02613
G1 X92.448 Y107.478 E20.06281
G1 X91.774 Y106.729 E20.13018
G1 X91.437 Y106.295 E20.16687
G1 X91.116 Y105.833 E20.20444
G1 X90.609 Y104.977 E20.27093
G1 X90.180 Y104.064 E20.33834
G1 X89.843 Y103.129 E20.40470
G1 X89.692 Y102.590 E20.44212
G1 X89.572 Y102.050 E20.47907
G1 X89.424 Y101.053 E20.54640
G1 X89.384 Y100.504 E20.58313
G1 X89.372 Y99.941 E20.62079
G1 X89.424 Y98.948 E20.68718
G1 X89.572 Y97.949 E20.75470
G1 X89.691 Y97.415 E20.79122
G1 X89.843 Y96.871 E20.82896
G1 X90.180 Y95.936 E20.89532
G1 X90.608 Y95.025 E20.96262
G1 X90.879 Y94.545 E20.99940
G1 X91.179 Y94.072 E21.03684
G1 X91.773 Y93.271 E21.10345
G1 X92.141 Y92.845 E21.14105
G1 X92.479 Y92.491 E21.17378
G1 X92.900 Y92.827 F30000.000
G1 F2100
G1 X93.608 Y92.190 E21.23743
G1 X94.373 Y91.622 E21.30103
G1 X94.818 Y91.340 E21.33624
G1 X95.275 Y91.082 E21.37131
G1 X96.139 Y90.676 E21.43507
G1 X96.633 Y90.486 E21.47042
G1 X97.135 Y90.323 E21.50567
G1 X98.056 Y90.097 E21.56906
G1 X98.999 Y89.957 E21.63273
G1 X99.524 Y89.919 E21.66788
G1 X100.047 Y89.908 E21.70288
G1 X101.003 Y89.958 E21.76679
G1 X101.944 Y90.097 E21.83035
G1 X102.866 Y90.323 E21.89380
G1 X103.370 Y90.487 E21.92915
G1 X103.861 Y90.676 E21.96433
G1 X104.724 Y91.081 E22.02800
G1 X105.183 Y91.340 E22.06325
G1 X105.630 Y91.624 E22.09858
G1 X106.393 Y92.191 E22.16209
G1 X106.793 Y92.536 E22.19738
G1 X107.173 Y92.900 E22.23256
G1 X107.811 Y93.610 E22.29632
G1 X108.133 Y94.024 E22.33138
G1 X108.435 Y94.459 E22.36672
G1 X108.713 Y94.907 E22.40196
G1 X108.968 Y95.371 E22.43735
G1 X109.364 Y96.235 E22.50079
G1 X109.677 Y97.133 E22.56437
G1 X109.813 Y97.643 E22.59965
G1 X109.923 Y98.160 E22.63491
G1 X110.052 Y99.102 E22.69845
G1 X110.092 Y100.054 E22.76211
G1 X110.076 Y100.580 E22.79725
G1 X110.031 Y101.109 E22.83270
G1 X109.883 Y102.046 E22.89608
G1 X109.646 Y102.969 E22.95974
G1 X109.478 Y103.467 E22.99488
G1 X109.283 Y103.960 E23.03030
G1 X108.870 Y104.815 E23.09373
G1 X108.376 Y105.630 E23.15736
G1 X108.071 Y106.059 E23.19253
G1 X107.743 Y106.473 E23.22783
G1 X107.100 Y107.173 E23.29135
G1 X106.713 Y107.536 E23.32675
G1 X106.312 Y107.875 E23.36185
G1 X105.540 Y108.436 E23.42561
G1 X104.721 Y108.920 E23.48917
G1 X104.249 Y109.155 E23.52440
G1 X103.765 Y109.364 E23.55957
G1 X102.865 Y109.677 E23.62325
G1 X102.356 Y109.813 E23.65843
G1 X101.844 Y109.922 E23.69344
G1 X100.898 Y110.052 E23.75723
G1 X99.946 Y110.092 E23.82089
G1 X98.997 Y110.042 E23.88436
G1 X98.473 Y109.976 E23.91968
G1 X97.954 Y109.883 E23.95488
G1 X97.031 Y109.646 E24.01853
G1 X96.533 Y109.478 E24.05366
G1 X96.040 Y109.283 E24.08909
G1 X95.184 Y108.869 E24.15260
G1 X94.370 Y108.376 E24.21614
G1 X93.607 Y107.810 E24.27962
G1 X93.207 Y107.464 E24.31494
G1 X92.827 Y107.100 E24.35013
G1 X92.191 Y106.393 E24.41366
G1 X91.867 Y105.976 E24.44894
G1 X91.565 Y105.541 E24.48428
G1 X91.081 Y104.724 E24.54775
G1 X90.676 Y103.861 E24.61142
G1 X90.487 Y103.370 E24.64660
G1 X90.323 Y102.865 E24.68203
G1 X90.097 Y101.944 E24.74540
G1 X89.957 Y101.000 E24.80917
G1 X89.919 Y100.476 E24.84422
G1 X89.908 Y99.946 E24.87964
