; generated by Slic3r 1.3.0 on 2020-07-28 at 19:59:17

; external perimeters extrusion width = 0.44mm (2.78mm^3/s)
; perimeters extrusion width = 0.40mm (7.14mm^3/s)
; infill extrusion width = 0.50mm (10.97mm^3/s)
; solid infill extrusion width = 0.60mm (6.68mm^3/s)
; top infill extrusion width = 0.40mm (2.14mm^3/s)

M107
M190 S80 ; set bed temperature and wait for it to be reached
M104 S200 ; set temperature
G28 ; home all axes
G1 Z5 F5000 ; lift nozzle

; Filament gcode

M109 S200 ; set temperature and wait for it to be reached
G21 ; set units to millimeters
G90 ; use absolute coordinates
M82 ; use absolute distances for extrusion
G92 E0
G1 Z0.300 F30000.000
G1 E-2.00000 F2400.00000
G92 E0
G1 X37.438 Y38.130 F30000.000
G1 E2.00000 F2400.00000
G1 F2100
G1 X39.118 Y36.554 E2.15389
G1 X39.951 Y35.820 E2.22809
G1 X41.597 Y34.459 E2.37074
G1 X43.365 Y33.114 E2.51913
G1 X44.338 Y32.423 E2.59889
G1 X45.258 Y31.799 E2.67315
G1 X46.190 Y31.194 E2.74737
G1 X48.011 Y30.091 E2.88961
G1 X49.962 Y29.017 E3.03837
G1 X51.950 Y28.028 E3.18674
G1 X53.037 Y27.530 E3.26659
G1 X54.058 Y27.089 E3.34086
G1 X56.042 Y26.304 E3.48346
G1 X57.087 Y25.927 E3.55767
G1 X58.139 Y25.572 E3.63183
G1 X59.280 Y25.214 E3.71171
G1 X60.347 Y24.905 E3.78590
G1 X62.409 Y24.375 E3.92816
G1 X64.587 Y23.911 E4.07691
G1 X65.680 Y23.713 E4.15111
G1 X66.860 Y23.526 E4.23094
G1 X69.064 Y23.249 E4.37936
G1 X71.186 Y23.071 E4.52160
G1 X72.302 Y23.012 E4.59625
G1 X73.496 Y22.974 E4.67608
G1 X74.606 Y22.963 E4.75024
G1 X76.827 Y23.012 E4.89861
G1 X77.936 Y23.071 E4.97281
G1 X80.063 Y23.249 E5.11544
G1 X81.167 Y23.376 E5.18966
G1 X82.351 Y23.539 E5.26952
G1 X84.543 Y23.911 E5.41804
G1 X86.630 Y24.355 E5.56054
G1 X87.708 Y24.619 E5.63474
G1 X89.849 Y25.214 E5.78315
G1 X90.989 Y25.572 E5.86299
G1 X92.041 Y25.927 E5.93716
G1 X93.086 Y26.304 E6.01135
G1 X95.072 Y27.090 E6.15405
G1 X97.178 Y28.028 E6.30806
G1 X99.166 Y29.017 E6.45644
G1 X101.037 Y30.046 E6.59909
G1 X101.994 Y30.610 E6.67328
G1 X102.939 Y31.195 E6.74752
G1 X103.940 Y31.845 E6.82724
G1 X104.859 Y32.471 E6.90153
G1 X106.586 Y33.726 E7.04417
G1 X107.465 Y34.407 E7.11845
G1 X108.393 Y35.158 E7.19824
G1 X109.241 Y35.876 E7.27244
G1 X110.824 Y37.301 E7.41474
G1 X112.421 Y38.862 E7.56396
G1 X113.995 Y40.538 E7.71751
G1 X114.729 Y41.372 E7.79171
G1 X116.090 Y43.017 E7.93436
G1 X117.434 Y44.785 E8.08274
G1 X118.119 Y45.749 E8.16174
G1 X118.750 Y46.678 E8.23677
G1 X119.938 Y48.555 E8.38515
G1 X120.505 Y49.515 E8.45961
G1 X121.531 Y51.382 E8.60198
G1 X122.074 Y52.447 E8.68182
G1 X122.556 Y53.446 E8.75596
G1 X123.020 Y54.462 E8.83057
G1 X123.844 Y56.421 E8.97254
G1 X124.274 Y57.541 E9.05266
G1 X124.649 Y58.586 E9.12686
G1 X125.334 Y60.699 E9.27524
G1 X125.643 Y61.767 E9.34952
G1 X126.174 Y63.836 E9.49218
G1 X126.639 Y66.014 E9.64097
G1 X127.022 Y68.281 E9.79458
G1 X127.299 Y70.485 E9.94298
G1 X127.478 Y72.613 E10.08561
G1 X127.537 Y73.722 E10.15981
G1 X127.574 Y74.916 E10.23965
G1 X127.585 Y76.027 E10.31386
G1 X127.572 Y77.143 E10.38842
G1 X127.483 Y79.271 E10.53072
G1 X127.290 Y81.568 E10.68470
G1 X127.161 Y82.672 E10.75896
G1 X126.850 Y84.785 E10.90162
G1 X126.435 Y86.965 E11.04990
G1 X126.174 Y88.133 E11.12983
G1 X125.909 Y89.209 E11.20384
G1 X125.310 Y91.350 E11.35242
G1 X124.977 Y92.410 E11.42660
G1 X124.274 Y94.426 E11.56928
G1 X123.425 Y96.570 E11.72332
G1 X122.557 Y98.521 E11.86598
G1 X122.074 Y99.521 E11.94015
G1 X121.047 Y101.490 E12.08853
G1 X120.460 Y102.531 E12.16837
G1 X119.895 Y103.486 E12.24248
G1 X119.305 Y104.436 E12.31719
G1 X118.129 Y106.206 E12.45915
G1 X116.823 Y108.007 E12.60778
G1 X115.390 Y109.814 E12.76181
G1 X114.673 Y110.662 E12.83603
G1 X113.244 Y112.249 E12.97869
G1 X111.686 Y113.842 E13.12754
G1 X110.010 Y115.415 E13.28111
G1 X109.176 Y116.149 E13.35531
G1 X107.531 Y117.510 E13.49796
G1 X105.763 Y118.855 E13.64638
G1 X104.856 Y119.500 E13.72070
G1 X103.870 Y120.170 E13.80037
G1 X101.994 Y121.359 E13.94874
G1 X101.037 Y121.923 E14.02293
G1 X99.166 Y122.952 E14.16559
G1 X98.177 Y123.457 E14.23978
G1 X97.101 Y123.977 E14.31966
G1 X95.150 Y124.846 E14.46231
G1 X94.124 Y125.265 E14.53634
G1 X92.041 Y126.042 E14.68486
G1 X90.989 Y126.397 E14.75904
G1 X89.848 Y126.755 E14.83893
G1 X88.781 Y127.064 E14.91312
G1 X86.719 Y127.593 E15.05538
G1 X84.535 Y128.060 E15.20457
G1 X82.349 Y128.431 E15.35267
G1 X80.063 Y128.720 E15.50657
G1 X77.936 Y128.898 E15.64921
G1 X76.827 Y128.957 E15.72341
G1 X75.634 Y128.995 E15.80315
G1 X74.521 Y129.005 E15.87745
G1 X73.411 Y128.993 E15.95167
G1 X71.277 Y128.904 E16.09431
G1 X69.064 Y128.720 E16.24266
G1 X66.860 Y128.443 E16.39105
G1 X65.680 Y128.256 E16.47091
G1 X64.587 Y128.058 E16.54512
G1 X62.415 Y127.595 E16.69346
G1 X60.347 Y127.064 E16.83612
G1 X59.278 Y126.754 E16.91041
G1 X58.219 Y126.423 E16.98460
G1 X57.087 Y126.042 E17.06437
G1 X56.042 Y125.665 E17.13856
G1 X54.053 Y124.878 E17.28148
G1 X52.026 Y123.977 E17.42968
G1 X51.026 Y123.495 E17.50382
G1 X49.961 Y122.952 E17.58366
G1 X48.095 Y121.926 E17.72592
G1 X47.134 Y121.359 E17.80050
G1 X46.119 Y120.729 E17.88030
G1 X45.187 Y120.123 E17.95456
G1 X44.269 Y119.498 E18.02878
G1 X42.542 Y118.243 E18.17139
G1 X40.798 Y116.864 E18.31991
G1 X39.887 Y116.093 E18.39965
G1 X39.054 Y115.358 E18.47383
G1 X37.497 Y113.896 E18.61649
G1 X36.708 Y113.108 E18.69107
G1 X35.134 Y111.432 E18.84464
G1 X34.399 Y110.597 E18.91893
G1 X33.038 Y108.952 E19.06158
G1 X31.694 Y107.184 E19.20996
G1 X31.002 Y106.210 E19.28974
G1 X30.378 Y105.291 E19.36399
G1 X29.771 Y104.354 E19.43852
G1 X28.668 Y102.532 E19.58085
G1 X27.596 Y100.587 E19.72920
G1 X26.607 Y98.598 E19.87758
G1 X26.110 Y97.511 E19.95744
G1 X25.669 Y96.491 E20.03166
G1 X24.883 Y94.506 E20.17430
G1 X24.506 Y93.462 E20.24849
G1 X24.151 Y92.410 E20.32266
G1 X23.794 Y91.269 E20.40250
G1 X23.483 Y90.196 E20.47711
G1 X22.953 Y88.133 E20.61940
G1 X22.490 Y85.959 E20.76791
G1 X22.105 Y83.688 E20.92181
G1 X21.829 Y81.484 E21.07020
G1 X21.650 Y79.356 E21.21283
G1 X21.591 Y78.247 E21.28703
G1 X21.554 Y77.054 E21.36681
G1 X21.543 Y75.942 E21.44108
G1 X21.591 Y73.716 E21.58984
G1 X21.650 Y72.613 E21.66362
G1 X21.829 Y70.485 E21.80628
G1 X21.966 Y69.297 E21.88614
G1 X22.118 Y68.197 E21.96032
G1 X22.490 Y66.007 E22.10874
G1 X22.953 Y63.836 E22.25709
G1 X23.485 Y61.767 E22.39975
G1 X23.793 Y60.701 E22.47393
G1 X24.125 Y59.641 E22.54812
G1 X24.506 Y58.508 E22.62797
G1 X24.883 Y57.463 E22.70218
G1 X25.669 Y55.477 E22.84484
G1 X26.144 Y54.380 E22.92470
G1 X26.607 Y53.371 E22.99890
G1 X27.599 Y51.377 E23.14765
G1 X28.625 Y49.511 E23.28994
G1 X29.190 Y48.555 E23.36412
G1 X29.819 Y47.539 E23.44397
G1 X30.424 Y46.610 E23.51802
G1 X31.050 Y45.690 E23.59238
G1 X32.305 Y43.962 E23.73502
G1 X33.683 Y42.220 E23.88340
G1 X34.399 Y41.372 E23.95756
G1 X35.190 Y40.475 E24.03745
G1 X35.942 Y39.658 E24.11163
G1 X37.396 Y38.173 E24.25046
G1 X37.817 Y38.509 F30000.000
G1 F2100
G1 X39.472 Y36.955 E24.40212
G1 X40.297 Y36.229 E24.47557
G1 X41.934 Y34.875 E24.61747
G1 X43.684 Y33.544 E24.76436
G1 X45.550 Y32.248 E24.91613
G1 X46.472 Y31.650 E24.98960
G1 X48.284 Y30.552 E25.13109
G1 X50.215 Y29.489 E25.27835
G1 X52.183 Y28.510 E25.42522
G1 X54.260 Y27.585 E25.57709
G1 X56.234 Y26.804 E25.71893
G1 X57.268 Y26.431 E25.79239
G1 X59.429 Y25.728 E25.94418
G1 X60.485 Y25.422 E26.01762
G1 X62.537 Y24.896 E26.15913
G1 X64.693 Y24.436 E26.30638
G1 X66.933 Y24.057 E26.45816
G1 X69.115 Y23.783 E26.60508
G1 X71.226 Y23.605 E26.74663
G1 X72.330 Y23.547 E26.82046
G1 X74.601 Y23.499 E26.97221
G1 X76.799 Y23.547 E27.11908
G1 X77.897 Y23.605 E27.19252
G1 X80.013 Y23.783 E27.33441
G1 X82.268 Y24.068 E27.48623
G1 X84.436 Y24.436 E27.63313
G1 X86.585 Y24.894 E27.77996
G1 X88.637 Y25.421 E27.92148
G1 X89.699 Y25.729 E27.99535
G1 X91.860 Y26.431 E28.14712
G1 X92.894 Y26.804 E28.22055
G1 X94.869 Y27.586 E28.36250
G1 X96.945 Y28.510 E28.51427
G1 X98.913 Y29.489 E28.66114
G1 X100.775 Y30.512 E28.80305
G1 X101.721 Y31.071 E28.87649
G1 X103.639 Y32.288 E29.02821
G1 X104.549 Y32.907 E29.10173
G1 X106.267 Y34.156 E29.24363
G1 X108.048 Y35.567 E29.39544
G1 X108.887 Y36.277 E29.46888
G1 X110.461 Y37.695 E29.61040
G1 X112.042 Y39.240 E29.75809
G1 X113.593 Y40.892 E29.90946
G1 X114.319 Y41.718 E29.98291
G1 X115.673 Y43.354 E30.12482
G1 X117.004 Y45.105 E30.27169
G1 X118.300 Y46.970 E30.42346
G1 X119.477 Y48.827 E30.57034
G1 X120.038 Y49.778 E30.64407
G1 X121.059 Y51.635 E30.78568
G1 X122.069 Y53.670 E30.93741
G1 X122.528 Y54.673 E31.01114
G1 X123.348 Y56.624 E31.15248
G1 X124.142 Y58.757 E31.30456
G1 X124.820 Y60.849 E31.45143
G1 X125.126 Y61.906 E31.52496
G1 X125.654 Y63.963 E31.66687
G1 X126.114 Y66.119 E31.81410
G1 X126.492 Y68.354 E31.96553
G1 X126.766 Y70.535 E32.11242
G1 X126.943 Y72.652 E32.25431
G1 X127.002 Y73.750 E32.32775
G1 X127.049 Y76.021 E32.47955
G1 X127.037 Y77.126 E32.55336
G1 X126.948 Y79.243 E32.69490
G1 X126.758 Y81.507 E32.84665
G1 X126.631 Y82.599 E32.92015
G1 X126.320 Y84.701 E33.06206
G1 X125.910 Y86.859 E33.20884
G1 X125.392 Y89.070 E33.36055
G1 X124.799 Y91.190 E33.50760
G1 X124.469 Y92.239 E33.58104
G1 X123.770 Y94.245 E33.72296
G1 X122.934 Y96.358 E33.87476
G1 X122.070 Y98.298 E34.01667
G1 X121.592 Y99.288 E34.09009
G1 X120.575 Y101.237 E34.23698
G1 X119.439 Y103.204 E34.38868
G1 X118.855 Y104.146 E34.46274
G1 X117.686 Y105.905 E34.60384
G1 X116.393 Y107.687 E34.75097
G1 X114.981 Y109.468 E34.90275
G1 X114.271 Y110.308 E34.97623
G1 X112.850 Y111.886 E35.11813
G1 X111.308 Y113.462 E35.26542
G1 X109.656 Y115.013 E35.41680
G1 X108.831 Y115.740 E35.49026
G1 X107.194 Y117.094 E35.63216
G1 X105.443 Y118.425 E35.77907
G1 X103.578 Y119.721 E35.93081
G1 X101.721 Y120.898 E36.07768
G1 X100.775 Y121.457 E36.15112
G1 X98.913 Y122.480 E36.29304
G1 X96.878 Y123.490 E36.44484
G1 X94.937 Y124.354 E36.58675
G1 X93.922 Y124.770 E36.66002
G1 X91.860 Y125.538 E36.80705
G1 X89.698 Y126.241 E36.95886
G1 X88.643 Y126.546 E37.03230
G1 X86.590 Y127.073 E37.17385
G1 X84.430 Y127.534 E37.32145
G1 X82.266 Y127.902 E37.46808
G1 X80.013 Y128.186 E37.61976
G1 X77.897 Y128.364 E37.76165
G1 X76.799 Y128.422 E37.83509
G1 X74.527 Y128.470 E37.98689
G1 X73.427 Y128.458 E38.06035
G1 X71.305 Y128.369 E38.20225
G1 X69.115 Y128.186 E38.34909
G1 X66.933 Y127.912 E38.49598
G1 X64.693 Y127.533 E38.64779
G1 X62.543 Y127.075 E38.79464
G1 X60.485 Y126.546 E38.93655
G1 X59.428 Y126.240 E39.01008
G1 X57.268 Y125.538 E39.16180
G1 X56.234 Y125.165 E39.23523
G1 X54.256 Y124.382 E39.37737
G1 X52.249 Y123.490 E39.52410
G1 X50.215 Y122.480 E39.67583
G1 X48.358 Y121.460 E39.81734
G1 X47.407 Y120.898 E39.89117
G1 X45.488 Y119.680 E40.04297
G1 X44.579 Y119.061 E40.11644
G1 X42.861 Y117.813 E40.25831
G1 X41.136 Y116.448 E40.40531
G1 X39.417 Y114.964 E40.55699
G1 X37.868 Y113.510 E40.69890
G1 X37.087 Y112.729 E40.77268
G1 X35.536 Y111.077 E40.92407
G1 X34.808 Y110.251 E40.99760
G1 X33.454 Y108.615 E41.13950
G1 X32.124 Y106.864 E41.28637
G1 X30.827 Y104.999 E41.43815
G1 X29.651 Y103.142 E41.58502
G1 X29.092 Y102.195 E41.65846
G1 X28.068 Y100.334 E41.80037
G1 X27.089 Y98.365 E41.94725
G1 X26.165 Y96.289 E42.09906
G1 X25.383 Y94.314 E42.24096
G1 X25.010 Y93.280 E42.31439
G1 X24.308 Y91.120 E42.46616
G1 X24.002 Y90.063 E42.53962
G1 X23.474 Y88.006 E42.68155
G1 X23.015 Y85.855 E42.82844
G1 X22.636 Y83.615 E42.98022
G1 X22.362 Y81.434 E43.12710
G1 X22.184 Y79.317 E43.26899
G1 X22.126 Y78.219 E43.34244
G1 X22.078 Y75.948 E43.49423
G1 X22.126 Y73.744 E43.64145
G1 X22.185 Y72.646 E43.71492
G1 X22.362 Y70.535 E43.85643
G1 X22.647 Y68.281 E44.00822
G1 X23.015 Y66.113 E44.15513
G1 X23.474 Y63.963 E44.30198
G1 X24.002 Y61.906 E44.44389
G1 X24.308 Y60.850 E44.51733
G1 X25.010 Y58.689 E44.66912
G1 X25.383 Y57.655 E44.74258
G1 X26.165 Y55.680 E44.88448
G1 X27.089 Y53.604 E45.03629
G1 X28.071 Y51.630 E45.18356
G1 X29.092 Y49.774 E45.32507
G1 X29.651 Y48.827 E45.39851
G1 X30.867 Y46.910 E45.55017
G1 X31.487 Y46.000 E45.62376
G1 X32.735 Y44.281 E45.76565
G1 X34.100 Y42.557 E45.91253
G1 X35.584 Y40.837 E46.06433
G1 X36.329 Y40.029 E46.13776
G1 X37.774 Y38.552 E46.27582
G1 X38.374 Y39.064 F30000.000
G1 F2100
G1 X39.960 Y37.574 E46.43860
G1 X41.621 Y36.140 E46.60280
G1 X43.295 Y34.813 E46.76269
G1 X44.164 Y34.167 E46.84375
G1 X45.965 Y32.915 E47.00789
G1 X46.874 Y32.325 E47.08898
G1 X48.684 Y31.229 E47.24734
G1 X50.599 Y30.175 E47.41091
G1 X52.564 Y29.199 E47.57512
G1 X54.559 Y28.313 E47.73844
G1 X56.529 Y27.533 E47.89705
G1 X57.548 Y27.166 E47.97810
G1 X59.635 Y26.487 E48.14229
G1 X61.721 Y25.906 E48.30434
G1 X62.772 Y25.648 E48.38538
G1 X64.860 Y25.204 E48.54510
G1 X66.997 Y24.842 E48.70732
G1 X69.174 Y24.567 E48.87154
G1 X71.283 Y24.390 E49.02991
G1 X72.385 Y24.331 E49.11248
G1 X74.578 Y24.285 E49.27665
G1 X75.661 Y24.297 E49.35769
G1 X77.796 Y24.386 E49.51757
G1 X79.953 Y24.567 E49.67961
G1 X82.130 Y24.842 E49.84382
G1 X83.200 Y25.011 E49.92486
G1 X85.280 Y25.408 E50.08329
G1 X87.407 Y25.906 E50.24680
G1 X89.521 Y26.496 E50.41103
G1 X90.554 Y26.820 E50.49204
G1 X92.571 Y27.523 E50.65193
G1 X94.610 Y28.330 E50.81600
G1 X95.605 Y28.761 E50.89717
G1 X97.538 Y29.670 E51.05705
G1 X99.457 Y30.673 E51.21908
G1 X101.358 Y31.770 E51.38331
G1 X102.295 Y32.352 E51.46587
G1 X104.045 Y33.515 E51.62308
G1 X105.810 Y34.795 E51.78627
G1 X107.529 Y36.159 E51.95049
G1 X108.356 Y36.858 E52.03154
G1 X109.944 Y38.287 E52.19143
G1 X111.510 Y39.821 E52.35545
G1 X112.257 Y40.600 E52.43618
G1 X113.691 Y42.192 E52.59657
G1 X115.072 Y43.860 E52.75862
G1 X116.398 Y45.609 E52.92286
G1 X117.037 Y46.508 E53.00543
G1 X118.193 Y48.249 E53.16181
G1 X119.329 Y50.122 E53.32576
G1 X120.387 Y52.046 E53.49002
G1 X120.887 Y53.028 E53.57253
G1 X121.788 Y54.943 E53.73088
G1 X122.630 Y56.946 E53.89353
G1 X123.398 Y59.014 E54.05861
G1 X124.052 Y61.028 E54.21703
G1 X124.355 Y62.068 E54.29811
G1 X124.901 Y64.193 E54.46228
G1 X125.350 Y66.312 E54.62443
G1 X125.542 Y67.378 E54.70546
G1 X125.854 Y69.491 E54.86527
G1 X126.083 Y71.672 E55.02941
G1 X126.162 Y72.753 E55.11050
G1 X126.252 Y74.866 E55.26883
G1 X126.252 Y77.052 E55.43236
G1 X126.160 Y79.246 E55.59672
G1 X125.976 Y81.423 E55.76021
G1 X125.711 Y83.522 E55.91857
G1 X125.542 Y84.592 E55.99962
G1 X125.131 Y86.746 E56.16373
G1 X124.630 Y88.875 E56.32735
G1 X124.061 Y90.914 E56.48579
G1 X123.737 Y91.947 E56.56682
G1 X123.026 Y93.992 E56.72886
G1 X122.218 Y96.032 E56.89306
G1 X121.349 Y97.984 E57.05294
G1 X120.878 Y98.959 E57.13399
G1 X119.875 Y100.878 E57.29605
G1 X118.779 Y102.778 E57.46018
G1 X118.194 Y103.720 E57.54315
G1 X117.037 Y105.461 E57.69960
G1 X115.753 Y107.230 E57.86320
G1 X114.390 Y108.950 E58.02739
G1 X113.691 Y109.777 E58.10845
G1 X112.261 Y111.365 E58.26833
G1 X110.728 Y112.930 E58.43229
G1 X109.147 Y114.414 E58.59457
G1 X108.334 Y115.130 E58.67562
G1 X106.689 Y116.491 E58.83544
G1 X104.940 Y117.819 E58.99973
G1 X104.048 Y118.452 E59.08164
G1 X102.303 Y119.611 E59.23837
G1 X100.426 Y120.750 E59.40271
G1 X98.503 Y121.807 E59.56690
G1 X97.538 Y122.299 E59.64792
G1 X95.606 Y123.208 E59.80779
G1 X93.583 Y124.058 E59.97200
G1 X92.571 Y124.446 E60.05309
G1 X90.554 Y125.149 E60.21290
G1 X88.482 Y125.775 E60.37492
G1 X86.383 Y126.315 E60.53708
G1 X84.237 Y126.771 E60.70124
G1 X83.172 Y126.962 E60.78228
G1 X81.058 Y127.274 E60.94215
G1 X78.903 Y127.501 E61.10432
G1 X76.715 Y127.639 E61.26842
G1 X75.632 Y127.673 E61.34950
G1 X73.496 Y127.673 E61.50932
G1 X71.332 Y127.583 E61.67141
G1 X69.146 Y127.399 E61.83559
G1 X68.070 Y127.274 E61.91663
G1 X65.957 Y126.962 E62.07646
G1 X63.821 Y126.555 E62.23920
G1 X61.693 Y126.056 E62.40278
G1 X60.647 Y125.776 E62.48380
G1 X58.621 Y125.164 E62.64222
G1 X56.555 Y124.446 E62.80585
G1 X54.516 Y123.638 E62.97002
G1 X53.523 Y123.208 E63.05101
G1 X51.608 Y122.307 E63.20939
G1 X49.670 Y121.296 E63.37298
G1 X47.770 Y120.199 E63.53714
G1 X46.851 Y119.629 E63.61811
G1 X45.144 Y118.498 E63.77131
G1 X43.318 Y117.173 E63.94012
G1 X41.598 Y115.810 E64.10436
G1 X40.772 Y115.111 E64.18535
G1 X39.199 Y113.695 E64.34375
G1 X37.617 Y112.147 E64.50937
G1 X36.867 Y111.365 E64.59048
G1 X35.437 Y109.777 E64.75040
G1 X34.056 Y108.109 E64.91244
G1 X32.747 Y106.384 E65.07450
G1 X31.495 Y104.583 E65.23861
G1 X30.894 Y103.657 E65.32121
