; generated by Slic3r 1.3.0 on 2020-07-26 at 19:50:31

; external perimeters extrusion width = 0.44mm (2.78mm^3/s)
; perimeters extrusion width = 0.40mm (7.14mm^3/s)
; infill extrusion width = 0.50mm (10.97mm^3/s)
; solid infill extrusion width = 0.60mm (6.68mm^3/s)
; top infill extrusion width = 0.40mm (2.14mm^3/s)

M107
M190 S80 ; set bed temperature and wait for it to be reached
M104 S200 ; set temperature
G28 ; home all axes
G1 Z5 F5000 ; lift nozzle

; Filament gcode

M109 S200 ; set temperature and wait for it to be reached
G21 ; set units to millimeters
G90 ; use absolute coordinates
M82 ; use absolute distances for extrusion
G92 E0
G1 Z0.300 F30000.000
G1 E-2.00000 F2400.00000
G92 E0
G1 X58.234 Y61.374 F30000.000
G1 E2.00000 F2400.00000
G1 F2100
G1 X59.051 Y60.591 E2.07560
G1 X60.669 Y59.134 E2.22104
G1 X62.412 Y57.691 E2.37221
G1 X63.305 Y56.996 E2.44779
G1 X64.282 Y56.271 E2.52908
G1 X66.141 Y54.981 E2.68025
G1 X67.979 Y53.815 E2.82568
G1 X68.953 Y53.238 E2.90128
G1 X69.938 Y52.682 E2.97687
G1 X71.010 Y52.107 E3.05814
G1 X73.038 Y51.102 E3.20931
G1 X75.027 Y50.217 E3.35475
G1 X76.074 Y49.788 E3.43037
G1 X78.194 Y48.998 E3.58151
G1 X79.266 Y48.636 E3.65709
G1 X80.427 Y48.272 E3.73838
G1 X82.524 Y47.687 E3.88381
G1 X83.623 Y47.416 E3.95944
G1 X84.810 Y47.151 E4.04069
G1 X85.919 Y46.928 E4.11628
G1 X88.151 Y46.552 E4.26744
G1 X90.311 Y46.279 E4.41288
G1 X91.437 Y46.172 E4.48849
G1 X92.565 Y46.088 E4.56406
G1 X93.780 Y46.025 E4.64534
G1 X95.957 Y45.979 E4.79080
G1 X97.089 Y45.990 E4.86640
G1 X99.349 Y46.083 E5.01754
G1 X100.478 Y46.165 E5.09313
G1 X101.689 Y46.279 E5.17442
G1 X102.813 Y46.410 E5.24998
G1 X104.890 Y46.716 E5.39024
G1 X106.081 Y46.928 E5.47103
G1 X107.190 Y47.151 E5.54663
G1 X108.294 Y47.397 E5.62222
G1 X109.476 Y47.687 E5.70350
G1 X111.655 Y48.297 E5.85466
G1 X113.725 Y48.970 E6.00010
G1 X114.790 Y49.352 E6.07568
G1 X115.847 Y49.757 E6.15128
G1 X116.973 Y50.217 E6.23256
G1 X118.962 Y51.102 E6.37800
G1 X119.982 Y51.594 E6.45360
G1 X120.990 Y52.107 E6.52918
G1 X122.062 Y52.682 E6.61044
G1 X124.021 Y53.815 E6.76163
G1 X125.859 Y54.981 E6.90706
G1 X126.796 Y55.616 E6.98266
G1 X128.627 Y56.945 E7.13383
G1 X129.588 Y57.691 E7.21510
G1 X130.467 Y58.403 E7.29068
G1 X131.331 Y59.134 E7.36628
G1 X132.949 Y60.591 E7.51172
G1 X133.766 Y61.374 E7.58732
G1 X134.626 Y62.234 E7.66858
G1 X135.409 Y63.051 E7.74418
G1 X136.866 Y64.669 E7.88962
G1 X138.309 Y66.412 E8.04079
G1 X139.055 Y67.373 E8.12206
G1 X139.729 Y68.282 E8.19766
G1 X141.019 Y70.141 E8.34882
G1 X142.185 Y71.979 E8.49427
G1 X142.762 Y72.953 E8.56986
G1 X143.359 Y74.012 E8.65112
G1 X143.893 Y75.010 E8.72672
G1 X144.898 Y77.038 E8.87788
G1 X145.783 Y79.027 E9.02333
G1 X146.212 Y80.074 E9.09895
G1 X147.002 Y82.194 E9.25010
G1 X147.390 Y83.347 E9.33135
G1 X147.728 Y84.427 E9.40696
G1 X148.313 Y86.524 E9.55239
G1 X148.584 Y87.623 E9.62802
G1 X148.849 Y88.810 E9.70926
G1 X149.072 Y89.919 E9.78486
G1 X149.448 Y92.151 E9.93602
G1 X149.721 Y94.311 E10.08147
G1 X149.828 Y95.437 E10.15707
G1 X149.912 Y96.565 E10.23264
G1 X149.975 Y97.780 E10.31392
G1 X150.021 Y99.957 E10.45938
G1 X150.010 Y101.089 E10.53498
G1 X149.917 Y103.349 E10.68613
G1 X149.828 Y104.563 E10.76739
G1 X149.721 Y105.689 E10.84300
G1 X149.448 Y107.849 E10.98845
G1 X149.272 Y108.967 E11.06403
G1 X148.849 Y111.190 E11.21520
G1 X148.584 Y112.377 E11.29645
G1 X148.313 Y113.476 E11.37207
G1 X147.703 Y115.655 E11.52322
G1 X147.030 Y117.725 E11.66867
G1 X146.648 Y118.790 E11.74425
G1 X146.243 Y119.847 E11.81985
G1 X145.783 Y120.973 E11.90113
G1 X144.898 Y122.962 E12.04657
G1 X144.406 Y123.982 E12.12218
G1 X143.893 Y124.990 E12.19776
G1 X143.319 Y126.062 E12.27902
G1 X142.186 Y128.021 E12.43019
G1 X141.019 Y129.859 E12.57563
G1 X140.384 Y130.796 E12.65124
G1 X139.055 Y132.627 E12.80240
G1 X138.362 Y133.522 E12.87797
G1 X137.597 Y134.467 E12.95925
G1 X136.866 Y135.331 E13.03485
G1 X135.409 Y136.949 E13.18029
G1 X134.626 Y137.766 E13.25589
G1 X133.766 Y138.626 E13.33716
G1 X132.949 Y139.409 E13.41276
G1 X131.331 Y140.866 E13.55819
G1 X129.588 Y142.309 E13.70937
G1 X128.695 Y143.004 E13.78495
G1 X127.718 Y143.729 E13.86624
G1 X125.859 Y145.019 E14.01741
G1 X124.021 Y146.186 E14.16285
G1 X123.047 Y146.762 E14.23844
G1 X122.062 Y147.319 E14.31403
G1 X120.990 Y147.893 E14.39529
G1 X118.962 Y148.898 E14.54647
G1 X116.973 Y149.783 E14.69191
G1 X115.926 Y150.212 E14.76752
G1 X113.806 Y151.002 E14.91868
G1 X112.653 Y151.390 E14.99992
G1 X111.573 Y151.728 E15.07554
G1 X109.476 Y152.313 E15.22097
G1 X108.377 Y152.584 E15.29659
G1 X107.190 Y152.849 E15.37784
G1 X106.081 Y153.072 E15.45344
G1 X103.849 Y153.448 E15.60459
G1 X101.689 Y153.721 E15.75004
G1 X100.563 Y153.828 E15.82566
G1 X99.435 Y153.912 E15.90122
G1 X98.220 Y153.975 E15.98250
G1 X96.043 Y154.021 E16.12796
G1 X94.911 Y154.010 E16.20355
G1 X92.650 Y153.917 E16.35471
G1 X91.437 Y153.828 E16.43597
G1 X90.311 Y153.721 E16.51158
G1 X89.187 Y153.590 E16.58714
G1 X87.110 Y153.284 E16.72739
G1 X85.919 Y153.072 E16.80819
G1 X84.810 Y152.849 E16.88379
G1 X83.623 Y152.584 E16.96503
G1 X82.524 Y152.313 E17.04066
G1 X80.345 Y151.703 E17.19182
G1 X78.275 Y151.030 E17.33725
G1 X77.210 Y150.648 E17.41283
G1 X76.153 Y150.243 E17.48843
G1 X75.027 Y149.783 E17.56971
G1 X72.960 Y148.862 E17.72087
G1 X71.107 Y147.943 E17.85908
G1 X70.012 Y147.359 E17.94192
G1 X69.026 Y146.805 E18.01748
G1 X67.979 Y146.185 E18.09878
G1 X66.141 Y145.019 E18.24423
G1 X65.204 Y144.384 E18.31982
G1 X63.373 Y143.055 E18.47099
G1 X62.478 Y142.362 E18.54656
G1 X61.533 Y141.597 E18.62784
G1 X60.669 Y140.866 E18.70343
G1 X59.051 Y139.409 E18.84887
G1 X58.234 Y138.626 E18.92447
G1 X57.374 Y137.766 E19.00574
G1 X56.591 Y136.949 E19.08134
G1 X55.134 Y135.331 E19.22678
G1 X53.691 Y133.588 E19.37795
G1 X52.996 Y132.695 E19.45353
G1 X52.271 Y131.718 E19.53481
G1 X50.981 Y129.859 E19.68598
G1 X49.815 Y128.021 E19.83142
G1 X49.238 Y127.047 E19.90701
G1 X48.682 Y126.062 E19.98261
G1 X48.107 Y124.990 E20.06388
G1 X47.102 Y122.962 E20.21505
G1 X46.217 Y120.973 E20.36049
G1 X45.788 Y119.926 E20.43610
G1 X44.998 Y117.806 E20.58725
G1 X44.610 Y116.653 E20.66851
G1 X44.272 Y115.573 E20.74412
G1 X43.687 Y113.476 E20.88955
G1 X43.416 Y112.377 E20.96518
G1 X43.151 Y111.190 E21.04642
G1 X42.928 Y110.081 E21.12202
G1 X42.552 Y107.849 E21.27318
G1 X42.279 Y105.689 E21.41862
G1 X42.172 Y104.563 E21.49423
G1 X42.083 Y103.349 E21.57550
G1 X42.025 Y102.220 E21.65108
G1 X41.979 Y100.043 E21.79653
G1 X41.990 Y98.911 E21.87213
G1 X42.083 Y96.651 E22.02328
G1 X42.165 Y95.522 E22.09887
G1 X42.279 Y94.311 E22.18016
G1 X42.552 Y92.151 E22.32560
G1 X42.728 Y91.033 E22.40119
G1 X43.151 Y88.810 E22.55235
G1 X43.397 Y87.706 E22.62795
G1 X43.687 Y86.524 E22.70923
G1 X44.297 Y84.345 E22.86039
G1 X44.970 Y82.275 E23.00583
G1 X45.352 Y81.210 E23.08141
G1 X45.757 Y80.153 E23.15701
G1 X46.217 Y79.027 E23.23829
G1 X47.102 Y77.038 E23.38373
G1 X47.594 Y76.018 E23.45934
G1 X48.107 Y75.010 E23.53491
G1 X48.682 Y73.938 E23.61618
G1 X49.815 Y71.979 E23.76736
G1 X50.981 Y70.141 E23.91279
G1 X51.616 Y69.204 E23.98839
G1 X52.945 Y67.373 E24.13956
G1 X53.638 Y66.478 E24.21513
G1 X54.403 Y65.533 E24.29641
G1 X55.134 Y64.669 E24.37201
G1 X56.591 Y63.051 E24.51745
G1 X58.191 Y61.416 E24.67030
G1 X58.605 Y61.760 F30000.000
G1 F2100
G1 X59.414 Y60.985 E24.74515
G1 X61.023 Y59.536 E24.88984
G1 X62.749 Y58.107 E25.03951
G1 X64.532 Y56.751 E25.18916
G1 X65.506 Y56.059 E25.26895
G1 X66.433 Y55.430 E25.34380
G1 X68.261 Y54.270 E25.48849
G1 X69.225 Y53.699 E25.56333
G1 X71.253 Y52.584 E25.71794
G1 X73.261 Y51.589 E25.86761
G1 X75.239 Y50.708 E26.01230
G1 X76.277 Y50.284 E26.08716
G1 X78.376 Y49.502 E26.23681
G1 X80.577 Y48.787 E26.39142
G1 X82.663 Y48.204 E26.53611
G1 X83.751 Y47.936 E26.61098
G1 X84.843 Y47.691 E26.68577
G1 X86.014 Y47.455 E26.76558
G1 X88.223 Y47.083 E26.91523
G1 X90.372 Y46.811 E27.05993
G1 X91.488 Y46.705 E27.13479
G1 X92.679 Y46.618 E27.21456
G1 X93.797 Y46.560 E27.28939
G1 X95.963 Y46.515 E27.43410
G1 X97.083 Y46.526 E27.50895
G1 X99.321 Y46.618 E27.65860
G1 X101.628 Y46.811 E27.81321
G1 X102.740 Y46.941 E27.88803
G1 X104.806 Y47.245 E28.02754
G1 X105.986 Y47.455 E28.10758
G1 X107.084 Y47.676 E28.18242
G1 X109.337 Y48.204 E28.33704
G1 X111.495 Y48.808 E28.48670
G1 X113.555 Y49.477 E28.63139
G1 X114.609 Y49.856 E28.70622
G1 X116.761 Y50.708 E28.86084
G1 X118.739 Y51.589 E29.00554
G1 X119.748 Y52.076 E29.08039
G1 X120.747 Y52.584 E29.15522
G1 X121.799 Y53.148 E29.23499
G1 X123.739 Y54.270 E29.38467
G1 X125.567 Y55.430 E29.52936
G1 X126.494 Y56.059 E29.60420
G1 X128.308 Y57.375 E29.75387
G1 X129.193 Y58.061 E29.82870
G1 X130.121 Y58.812 E29.90848
G1 X130.977 Y59.536 E29.98332
G1 X132.586 Y60.985 E30.12802
G1 X133.395 Y61.760 E30.20286
G1 X134.240 Y62.605 E30.28263
G1 X135.015 Y63.414 E30.35748
G1 X136.464 Y65.023 E30.50217
G1 X137.893 Y66.749 E30.65185
G1 X139.249 Y68.532 E30.80150
G1 X140.570 Y70.433 E30.95612
G1 X141.730 Y72.261 E31.10081
G1 X142.301 Y73.225 E31.17566
G1 X143.416 Y75.253 E31.33026
G1 X144.411 Y77.261 E31.47993
G1 X145.292 Y79.239 E31.62463
G1 X145.716 Y80.277 E31.69949
G1 X146.498 Y82.376 E31.84914
G1 X147.213 Y84.577 E32.00375
G1 X147.796 Y86.663 E32.14843
G1 X148.064 Y87.751 E32.22331
G1 X148.324 Y88.916 E32.30305
G1 X148.545 Y90.014 E32.37790
G1 X148.917 Y92.223 E32.52756
G1 X149.189 Y94.372 E32.67226
G1 X149.295 Y95.488 E32.74711
G1 X149.378 Y96.605 E32.82194
G1 X149.440 Y97.797 E32.90172
G1 X149.485 Y99.963 E33.04642
G1 X149.474 Y101.083 E33.12127
G1 X149.382 Y103.321 E33.27093
G1 X149.189 Y105.628 E33.42554
G1 X148.917 Y107.777 E33.57024
G1 X148.743 Y108.883 E33.64507
G1 X148.324 Y111.084 E33.79474
G1 X147.796 Y113.337 E33.94936
G1 X147.192 Y115.495 E34.09901
G1 X146.523 Y117.555 E34.24371
G1 X146.144 Y118.609 E34.31854
G1 X145.292 Y120.761 E34.47316
G1 X144.411 Y122.739 E34.61786
G1 X143.924 Y123.748 E34.69271
G1 X143.416 Y124.747 E34.76754
G1 X142.852 Y125.799 E34.84730
G1 X141.730 Y127.739 E34.99698
G1 X140.570 Y129.567 E35.14167
G1 X139.941 Y130.494 E35.21652
G1 X138.625 Y132.308 E35.36619
G1 X137.893 Y133.251 E35.44596
G1 X137.188 Y134.121 E35.52080
G1 X136.464 Y134.977 E35.59564
G1 X135.015 Y136.586 E35.74034
G1 X134.188 Y137.448 E35.82013
G1 X133.395 Y138.240 E35.89495
G1 X132.586 Y139.015 E35.96980
G1 X130.977 Y140.464 E36.11449
G1 X129.251 Y141.893 E36.26416
G1 X127.408 Y143.292 E36.41877
G1 X125.567 Y144.570 E36.56844
G1 X123.739 Y145.730 E36.71314
G1 X122.775 Y146.301 E36.78798
G1 X120.747 Y147.416 E36.94258
G1 X118.739 Y148.411 E37.09225
G1 X116.761 Y149.292 E37.23695
G1 X115.723 Y149.716 E37.31181
G1 X113.624 Y150.498 E37.46147
G1 X111.423 Y151.213 E37.61606
G1 X109.337 Y151.796 E37.76075
G1 X108.249 Y152.064 E37.83562
G1 X107.157 Y152.309 E37.91042
G1 X105.986 Y152.545 E37.99022
G1 X103.777 Y152.917 E38.13988
G1 X101.628 Y153.189 E38.28458
G1 X100.512 Y153.295 E38.35944
G1 X99.395 Y153.378 E38.43425
G1 X98.203 Y153.440 E38.51403
G1 X96.037 Y153.485 E38.65875
G1 X94.917 Y153.474 E38.73359
G1 X92.679 Y153.382 E38.88325
G1 X90.372 Y153.189 E39.03786
G1 X89.260 Y153.059 E39.11268
G1 X87.194 Y152.755 E39.25218
G1 X86.014 Y152.545 E39.33222
G1 X84.916 Y152.324 E39.40708
G1 X82.735 Y151.814 E39.55670
G1 X80.505 Y151.192 E39.71134
G1 X78.445 Y150.523 E39.85604
G1 X77.391 Y150.144 E39.93087
G1 X75.239 Y149.292 E40.08549
G1 X73.261 Y148.411 E40.23019
G1 X72.252 Y147.924 E40.30504
G1 X71.253 Y147.416 E40.37987
G1 X70.201 Y146.852 E40.45963
G1 X68.261 Y145.730 E40.60931
G1 X66.498 Y144.612 E40.74879
G1 X65.506 Y143.941 E40.82885
G1 X63.692 Y142.625 E40.97852
G1 X62.807 Y141.939 E41.05335
G1 X61.879 Y141.188 E41.13312
G1 X61.023 Y140.464 E41.20797
G1 X59.414 Y139.015 E41.35266
G1 X58.605 Y138.240 E41.42751
G1 X57.760 Y137.395 E41.50728
G1 X56.985 Y136.586 E41.58212
G1 X55.536 Y134.977 E41.72682
G1 X54.107 Y133.251 E41.87649
G1 X52.708 Y131.408 E42.03109
G1 X51.430 Y129.567 E42.18077
G1 X50.270 Y127.739 E42.32546
G1 X49.699 Y126.775 E42.40030
G1 X48.584 Y124.747 E42.55491
G1 X47.589 Y122.739 E42.70458
G1 X46.708 Y120.761 E42.84927
G1 X46.284 Y119.723 E42.92413
G1 X45.502 Y117.624 E43.07378
G1 X44.787 Y115.423 E43.22839
G1 X44.204 Y113.337 E43.37308
G1 X43.936 Y112.249 E43.44795
G1 X43.676 Y111.084 E43.52770
G1 X43.455 Y109.986 E43.60255
G1 X43.083 Y107.777 E43.75220
G1 X42.811 Y105.628 E43.89691
G1 X42.705 Y104.512 E43.97176
G1 X42.622 Y103.395 E44.04658
G1 X42.560 Y102.203 E44.12636
G1 X42.515 Y100.037 E44.27107
G1 X42.526 Y98.917 E44.34592
G1 X42.618 Y96.679 E44.49557
G1 X42.811 Y94.372 E44.65018
G1 X43.083 Y92.223 E44.79488
G1 X43.257 Y91.117 E44.86972
G1 X43.676 Y88.916 E45.01938
G1 X44.204 Y86.663 E45.17400
G1 X44.808 Y84.505 E45.32366
G1 X45.477 Y82.445 E45.46835
G1 X45.856 Y81.391 E45.54319
G1 X46.708 Y79.239 E45.69781
G1 X47.589 Y77.261 E45.84250
G1 X48.076 Y76.252 E45.91735
G1 X48.584 Y75.253 E45.99218
G1 X49.148 Y74.201 E46.07195
G1 X50.270 Y72.261 E46.22163
G1 X51.430 Y70.433 E46.36632
G1 X52.059 Y69.506 E46.44117
G1 X53.375 Y67.692 E46.59084
G1 X54.061 Y66.807 E46.66566
G1 X54.812 Y65.879 E46.74544
G1 X55.536 Y65.023 E46.82029
G1 X56.985 Y63.414 E46.96498
G1 X58.562 Y61.802 E47.11558
G1 X59.149 Y62.328 F30000.000
G1 F2100
G1 X60.727 Y60.846 E47.27754
G1 X61.554 Y60.116 E47.36013
G1 X63.277 Y58.691 E47.52747
G1 X65.036 Y57.357 E47.69266
G1 X66.825 Y56.113 E47.85569
G1 X67.750 Y55.512 E47.93830
G1 X69.663 Y54.354 E48.10563
G1 X71.572 Y53.304 E48.26865
G1 X72.555 Y52.803 E48.35124
G1 X74.552 Y51.863 E48.51644
G1 X76.613 Y50.996 E48.68377
G1 X78.683 Y50.227 E48.84896
G1 X80.754 Y49.554 E49.01198
G1 X81.814 Y49.246 E49.09458
G1 X83.952 Y48.696 E49.25978
G1 X86.139 Y48.231 E49.42711
G1 X88.316 Y47.864 E49.59229
G1 X90.477 Y47.591 E49.75532
G1 X91.576 Y47.487 E49.83792
G1 X93.808 Y47.346 E50.00526
G1 X95.986 Y47.301 E50.16828
G1 X97.089 Y47.312 E50.25089
G1 X99.295 Y47.404 E50.41607
G1 X101.523 Y47.591 E50.58341
G1 X103.684 Y47.864 E50.74643
G1 X104.774 Y48.036 E50.82903
G1 X106.943 Y48.449 E50.99423
G1 X109.092 Y48.953 E51.15939
G1 X111.246 Y49.554 E51.32675
G1 X113.230 Y50.198 E51.48285
G1 X114.356 Y50.601 E51.57236
G1 X116.435 Y51.424 E51.73971
G1 X118.451 Y52.322 E51.90489
G1 X120.403 Y53.291 E52.06792
G1 X121.376 Y53.812 E52.15052
G1 X123.312 Y54.930 E52.31786
G1 X125.151 Y56.098 E52.48088
G1 X126.064 Y56.718 E52.56348
G1 X127.873 Y58.032 E52.73082
G1 X129.603 Y59.404 E52.89601
G1 X130.446 Y60.116 E52.97861
G1 X132.065 Y61.574 E53.14163
G1 X133.662 Y63.138 E53.30897
G1 X134.426 Y63.935 E53.39157
G1 X135.884 Y65.554 E53.55459
G1 X137.291 Y67.255 E53.71978
G1 X138.643 Y69.036 E53.88712
G1 X139.902 Y70.849 E54.05231
G1 X141.070 Y72.688 E54.21533
G1 X141.632 Y73.638 E54.29793
G1 X142.709 Y75.597 E54.46527
G1 X143.690 Y77.575 E54.63046
G1 X144.576 Y79.565 E54.79348
G1 X144.993 Y80.587 E54.87610
G1 X145.763 Y82.655 E55.04128
G1 X146.454 Y84.782 E55.20862
G1 X147.047 Y86.908 E55.37380
G1 X147.545 Y89.029 E55.53681
G1 X147.763 Y90.111 E55.61942
G1 X148.132 Y92.287 E55.78461
G1 X148.412 Y94.506 E55.95195
G1 X148.594 Y96.677 E56.11497
G1 X148.653 Y97.779 E56.19757
G1 X148.699 Y100.014 E56.36491
G1 X148.653 Y102.221 E56.53009
G1 X148.594 Y103.323 E56.61269
G1 X148.412 Y105.494 E56.77571
G1 X148.136 Y107.684 E56.94090
G1 X147.763 Y109.889 E57.10825
G1 X147.545 Y110.971 E57.19085
G1 X147.047 Y113.092 E57.35386
G1 X146.454 Y115.218 E57.51904
G1 X145.763 Y117.344 E57.68637
G1 X145.389 Y118.383 E57.76898
G1 X144.587 Y120.408 E57.93201
G1 X143.690 Y122.425 E58.09719
G1 X142.696 Y124.428 E58.26455
G1 X141.646 Y126.337 E58.42756
G1 X141.085 Y127.287 E58.51017
G1 X139.887 Y129.175 E58.67750
G1 X138.626 Y130.988 E58.84269
G1 X137.309 Y132.723 E59.00572
G1 X136.615 Y133.581 E59.08832
G1 X135.154 Y135.273 E59.25565
G1 X134.406 Y136.086 E59.33825
G1 X132.882 Y137.642 E59.50128
G1 X131.273 Y139.154 E59.66647
G1 X129.581 Y140.615 E59.83380
G1 X128.723 Y141.309 E59.91640
G1 X126.988 Y142.626 E60.07943
G1 X125.175 Y143.887 E60.24462
G1 X123.287 Y145.085 E60.41195
G1 X122.337 Y145.646 E60.49456
G1 X120.428 Y146.696 E60.65757
G1 X118.451 Y147.678 E60.82277
G1 X116.408 Y148.587 E60.99011
