; generated by Slic3r 1.3.0 on 2020-03-06 at 18:20:20

; external perimeters extrusion width = 0.44mm (2.78mm^3/s)
; perimeters extrusion width = 0.40mm (7.14mm^3/s)
; infill extrusion width = 0.50mm (10.97mm^3/s)
; solid infill extrusion width = 0.60mm (6.68mm^3/s)
; top infill extrusion width = 0.40mm (2.14mm^3/s)

M107
M190 S80 ; set bed temperature and wait for it to be reached
M104 S200 ; set temperature
G28 ; home all axes
G1 Z5 F5000 ; lift nozzle

; Filament gcode

M109 S200 ; set temperature and wait for it to be reached
G21 ; set units to millimeters
G90 ; use absolute coordinates
M82 ; use absolute distances for extrusion
G92 E0
G1 Z0.300 F30000.000
G1 E-2.00000 F2400.00000
G92 E0
G1 X87.120 Y86.545 F30000.000
G1 E2.00000 F2400.00000
G1 F2100
G1 X88.265 Y85.535 E2.10200
G1 X88.908 Y85.037 E2.15635
G1 X89.869 Y84.370 E2.23448
G1 X91.183 Y83.593 E2.33647
G1 X92.231 Y83.071 E2.41468
G1 X92.978 Y82.748 E2.46903
G1 X94.075 Y82.341 E2.54720
G1 X95.195 Y82.004 E2.62533
G1 X96.685 Y81.671 E2.72730
G1 X97.843 Y81.499 E2.80550
G1 X98.655 Y81.423 E2.85999
G1 X100.179 Y81.375 E2.96186
G1 X101.345 Y81.423 E3.03986
G1 X102.157 Y81.499 E3.09436
G1 X103.315 Y81.671 E3.17255
G1 X104.459 Y81.915 E3.25067
G1 X105.925 Y82.341 E3.35265
G1 X106.690 Y82.617 E3.40701
G1 X107.769 Y83.071 E3.48518
G1 X109.129 Y83.764 E3.58718
G1 X110.131 Y84.370 E3.66538
G1 X110.804 Y84.827 E3.71973
G1 X112.010 Y85.763 E3.82170
G1 X112.620 Y86.301 E3.87605
G1 X113.455 Y87.120 E3.95421
G1 X114.465 Y88.265 E4.05622
G1 X115.173 Y89.196 E4.13434
G1 X115.630 Y89.869 E4.18870
G1 X116.407 Y91.183 E4.29069
G1 X116.777 Y91.908 E4.34506
G1 X117.252 Y92.978 E4.42324
G1 X117.659 Y94.075 E4.50142
G1 X117.996 Y95.195 E4.57954
G1 X118.329 Y96.685 E4.68153
G1 X118.501 Y97.843 E4.75972
G1 X118.577 Y98.654 E4.81419
G1 X118.625 Y100.179 E4.91607
G1 X118.577 Y101.346 E4.99410
G1 X118.501 Y102.158 E5.04860
G1 X118.329 Y103.315 E5.12677
G1 X118.085 Y104.459 E5.20489
G1 X117.659 Y105.925 E5.30688
G1 X117.252 Y107.022 E5.38505
G1 X116.929 Y107.769 E5.43940
G1 X116.236 Y109.129 E5.54139
G1 X115.630 Y110.131 E5.61959
G1 X115.173 Y110.804 E5.67394
G1 X114.237 Y112.010 E5.77591
G1 X113.699 Y112.620 E5.83026
G1 X112.880 Y113.455 E5.90842
G1 X111.735 Y114.465 E6.01043
G1 X111.092 Y114.963 E6.06477
G1 X110.131 Y115.630 E6.14291
G1 X108.817 Y116.407 E6.24490
G1 X107.769 Y116.929 E6.32309
G1 X107.022 Y117.252 E6.37745
G1 X105.925 Y117.659 E6.45562
G1 X104.805 Y117.996 E6.53375
G1 X103.315 Y118.329 E6.63573
G1 X102.157 Y118.501 E6.71393
G1 X101.346 Y118.577 E6.76840
G1 X99.821 Y118.625 E6.87028
G1 X98.654 Y118.577 E6.94831
G1 X97.843 Y118.501 E7.00278
G1 X96.685 Y118.329 E7.08097
G1 X95.541 Y118.085 E7.15910
G1 X94.075 Y117.659 E7.26107
G1 X93.310 Y117.383 E7.31544
G1 X92.231 Y116.929 E7.39361
G1 X90.871 Y116.236 E7.49559
G1 X89.869 Y115.630 E7.57379
G1 X89.196 Y115.173 E7.62815
G1 X87.990 Y114.237 E7.73012
G1 X87.380 Y113.699 E7.78448
G1 X86.545 Y112.880 E7.86263
G1 X85.535 Y111.735 E7.96464
G1 X84.827 Y110.804 E8.04277
G1 X84.370 Y110.131 E8.09712
G1 X83.593 Y108.817 E8.19911
G1 X83.223 Y108.092 E8.25346
G1 X82.748 Y107.022 E8.33166
G1 X82.341 Y105.925 E8.40985
G1 X82.004 Y104.805 E8.48797
G1 X81.671 Y103.315 E8.58995
G1 X81.499 Y102.157 E8.66814
G1 X81.423 Y101.345 E8.72264
G1 X81.375 Y99.821 E8.82449
G1 X81.423 Y98.655 E8.90251
G1 X81.499 Y97.842 E8.95701
G1 X81.738 Y96.335 E9.05895
G1 X81.915 Y95.541 E9.11331
G1 X82.231 Y94.414 E9.19153
G1 X82.748 Y92.978 E9.29346
G1 X83.071 Y92.231 E9.34781
G1 X83.593 Y91.183 E9.42602
G1 X84.370 Y89.869 E9.52801
G1 X84.827 Y89.196 E9.58236
G1 X85.535 Y88.265 E9.66049
G1 X86.301 Y87.380 E9.73869
G1 X87.078 Y86.587 E9.81284
G1 X87.499 Y86.924 F30000.000
G1 F2100
G1 X88.594 Y85.958 E9.91035
G1 X89.497 Y85.270 E9.98623
G1 X90.170 Y84.813 E10.04058
G1 X91.426 Y84.070 E10.13808
G1 X92.151 Y83.701 E10.19243
G1 X93.191 Y83.240 E10.26838
G1 X94.257 Y82.845 E10.34430
G1 X95.344 Y82.519 E10.42019
G1 X96.769 Y82.200 E10.51767
G1 X97.893 Y82.032 E10.59362
G1 X98.705 Y81.956 E10.64810
G1 X100.162 Y81.910 E10.74548
G1 X101.295 Y81.956 E10.82125
G1 X102.107 Y82.032 E10.87574
G1 X103.231 Y82.200 E10.95168
G1 X104.342 Y82.438 E11.02756
G1 X105.743 Y82.845 E11.12505
G1 X106.509 Y83.121 E11.17941
G1 X107.556 Y83.563 E11.25533
G1 X108.856 Y84.225 E11.35283
G1 X109.557 Y84.640 E11.40718
G1 X110.503 Y85.270 E11.48313
G1 X111.656 Y86.165 E11.58061
G1 X112.266 Y86.703 E11.63496
G1 X113.076 Y87.499 E11.71087
G1 X114.042 Y88.594 E11.80838
G1 X114.730 Y89.497 E11.88427
G1 X115.187 Y90.170 E11.93863
G1 X115.930 Y91.426 E12.03612
G1 X116.300 Y92.152 E12.09048
G1 X116.760 Y93.191 E12.16642
G1 X117.155 Y94.257 E12.24235
G1 X117.481 Y95.344 E12.31823
G1 X117.800 Y96.769 E12.41572
G1 X117.968 Y97.893 E12.49166
G1 X118.044 Y98.705 E12.54612
G1 X118.090 Y100.162 E12.64352
G1 X118.044 Y101.295 E12.71932
G1 X117.967 Y102.107 E12.77380
G1 X117.800 Y103.231 E12.84972
G1 X117.562 Y104.342 E12.92560
G1 X117.155 Y105.743 E13.02309
G1 X116.760 Y106.809 E13.09902
G1 X116.437 Y107.556 E13.15337
G1 X115.775 Y108.856 E13.25087
G1 X115.187 Y109.830 E13.32682
G1 X114.730 Y110.503 E13.38117
G1 X113.835 Y111.656 E13.47865
G1 X113.297 Y112.266 E13.53300
G1 X112.501 Y113.076 E13.60891
G1 X111.406 Y114.042 E13.70642
G1 X110.503 Y114.730 E13.78230
G1 X109.830 Y115.187 E13.83665
G1 X108.574 Y115.930 E13.93415
G1 X107.556 Y116.437 E14.01010
G1 X106.809 Y116.760 E14.06445
G1 X105.743 Y117.155 E14.14037
G1 X104.656 Y117.481 E14.21626
G1 X103.231 Y117.800 E14.31375
G1 X102.107 Y117.968 E14.38970
G1 X101.295 Y118.044 E14.44415
G1 X99.838 Y118.090 E14.54156
G1 X98.705 Y118.044 E14.61735
G1 X97.893 Y117.968 E14.67181
G1 X96.769 Y117.800 E14.74775
G1 X95.658 Y117.562 E14.82363
G1 X94.257 Y117.155 E14.92112
G1 X93.491 Y116.879 E14.97548
G1 X92.444 Y116.437 E15.05140
G1 X91.144 Y115.775 E15.14889
G1 X90.170 Y115.187 E15.22484
G1 X89.497 Y114.730 E15.27920
G1 X88.344 Y113.835 E15.37668
G1 X87.499 Y113.076 E15.45260
G1 X86.924 Y112.501 E15.50695
G1 X85.958 Y111.406 E15.60445
G1 X85.270 Y110.503 E15.68034
G1 X84.813 Y109.830 E15.73469
G1 X84.070 Y108.574 E15.83219
G1 X83.701 Y107.849 E15.88654
G1 X83.240 Y106.809 E15.96249
G1 X82.845 Y105.743 E16.03842
G1 X82.519 Y104.655 E16.11430
G1 X82.200 Y103.231 E16.21179
G1 X82.032 Y102.107 E16.28773
G1 X81.956 Y101.295 E16.34222
G1 X81.910 Y99.838 E16.43959
G1 X81.956 Y98.705 E16.51537
G1 X82.032 Y97.893 E16.56986
G1 X82.261 Y96.452 E16.66731
G1 X82.438 Y95.658 E16.72167
G1 X82.746 Y94.563 E16.79764
G1 X83.240 Y93.191 E16.89508
G1 X83.563 Y92.444 E16.94943
G1 X84.070 Y91.426 E17.02539
G1 X84.813 Y90.170 E17.12288
G1 X85.270 Y89.497 E17.17723
G1 X85.958 Y88.594 E17.25312
G1 X86.703 Y87.734 E17.32907
G1 X87.456 Y86.966 E17.40097
G1 X87.878 Y87.302 F30000.000
G1 F2100
G1 X88.922 Y86.382 E17.49399
G1 X89.799 Y85.713 E17.56763
G1 X90.471 Y85.256 E17.62198
G1 X91.670 Y84.547 E17.71498
G1 X92.657 Y84.054 E17.78868
G1 X93.403 Y83.731 E17.84303
G1 X94.438 Y83.349 E17.91671
G1 X95.494 Y83.033 E17.99035
G1 X96.852 Y82.729 E18.08334
G1 X97.943 Y82.566 E18.15704
G1 X98.755 Y82.489 E18.21150
G1 X100.145 Y82.445 E18.30440
G1 X101.245 Y82.489 E18.37794
G1 X102.057 Y82.566 E18.43241
G1 X103.147 Y82.729 E18.50611
G1 X104.225 Y82.961 E18.57975
G1 X105.562 Y83.349 E18.67274
G1 X106.328 Y83.625 E18.72710
G1 X107.343 Y84.054 E18.80077
G1 X108.584 Y84.686 E18.89378
G1 X109.284 Y85.101 E18.94813
G1 X110.201 Y85.713 E19.02183
G1 X111.301 Y86.566 E19.11482
G1 X111.912 Y87.104 E19.16917
G1 X112.698 Y87.878 E19.24283
G1 X113.618 Y88.922 E19.33585
G1 X114.287 Y89.799 E19.40949
G1 X114.744 Y90.471 E19.46385
G1 X115.453 Y91.670 E19.55684
G1 X115.822 Y92.395 E19.61121
G1 X116.269 Y93.403 E19.68489
G1 X116.651 Y94.438 E19.75858
G1 X116.967 Y95.494 E19.83221
G1 X117.271 Y96.853 E19.92521
G1 X117.434 Y97.943 E19.99890
G1 X117.511 Y98.755 E20.05335
G1 X117.555 Y100.145 E20.14627
G1 X117.511 Y101.245 E20.21983
G1 X117.434 Y102.057 E20.27430
G1 X117.271 Y103.148 E20.34797
G1 X117.039 Y104.225 E20.42161
G1 X116.651 Y105.562 E20.51461
G1 X116.269 Y106.597 E20.58828
G1 X115.946 Y107.343 E20.64264
G1 X115.314 Y108.584 E20.73564
G1 X114.744 Y109.529 E20.80934
G1 X114.287 Y110.201 E20.86369
G1 X113.434 Y111.301 E20.95668
G1 X112.896 Y111.912 E21.01103
G1 X112.122 Y112.698 E21.08469
G1 X111.078 Y113.618 E21.17771
G1 X110.201 Y114.287 E21.25135
G1 X109.529 Y114.744 E21.30570
G1 X108.330 Y115.453 E21.39870
G1 X107.343 Y115.946 E21.47240
G1 X106.597 Y116.269 E21.52675
G1 X105.562 Y116.651 E21.60043
G1 X104.506 Y116.967 E21.67407
G1 X103.148 Y117.271 E21.76706
G1 X102.057 Y117.434 E21.84076
G1 X101.245 Y117.511 E21.89521
G1 X99.855 Y117.555 E21.98813
G1 X98.755 Y117.511 E22.06169
G1 X97.943 Y117.434 E22.11613
G1 X96.853 Y117.271 E22.18983
G1 X95.775 Y117.039 E22.26347
G1 X94.438 Y116.651 E22.35646
G1 X93.672 Y116.375 E22.41082
G1 X92.657 Y115.946 E22.48449
G1 X91.416 Y115.314 E22.57749
G1 X90.471 Y114.744 E22.65119
G1 X89.799 Y114.287 E22.70555
G1 X88.699 Y113.434 E22.79854
G1 X87.878 Y112.698 E22.87220
G1 X87.302 Y112.122 E22.92655
G1 X86.382 Y111.078 E23.01957
G1 X85.883 Y110.435 E23.07391
G1 X85.256 Y109.529 E23.14756
G1 X84.547 Y108.330 E23.24056
G1 X84.178 Y107.605 E23.29491
G1 X83.731 Y106.597 E23.36861
G1 X83.349 Y105.562 E23.44230
G1 X83.033 Y104.506 E23.51594
G1 X82.729 Y103.147 E23.60893
G1 X82.566 Y102.057 E23.68262
G1 X82.489 Y101.245 E23.73709
G1 X82.445 Y99.855 E23.82999
G1 X82.489 Y98.755 E23.90354
G1 X82.566 Y97.943 E23.95801
G1 X82.783 Y96.569 E24.05097
G1 X82.961 Y95.775 E24.10533
G1 X83.260 Y94.713 E24.17904
G1 X83.731 Y93.403 E24.27200
G1 X84.054 Y92.657 E24.32635
G1 X84.547 Y91.670 E24.40005
G1 X85.256 Y90.471 E24.49305
G1 X85.713 Y89.799 E24.54740
G1 X86.382 Y88.922 E24.62105
G1 X87.104 Y88.088 E24.69475
G1 X87.835 Y87.345 E24.76440
G1 X88.256 Y87.681 F30000.000
G1 F2100
G1 X89.250 Y86.805 E24.85292
G1 X89.893 Y86.306 E24.90727
G1 X90.772 Y85.699 E24.97867
G1 X91.913 Y85.024 E25.06718
G1 X92.638 Y84.655 E25.12153
G1 X93.616 Y84.223 E25.19298
G1 X94.619 Y83.853 E25.26441
G1 X95.643 Y83.547 E25.33581
G1 X96.936 Y83.258 E25.42431
G1 X97.994 Y83.099 E25.49576
G1 X98.805 Y83.022 E25.55020
G1 X100.128 Y82.981 E25.63862
G1 X101.195 Y83.022 E25.70993
G1 X102.006 Y83.099 E25.76439
G1 X103.064 Y83.258 E25.83583
G1 X104.108 Y83.484 E25.90723
G1 X105.381 Y83.853 E25.99573
G1 X106.146 Y84.129 E26.05009
G1 X107.131 Y84.546 E26.12151
G1 X108.311 Y85.147 E26.21002
G1 X109.011 Y85.562 E26.26437
G1 X109.900 Y86.156 E26.33583
G1 X110.947 Y86.968 E26.42432
G1 X111.557 Y87.506 E26.47867
G1 X112.319 Y88.256 E26.55009
G1 X113.195 Y89.250 E26.63861
G1 X113.844 Y90.100 E26.71001
G1 X114.301 Y90.773 E26.76436
G1 X114.976 Y91.913 E26.85287
G1 X115.345 Y92.638 E26.90723
G1 X115.777 Y93.616 E26.97867
G1 X116.147 Y94.619 E27.05010
G1 X116.453 Y95.643 E27.12149
G1 X116.742 Y96.936 E27.21000
G1 X116.901 Y97.994 E27.28144
G1 X116.978 Y98.805 E27.33588
G1 X117.019 Y100.128 E27.42431
G1 X116.978 Y101.195 E27.49564
G1 X116.901 Y102.007 E27.55010
G1 X116.694 Y103.314 E27.63856
G1 X116.516 Y104.108 E27.69291
G1 X116.226 Y105.138 E27.76437
G1 X115.871 Y106.146 E27.83577
G1 X115.466 Y107.104 E27.90526
G1 X114.852 Y108.311 E27.99571
G1 X114.438 Y109.011 E28.05005
G1 X113.844 Y109.900 E28.12151
G1 X113.032 Y110.947 E28.21000
G1 X112.494 Y111.557 E28.26435
G1 X111.744 Y112.319 E28.33577
G1 X110.750 Y113.195 E28.42429
G1 X110.107 Y113.694 E28.47864
G1 X109.228 Y114.301 E28.55004
G1 X108.087 Y114.976 E28.63855
G1 X107.131 Y115.454 E28.70999
G1 X106.384 Y115.777 E28.76435
G1 X105.381 Y116.147 E28.83578
G1 X104.357 Y116.453 E28.90717
G1 X103.064 Y116.742 E28.99567
G1 X102.006 Y116.901 E29.06713
G1 X101.195 Y116.978 E29.12156
G1 X99.872 Y117.019 E29.20999
G1 X98.805 Y116.978 E29.28132
G1 X97.994 Y116.901 E29.33575
G1 X96.936 Y116.742 E29.40720
G1 X95.892 Y116.516 E29.47859
G1 X94.619 Y116.147 E29.56709
G1 X93.854 Y115.871 E29.62145
G1 X92.869 Y115.454 E29.69288
G1 X91.689 Y114.853 E29.78138
G1 X90.773 Y114.301 E29.85283
G1 X90.100 Y113.844 E29.90719
G1 X89.053 Y113.032 E29.99569
G1 X88.443 Y112.494 E30.05004
G1 X87.681 Y111.744 E30.12146
G1 X86.805 Y110.750 E30.20997
G1 X86.306 Y110.107 E30.26432
G1 X85.699 Y109.228 E30.33572
G1 X85.024 Y108.087 E30.42423
G1 X84.655 Y107.362 E30.47858
G1 X84.223 Y106.384 E30.55003
G1 X83.853 Y105.381 E30.62147
G1 X83.547 Y104.357 E30.69287
G1 X83.258 Y103.064 E30.78137
G1 X83.099 Y102.006 E30.85281
G1 X83.022 Y101.195 E30.90727
G1 X82.981 Y99.872 E30.99568
G1 X83.022 Y98.805 E31.06699
G1 X83.099 Y97.994 E31.12145
G1 X83.306 Y96.686 E31.20993
G1 X83.484 Y95.892 E31.26428
G1 X83.774 Y94.862 E31.33575
G1 X84.223 Y93.616 E31.42421
G1 X84.546 Y92.869 E31.47856
G1 X85.024 Y91.913 E31.55001
G1 X85.699 Y90.772 E31.63852
G1 X86.156 Y90.100 E31.69287
G1 X86.805 Y89.250 E31.76427
G1 X87.506 Y88.443 E31.83572
G1 X88.214 Y87.724 E31.90313
G1 X88.635 Y88.060 F30000.000
G1 F2100
G1 X89.578 Y87.228 E31.98716
G1 X90.401 Y86.599 E32.05631
G1 X91.074 Y86.142 E32.11066
G1 X92.156 Y85.502 E32.19467
G1 X93.082 Y85.038 E32.26388
G1 X93.829 Y84.715 E32.31823
G1 X94.801 Y84.357 E32.38741
G1 X95.793 Y84.062 E32.45656
G1 X97.020 Y83.787 E32.54057
G1 X98.044 Y83.632 E32.60977
G1 X98.855 Y83.556 E32.66420
G1 X100.111 Y83.516 E32.74814
G1 X101.144 Y83.556 E32.81722
G1 X101.956 Y83.632 E32.87166
G1 X102.980 Y83.787 E32.94085
G1 X103.992 Y84.006 E33.01001
G1 X105.199 Y84.357 E33.09401
G1 X105.965 Y84.633 E33.14837
G1 X106.918 Y85.038 E33.21755
G1 X108.038 Y85.609 E33.30157
G1 X108.926 Y86.142 E33.37077
G1 X109.599 Y86.599 E33.42512
G1 X110.593 Y87.370 E33.50912
G1 X111.203 Y87.908 E33.56347
G1 X111.940 Y88.635 E33.63264
G1 X112.772 Y89.578 E33.71667
G1 X113.401 Y90.401 E33.78582
G1 X113.858 Y91.074 E33.84018
G1 X114.498 Y92.156 E33.92419
G1 X114.868 Y92.881 E33.97855
G1 X115.285 Y93.829 E34.04774
G1 X115.643 Y94.801 E34.11693
G1 X115.938 Y95.793 E34.18607
G1 X116.213 Y97.020 E34.27009
G1 X116.368 Y98.044 E34.33928
G1 X116.444 Y98.855 E34.39370
G1 X116.484 Y100.111 E34.47765
G1 X116.444 Y101.145 E34.54675
G1 X116.368 Y101.956 E34.60119
G1 X116.213 Y102.980 E34.67037
G1 X115.994 Y103.992 E34.73952
G1 X115.643 Y105.199 E34.82353
G1 X115.367 Y105.965 E34.87788
G1 X114.962 Y106.918 E34.94707
G1 X114.391 Y108.038 E35.03108
G1 X113.858 Y108.926 E35.10028
G1 X113.401 Y109.599 E35.15463
G1 X112.630 Y110.593 E35.23863
G1 X112.092 Y111.203 E35.29298
G1 X111.365 Y111.940 E35.36215
G1 X110.422 Y112.772 E35.44618
G1 X109.599 Y113.401 E35.51533
G1 X108.926 Y113.858 E35.56968
G1 X107.844 Y114.498 E35.65370
G1 X106.918 Y114.962 E35.72289
G1 X106.171 Y115.285 E35.77725
G1 X105.199 Y115.643 E35.84643
G1 X104.207 Y115.938 E35.91558
G1 X102.980 Y116.213 E35.99959
G1 X101.956 Y116.368 E36.06879
G1 X101.145 Y116.444 E36.12321
G1 X99.889 Y116.484 E36.20716
G1 X98.855 Y116.444 E36.27626
G1 X98.044 Y116.368 E36.33068
G1 X97.020 Y116.213 E36.39987
G1 X96.008 Y115.994 E36.46903
G1 X94.801 Y115.643 E36.55303
G1 X94.035 Y115.367 E36.60739
G1 X93.082 Y114.962 E36.67657
G1 X91.962 Y114.392 E36.76058
G1 X91.074 Y113.858 E36.82978
G1 X90.401 Y113.401 E36.88414
G1 X89.407 Y112.630 E36.96814
G1 X88.797 Y112.092 E37.02249
G1 X88.060 Y111.365 E37.09166
G1 X87.228 Y110.422 E37.17569
G1 X86.599 Y109.599 E37.24484
G1 X86.142 Y108.926 E37.29919
G1 X85.502 Y107.844 E37.38321
G1 X85.132 Y107.119 E37.43756
G1 X84.715 Y106.171 E37.50676
G1 X84.357 Y105.199 E37.57595
G1 X84.062 Y104.207 E37.64510
G1 X83.787 Y102.980 E37.72911
G1 X83.632 Y101.956 E37.79830
G1 X83.556 Y101.144 E37.85274
G1 X83.516 Y99.889 E37.93667
G1 X83.556 Y98.855 E38.00576
G1 X83.632 Y98.044 E38.06020
G1 X83.829 Y96.802 E38.14419
G1 X84.006 Y96.008 E38.19854
G1 X84.289 Y95.012 E38.26775
G1 X84.715 Y93.829 E38.35173
G1 X85.038 Y93.082 E38.40608
G1 X85.502 Y92.156 E38.47528
G1 X86.142 Y91.074 E38.55929
G1 X86.599 Y90.401 E38.61365
G1 X87.228 Y89.578 E38.68280
G1 X87.908 Y88.797 E38.75200
G1 X88.593 Y88.102 E38.81717
G1 X89.191 Y88.616 F30000.000
G1 F2100
G1 X90.026 Y87.876 E38.90067
G1 X90.737 Y87.324 E38.96801
G1 X91.551 Y86.768 E39.04181
G1 X92.475 Y86.222 E39.12208
