; generated by Slic3r 1.3.0 on 2021-02-25 at 21:51:45

; external perimeters extrusion width = 0.44mm (2.78mm^3/s)
; perimeters extrusion width = 0.40mm (7.14mm^3/s)
; infill extrusion width = 0.50mm (10.97mm^3/s)
; solid infill extrusion width = 0.60mm (6.68mm^3/s)
; top infill extrusion width = 0.40mm (2.14mm^3/s)

M107
M190 S80 ; set bed temperature and wait for it to be reached
M104 S230 ; set temperature
G28 ; home all axes
G1 Z5 F5000 ; lift nozzle

; Filament gcode

M109 S230 ; set temperature and wait for it to be reached
G21 ; set units to millimeters
G90 ; use absolute coordinates
M82 ; use absolute distances for extrusion
G92 E0
G1 Z0.300 F30000.000
G1 E-2.00000 F2400.00000
G92 E0
G1 X68.409 Y67.417 F30000.000
G1 E2.00000 F2400.00000
G1 F2100
G1 X70.129 Y66.213 E2.14029
G1 X73.535 Y64.873 E2.38480
G1 X74.139 Y64.804 E2.42543
G1 X74.781 Y64.770 E2.46839
G1 X75.575 Y64.784 E2.52145
G1 X76.065 Y64.823 E2.55429
G1 X76.702 Y64.910 E2.59721
G1 X77.480 Y65.073 E2.65028
G1 X77.953 Y65.203 E2.68311
G1 X78.562 Y65.408 E2.72602
G1 X79.158 Y65.651 E2.76899
G1 X79.729 Y65.926 E2.81135
G1 X79.840 Y65.985 E2.81977
G1 X82.583 Y68.409 E3.06427
G1 X83.787 Y70.129 E3.20456
G1 X85.127 Y73.535 E3.44908
G1 X85.196 Y74.139 E3.48971
G1 X85.230 Y74.781 E3.53266
G1 X85.216 Y75.575 E3.58572
G1 X85.177 Y76.065 E3.61856
G1 X85.090 Y76.702 E3.66147
G1 X84.927 Y77.480 E3.71456
G1 X84.797 Y77.953 E3.74738
G1 X84.592 Y78.562 E3.79030
G1 X84.349 Y79.158 E3.83326
G1 X84.074 Y79.729 E3.87562
G1 X84.015 Y79.840 E3.88404
G1 X81.591 Y82.583 E4.12854
G1 X79.871 Y83.787 E4.26883
G1 X76.465 Y85.127 E4.51335
G1 X75.861 Y85.196 E4.55398
G1 X75.219 Y85.230 E4.59694
G1 X74.425 Y85.216 E4.64999
G1 X73.935 Y85.177 E4.68284
G1 X73.298 Y85.090 E4.72575
G1 X72.520 Y84.927 E4.77883
G1 X72.047 Y84.797 E4.81165
G1 X71.438 Y84.592 E4.85456
G1 X70.842 Y84.349 E4.89753
G1 X70.271 Y84.074 E4.93989
G1 X70.160 Y84.015 E4.94832
G1 X67.417 Y81.591 E5.19282
G1 X66.213 Y79.871 E5.33311
G1 X64.873 Y76.465 E5.57762
G1 X64.804 Y75.861 E5.61824
G1 X64.770 Y75.219 E5.66119
G1 X64.784 Y74.424 E5.71427
G1 X64.823 Y73.935 E5.74710
G1 X64.910 Y73.298 E5.79002
G1 X65.073 Y72.520 E5.84310
G1 X65.203 Y72.047 E5.87593
G1 X65.408 Y71.438 E5.91884
G1 X65.651 Y70.842 E5.96181
G1 X65.926 Y70.271 E6.00416
G1 X65.985 Y70.160 E6.01259
G1 X68.369 Y67.462 E6.25308
G1 X68.716 Y67.856 F30000.000
G1 F2100
G1 X70.436 Y66.651 E6.39337
G1 X73.609 Y65.404 E6.62114
G1 X74.180 Y65.338 E6.65956
G1 X74.789 Y65.306 E6.70026
G1 X75.549 Y65.319 E6.75108
G1 X76.006 Y65.356 E6.78167
G1 X76.609 Y65.438 E6.82235
G1 X77.354 Y65.593 E6.87317
G1 X77.795 Y65.715 E6.90375
G1 X78.372 Y65.909 E6.94442
G1 X78.937 Y66.138 E6.98513
G1 X79.478 Y66.399 E7.02528
G1 X79.589 Y66.458 E7.03371
G1 X82.144 Y68.716 E7.26146
G1 X83.349 Y70.436 E7.40175
G1 X84.596 Y73.609 E7.62952
G1 X84.662 Y74.180 E7.66794
G1 X84.694 Y74.789 E7.70865
G1 X84.681 Y75.549 E7.75946
G1 X84.644 Y76.006 E7.79006
G1 X84.562 Y76.609 E7.83072
G1 X84.407 Y77.354 E7.88156
G1 X84.285 Y77.795 E7.91213
G1 X84.091 Y78.372 E7.95280
G1 X83.862 Y78.937 E7.99352
G1 X83.601 Y79.478 E8.03366
G1 X83.542 Y79.589 E8.04209
G1 X81.284 Y82.144 E8.26985
G1 X79.564 Y83.349 E8.41014
G1 X76.391 Y84.596 E8.63791
G1 X75.820 Y84.662 E8.67633
G1 X75.211 Y84.694 E8.71704
G1 X74.451 Y84.681 E8.76784
G1 X73.994 Y84.644 E8.79844
G1 X73.391 Y84.562 E8.83911
G1 X72.646 Y84.407 E8.88994
G1 X72.205 Y84.285 E8.92051
G1 X71.628 Y84.092 E8.96118
G1 X71.063 Y83.862 E9.00190
G1 X70.522 Y83.601 E9.04205
G1 X70.411 Y83.542 E9.05047
G1 X67.856 Y81.284 E9.27823
G1 X66.651 Y79.564 E9.41852
G1 X65.404 Y76.391 E9.64628
G1 X65.338 Y75.820 E9.68471
G1 X65.306 Y75.211 E9.72541
G1 X65.319 Y74.451 E9.77624
G1 X65.356 Y73.994 E9.80681
G1 X65.438 Y73.391 E9.84749
G1 X65.593 Y72.646 E9.89832
G1 X65.715 Y72.205 E9.92890
G1 X65.908 Y71.628 E9.96956
G1 X66.138 Y71.063 E10.01029
G1 X66.399 Y70.522 E10.05043
G1 X66.458 Y70.411 E10.05886
G1 X68.676 Y67.901 E10.28260
G1 X69.023 Y68.295 F30000.000
G1 F2100
G1 X70.743 Y67.090 E10.42289
G1 X73.683 Y65.934 E10.63391
G1 X74.221 Y65.872 E10.67013
G1 X74.796 Y65.841 E10.70859
G1 X75.523 Y65.854 E10.75715
G1 X75.946 Y65.888 E10.78549
G1 X76.516 Y65.965 E10.82393
G1 X77.228 Y66.114 E10.87250
G1 X77.637 Y66.226 E10.90083
G1 X78.182 Y66.409 E10.93925
G1 X78.715 Y66.626 E10.97772
G1 X79.227 Y66.872 E11.01566
G1 X79.339 Y66.931 E11.02409
G1 X81.705 Y69.023 E11.23510
G1 X82.910 Y70.743 E11.37539
G1 X84.066 Y73.683 E11.58641
G1 X84.128 Y74.221 E11.62263
G1 X84.159 Y74.796 E11.66108
G1 X84.146 Y75.523 E11.70965
G1 X84.112 Y75.946 E11.73799
G1 X84.035 Y76.516 E11.77641
G1 X83.886 Y77.228 E11.82500
G1 X83.774 Y77.637 E11.85332
G1 X83.591 Y78.182 E11.89175
G1 X83.374 Y78.715 E11.93021
G1 X83.128 Y79.227 E11.96816
G1 X83.069 Y79.339 E11.97658
G1 X80.977 Y81.705 E12.18759
G1 X79.257 Y82.910 E12.32788
G1 X76.317 Y84.066 E12.53890
G1 X75.779 Y84.128 E12.57512
G1 X75.204 Y84.159 E12.61358
G1 X74.477 Y84.146 E12.66214
G1 X74.054 Y84.112 E12.69049
G1 X73.484 Y84.035 E12.72891
G1 X72.772 Y83.886 E12.77749
G1 X72.363 Y83.774 E12.80582
G1 X71.818 Y83.591 E12.84424
G1 X71.285 Y83.374 E12.88270
G1 X70.773 Y83.128 E12.92065
G1 X70.661 Y83.069 E12.92908
G1 X68.295 Y80.977 E13.14008
G1 X67.090 Y79.257 E13.28037
G1 X65.934 Y76.317 E13.49139
G1 X65.872 Y75.779 E13.52761
G1 X65.841 Y75.204 E13.56606
G1 X65.854 Y74.477 E13.61464
G1 X65.888 Y74.054 E13.64297
G1 X65.965 Y73.484 E13.68140
G1 X66.114 Y72.772 E13.72998
G1 X66.227 Y72.363 E13.75831
G1 X66.409 Y71.818 E13.79673
G1 X66.626 Y71.285 E13.83520
G1 X66.872 Y70.773 E13.87314
G1 X66.931 Y70.661 E13.88157
G1 X68.983 Y68.340 E14.08857
G1 X69.330 Y68.733 F30000.000
G1 F2100
G1 X71.050 Y67.529 E14.22886
G1 X73.757 Y66.465 E14.42313
G1 X74.262 Y66.406 E14.45714
G1 X74.804 Y66.377 E14.49335
G1 X75.497 Y66.389 E14.53967
G1 X76.423 Y66.493 E14.60193
G1 X77.102 Y66.634 E14.64825
G1 X77.992 Y66.910 E14.71049
G1 X78.494 Y67.114 E14.74671
G1 X78.976 Y67.346 E14.78244
G1 X79.088 Y67.405 E14.79086
G1 X81.267 Y69.330 E14.98513
G1 X82.471 Y71.050 E15.12542
G1 X83.535 Y73.757 E15.31970
G1 X83.594 Y74.263 E15.35371
G1 X83.623 Y74.804 E15.38992
G1 X83.611 Y75.497 E15.43623
G1 X83.507 Y76.423 E15.49848
G1 X83.366 Y77.102 E15.54481
G1 X83.090 Y77.992 E15.60705
G1 X82.886 Y78.494 E15.64327
G1 X82.654 Y78.976 E15.67900
G1 X82.595 Y79.088 E15.68743
G1 X80.670 Y81.267 E15.88169
G1 X78.950 Y82.471 E16.02198
G1 X76.243 Y83.535 E16.21626
G1 X75.737 Y83.594 E16.25027
G1 X75.196 Y83.623 E16.28648
G1 X74.503 Y83.611 E16.33279
G1 X73.577 Y83.507 E16.39505
G1 X72.898 Y83.365 E16.44138
G1 X72.008 Y83.090 E16.50361
G1 X71.506 Y82.886 E16.53982
G1 X71.024 Y82.654 E16.57556
G1 X70.912 Y82.595 E16.58399
G1 X68.733 Y80.670 E16.77825
G1 X67.529 Y78.950 E16.91854
G1 X66.465 Y76.243 E17.11281
G1 X66.394 Y75.586 E17.15696
G1 X66.381 Y74.655 E17.21920
G1 X66.437 Y73.963 E17.26554
G1 X66.519 Y73.428 E17.30173
G1 X66.634 Y72.898 E17.33793
G1 X66.910 Y72.008 E17.40017
G1 X67.114 Y71.506 E17.43639
G1 X67.346 Y71.024 E17.47212
G1 X67.405 Y70.912 E17.48055
G1 X69.291 Y68.778 E17.67080
G1 X69.637 Y69.172 F30000.000
G1 F2100
G1 X71.358 Y67.968 E17.81109
G1 X73.831 Y66.995 E17.98862
G1 X74.455 Y66.928 E18.03056
G1 X75.319 Y66.916 E18.08832
G1 X75.977 Y66.969 E18.13240
G1 X76.479 Y67.046 E18.16634
G1 X76.976 Y67.155 E18.20030
G1 X77.802 Y67.411 E18.25804
G1 X78.273 Y67.602 E18.29201
G1 X78.725 Y67.819 E18.32553
G1 X78.837 Y67.878 E18.33396
G1 X80.828 Y69.637 E18.51148
G1 X82.032 Y71.358 E18.65177
G1 X83.005 Y73.831 E18.82930
G1 X83.072 Y74.455 E18.87123
G1 X83.084 Y75.319 E18.92899
G1 X83.048 Y75.827 E18.96296
G1 X82.980 Y76.330 E18.99689
G1 X82.845 Y76.976 E19.04097
G1 X82.589 Y77.802 E19.09872
G1 X82.398 Y78.273 E19.13268
G1 X82.181 Y78.725 E19.16621
G1 X82.122 Y78.837 E19.17464
G1 X80.363 Y80.828 E19.35215
G1 X78.642 Y82.032 E19.49245
G1 X76.169 Y83.005 E19.66998
G1 X75.545 Y83.072 E19.71191
G1 X74.681 Y83.084 E19.76966
G1 X74.023 Y83.031 E19.81376
G1 X73.521 Y82.954 E19.84769
G1 X73.024 Y82.845 E19.88165
G1 X72.198 Y82.589 E19.93939
G1 X71.727 Y82.398 E19.97336
G1 X71.275 Y82.181 E20.00689
G1 X71.163 Y82.122 E20.01531
G1 X69.172 Y80.363 E20.19283
G1 X67.968 Y78.642 E20.33312
G1 X66.995 Y76.169 E20.51065
G1 X66.928 Y75.545 E20.55259
G1 X66.916 Y74.681 E20.61034
G1 X66.969 Y74.023 E20.65442
G1 X67.119 Y73.171 E20.71218
G1 X67.250 Y72.680 E20.74614
G1 X67.411 Y72.198 E20.78007
G1 X67.664 Y71.589 E20.82416
G1 X67.878 Y71.163 E20.85598
G1 X69.598 Y69.217 E21.02949
G1 X69.945 Y69.611 F30000.000
G1 F2100
G1 X71.665 Y68.406 E21.16978
G1 X73.905 Y67.526 E21.33056
G1 X74.496 Y67.463 E21.37029
G1 X75.293 Y67.451 E21.42356
G1 X75.917 Y67.502 E21.46539
G1 X76.703 Y67.640 E21.51866
G1 X77.161 Y67.761 E21.55036
G1 X77.611 Y67.911 E21.58205
G1 X78.190 Y68.152 E21.62389
G1 X78.586 Y68.351 E21.65350
G1 X80.389 Y69.945 E21.81428
G1 X81.594 Y71.665 E21.95457
G1 X82.474 Y73.905 E22.11535
G1 X82.537 Y74.496 E22.15508
G1 X82.549 Y75.293 E22.20834
G1 X82.498 Y75.918 E22.25018
G1 X82.360 Y76.703 E22.30344
G1 X82.239 Y77.161 E22.33514
G1 X82.089 Y77.611 E22.36683
G1 X81.848 Y78.190 E22.40868
G1 X81.649 Y78.586 E22.43829
G1 X80.055 Y80.389 E22.59906
G1 X78.335 Y81.594 E22.73935
G1 X76.095 Y82.474 E22.90014
G1 X75.504 Y82.537 E22.93986
G1 X74.707 Y82.549 E22.99313
G1 X74.082 Y82.498 E23.03497
G1 X73.297 Y82.360 E23.08823
G1 X72.839 Y82.239 E23.11993
G1 X72.389 Y82.089 E23.15162
G1 X71.810 Y81.848 E23.19347
G1 X71.414 Y81.649 E23.22308
G1 X69.611 Y80.055 E23.38385
G1 X68.406 Y78.335 E23.52414
G1 X67.526 Y76.095 E23.68492
G1 X67.463 Y75.504 E23.72465
G1 X67.451 Y74.707 E23.77791
G1 X67.502 Y74.083 E23.81975
G1 X67.640 Y73.297 E23.87301
G1 X67.761 Y72.839 E23.90472
G1 X67.911 Y72.389 E23.93640
G1 X68.152 Y71.810 E23.97824
G1 X68.351 Y71.414 E24.00786
G1 X69.905 Y69.656 E24.16463
G1 X70.252 Y70.050 F30000.000
G1 F2100
G1 X71.972 Y68.845 E24.30492
G1 X73.979 Y68.056 E24.44895
G1 X74.537 Y67.997 E24.48647
G1 X75.267 Y67.986 E24.53525
G1 X75.858 Y68.034 E24.57483
G1 X76.577 Y68.161 E24.62360
G1 X77.003 Y68.273 E24.65306
G1 X77.421 Y68.412 E24.68250
G1 X77.968 Y68.640 E24.72209
G1 X78.335 Y68.824 E24.74950
G1 X79.950 Y70.252 E24.89353
G1 X81.155 Y71.972 E25.03382
G1 X81.944 Y73.979 E25.17785
G1 X82.003 Y74.537 E25.21537
G1 X82.014 Y75.267 E25.26415
G1 X81.966 Y75.858 E25.30373
G1 X81.839 Y76.577 E25.35250
G1 X81.727 Y77.003 E25.38196
G1 X81.588 Y77.421 E25.41140
G1 X81.360 Y77.968 E25.45100
G1 X81.176 Y78.335 E25.47840
G1 X79.748 Y79.950 E25.62243
G1 X78.028 Y81.155 E25.76272
G1 X76.021 Y81.944 E25.90675
G1 X75.463 Y82.003 E25.94427
G1 X74.733 Y82.014 E25.99304
G1 X74.142 Y81.966 E26.03264
G1 X73.423 Y81.839 E26.08140
G1 X72.997 Y81.727 E26.11086
G1 X72.579 Y81.588 E26.14030
G1 X72.032 Y81.360 E26.17990
G1 X71.665 Y81.176 E26.20730
G1 X70.050 Y79.748 E26.35133
G1 X68.845 Y78.028 E26.49162
G1 X68.056 Y76.021 E26.63565
G1 X67.997 Y75.463 E26.67317
G1 X67.981 Y75.022 E26.70264
G1 X68.017 Y74.293 E26.75141
G1 X68.075 Y73.856 E26.78086
G1 X68.161 Y73.423 E26.81032
G1 X68.318 Y72.852 E26.84990
G1 X68.577 Y72.170 E26.89867
G1 X68.824 Y71.665 E26.93620
G1 X70.212 Y70.095 E27.07622
G1 X70.559 Y70.488 F30000.000
G1 F2100
G1 X72.279 Y69.284 E27.21651
G1 X74.053 Y68.587 E27.34380
G1 X74.578 Y68.531 E27.37911
G1 X74.985 Y68.517 E27.40633
G1 X75.647 Y68.549 E27.45061
G1 X76.142 Y68.619 E27.48399
G1 X76.598 Y68.717 E27.51514
G1 X77.231 Y68.913 E27.55941
G1 X77.609 Y69.065 E27.58663
G1 X78.084 Y69.297 E27.62195
G1 X79.512 Y70.559 E27.74923
G1 X80.716 Y72.279 E27.88953
G1 X81.413 Y74.053 E28.01682
G1 X81.469 Y74.578 E28.05213
G1 X81.483 Y74.985 E28.07934
G1 X81.451 Y75.647 E28.12363
G1 X81.387 Y76.109 E28.15475
G1 X81.283 Y76.598 E28.18816
G1 X81.087 Y77.231 E28.23242
G1 X80.935 Y77.609 E28.25964
G1 X80.703 Y78.084 E28.29497
G1 X79.441 Y79.512 E28.42225
G1 X77.721 Y80.716 E28.56254
G1 X75.947 Y81.413 E28.68983
G1 X75.422 Y81.469 E28.72514
G1 X74.759 Y81.479 E28.76942
G1 X74.353 Y81.451 E28.79664
G1 X73.800 Y81.371 E28.83396
G1 X73.402 Y81.283 E28.86117
G1 X72.769 Y81.087 E28.90544
G1 X72.391 Y80.935 E28.93266
G1 X71.916 Y80.703 E28.96798
G1 X70.488 Y79.441 E29.09527
G1 X69.284 Y77.721 E29.23556
G1 X68.587 Y75.947 E29.36285
G1 X68.569 Y75.823 E29.37127
G1 X68.531 Y75.422 E29.39817
G1 X68.517 Y75.015 E29.42538
G1 X68.529 Y74.608 E29.45259
G1 X68.566 Y74.202 E29.47980
G1 X68.681 Y73.549 E29.52407
G1 X68.785 Y73.155 E29.55129
G1 X68.913 Y72.769 E29.57848
G1 X69.065 Y72.391 E29.60570
G1 X69.297 Y71.916 E29.64102
G1 X70.519 Y70.533 E29.76430
G1 X70.866 Y70.927 F30000.000
G1 F2100
G1 X72.587 Y69.723 E29.90459
G1 X74.126 Y69.117 E30.01513
G1 X74.619 Y69.065 E30.04824
G1 X75.215 Y69.056 E30.08802
G1 X75.588 Y69.082 E30.11299
G1 X76.107 Y69.156 E30.14807
G1 X76.472 Y69.237 E30.17303
G1 X77.041 Y69.414 E30.21281
G1 X77.388 Y69.553 E30.23778
G1 X77.833 Y69.771 E30.27089
G1 X79.073 Y70.866 E30.38143
G1 X80.277 Y72.587 E30.52172
G1 X80.883 Y74.126 E30.63226
G1 X80.935 Y74.619 E30.66537
G1 X80.944 Y75.215 E30.70516
G1 X80.918 Y75.588 E30.73013
G1 X80.844 Y76.107 E30.76520
G1 X80.763 Y76.472 E30.79016
G1 X80.586 Y77.041 E30.82994
G1 X80.447 Y77.388 E30.85491
G1 X80.229 Y77.833 E30.88802
G1 X79.134 Y79.073 E30.99856
G1 X77.413 Y80.277 E31.13885
G1 X75.874 Y80.883 E31.24940
G1 X75.381 Y80.935 E31.28250
G1 X74.785 Y80.944 E31.32229
G1 X74.412 Y80.918 E31.34726
G1 X73.893 Y80.844 E31.38233
G1 X73.528 Y80.763 E31.40730
G1 X72.959 Y80.586 E31.44707
G1 X72.612 Y80.447 E31.47204
G1 X72.167 Y80.229 E31.50516
G1 X70.927 Y79.134 E31.61569
G1 X69.723 Y77.413 E31.75598
G1 X69.117 Y75.874 E31.86653
G1 X69.055 Y75.159 E31.91445
G1 X69.082 Y74.412 E31.96436
G1 X69.202 Y73.675 E32.01425
G1 X69.414 Y72.959 E32.06413
G1 X69.553 Y72.612 E32.08911
G1 X69.771 Y72.167 E32.12222
G1 X70.827 Y70.972 E32.22875
G1 E30.22875 F2400.00000
G92 E0
G1 X72.711 Y70.107 F30000.000
G1 E2.00000 F2400.00000
G1 F2100
G1 X74.400 Y69.873 E2.12761
G1 X75.047 Y69.838 E2.17612
G1 X75.371 Y69.851 E2.20039
G1 X75.779 Y69.897 E2.23112
G1 X76.329 Y70.012 E2.27318
G1 X76.721 Y70.133 E2.30390
G1 X77.318 Y70.387 E2.35242
G1 X78.825 Y71.185 E2.48002
G1 X78.886 Y72.171 E2.55393
G1 X78.988 Y72.316 E2.56720
G1 X79.893 Y72.711 E2.64111
G1 X80.127 Y74.400 E2.76871
G1 X80.162 Y75.047 E2.81722
G1 X80.142 Y75.457 E2.84796
G1 X80.085 Y75.880 E2.87985
G1 X79.988 Y76.329 E2.91428
G1 X79.867 Y76.721 E2.94500
G1 X79.613 Y77.318 E2.99352
G1 X78.815 Y78.825 E3.12112
G1 X77.829 Y78.886 E3.19503
G1 X77.684 Y78.988 E3.20830
G1 X77.289 Y79.893 E3.28220
G1 X75.600 Y80.127 E3.40981
G1 X74.953 Y80.162 E3.45832
G1 X74.543 Y80.142 E3.48906
G1 X74.087 Y80.080 E3.52347
G1 X73.671 Y79.988 E3.55538
G1 X73.279 Y79.867 E3.58610
G1 X72.682 Y79.613 E3.63462
G1 X71.175 Y78.815 E3.76222
G1 X71.114 Y77.829 E3.83612
G1 X71.012 Y77.684 E3.84939
G1 X70.107 Y77.289 E3.92330
G1 X69.873 Y75.600 E4.05091
G1 X69.838 Y74.953 E4.09942
G1 X69.858 Y74.543 E4.13015
G1 X69.915 Y74.120 E4.16205
G1 X70.012 Y73.671 E4.19647
G1 X70.133 Y73.279 E4.22719
G1 X70.387 Y72.682 E4.27572
G1 X71.185 Y71.175 E4.40332
G1 X72.171 Y71.114 E4.47722
G1 X72.316 Y71.012 E4.49049
G1 X72.687 Y70.162 E4.55991
G1 X73.126 Y70.655 F30000.000
G1 F2100
G1 X74.541 Y70.461 E4.66677
G1 X75.113 Y70.439 E4.70965
G1 X75.400 Y70.455 E4.73110
G1 X75.900 Y70.527 E4.76893
G1 X76.244 Y70.611 E4.79543
G1 X76.722 Y70.775 E4.83326
G1 X77.044 Y70.922 E4.85976
G1 X78.247 Y71.558 E4.96157
G1 X78.310 Y72.574 E5.03775
G1 X78.412 Y72.719 E5.05102
G1 X79.345 Y73.126 E5.12720
G1 X79.539 Y74.541 E5.23406
G1 X79.561 Y75.113 E5.27694
G1 X79.545 Y75.400 E5.29839
G1 X79.473 Y75.900 E5.33622
G1 X79.389 Y76.244 E5.36272
G1 X79.225 Y76.722 E5.40055
G1 X79.078 Y77.044 E5.42704
G1 X78.442 Y78.247 E5.52886
G1 X77.426 Y78.310 E5.60504
G1 X77.281 Y78.412 E5.61831
G1 X76.874 Y79.345 E5.69449
G1 X75.459 Y79.539 E5.80135
G1 X74.887 Y79.561 E5.84423
G1 X74.600 Y79.545 E5.86568
G1 X74.100 Y79.473 E5.90351
G1 X73.756 Y79.389 E5.93001
G1 X73.278 Y79.225 E5.96784
G1 X72.956 Y79.078 E5.99433
G1 X71.753 Y78.442 E6.09615
G1 X71.690 Y77.426 E6.17233
G1 X71.588 Y77.281 E6.18560
G1 X70.655 Y76.874 E6.26177
