; generated by Slic3r 1.3.0 on 2021-02-02 at 00:42:16

; external perimeters extrusion width = 0.44mm (2.78mm^3/s)
; perimeters extrusion width = 0.40mm (7.14mm^3/s)
; infill extrusion width = 0.50mm (10.97mm^3/s)
; solid infill extrusion width = 0.60mm (6.68mm^3/s)
; top infill extrusion width = 0.40mm (2.14mm^3/s)

M107
M190 S80 ; set bed temperature and wait for it to be reached
M104 S210 ; set temperature
G28 ; home all axes
G1 Z5 F5000 ; lift nozzle

; Filament gcode

M109 S210 ; set temperature and wait for it to be reached
G21 ; set units to millimeters
G90 ; use absolute coordinates
M82 ; use absolute distances for extrusion
G92 E0
G1 Z0.300 F30000.000
G1 E-2.00000 F2400.00000
G92 E0
G1 X54.931 Y55.348 F30000.000
G1 E2.00000 F2400.00000
G1 F2100
G1 X56.540 Y53.929 E2.14336
G1 X58.013 Y52.798 E2.26737
G1 X59.309 Y51.917 E2.37210
G1 X61.157 Y50.824 E2.51547
G1 X62.553 Y50.113 E2.62018
G1 X64.254 Y49.367 E2.74422
G1 X65.997 Y48.730 E2.86825
G1 X67.778 Y48.203 E2.99228
G1 X69.872 Y47.735 E3.13564
G1 X71.420 Y47.490 E3.24036
G1 X73.268 Y47.306 E3.36440
G1 X75.412 Y47.238 E3.50774
G1 X77.268 Y47.306 E3.63179
G1 X78.828 Y47.453 E3.73650
G1 X80.948 Y47.789 E3.87986
G1 X82.478 Y48.131 E3.98457
G1 X84.263 Y48.640 E4.10862
G1 X86.013 Y49.261 E4.23265
G1 X87.720 Y49.989 E4.35667
G1 X89.631 Y50.963 E4.49996
G1 X90.982 Y51.762 E4.60479
G1 X92.523 Y52.798 E4.72882
G1 X94.218 Y54.113 E4.87214
G1 X95.394 Y55.149 E4.97686
G1 X96.713 Y56.456 E5.10089
G1 X98.132 Y58.066 E5.24426
G1 X99.093 Y59.304 E5.34898
G1 X100.144 Y60.834 E5.47299
G1 X101.236 Y62.682 E5.61636
G1 X101.948 Y64.078 E5.72108
G1 X102.694 Y65.779 E5.84512
G1 X103.420 Y67.798 E5.98846
G1 X103.858 Y69.303 E6.09317
G1 X104.272 Y71.113 E6.21723
G1 X104.571 Y72.945 E6.34125
G1 X104.616 Y73.321 E6.36652
G1 X104.773 Y75.081 E6.48460
G1 X104.822 Y76.938 E6.60865
G1 X104.773 Y78.505 E6.71339
G1 X104.607 Y80.354 E6.83741
G1 X104.272 Y82.473 E6.98076
G1 X103.858 Y84.283 E7.10481
G1 X103.420 Y85.788 E7.20952
G1 X102.800 Y87.538 E7.33355
G1 X102.089 Y89.204 E7.45454
G1 X101.097 Y91.158 E7.60093
G1 X100.299 Y92.507 E7.70565
G1 X99.263 Y94.048 E7.82970
G1 X97.948 Y95.743 E7.97304
G1 X96.911 Y96.919 E8.07776
G1 X95.605 Y98.238 E8.20179
G1 X93.995 Y99.657 E8.34516
G1 X92.523 Y100.788 E8.46915
G1 X91.226 Y101.669 E8.57389
G1 X89.379 Y102.761 E8.71725
G1 X87.982 Y103.473 E8.82198
G1 X86.282 Y104.219 E8.94602
G1 X84.538 Y104.856 E9.07004
G1 X82.758 Y105.383 E9.19407
G1 X80.664 Y105.851 E9.33744
G1 X78.828 Y106.133 E9.46148
G1 X77.268 Y106.280 E9.56619
G1 X75.123 Y106.347 E9.70954
G1 X73.268 Y106.280 E9.83358
G1 X71.707 Y106.133 E9.93829
G1 X69.543 Y105.787 E10.08468
G1 X67.778 Y105.383 E10.20569
G1 X65.997 Y104.856 E10.32972
G1 X64.523 Y104.325 E10.43443
G1 X62.815 Y103.596 E10.55846
G1 X60.904 Y102.623 E10.70173
G1 X59.553 Y101.824 E10.80658
G1 X58.013 Y100.788 E10.93061
G1 X56.318 Y99.473 E11.07393
G1 X55.142 Y98.436 E11.17864
G1 X53.822 Y97.130 E11.30270
G1 X52.403 Y95.520 E11.44604
G1 X51.443 Y94.282 E11.55076
G1 X50.392 Y92.751 E11.67478
G1 X49.299 Y90.904 E11.81815
G1 X48.588 Y89.508 E11.92286
G1 X47.842 Y87.807 E12.04690
G1 X47.115 Y85.788 E12.19025
G1 X46.678 Y84.283 E12.29496
G1 X46.264 Y82.473 E12.41901
G1 X45.964 Y80.641 E12.54304
G1 X45.920 Y80.269 E12.56803
G1 X45.762 Y78.504 E12.68640
G1 X45.713 Y76.648 E12.81043
G1 X45.762 Y75.081 E12.91516
G1 X45.928 Y73.232 E13.03920
G1 X46.264 Y71.113 E13.18255
G1 X46.606 Y69.583 E13.28726
G1 X47.115 Y67.798 E13.41131
G1 X47.842 Y65.779 E13.55465
G1 X48.464 Y64.340 E13.65936
G1 X49.299 Y62.682 E13.78341
G1 X50.392 Y60.834 E13.92678
G1 X51.443 Y59.304 E14.05080
G1 X52.403 Y58.066 E14.15551
G1 X53.624 Y56.667 E14.27955
G1 X54.888 Y55.390 E14.39958
G1 X55.309 Y55.726 F30000.000
G1 F2100
G1 X56.869 Y54.352 E14.53844
G1 X58.314 Y53.241 E14.66021
G1 X59.610 Y52.360 E14.76493
G1 X61.400 Y51.302 E14.90382
G1 X62.796 Y50.590 E15.00853
G1 X64.466 Y49.859 E15.13032
G1 X66.179 Y49.234 E15.25210
G1 X67.927 Y48.717 E15.37388
G1 X69.956 Y48.264 E15.51275
G1 X71.504 Y48.019 E15.61746
G1 X73.318 Y47.839 E15.73926
G1 X75.395 Y47.774 E15.87811
G1 X76.962 Y47.823 E15.98283
G1 X78.778 Y47.986 E16.10462
G1 X80.875 Y48.322 E16.24652
G1 X82.608 Y48.717 E16.36528
G1 X84.357 Y49.234 E16.48706
G1 X86.069 Y49.859 E16.60884
G1 X87.508 Y50.481 E16.71355
G1 X89.359 Y51.424 E16.85235
G1 X90.709 Y52.223 E16.95717
G1 X92.222 Y53.241 E17.07895
G1 X93.864 Y54.515 E17.21778
G1 X95.040 Y55.551 E17.32250
G1 X96.334 Y56.835 E17.44429
G1 X97.709 Y58.394 E17.58316
G1 X98.670 Y59.633 E17.68788
G1 X99.701 Y61.136 E17.80965
G1 X100.759 Y62.925 E17.94853
G1 X101.471 Y64.322 E18.05324
G1 X102.202 Y65.991 E18.17503
G1 X102.906 Y67.947 E18.31389
G1 X103.343 Y69.452 E18.41860
G1 X103.749 Y71.230 E18.54040
G1 X104.074 Y73.283 E18.67926
G1 X104.238 Y75.098 E18.80103
G1 X104.287 Y76.921 E18.92283
G1 X104.238 Y78.488 E19.02756
G1 X104.074 Y80.303 E19.14934
G1 X103.749 Y82.356 E19.28820
G1 X103.407 Y83.886 E19.39291
G1 X102.906 Y85.639 E19.51471
G1 X102.296 Y87.357 E19.63649
G1 X101.598 Y88.991 E19.75523
G1 X100.636 Y90.885 E19.89714
G1 X99.838 Y92.234 E20.00185
G1 X98.820 Y93.747 E20.12365
G1 X97.546 Y95.389 E20.26251
G1 X96.509 Y96.565 E20.36722
G1 X95.226 Y97.859 E20.48901
G1 X93.667 Y99.234 E20.62788
G1 X92.222 Y100.345 E20.74963
G1 X90.925 Y101.226 E20.85437
G1 X89.136 Y102.284 E20.99324
G1 X87.739 Y102.996 E21.09796
G1 X86.069 Y103.727 E21.21975
G1 X84.357 Y104.352 E21.34153
G1 X82.609 Y104.869 E21.46331
G1 X80.580 Y105.322 E21.60218
G1 X78.778 Y105.599 E21.72398
G1 X77.218 Y105.747 E21.82869
G1 X75.140 Y105.812 E21.96755
G1 X73.318 Y105.747 E22.08933
G1 X71.758 Y105.599 E22.19405
G1 X69.660 Y105.264 E22.33595
G1 X67.927 Y104.869 E22.45471
G1 X66.179 Y104.352 E22.57649
G1 X64.704 Y103.821 E22.68120
G1 X63.028 Y103.105 E22.80299
G1 X61.177 Y102.162 E22.94177
G1 X59.826 Y101.363 E23.04660
G1 X58.314 Y100.345 E23.16839
G1 X56.672 Y99.071 E23.30722
G1 X55.310 Y97.859 E23.42902
G1 X54.201 Y96.751 E23.53374
G1 X52.827 Y95.192 E23.67259
G1 X51.866 Y93.953 E23.77731
G1 X50.835 Y92.450 E23.89908
G1 X49.776 Y90.661 E24.03796
G1 X49.065 Y89.264 E24.14267
G1 X48.333 Y87.594 E24.26446
G1 X47.629 Y85.639 E24.40332
G1 X47.192 Y84.134 E24.50803
G1 X46.786 Y82.356 E24.62983
G1 X46.493 Y80.557 E24.75162
G1 X46.453 Y80.219 E24.77436
G1 X46.298 Y78.487 E24.89048
G1 X46.249 Y76.665 E25.01226
G1 X46.298 Y75.098 E25.11699
G1 X46.461 Y73.283 E25.23878
G1 X46.787 Y71.230 E25.37764
G1 X47.128 Y69.700 E25.48235
G1 X47.629 Y67.947 E25.60415
G1 X48.333 Y65.991 E25.74300
G1 X48.956 Y64.553 E25.84771
G1 X49.776 Y62.925 E25.96951
G1 X50.835 Y61.136 E26.10839
G1 X51.716 Y59.839 E26.21309
G1 X52.827 Y58.394 E26.33487
G1 X54.026 Y57.021 E26.45667
G1 X55.267 Y55.769 E26.57444
G1 X55.688 Y56.105 F30000.000
G1 F2100
G1 X57.197 Y54.775 E26.70882
G1 X58.615 Y53.684 E26.82834
G1 X59.911 Y52.803 E26.93306
G1 X61.643 Y51.779 E27.06745
G1 X63.039 Y51.067 E27.17216
G1 X64.679 Y50.350 E27.29170
G1 X66.360 Y49.737 E27.41124
G1 X68.076 Y49.232 E27.53078
G1 X70.039 Y48.793 E27.66515
G1 X71.588 Y48.548 E27.76986
G1 X73.368 Y48.372 E27.88941
G1 X75.379 Y48.309 E28.02377
G1 X77.167 Y48.372 E28.14332
G1 X78.728 Y48.520 E28.24803
G1 X80.759 Y48.844 E28.38544
G1 X82.459 Y49.232 E28.50195
G1 X84.175 Y49.737 E28.62148
G1 X85.650 Y50.268 E28.72619
G1 X87.295 Y50.973 E28.84573
G1 X89.086 Y51.885 E28.98004
G1 X90.437 Y52.684 E29.08485
G1 X91.921 Y53.684 E29.20439
G1 X93.510 Y54.916 E29.33873
G1 X94.685 Y55.953 E29.44344
G1 X95.956 Y57.213 E29.56299
G1 X97.286 Y58.722 E29.69736
G1 X98.246 Y59.961 E29.80208
G1 X99.258 Y61.437 E29.92161
G1 X100.282 Y63.168 E30.05599
G1 X100.993 Y64.565 E30.16070
G1 X101.711 Y66.204 E30.28025
G1 X102.392 Y68.096 E30.41461
G1 X102.829 Y69.602 E30.51932
G1 X103.226 Y71.347 E30.63887
G1 X103.541 Y73.333 E30.77324
G1 X103.702 Y75.115 E30.89277
G1 X103.752 Y76.904 E31.01232
G1 X103.702 Y78.471 E31.11705
G1 X103.541 Y80.253 E31.23657
G1 X103.226 Y82.239 E31.37095
G1 X102.884 Y83.769 E31.47566
G1 X102.392 Y85.489 E31.59521
G1 X101.792 Y87.175 E31.71474
G1 X101.106 Y88.778 E31.83125
G1 X100.175 Y90.612 E31.96865
G1 X99.377 Y91.962 E32.07336
G1 X98.377 Y93.446 E32.19291
G1 X97.144 Y95.035 E32.32728
G1 X96.108 Y96.211 E32.43199
G1 X94.847 Y97.481 E32.55153
G1 X93.338 Y98.811 E32.68590
G1 X91.921 Y99.902 E32.80542
G1 X90.624 Y100.783 E32.91015
G1 X88.893 Y101.807 E33.04453
G1 X87.295 Y102.613 E33.16407
G1 X85.857 Y103.236 E33.26879
G1 X83.964 Y103.917 E33.40315
G1 X82.459 Y104.354 E33.50786
G1 X80.714 Y104.751 E33.62741
G1 X78.728 Y105.066 E33.76178
G1 X76.945 Y105.228 E33.88133
G1 X75.157 Y105.277 E34.00086
G1 X73.369 Y105.214 E34.12040
G1 X71.808 Y105.066 E34.22512
G1 X69.777 Y104.742 E34.36252
G1 X68.076 Y104.354 E34.47903
G1 X66.360 Y103.848 E34.59857
G1 X64.679 Y103.236 E34.71811
G1 X63.240 Y102.613 E34.82282
G1 X61.449 Y101.701 E34.95712
G1 X60.099 Y100.902 E35.06193
G1 X58.615 Y99.902 E35.18147
G1 X57.026 Y98.669 E35.31582
G1 X55.850 Y97.633 E35.42053
G1 X54.580 Y96.372 E35.54008
G1 X53.250 Y94.864 E35.67445
G1 X52.289 Y93.625 E35.77916
G1 X51.278 Y92.149 E35.89869
G1 X50.254 Y90.418 E36.03307
G1 X49.542 Y89.021 E36.13778
G1 X48.825 Y87.382 E36.25733
G1 X48.212 Y85.700 E36.37687
G1 X47.706 Y83.984 E36.49640
G1 X47.268 Y82.021 E36.63078
G1 X47.022 Y80.473 E36.73550
G1 X46.847 Y78.692 E36.85504
G1 X46.784 Y76.682 E36.98940
G1 X46.833 Y75.115 E37.09412
G1 X46.995 Y73.333 E37.21367
G1 X47.309 Y71.346 E37.34803
G1 X47.651 Y69.817 E37.45274
G1 X48.144 Y68.096 E37.57229
G1 X48.825 Y66.204 E37.70665
G1 X49.447 Y64.766 E37.81136
G1 X50.254 Y63.168 E37.93091
G1 X51.278 Y61.437 E38.06529
G1 X52.289 Y59.961 E38.18482
G1 X53.250 Y58.722 E38.28954
G1 X54.428 Y57.375 E38.40908
G1 X55.646 Y56.148 E38.52461
G1 X56.244 Y56.661 F30000.000
G1 F2100
G1 X57.645 Y55.423 E38.66452
G1 X58.952 Y54.409 E38.78828
G1 X60.388 Y53.430 E38.91838
G1 X61.962 Y52.499 E39.05523
G1 X63.513 Y51.711 E39.18542
G1 X65.031 Y51.055 E39.30918
G1 X66.749 Y50.436 E39.44586
G1 X68.421 Y49.953 E39.57608
G1 X70.035 Y49.592 E39.69984
G1 X71.753 Y49.317 E39.83006
G1 X73.485 Y49.151 E39.96029
G1 X75.311 Y49.094 E40.09696
G1 X76.964 Y49.145 E40.22072
G1 X78.697 Y49.307 E40.35095
G1 X80.587 Y49.612 E40.49426
G1 X82.198 Y49.975 E40.61785
G1 X83.868 Y50.463 E40.74807
G1 X85.424 Y51.023 E40.87183
G1 X87.023 Y51.711 E41.00205
G1 X88.649 Y52.540 E41.13868
G1 X90.074 Y53.383 E41.26254
G1 X91.514 Y54.358 E41.39272
G1 X92.957 Y55.478 E41.52939
G1 X94.198 Y56.571 E41.65316
G1 X95.430 Y57.800 E41.78338
G1 X96.638 Y59.170 E41.92007
G1 X97.702 Y60.547 E42.05029
G1 X98.678 Y61.987 E42.18051
G1 X99.520 Y63.411 E42.30428
G1 X100.313 Y64.960 E42.43450
G1 X101.038 Y66.636 E42.57118
G1 X101.625 Y68.274 E42.70139
G1 X102.086 Y69.862 E42.82515
G1 X102.485 Y71.645 E42.96184
G1 X102.743 Y73.278 E43.08560
G1 X102.910 Y75.011 E43.21584
G1 X102.967 Y76.837 E43.35256
G1 X102.910 Y78.575 E43.48272
G1 X102.754 Y80.222 E43.60649
G1 X102.468 Y82.026 E43.74318
G1 X102.086 Y83.723 E43.87340
G1 X101.625 Y85.311 E43.99716
G1 X101.038 Y86.949 E44.12738
G1 X100.385 Y88.466 E44.25096
G1 X99.520 Y90.175 E44.39427
G1 X98.632 Y91.672 E44.52450
G1 X97.702 Y93.039 E44.64826
G1 X96.583 Y94.482 E44.78494
G1 X95.489 Y95.723 E44.90871
G1 X94.261 Y96.955 E45.03892
G1 X92.891 Y98.163 E45.17562
G1 X91.584 Y99.177 E45.29937
G1 X90.147 Y100.157 E45.42953
G1 X88.574 Y101.087 E45.56629
G1 X87.023 Y101.874 E45.69649
G1 X85.505 Y102.531 E45.82026
G1 X83.786 Y103.150 E45.95694
G1 X82.198 Y103.611 E46.08070
G1 X80.501 Y103.994 E46.21092
G1 X78.696 Y104.279 E46.34761
G1 X76.964 Y104.440 E46.47783
G1 X75.225 Y104.492 E46.60805
G1 X73.485 Y104.435 E46.73827
G1 X71.839 Y104.279 E46.86204
G1 X70.120 Y104.010 E46.99226
G1 X68.421 Y103.633 E47.12248
G1 X66.667 Y103.123 E47.25916
G1 X65.111 Y102.563 E47.38292
G1 X63.513 Y101.874 E47.51315
G1 X61.886 Y101.046 E47.64977
G1 X60.462 Y100.203 E47.77360
G1 X59.021 Y99.228 E47.90381
G1 X57.578 Y98.108 E48.04050
G1 X56.338 Y97.014 E48.16426
G1 X55.105 Y95.786 E48.29449
G1 X53.898 Y94.416 E48.43116
G1 X52.884 Y93.109 E48.55493
G1 X51.904 Y91.672 E48.68514
G1 X50.974 Y90.099 E48.82183
G1 X50.223 Y88.626 E48.94559
G1 X49.529 Y87.030 E49.07581
G1 X48.937 Y85.394 E49.20603
G1 X48.449 Y83.723 E49.33625
G1 X48.051 Y81.941 E49.47294
G1 X47.792 Y80.307 E49.59670
G1 X47.626 Y78.575 E49.72693
G1 X47.568 Y76.749 E49.86364
G1 X47.620 Y75.097 E49.98736
G1 X47.781 Y73.364 E50.11759
G1 X48.067 Y71.560 E50.25427
G1 X48.428 Y69.946 E50.37803
G1 X48.911 Y68.274 E50.50826
G1 X49.529 Y66.556 E50.64494
G1 X50.223 Y64.960 E50.77516
G1 X50.974 Y63.486 E50.89892
G1 X51.904 Y61.914 E51.03561
G1 X52.833 Y60.547 E51.15937
G1 X53.898 Y59.170 E51.28959
G1 X55.046 Y57.863 E51.41981
G1 X56.202 Y56.703 E51.54231
G1 X56.668 Y57.085 F30000.000
G1 F2100
G1 X58.020 Y55.891 E51.67729
G1 X59.312 Y54.889 E51.79964
G1 X60.718 Y53.931 E51.92694
G1 X62.242 Y53.029 E52.05952
G1 X63.760 Y52.258 E52.18689
G1 X65.260 Y51.609 E52.30924
G1 X66.861 Y51.030 E52.43664
G1 X68.496 Y50.553 E52.56404
G1 X70.223 Y50.167 E52.69649
G1 X71.838 Y49.911 E52.81885
G1 X73.532 Y49.749 E52.94625
G1 X75.301 Y49.694 E53.07870
G1 X77.003 Y49.749 E53.20610
G1 X78.631 Y49.903 E53.32845
G1 X80.456 Y50.197 E53.46683
G1 X82.040 Y50.553 E53.58830
G1 X83.674 Y51.030 E53.71570
G1 X85.212 Y51.584 E53.83805
G1 X86.776 Y52.258 E53.96545
G1 X88.352 Y53.062 E54.09786
G1 X89.760 Y53.894 E54.22028
G1 X91.169 Y54.849 E54.34765
G1 X92.567 Y55.934 E54.48010
G1 X93.794 Y57.015 E54.60246
G1 X94.999 Y58.217 E54.72985
G1 X96.170 Y59.545 E54.86231
G1 X97.211 Y60.892 E54.98971
G1 X98.167 Y62.301 E55.11711
G1 X98.999 Y63.708 E55.23947
G1 X99.774 Y65.224 E55.36687
G1 X100.477 Y66.848 E55.49932
G1 X101.030 Y68.387 E55.62166
G1 X101.507 Y70.021 E55.74906
G1 X101.893 Y71.748 E55.88152
G1 X102.149 Y73.363 E56.00387
G1 X102.312 Y75.058 E56.13128
G1 X102.367 Y76.827 E56.26376
G1 X102.312 Y78.528 E56.39111
G1 X102.158 Y80.156 E56.51347
G1 X101.881 Y81.904 E56.64593
G1 X101.507 Y83.565 E56.77333
G1 X101.051 Y85.135 E56.89568
G1 X100.477 Y86.737 E57.02308
G1 X99.834 Y88.228 E57.14455
G1 X98.999 Y89.878 E57.28292
G1 X98.167 Y91.285 E57.40528
G1 X97.211 Y92.694 E57.53268
G1 X96.127 Y94.093 E57.66513
G1 X95.045 Y95.319 E57.78748
G1 X93.843 Y96.524 E57.91488
G1 X92.515 Y97.695 E58.04734
G1 X91.224 Y98.697 E58.16969
G1 X89.817 Y99.655 E58.29703
G1 X88.293 Y100.557 E58.42955
G1 X86.776 Y101.328 E58.55693
G1 X85.275 Y101.977 E58.67929
G1 X83.674 Y102.555 E58.80669
G1 X82.040 Y103.033 E58.93409
G1 X80.313 Y103.419 E59.06654
G1 X78.698 Y103.674 E59.18890
G1 X77.003 Y103.837 E59.31630
G1 X75.234 Y103.892 E59.44875
G1 X73.600 Y103.841 E59.57109
G1 X71.905 Y103.683 E59.69850
G1 X70.223 Y103.419 E59.82590
G1 X68.561 Y103.049 E59.95331
G1 X66.861 Y102.555 E60.08576
G1 X65.323 Y102.002 E60.20811
G1 X63.760 Y101.328 E60.33551
G1 X62.183 Y100.524 E60.46791
G1 X60.776 Y99.692 E60.59032
G1 X59.367 Y98.737 E60.71771
G1 X57.968 Y97.652 E60.85017
G1 X56.742 Y96.571 E60.97251
G1 X55.536 Y95.368 E61.09992
G1 X54.366 Y94.041 E61.23237
G1 X53.324 Y92.694 E61.35977
G1 X52.369 Y91.285 E61.48717
G1 X51.537 Y89.878 E61.60952
G1 X50.762 Y88.362 E61.73692
G1 X50.059 Y86.737 E61.86938
G1 X49.505 Y85.199 E61.99173
G1 X49.028 Y83.565 E62.11912
G1 X48.642 Y81.838 E62.25158
G1 X48.386 Y80.223 E62.37393
G1 X48.224 Y78.528 E62.50133
G1 X48.168 Y76.759 E62.63381
G1 X48.224 Y75.058 E62.76118
G1 X48.378 Y73.430 E62.88354
G1 X48.655 Y71.682 E63.01599
G1 X49.011 Y70.086 E63.13834
G1 X49.484 Y68.451 E63.26574
G1 X50.084 Y66.786 E63.39819
G1 X50.733 Y65.285 E63.52054
G1 X51.504 Y63.767 E63.64794
G1 X52.405 Y62.244 E63.78040
G1 X53.364 Y60.837 E63.90780
G1 X54.366 Y59.545 E64.03015
G1 X55.490 Y58.267 E64.15755
G1 X56.626 Y57.128 E64.27793
G1 X57.093 Y57.510 F30000.000
G1 F2100
G1 X58.395 Y56.359 E64.40797
G1 X59.672 Y55.369 E64.52891
G1 X61.047 Y54.432 E64.65342
G1 X62.523 Y53.559 E64.78174
G1 X64.007 Y52.805 E64.90630
G1 X65.490 Y52.163 E65.02724
G1 X67.102 Y51.583 E65.15546
G1 X68.654 Y51.132 E65.27639
G1 X70.278 Y50.767 E65.40098
G1 X71.922 Y50.506 E65.52556
G1 X73.580 Y50.347 E65.65014
