; generated by Slic3r 1.3.0 on 2021-02-02 at 01:45:40

; external perimeters extrusion width = 0.44mm (2.78mm^3/s)
; perimeters extrusion width = 0.40mm (7.14mm^3/s)
; infill extrusion width = 0.50mm (10.97mm^3/s)
; solid infill extrusion width = 0.60mm (6.68mm^3/s)
; top infill extrusion width = 0.40mm (2.14mm^3/s)

M107
M190 S80 ; set bed temperature and wait for it to be reached
M104 S210 ; set temperature
G28 ; home all axes
G1 Z5 F5000 ; lift nozzle

; Filament gcode

M109 S210 ; set temperature and wait for it to be reached
G21 ; set units to millimeters
G90 ; use absolute coordinates
M82 ; use absolute distances for extrusion
G92 E0
G1 Z0.300 F30000.000
G1 E-2.00000 F2400.00000
G92 E0
G1 X42.646 Y42.945 F30000.000
G1 E2.00000 F2400.00000
G1 F2100
G1 X43.965 Y41.638 E2.12403
G1 X45.141 Y40.602 E2.22875
G1 X46.836 Y39.287 E2.37207
G1 X48.377 Y38.251 E2.49611
G1 X49.728 Y37.452 E2.60095
G1 X51.638 Y36.478 E2.74422
G1 X53.346 Y35.749 E2.86825
G1 X55.096 Y35.129 E2.99228
G1 X56.601 Y34.691 E3.09699
G1 X58.411 Y34.278 E3.22103
G1 X60.530 Y33.942 E3.36439
G1 X62.091 Y33.794 E3.46910
G1 X63.946 Y33.727 E3.59315
G1 X66.091 Y33.794 E3.73650
G1 X67.939 Y33.978 E3.86053
G1 X69.771 Y34.278 E3.98457
G1 X71.301 Y34.619 E4.08928
G1 X73.086 Y35.129 E4.21333
G1 X75.105 Y35.856 E4.35667
G1 X76.806 Y36.601 E4.48071
G1 X78.202 Y37.313 E4.58542
G1 X80.049 Y38.405 E4.72880
G1 X81.346 Y39.287 E4.83353
G1 X82.818 Y40.417 E4.95753
G1 X84.428 Y41.836 E5.10090
G1 X85.536 Y42.945 E5.20560
G1 X86.771 Y44.331 E5.32964
G1 X88.086 Y46.027 E5.47299
G1 X89.122 Y47.568 E5.59704
G1 X89.920 Y48.917 E5.70176
G1 X90.894 Y50.829 E5.84511
G1 X91.623 Y52.536 E5.96914
G1 X92.154 Y54.011 E6.07385
G1 X92.681 Y55.791 E6.19788
G1 X93.085 Y57.557 E6.31889
G1 X93.431 Y59.721 E6.46528
G1 X93.596 Y61.570 E6.58930
G1 X93.646 Y63.137 E6.69404
G1 X93.578 Y65.282 E6.83739
G1 X93.431 Y66.842 E6.94210
G1 X93.149 Y68.677 E7.06614
G1 X92.681 Y70.772 E7.20950
G1 X92.154 Y72.552 E7.33353
G1 X91.517 Y74.296 E7.45756
G1 X90.894 Y75.734 E7.56228
G1 X90.060 Y77.393 E7.68632
G1 X88.967 Y79.240 E7.82969
G1 X88.086 Y80.536 E7.93439
G1 X86.955 Y82.009 E8.05842
G1 X85.536 Y83.619 E8.20178
G1 X84.217 Y84.925 E8.32581
G1 X83.041 Y85.961 E8.43053
G1 X81.346 Y87.276 E8.57385
G1 X79.805 Y88.313 E8.69789
G1 X78.454 Y89.112 E8.80274
G1 X76.544 Y90.085 E8.94599
G1 X75.105 Y90.707 E9.05071
G1 X73.362 Y91.345 E9.17474
G1 X71.301 Y91.944 E9.31810
G1 X69.487 Y92.340 E9.44213
G1 X67.652 Y92.621 E9.56618
G1 X65.802 Y92.787 E9.69022
G1 X64.236 Y92.836 E9.79493
G1 X62.046 Y92.764 E9.94131
G1 X60.243 Y92.585 E10.06232
G1 X58.411 Y92.286 E10.18634
G1 X56.881 Y91.944 E10.29106
G1 X55.096 Y91.434 E10.41510
G1 X53.077 Y90.707 E10.55845
G1 X51.376 Y89.962 E10.68249
G1 X49.980 Y89.250 E10.78720
G1 X48.133 Y88.158 E10.93057
G1 X46.836 Y87.276 E11.03530
G1 X45.364 Y86.146 E11.15931
G1 X43.754 Y84.727 E11.30267
G1 X42.646 Y83.618 E11.40739
G1 X41.411 Y82.232 E11.53142
G1 X40.096 Y80.536 E11.67477
G1 X39.060 Y78.995 E11.79881
G1 X38.262 Y77.646 E11.90353
G1 X37.288 Y75.734 E12.04689
G1 X36.665 Y74.296 E12.15160
G1 X36.028 Y72.552 E12.27563
G1 X35.501 Y70.772 E12.39966
G1 X35.097 Y69.006 E12.52066
G1 X34.751 Y66.842 E12.66705
G1 X34.586 Y64.993 E12.79109
G1 X34.536 Y63.426 E12.89582
G1 X34.604 Y61.281 E13.03916
G1 X34.751 Y59.721 E13.14388
G1 X35.033 Y57.886 E13.26791
G1 X35.501 Y55.791 E13.41128
G1 X35.938 Y54.286 E13.51599
G1 X36.559 Y52.536 E13.64002
G1 X37.411 Y50.567 E13.78338
G1 X38.122 Y49.170 E13.88809
G1 X39.060 Y47.568 E14.01213
G1 X40.266 Y45.793 E14.15548
G1 X41.411 Y44.331 E14.27952
G1 X42.605 Y42.988 E14.39955
G1 X43.025 Y43.323 F30000.000
G1 F2100
G1 X44.319 Y42.040 E14.52134
G1 X45.495 Y41.003 E14.62606
G1 X47.137 Y39.730 E14.76489
G1 X48.649 Y38.712 E14.88668
G1 X50.000 Y37.913 E14.99151
G1 X51.851 Y36.970 E15.13029
G1 X53.527 Y36.253 E15.25207
G1 X55.245 Y35.643 E15.37386
G1 X56.750 Y35.206 E15.47857
G1 X58.528 Y34.800 E15.60036
G1 X60.581 Y34.475 E15.73923
G1 X62.141 Y34.328 E15.84394
G1 X63.963 Y34.262 E15.96574
G1 X66.041 Y34.328 E16.10459
G1 X67.855 Y34.507 E16.22638
G1 X69.403 Y34.752 E16.33110
G1 X71.432 Y35.206 E16.46997
G1 X73.180 Y35.722 E16.59175
G1 X74.893 Y36.347 E16.71353
G1 X76.562 Y37.079 E16.83533
G1 X77.959 Y37.790 E16.94004
G1 X79.748 Y38.848 E17.07892
G1 X81.045 Y39.730 E17.18364
G1 X82.490 Y40.840 E17.30541
G1 X84.049 Y42.215 E17.44428
G1 X85.158 Y43.323 E17.54898
G1 X86.369 Y44.686 E17.67078
G1 X87.643 Y46.328 E17.80963
G1 X88.524 Y47.624 E17.91434
G1 X89.459 Y49.190 E18.03615
G1 X90.403 Y51.042 E18.17501
G1 X91.025 Y52.480 E18.27972
G1 X91.650 Y54.193 E18.40151
G1 X92.167 Y55.941 E18.52329
G1 X92.562 Y57.674 E18.64204
G1 X92.897 Y59.771 E18.78395
G1 X93.061 Y61.587 E18.90572
G1 X93.110 Y63.154 E19.01045
G1 X93.045 Y65.231 E19.14931
G1 X92.897 Y66.792 E19.25402
G1 X92.620 Y68.594 E19.37581
G1 X92.167 Y70.622 E19.51468
G1 X91.650 Y72.371 E19.63647
G1 X91.025 Y74.083 E19.75825
G1 X90.403 Y75.522 E19.86297
G1 X89.582 Y77.150 E19.98476
G1 X88.524 Y78.939 E20.12363
G1 X87.493 Y80.442 E20.24541
G1 X86.532 Y81.681 E20.35012
G1 X85.158 Y83.240 E20.48899
G1 X83.863 Y84.523 E20.61077
G1 X82.687 Y85.560 E20.71549
G1 X81.045 Y86.833 E20.85432
G1 X79.533 Y87.852 E20.97611
G1 X78.182 Y88.650 E21.08095
G1 X76.289 Y89.612 E21.22277
G1 X74.655 Y90.310 E21.34151
G1 X72.937 Y90.920 E21.46329
G1 X71.432 Y91.357 E21.56800
G1 X69.654 Y91.763 E21.68980
G1 X67.601 Y92.088 E21.82866
G1 X65.785 Y92.252 E21.95045
G1 X64.219 Y92.301 E22.05517
G1 X62.096 Y92.231 E22.19706
G1 X60.327 Y92.056 E22.31581
G1 X58.528 Y91.763 E22.43759
G1 X56.998 Y91.421 E22.54231
G1 X55.245 Y90.920 E22.66411
G1 X53.290 Y90.216 E22.80296
G1 X51.620 Y89.485 E22.92475
G1 X50.223 Y88.773 E23.02946
G1 X48.434 Y87.715 E23.16834
G1 X47.137 Y86.833 E23.27307
G1 X45.692 Y85.723 E23.39483
G1 X44.133 Y84.348 E23.53370
G1 X43.024 Y83.240 E23.63842
G1 X41.813 Y81.878 E23.76020
G1 X40.539 Y80.235 E23.89906
G1 X39.658 Y78.939 E24.00376
G1 X38.723 Y77.374 E24.12557
G1 X37.779 Y75.522 E24.26444
G1 X37.157 Y74.083 E24.36915
G1 X36.532 Y72.371 E24.49093
G1 X36.015 Y70.622 E24.61271
G1 X35.620 Y68.889 E24.73147
G1 X35.285 Y66.792 E24.87337
G1 X35.121 Y64.976 E24.99515
G1 X35.072 Y63.409 E25.09988
G1 X35.137 Y61.332 E25.23873
G1 X35.285 Y59.771 E25.34345
G1 X35.562 Y57.969 E25.46524
G1 X36.015 Y55.941 E25.60411
G1 X36.453 Y54.436 E25.70882
G1 X37.063 Y52.718 E25.83060
G1 X37.888 Y50.810 E25.96947
G1 X38.600 Y49.413 E26.07418
G1 X39.521 Y47.840 E26.19597
G1 X40.689 Y46.121 E26.33483
G1 X41.813 Y44.686 E26.45662
G1 X42.983 Y43.367 E26.57441
G1 X43.403 Y43.702 F30000.000
G1 F2100
G1 X44.673 Y42.442 E26.69395
G1 X45.849 Y41.405 E26.79866
G1 X47.438 Y40.173 E26.93301
G1 X48.922 Y39.173 E27.05255
G1 X50.273 Y38.374 E27.15736
G1 X52.064 Y37.461 E27.29166
G1 X53.709 Y36.757 E27.41120
G1 X55.395 Y36.158 E27.53074
G1 X56.900 Y35.720 E27.63545
G1 X58.645 Y35.323 E27.75500
G1 X60.631 Y35.008 E27.88937
G1 X62.192 Y34.861 E27.99408
G1 X63.980 Y34.798 E28.11363
G1 X65.990 Y34.861 E28.24799
G1 X67.771 Y35.036 E28.36753
G1 X69.319 Y35.281 E28.47225
G1 X71.282 Y35.720 E28.60663
G1 X72.999 Y36.226 E28.72616
G1 X74.680 Y36.839 E28.84570
G1 X76.319 Y37.556 E28.96524
G1 X77.716 Y38.267 E29.06995
G1 X79.447 Y39.291 E29.20434
G1 X80.744 Y40.173 E29.30906
G1 X82.162 Y41.264 E29.42858
G1 X83.671 Y42.594 E29.56296
G1 X84.779 Y43.702 E29.66766
G1 X85.967 Y45.040 E29.78721
G1 X87.200 Y46.629 E29.92157
G1 X88.081 Y47.925 E30.02628
G1 X88.998 Y49.462 E30.14585
G1 X89.911 Y51.254 E30.28021
G1 X90.534 Y52.693 E30.38492
G1 X91.146 Y54.374 E30.50446
G1 X91.652 Y56.090 E30.62400
G1 X92.040 Y57.791 E30.74051
G1 X92.364 Y59.822 E30.87791
G1 X92.526 Y61.604 E30.99744
G1 X92.575 Y63.171 E31.10217
G1 X92.512 Y65.181 E31.23654
G1 X92.336 Y66.962 E31.35608
G1 X92.091 Y68.510 E31.46079
G1 X91.652 Y70.473 E31.59517
G1 X91.146 Y72.189 E31.71470
G1 X90.534 Y73.870 E31.83424
G1 X89.911 Y75.309 E31.93896
G1 X89.105 Y76.906 E32.05850
G1 X88.081 Y78.638 E32.19288
G1 X87.070 Y80.114 E32.31241
G1 X86.109 Y81.352 E32.41713
G1 X84.779 Y82.861 E32.55150
G1 X83.509 Y84.121 E32.67104
G1 X82.333 Y85.158 E32.77575
G1 X80.744 Y86.390 E32.91010
G1 X79.260 Y87.391 E33.02964
G1 X77.909 Y88.189 E33.13446
G1 X76.118 Y89.102 E33.26875
G1 X74.680 Y89.724 E33.37347
G1 X72.999 Y90.337 E33.49300
G1 X71.067 Y90.898 E33.62738
G1 X69.319 Y91.282 E33.74691
G1 X67.551 Y91.555 E33.86646
G1 X65.769 Y91.716 E33.98601
G1 X64.202 Y91.765 E34.09072
G1 X62.146 Y91.698 E34.22812
G1 X60.411 Y91.527 E34.34463
G1 X58.645 Y91.240 E34.46416
G1 X56.900 Y90.843 E34.58371
G1 X55.395 Y90.406 E34.68842
G1 X53.502 Y89.724 E34.82278
G1 X51.863 Y89.007 E34.94233
G1 X50.466 Y88.296 E35.04704
G1 X48.735 Y87.272 E35.18142
G1 X47.438 Y86.391 E35.28615
G1 X46.020 Y85.300 E35.40567
G1 X44.512 Y83.969 E35.54004
G1 X43.403 Y82.861 E35.64476
G1 X42.215 Y81.523 E35.76430
G1 X40.982 Y79.934 E35.89866
G1 X39.982 Y78.450 E36.01821
G1 X39.184 Y77.101 E36.12292
G1 X38.271 Y75.309 E36.25730
G1 X37.648 Y73.870 E36.36201
G1 X37.036 Y72.189 E36.48155
G1 X36.530 Y70.473 E36.60108
G1 X36.142 Y68.772 E36.71759
G1 X35.818 Y66.741 E36.85499
G1 X35.656 Y64.959 E36.97454
G1 X35.607 Y63.392 E37.07926
G1 X35.670 Y61.382 E37.21362
G1 X35.818 Y59.822 E37.31834
G1 X36.091 Y58.053 E37.43788
G1 X36.530 Y56.090 E37.57225
G1 X37.036 Y54.374 E37.69179
G1 X37.567 Y52.899 E37.79650
G1 X38.365 Y51.053 E37.93088
G1 X39.077 Y49.657 E38.03559
G1 X39.982 Y48.113 E38.15513
G1 X41.112 Y46.449 E38.28950
G1 X42.215 Y45.040 E38.40904
G1 X43.362 Y43.746 E38.52458
G1 X43.959 Y44.258 F30000.000
G1 F2100
G1 X45.161 Y43.060 E38.65156
G1 X46.468 Y41.911 E38.78179
G1 X47.775 Y40.898 E38.90555
G1 X49.211 Y39.918 E39.03564
G1 X50.785 Y38.987 E39.17249
G1 X52.336 Y38.200 E39.30268
G1 X53.854 Y37.543 E39.42644
G1 X55.573 Y36.925 E39.56312
G1 X57.244 Y36.442 E39.69334
G1 X58.858 Y36.081 E39.81711
G1 X60.662 Y35.795 E39.95379
G1 X62.309 Y35.640 E40.07755
G1 X64.048 Y35.582 E40.20777
G1 X65.873 Y35.640 E40.34445
G1 X67.520 Y35.795 E40.46822
G1 X69.239 Y36.065 E40.59844
G1 X71.021 Y36.463 E40.73513
G1 X72.610 Y36.925 E40.85889
G1 X74.248 Y37.511 E40.98911
G1 X75.924 Y38.237 E41.12580
G1 X77.473 Y39.029 E41.25596
G1 X78.897 Y39.871 E41.37981
G1 X80.337 Y40.847 E41.50999
G1 X81.714 Y41.911 E41.64021
G1 X83.084 Y43.119 E41.77690
G1 X84.313 Y44.352 E41.90712
G1 X85.406 Y45.592 E42.03088
G1 X86.526 Y47.035 E42.16756
G1 X87.455 Y48.403 E42.29132
G1 X88.343 Y49.900 E42.42156
G1 X89.173 Y51.527 E42.55824
G1 X89.861 Y53.125 E42.68846
G1 X90.421 Y54.681 E42.81221
G1 X90.931 Y56.435 E42.94890
G1 X91.292 Y58.049 E43.07266
G1 X91.567 Y59.767 E43.20288
G1 X91.733 Y61.499 E43.33312
G1 X91.790 Y63.238 E43.46328
G1 X91.733 Y65.064 E43.60000
G1 X91.567 Y66.796 E43.73023
G1 X91.308 Y68.429 E43.85399
G1 X90.909 Y70.212 E43.99068
G1 X90.421 Y71.882 E44.12090
G1 X89.829 Y73.518 E44.25112
G1 X89.173 Y75.036 E44.37488
G1 X88.385 Y76.588 E44.50509
G1 X87.455 Y78.160 E44.64179
G1 X86.526 Y79.528 E44.76555
G1 X85.461 Y80.904 E44.89576
G1 X84.253 Y82.275 E45.03246
G1 X83.021 Y83.503 E45.16267
G1 X81.781 Y84.597 E45.28644
G1 X80.337 Y85.716 E45.42312
G1 X78.897 Y86.692 E45.55333
G1 X77.472 Y87.534 E45.67716
G1 X75.764 Y88.398 E45.82042
G1 X74.248 Y89.052 E45.94400
G1 X72.610 Y89.639 E46.07422
G1 X71.021 Y90.100 E46.19798
G1 X69.324 Y90.482 E46.32820
G1 X67.520 Y90.768 E46.46489
G1 X65.787 Y90.929 E46.59511
G1 X64.134 Y90.981 E46.71887
G1 X62.309 Y90.924 E46.85555
G1 X60.662 Y90.768 E46.97931
G1 X58.943 Y90.498 E47.10954
G1 X57.160 Y90.100 E47.24623
G1 X55.573 Y89.639 E47.36998
G1 X53.934 Y89.052 E47.50020
G1 X52.258 Y88.326 E47.63689
G1 X50.710 Y87.534 E47.76705
G1 X49.285 Y86.692 E47.89088
G1 X47.845 Y85.716 E48.02109
G1 X46.468 Y84.652 E48.15131
G1 X45.098 Y83.444 E48.28800
G1 X43.929 Y82.274 E48.41176
G1 X42.776 Y80.971 E48.54198
G1 X41.656 Y79.528 E48.67866
G1 X40.727 Y78.160 E48.80242
G1 X39.839 Y76.664 E48.93265
G1 X39.009 Y75.036 E49.06933
G1 X38.321 Y73.438 E49.19955
G1 X37.761 Y71.882 E49.32331
G1 X37.251 Y70.128 E49.45999
G1 X36.874 Y68.429 E49.59022
G1 X36.615 Y66.796 E49.71398
G1 X36.449 Y65.064 E49.84420
G1 X36.392 Y63.325 E49.97439
G1 X36.449 Y61.499 E50.11110
G1 X36.605 Y59.853 E50.23487
G1 X36.874 Y58.134 E50.36509
G1 X37.273 Y56.351 E50.50178
G1 X37.761 Y54.681 E50.63200
G1 X38.321 Y53.125 E50.75576
G1 X39.046 Y51.449 E50.89244
G1 X39.797 Y49.975 E51.01620
G1 X40.681 Y48.476 E51.14643
G1 X41.707 Y46.965 E51.28311
G1 X42.776 Y45.592 E51.41333
G1 X43.917 Y44.301 E51.54230
G1 X44.383 Y44.682 F30000.000
G1 F2100
G1 X45.565 Y43.504 E51.66717
G1 X46.843 Y42.380 E51.79457
G1 X48.135 Y41.378 E51.91692
G1 X49.541 Y40.420 E52.04422
G1 X51.066 Y39.518 E52.17680
G1 X52.583 Y38.747 E52.30418
G1 X54.084 Y38.098 E52.42653
G1 X55.749 Y37.498 E52.55898
G1 X57.319 Y37.042 E52.68133
G1 X58.980 Y36.669 E52.80873
G1 X60.728 Y36.392 E52.94118
G1 X62.356 Y36.238 E53.06353
G1 X64.057 Y36.182 E53.19093
G1 X65.826 Y36.238 E53.32338
G1 X67.521 Y36.400 E53.45079
G1 X69.136 Y36.656 E53.57314
G1 X70.863 Y37.042 E53.70559
G1 X72.433 Y37.498 E53.82794
G1 X74.036 Y38.073 E53.95534
G1 X75.660 Y38.776 E54.08781
G1 X77.175 Y39.550 E54.21515
G1 X78.583 Y40.383 E54.33758
G1 X79.992 Y41.338 E54.46495
G1 X81.339 Y42.380 E54.59235
G1 X82.666 Y43.550 E54.72480
G1 X83.822 Y44.706 E54.84715
G1 X84.950 Y45.982 E54.97455
G1 X86.035 Y47.380 E55.10700
G1 X86.954 Y48.732 E55.22935
G1 X87.822 Y50.197 E55.35676
G1 X88.626 Y51.774 E55.48921
G1 X89.300 Y53.337 E55.61661
G1 X89.854 Y54.875 E55.73896
G1 X90.347 Y56.575 E55.87141
G1 X90.704 Y58.170 E55.99377
G1 X90.973 Y59.852 E56.12116
G1 X91.135 Y61.546 E56.24858
G1 X91.190 Y63.247 E56.37593
G1 X91.135 Y65.017 E56.50841
G1 X90.981 Y66.644 E56.63077
G1 X90.717 Y68.326 E56.75817
G1 X90.331 Y70.054 E56.89063
G1 X89.874 Y71.624 E57.01298
G1 X89.300 Y73.226 E57.14037
G1 X88.597 Y74.850 E57.27283
G1 X87.822 Y76.366 E57.40023
G1 X86.990 Y77.774 E57.52258
G1 X86.035 Y79.183 E57.64998
G1 X84.993 Y80.529 E57.77738
G1 X83.822 Y81.857 E57.90984
G1 X82.617 Y83.059 E58.03723
G1 X81.391 Y84.140 E58.15959
G1 X79.992 Y85.225 E58.29204
G1 X78.583 Y86.180 E58.41943
G1 X77.175 Y87.013 E58.54184
G1 X75.526 Y87.848 E58.68017
G1 X74.036 Y88.490 E58.80164
G1 X72.433 Y89.065 E58.92903
G1 X70.863 Y89.521 E59.05139
G1 X69.202 Y89.895 E59.17879
G1 X67.454 Y90.171 E59.31125
G1 X65.826 Y90.325 E59.43359
G1 X64.125 Y90.381 E59.56100
G1 X62.356 Y90.325 E59.69344
G1 X60.728 Y90.171 E59.81580
G1 X59.046 Y89.907 E59.94320
G1 X57.319 Y89.521 E60.07566
G1 X55.749 Y89.065 E60.19800
G1 X54.147 Y88.490 E60.32540
G1 X52.522 Y87.787 E60.45786
G1 X51.007 Y87.013 E60.58521
G1 X49.599 Y86.180 E60.70761
G1 X48.190 Y85.225 E60.83500
G1 X46.843 Y84.183 E60.96241
G1 X45.516 Y83.013 E61.09486
G1 X44.360 Y81.857 E61.21721
G1 X43.232 Y80.581 E61.34461
G1 X42.147 Y79.183 E61.47706
G1 X41.228 Y77.831 E61.59941
G1 X40.360 Y76.366 E61.72682
G1 X39.556 Y74.789 E61.85927
G1 X38.882 Y73.226 E61.98667
G1 X38.328 Y71.688 E62.10902
G1 X37.835 Y69.988 E62.24147
G1 X37.465 Y68.326 E62.36887
G1 X37.210 Y66.711 E62.49123
G1 X37.047 Y65.017 E62.61863
G1 X36.992 Y63.316 E62.74600
G1 X37.047 Y61.546 E62.87848
G1 X37.201 Y59.919 E63.00083
G1 X37.465 Y58.237 E63.12823
G1 X37.851 Y56.509 E63.26069
G1 X38.328 Y54.875 E63.38809
G1 X38.882 Y53.337 E63.51044
G1 X39.585 Y51.713 E63.64289
G1 X40.327 Y50.256 E63.76524
G1 X41.192 Y48.789 E63.89264
G1 X42.187 Y47.326 E64.02509
G1 X43.232 Y45.982 E64.15249
G1 X44.342 Y44.725 E64.27794
G1 X44.808 Y45.107 F30000.000
G1 F2100
G1 X45.969 Y43.948 E64.40069
G1 X47.218 Y42.848 E64.52527
G1 X48.495 Y41.857 E64.64621
G1 X49.871 Y40.921 E64.77072
G1 X51.346 Y40.048 E64.89904
G1 X52.830 Y39.294 E65.02360
G1 X54.313 Y38.652 E65.14454
G1 X55.925 Y38.072 E65.27276
G1 X57.477 Y37.621 E65.39369
G1 X59.102 Y37.256 E65.51828
G1 X60.794 Y36.988 E65.64650
G1 X62.403 Y36.836 E65.76744
G1 X64.067 Y36.782 E65.89202
G1 X65.779 Y36.836 E66.02024
G1 X67.436 Y36.994 E66.14482
G1 X69.033 Y37.247 E66.26576
G1 X70.705 Y37.621 E66.39398
G1 X72.303 Y38.087 E66.51856
G1 X73.869 Y38.652 E66.64314
G1 X75.352 Y39.294 E66.76408
