; generated by Slic3r 1.3.0 on 2021-02-02 at 00:00:05

; external perimeters extrusion width = 0.44mm (2.78mm^3/s)
; perimeters extrusion width = 0.40mm (7.14mm^3/s)
; infill extrusion width = 0.50mm (10.97mm^3/s)
; solid infill extrusion width = 0.60mm (6.68mm^3/s)
; top infill extrusion width = 0.40mm (2.14mm^3/s)

M107
M190 S80 ; set bed temperature and wait for it to be reached
M104 S210 ; set temperature
G28 ; home all axes
G1 Z5 F5000 ; lift nozzle

; Filament gcode

M109 S210 ; set temperature and wait for it to be reached
G21 ; set units to millimeters
G90 ; use absolute coordinates
M82 ; use absolute distances for extrusion
G92 E0
G1 Z0.300 F30000.000
G1 E-2.00000 F2400.00000
G92 E0
G1 X32.825 Y45.732 F30000.000
G1 E2.00000 F2400.00000
G1 F2100
G1 X34.362 Y44.698 E2.12375
G1 X35.717 Y43.896 E2.22893
G1 X37.627 Y42.923 E2.37214
G1 X39.335 Y42.194 E2.49616
G1 X40.809 Y41.663 E2.60088
G1 X42.897 Y41.058 E2.74608
G1 X44.684 Y40.668 E2.86827
G1 X46.519 Y40.387 E2.99231
G1 X48.369 Y40.221 E3.11634
G1 X49.935 Y40.172 E3.22106
G1 X52.080 Y40.239 E3.36441
G1 X53.928 Y40.423 E3.48844
G1 X55.476 Y40.668 E3.59317
G1 X57.570 Y41.136 E3.73652
G1 X59.350 Y41.663 E3.86055
G1 X60.825 Y42.194 E3.96527
G1 X62.794 Y43.046 E4.10861
G1 X64.436 Y43.892 E4.23202
G1 X65.798 Y44.698 E4.33771
G1 X67.335 Y45.732 E4.46143
G1 X68.807 Y46.862 E4.58545
G1 X70.417 Y48.281 E4.72881
G1 X71.525 Y49.390 E4.83353
G1 X72.760 Y50.776 E4.95757
G1 X74.075 Y52.472 E5.10091
G1 X74.956 Y53.768 E5.20562
G1 X75.909 Y55.362 E5.32967
G1 X76.883 Y57.274 E5.47303
G1 X77.612 Y58.981 E5.59706
G1 X78.143 Y60.456 E5.70177
G1 X78.742 Y62.517 E5.84513
G1 X79.138 Y64.331 E5.96916
G1 X79.383 Y65.879 E6.07387
G1 X79.587 Y68.054 E6.21982
G1 X79.635 Y69.871 E6.34124
G1 X79.567 Y71.727 E6.46531
G1 X79.420 Y73.287 E6.57002
G1 X79.138 Y75.123 E6.69406
G1 X78.670 Y77.217 E6.83742
G1 X78.143 Y78.997 E6.96145
G1 X77.612 Y80.472 E7.06617
G1 X76.760 Y82.441 E7.20952
G1 X75.909 Y84.091 E7.33355
G1 X75.111 Y85.441 E7.43829
G1 X74.075 Y86.981 E7.56231
G1 X72.944 Y88.454 E7.68634
G1 X71.525 Y90.064 E7.82970
G1 X70.417 Y91.172 E7.93441
G1 X69.030 Y92.407 E8.05845
G1 X67.335 Y93.722 E8.20179
G1 X65.796 Y94.757 E8.32568
G1 X64.444 Y95.556 E8.43065
G1 X62.533 Y96.530 E8.57390
G1 X60.825 Y97.259 E8.69794
G1 X59.350 Y97.790 E8.80266
G1 X57.263 Y98.395 E8.94787
G1 X55.476 Y98.785 E9.07004
G1 X53.641 Y99.066 E9.19408
G1 X52.080 Y99.214 E9.29880
G1 X50.225 Y99.281 E9.42284
G1 X48.080 Y99.214 E9.56620
G1 X46.232 Y99.030 E9.69024
G1 X44.684 Y98.785 E9.79495
G1 X42.590 Y98.317 E9.93831
G1 X41.085 Y97.879 E10.04302
G1 X39.335 Y97.259 E10.16705
G1 X37.366 Y96.407 E10.31039
G1 X35.717 Y95.557 E10.43430
G1 X34.363 Y94.756 E10.53942
G1 X32.825 Y93.722 E10.66322
G1 X31.353 Y92.591 E10.78723
G1 X29.743 Y91.172 E10.93059
G1 X28.635 Y90.064 E11.03530
G1 X27.400 Y88.677 E11.15934
G1 X26.085 Y86.981 E11.30269
G1 X25.204 Y85.685 E11.40742
G1 X24.251 Y84.091 E11.53145
G1 X23.277 Y82.179 E11.67481
G1 X22.654 Y80.741 E11.77953
G1 X22.017 Y78.997 E11.90356
G1 X21.418 Y76.936 E12.04691
G1 X21.076 Y75.407 E12.15162
G1 X20.777 Y73.574 E12.27567
G1 X20.573 Y71.399 E12.42160
G1 X20.525 Y69.582 E12.54302
G1 X20.593 Y67.726 E12.66709
G1 X20.740 Y66.166 E12.77180
G1 X21.022 Y64.331 E12.89584
G1 X21.490 Y62.236 E13.03920
G1 X21.927 Y60.731 E13.14391
G1 X22.548 Y58.981 E13.26794
G1 X23.400 Y57.012 E13.41131
G1 X24.111 Y55.615 E13.51602
G1 X25.049 Y54.012 E13.64007
G1 X26.255 Y52.238 E13.78340
G1 X27.216 Y50.999 E13.88812
G1 X28.437 Y49.601 E14.01216
G1 X29.954 Y48.083 E14.15551
G1 X31.353 Y46.862 E14.27955
G1 X32.776 Y45.767 E14.39956
G1 X33.126 Y46.175 F30000.000
G1 F2100
G1 X34.635 Y45.158 E14.52109
G1 X35.990 Y44.357 E14.62622
G1 X37.840 Y43.415 E14.76495
G1 X39.516 Y42.698 E14.88673
G1 X40.991 Y42.167 E14.99145
G1 X43.014 Y41.581 E15.13216
G1 X44.768 Y41.197 E15.25210
G1 X46.570 Y40.920 E15.37389
G1 X48.385 Y40.757 E15.49567
G1 X49.952 Y40.707 E15.60039
G1 X52.030 Y40.773 E15.73925
G1 X53.844 Y40.952 E15.86104
G1 X55.392 Y41.197 E15.96576
G1 X57.421 Y41.651 E16.10461
G1 X59.169 Y42.167 E16.22640
G1 X60.644 Y42.698 E16.33112
G1 X62.551 Y43.524 E16.46997
G1 X64.165 Y44.354 E16.59120
G1 X65.525 Y45.159 E16.69678
G1 X67.034 Y46.175 E16.81829
G1 X68.479 Y47.285 E16.94007
G1 X70.038 Y48.660 E17.07893
G1 X71.147 Y49.768 E17.18365
G1 X72.358 Y51.131 E17.30544
G1 X73.632 Y52.773 E17.44429
G1 X74.650 Y54.285 E17.56609
G1 X75.448 Y55.634 E17.67080
G1 X76.392 Y57.487 E17.80967
G1 X77.108 Y59.163 E17.93146
G1 X77.639 Y60.638 E18.03617
G1 X78.219 Y62.634 E18.17503
G1 X78.561 Y64.163 E18.27974
G1 X78.854 Y65.963 E18.40153
G1 X79.050 Y68.032 E18.54037
G1 X79.099 Y69.599 E18.64514
G1 X79.050 Y71.422 E18.76693
G1 X78.886 Y73.237 E18.88869
G1 X78.609 Y75.039 E19.01049
G1 X78.156 Y77.067 E19.14935
G1 X77.718 Y78.572 E19.25406
G1 X77.108 Y80.291 E19.37585
G1 X76.283 Y82.198 E19.51471
G1 X75.448 Y83.819 E19.63649
G1 X74.650 Y85.168 E19.74123
G1 X73.632 Y86.680 E19.86301
G1 X72.521 Y88.126 E19.98479
G1 X71.147 Y89.685 E20.12366
G1 X70.038 Y90.793 E20.22836
G1 X68.676 Y92.005 E20.35016
G1 X67.034 Y93.279 E20.48900
G1 X65.523 Y94.296 E20.61066
G1 X64.171 Y95.095 E20.71561
G1 X62.320 Y96.038 E20.85438
G1 X60.644 Y96.755 E20.97616
G1 X59.169 Y97.286 E21.08089
G1 X57.146 Y97.872 E21.22160
G1 X55.392 Y98.256 E21.34153
G1 X53.590 Y98.533 E21.46332
G1 X51.774 Y98.697 E21.58512
G1 X50.208 Y98.746 E21.68983
G1 X48.130 Y98.681 E21.82869
G1 X46.316 Y98.501 E21.95049
G1 X44.768 Y98.256 E22.05520
G1 X42.739 Y97.802 E22.19406
G1 X41.234 Y97.365 E22.29878
G1 X39.516 Y96.755 E22.42056
G1 X37.609 Y95.930 E22.55941
G1 X35.990 Y95.096 E22.68108
G1 X34.636 Y94.295 E22.78616
G1 X33.126 Y93.279 E22.90774
G1 X31.681 Y92.168 E23.02951
G1 X30.122 Y90.793 E23.16837
G1 X29.013 Y89.685 E23.27308
G1 X27.802 Y88.323 E23.39488
G1 X26.528 Y86.680 E23.53373
G1 X25.647 Y85.384 E23.63845
G1 X24.712 Y83.819 E23.76024
G1 X23.768 Y81.967 E23.89911
G1 X23.146 Y80.528 E24.00383
G1 X22.521 Y78.816 E24.12561
G1 X21.941 Y76.819 E24.26447
G1 X21.599 Y75.290 E24.36918
G1 X21.306 Y73.490 E24.49098
G1 X21.109 Y71.382 E24.63243
G1 X21.061 Y69.599 E24.75160
G1 X21.126 Y67.777 E24.87341
G1 X21.274 Y66.216 E24.97812
G1 X21.551 Y64.415 E25.09991
G1 X22.004 Y62.386 E25.23878
G1 X22.442 Y60.881 E25.34349
G1 X23.052 Y59.163 E25.46528
G1 X23.877 Y57.255 E25.60415
G1 X24.589 Y55.858 E25.70886
G1 X25.510 Y54.285 E25.83066
G1 X26.678 Y52.566 E25.96951
G1 X27.639 Y51.328 E26.07422
G1 X28.838 Y49.955 E26.19602
G1 X30.308 Y48.485 E26.33487
G1 X31.681 Y47.285 E26.45667
G1 X33.078 Y46.210 E26.57443
G1 X33.427 Y46.618 F30000.000
G1 F2100
G1 X34.908 Y45.619 E26.69375
G1 X36.262 Y44.819 E26.79882
G1 X38.053 Y43.906 E26.93308
G1 X39.698 Y43.202 E27.05261
G1 X41.172 Y42.671 E27.15732
G1 X43.131 Y42.104 E27.29355
G1 X44.852 Y41.726 E27.41123
G1 X46.620 Y41.453 E27.53078
G1 X48.402 Y41.292 E27.65032
G1 X49.969 Y41.243 E27.75504
G1 X51.979 Y41.306 E27.88940
G1 X53.760 Y41.481 E28.00894
G1 X55.308 Y41.726 E28.11366
G1 X57.271 Y42.165 E28.24803
G1 X58.988 Y42.671 E28.36757
G1 X60.462 Y43.202 E28.47228
G1 X62.308 Y44.001 E28.60664
G1 X63.893 Y44.816 E28.72570
G1 X65.252 Y45.619 E28.83117
G1 X66.733 Y46.618 E28.95047
G1 X68.151 Y47.709 E29.06999
G1 X69.659 Y49.039 E29.20437
G1 X70.768 Y50.147 E29.30909
G1 X71.956 Y51.485 E29.42863
G1 X73.189 Y53.074 E29.56299
G1 X74.070 Y54.370 E29.66769
G1 X74.987 Y55.907 E29.78725
G1 X75.900 Y57.699 E29.92162
G1 X76.523 Y59.138 E30.02633
G1 X77.135 Y60.819 E30.14587
G1 X77.697 Y62.751 E30.28024
G1 X78.039 Y64.280 E30.38496
G1 X78.325 Y66.046 E30.50449
G1 X78.516 Y68.088 E30.64145
G1 X78.564 Y69.837 E30.75838
G1 X78.501 Y71.626 E30.87795
G1 X78.353 Y73.186 E30.98266
G1 X78.080 Y74.955 E31.10221
G1 X77.641 Y76.918 E31.23658
G1 X77.204 Y78.423 E31.34129
G1 X76.604 Y80.109 E31.46084
G1 X75.806 Y81.955 E31.59520
G1 X74.987 Y83.546 E31.71474
G1 X74.189 Y84.895 E31.81947
G1 X73.189 Y86.379 E31.93900
G1 X72.098 Y87.797 E32.05854
G1 X70.768 Y89.306 E32.19291
G1 X69.659 Y90.414 E32.29762
G1 X68.322 Y91.603 E32.41717
G1 X66.733 Y92.836 E32.55152
G1 X65.250 Y93.835 E32.67095
G1 X63.899 Y94.634 E32.77586
G1 X62.107 Y95.547 E32.91015
G1 X60.462 Y96.251 E33.02969
G1 X58.988 Y96.782 E33.13442
G1 X57.029 Y97.349 E33.27065
G1 X55.308 Y97.727 E33.38832
G1 X53.540 Y98.000 E33.50786
G1 X51.758 Y98.161 E33.62742
G1 X50.191 Y98.210 E33.73213
G1 X48.181 Y98.147 E33.86649
G1 X46.400 Y97.972 E33.98604
G1 X44.852 Y97.727 E34.09075
G1 X42.889 Y97.288 E34.22512
G1 X41.384 Y96.851 E34.32984
G1 X39.698 Y96.251 E34.44937
G1 X37.852 Y95.452 E34.58373
G1 X36.262 Y94.635 E34.70317
G1 X34.909 Y93.834 E34.80820
G1 X33.427 Y92.836 E34.92756
G1 X32.009 Y91.745 E35.04708
G1 X30.500 Y90.414 E35.18146
G1 X29.392 Y89.306 E35.28616
G1 X28.204 Y87.968 E35.40571
G1 X26.971 Y86.379 E35.54007
G1 X26.090 Y85.083 E35.64480
G1 X25.173 Y83.546 E35.76434
G1 X24.260 Y81.754 E35.89871
G1 X23.637 Y80.315 E36.00343
G1 X23.025 Y78.634 E36.12297
G1 X22.463 Y76.703 E36.25733
G1 X22.080 Y74.955 E36.37687
G1 X21.835 Y73.407 E36.48159
G1 X21.645 Y71.389 E36.61697
G1 X21.596 Y69.616 E36.73548
G1 X21.645 Y68.046 E36.84039
G1 X21.807 Y66.267 E36.95975
G1 X22.080 Y64.498 E37.07930
G1 X22.519 Y62.535 E37.21367
G1 X22.956 Y61.030 E37.31838
G1 X23.555 Y59.344 E37.43792
G1 X24.354 Y57.498 E37.57230
G1 X25.066 Y56.102 E37.67701
G1 X25.971 Y54.558 E37.79656
G1 X27.101 Y52.894 E37.93092
G1 X28.062 Y51.656 E38.03563
G1 X29.240 Y50.309 E38.15518
G1 X30.662 Y48.887 E38.28954
G1 X32.009 Y47.709 E38.40909
G1 X33.379 Y46.653 E38.52460
G1 X33.869 Y47.268 F30000.000
G1 F2100
G1 X35.273 Y46.317 E38.65145
G1 X36.774 Y45.432 E38.78185
G1 X38.325 Y44.645 E38.91205
G1 X39.843 Y43.988 E39.03582
G1 X41.561 Y43.370 E39.17250
G1 X43.233 Y42.887 E39.30271
G1 X44.847 Y42.526 E39.42648
G1 X46.651 Y42.240 E39.56317
G1 X48.384 Y42.079 E39.69339
G1 X50.037 Y42.027 E39.81715
G1 X51.862 Y42.085 E39.95383
G1 X53.594 Y42.251 E40.08405
G1 X55.228 Y42.510 E40.20782
G1 X57.010 Y42.908 E40.34450
G1 X58.681 Y43.396 E40.47472
G1 X60.237 Y43.956 E40.59848
G1 X61.913 Y44.682 E40.73519
G1 X63.458 Y45.472 E40.86506
G1 X64.888 Y46.317 E40.98932
G1 X66.326 Y47.292 E41.11938
G1 X67.703 Y48.356 E41.24959
G1 X69.073 Y49.564 E41.38628
G1 X70.242 Y50.734 E41.51004
G1 X71.395 Y52.037 E41.64027
G1 X72.515 Y53.480 E41.77694
G1 X73.444 Y54.848 E41.90069
G1 X74.332 Y56.344 E42.03092
G1 X75.162 Y57.972 E42.16761
G1 X75.850 Y59.570 E42.29783
G1 X76.410 Y61.126 E42.42159
G1 X76.920 Y62.880 E42.55827
G1 X77.297 Y64.579 E42.68849
G1 X77.556 Y66.212 E42.81226
G1 X77.722 Y67.944 E42.94247
G1 X77.779 Y69.682 E43.07263
G1 X77.722 Y71.509 E43.20939
G1 X77.556 Y73.241 E43.33961
G1 X77.297 Y74.875 E43.46337
G1 X76.898 Y76.657 E43.60006
G1 X76.410 Y78.327 E43.73028
G1 X75.850 Y79.883 E43.85404
G1 X75.125 Y81.559 E43.99072
G1 X74.374 Y83.033 E44.11448
G1 X73.490 Y84.532 E44.24472
G1 X72.515 Y85.973 E44.37493
G1 X71.450 Y87.350 E44.50515
G1 X70.242 Y88.720 E44.64183
G1 X69.073 Y89.889 E44.76559
G1 X67.769 Y91.042 E44.89581
G1 X66.326 Y92.161 E45.03249
G1 X64.887 Y93.136 E45.16263
G1 X63.467 Y93.976 E45.28607
G1 X61.835 Y94.808 E45.42316
G1 X60.237 Y95.497 E45.55338
G1 X58.681 Y96.057 E45.67715
G1 X56.857 Y96.582 E45.81913
G1 X55.228 Y96.943 E45.94404
G1 X53.509 Y97.213 E46.07426
G1 X51.862 Y97.369 E46.19803
G1 X50.123 Y97.426 E46.32825
G1 X48.298 Y97.369 E46.46494
G1 X46.651 Y97.213 E46.58869
G1 X44.932 Y96.943 E46.71892
G1 X43.150 Y96.545 E46.85560
G1 X41.561 Y96.084 E46.97937
G1 X39.923 Y95.497 E47.10958
G1 X38.569 Y94.914 E47.21992
G1 X38.471 Y94.887 E47.22751
G1 X36.773 Y94.020 E47.37017
G1 X35.273 Y93.136 E47.50051
G1 X33.834 Y92.161 E47.63061
G1 X32.457 Y91.097 E47.76082
G1 X31.087 Y89.889 E47.89750
G1 X29.858 Y88.657 E48.02772
G1 X28.765 Y87.416 E48.15148
G1 X27.645 Y85.973 E48.28816
G1 X26.716 Y84.605 E48.41193
G1 X25.828 Y83.109 E48.54215
G1 X24.998 Y81.481 E48.67884
G1 X24.342 Y79.963 E48.80260
G1 X23.750 Y78.327 E48.93282
G1 X23.240 Y76.573 E49.06950
G1 X22.879 Y74.959 E49.19326
G1 X22.604 Y73.241 E49.32349
G1 X22.430 Y71.341 E49.46628
G1 X22.381 Y69.683 E49.59041
G1 X22.438 Y67.944 E49.72064
G1 X22.594 Y66.298 E49.84436
G1 X22.863 Y64.579 E49.97458
G1 X23.262 Y62.796 E50.11127
G1 X23.750 Y61.126 E50.24149
G1 X24.310 Y59.570 E50.36525
G1 X25.035 Y57.894 E50.50194
G1 X25.786 Y56.420 E50.62570
G1 X26.670 Y54.921 E50.75593
G1 X27.696 Y53.410 E50.89260
G1 X28.710 Y52.104 E51.01636
G1 X29.858 Y50.797 E51.14659
G1 X31.150 Y49.505 E51.28326
G1 X32.457 Y48.356 E51.41349
G1 X33.820 Y47.302 E51.54244
G1 X34.206 Y47.764 F30000.000
G1 F2100
G1 X35.586 Y46.829 E51.66720
G1 X37.055 Y45.963 E51.79475
G1 X38.572 Y45.192 E51.92213
G1 X40.073 Y44.543 E52.04448
G1 X41.738 Y43.943 E52.17693
G1 X43.373 Y43.470 E52.30433
G1 X44.969 Y43.114 E52.42669
G1 X46.717 Y42.837 E52.55914
G1 X48.412 Y42.679 E52.68654
G1 X50.046 Y42.627 E52.80889
G1 X51.815 Y42.683 E52.94134
G1 X53.510 Y42.845 E53.06874
G1 X55.125 Y43.101 E53.19109
G1 X56.852 Y43.487 E53.32354
G1 X58.486 Y43.964 E53.45094
G1 X60.024 Y44.518 E53.57329
G1 X61.649 Y45.221 E53.70576
G1 X63.162 Y45.994 E53.83289
G1 X64.574 Y46.829 E53.95564
G1 X65.981 Y47.783 E54.08291
G1 X67.328 Y48.825 E54.21030
G1 X68.655 Y49.995 E54.34276
G1 X69.811 Y51.151 E54.46511
G1 X70.939 Y52.427 E54.59251
G1 X72.024 Y53.825 E54.72496
G1 X72.979 Y55.234 E54.85236
G1 X73.811 Y56.642 E54.97471
G1 X74.615 Y58.219 E55.10717
G1 X75.289 Y59.782 E55.23457
G1 X75.843 Y61.320 E55.35691
G1 X76.336 Y63.020 E55.48937
G1 X76.706 Y64.682 E55.61677
G1 X76.961 Y66.297 E55.73912
G1 X77.130 Y68.108 E55.87527
G1 X77.179 Y69.761 E55.99902
G1 X77.124 Y71.462 E56.12637
G1 X76.961 Y73.157 E56.25377
G1 X76.706 Y74.771 E56.37612
G1 X76.320 Y76.499 E56.50858
G1 X75.843 Y78.133 E56.63597
G1 X75.289 Y79.671 E56.75833
G1 X74.586 Y81.295 E56.89078
G1 X73.844 Y82.752 E57.01312
G1 X72.979 Y84.219 E57.14054
G1 X72.024 Y85.628 E57.26793
G1 X70.982 Y86.974 E57.39533
G1 X69.811 Y88.302 E57.52778
G1 X68.655 Y89.458 E57.65013
G1 X67.380 Y90.585 E57.77754
G1 X65.981 Y91.670 E57.90998
G1 X64.573 Y92.625 E58.03732
G1 X63.169 Y93.456 E58.15942
G1 X61.588 Y94.261 E58.29219
G1 X60.025 Y94.935 E58.41959
G1 X58.486 Y95.489 E58.54194
G1 X56.727 Y95.996 E58.67899
G1 X55.125 Y96.352 E58.80178
G1 X53.443 Y96.617 E58.92919
G1 X51.815 Y96.770 E59.05154
G1 X50.114 Y96.826 E59.17894
G1 X48.345 Y96.770 E59.31140
G1 X46.717 Y96.617 E59.43375
G1 X45.035 Y96.352 E59.56115
G1 X43.308 Y95.966 E59.69360
G1 X41.738 Y95.510 E59.81595
G1 X40.135 Y94.935 E59.94335
G1 X38.683 Y94.321 E60.06138
G1 X37.054 Y93.490 E60.19821
G1 X35.587 Y92.625 E60.32570
G1 X34.179 Y91.670 E60.45300
G1 X32.832 Y90.629 E60.58039
G1 X31.505 Y89.458 E60.71285
G1 X30.302 Y88.253 E60.84025
G1 X29.221 Y87.026 E60.96260
G1 X28.136 Y85.628 E61.09505
G1 X27.217 Y84.276 E61.21740
G1 X26.349 Y82.811 E61.34480
G1 X25.545 Y81.234 E61.47726
G1 X24.896 Y79.734 E61.59961
G1 X24.317 Y78.133 E61.72701
G1 X23.824 Y76.433 E61.85946
G1 X23.454 Y74.771 E61.98686
G1 X23.198 Y73.156 E62.10922
G1 X23.030 Y71.322 E62.24708
G1 X22.981 Y69.693 E62.36908
G1 X23.036 Y67.991 E62.49649
G1 X23.190 Y66.364 E62.61881
G1 X23.454 Y64.682 E62.74621
G1 X23.840 Y62.954 E62.87867
G1 X24.317 Y61.320 E63.00606
G1 X24.871 Y59.782 E63.12841
G1 X25.574 Y58.158 E63.26087
G1 X26.316 Y56.701 E63.38322
G1 X27.181 Y55.234 E63.51063
G1 X28.176 Y53.771 E63.64307
G1 X29.178 Y52.479 E63.76542
G1 X30.302 Y51.200 E63.89283
G1 X31.554 Y49.949 E64.02527
G1 X32.832 Y48.825 E64.15268
G1 X34.157 Y47.798 E64.27810
G1 X34.544 Y48.260 F30000.000
G1 F2100
G1 X35.900 Y47.340 E64.40078
G1 X37.335 Y46.493 E64.52547
G1 X38.819 Y45.739 E64.65003
G1 X40.302 Y45.097 E64.77097
G1 X41.914 Y44.517 E64.89919
G1 X43.513 Y44.054 E65.02377
G1 X45.091 Y43.701 E65.14471
G1 X46.783 Y43.433 E65.27294
G1 X48.440 Y43.278 E65.39751
G1 X50.056 Y43.227 E65.51845
G1 X51.768 Y43.281 E65.64667
G1 X53.425 Y43.439 E65.77125
G1 X55.022 Y43.692 E65.89220
G1 X56.694 Y44.066 E66.02042
G1 X58.246 Y44.517 E66.14136
G1 X59.812 Y45.079 E66.26594
G1 X61.385 Y45.760 E66.39417
G1 X62.865 Y46.515 E66.51855
G1 X64.260 Y47.340 E66.63978
