; generated by Slic3r 1.3.0 on 2021-02-02 at 01:17:48

; external perimeters extrusion width = 0.44mm (2.78mm^3/s)
; perimeters extrusion width = 0.40mm (7.14mm^3/s)
; infill extrusion width = 0.50mm (10.97mm^3/s)
; solid infill extrusion width = 0.60mm (6.68mm^3/s)
; top infill extrusion width = 0.40mm (2.14mm^3/s)

M107
M190 S80 ; set bed temperature and wait for it to be reached
M104 S210 ; set temperature
G28 ; home all axes
G1 Z5 F5000 ; lift nozzle

; Filament gcode

M109 S210 ; set temperature and wait for it to be reached
G21 ; set units to millimeters
G90 ; use absolute coordinates
M82 ; use absolute distances for extrusion
G92 E0
G1 Z0.300 F30000.000
G1 E-2.00000 F2400.00000
G92 E0
G1 X46.305 Y45.399 F30000.000
G1 E2.00000 F2400.00000
G1 F2100
G1 X47.369 Y44.335 E2.10051
G1 X48.709 Y43.142 E2.22034
G1 X50.121 Y42.035 E2.34020
G1 X51.592 Y41.024 E2.45947
G1 X53.391 Y39.959 E2.59913
G1 X54.734 Y39.276 E2.69978
G1 X56.375 Y38.555 E2.81954
G1 X58.335 Y37.850 E2.95872
G1 X59.780 Y37.430 E3.05923
G1 X61.529 Y37.030 E3.17906
G1 X63.587 Y36.704 E3.31824
G1 X65.373 Y36.544 E3.43806
G1 X66.877 Y36.497 E3.53857
G1 X68.959 Y36.562 E3.67773
G1 X70.744 Y36.740 E3.79759
G1 X72.230 Y36.975 E3.89811
G1 X74.263 Y37.430 E4.03725
G1 X75.708 Y37.850 E4.13777
G1 X77.399 Y38.449 E4.25763
G1 X79.309 Y39.276 E4.39671
G1 X80.652 Y39.959 E4.49734
G1 X82.200 Y40.865 E4.61716
G1 X83.689 Y41.865 E4.73699
G1 X85.111 Y42.957 E4.85680
G1 X86.674 Y44.335 E4.99597
G1 X87.936 Y45.610 E5.11580
G1 X88.931 Y46.738 E5.21631
G1 X90.038 Y48.150 E5.33617
G1 X91.029 Y49.593 E5.45308
G1 X92.114 Y51.422 E5.59518
G1 X92.797 Y52.763 E5.69569
G1 X93.518 Y54.405 E5.81551
G1 X94.223 Y56.365 E5.95469
G1 X94.643 Y57.810 E6.05520
G1 X95.043 Y59.559 E6.17503
G1 X95.369 Y61.616 E6.31419
G1 X95.529 Y63.402 E6.43399
G1 X95.576 Y64.907 E6.53455
G1 X95.511 Y66.988 E6.67369
G1 X95.369 Y68.487 E6.77422
G1 X95.097 Y70.260 E6.89407
G1 X94.643 Y72.293 E7.03322
G1 X94.223 Y73.738 E7.13375
G1 X93.624 Y75.429 E7.25360
G1 X92.797 Y77.340 E7.39273
G1 X92.114 Y78.681 E7.49325
G1 X91.208 Y80.229 E7.61310
G1 X90.208 Y81.718 E7.73294
G1 X89.115 Y83.141 E7.85277
G1 X87.738 Y84.704 E7.99194
G1 X86.674 Y85.768 E8.09245
G1 X85.335 Y86.961 E8.21228
G1 X83.922 Y88.067 E8.33214
G1 X82.444 Y89.083 E8.45197
G1 X80.652 Y90.143 E8.59110
G1 X79.309 Y90.827 E8.69174
G1 X77.668 Y91.547 E8.81148
G1 X75.708 Y92.253 E8.95065
G1 X73.983 Y92.745 E9.07048
G1 X72.514 Y93.073 E9.17101
G1 X70.457 Y93.399 E9.31018
G1 X68.670 Y93.559 E9.42999
G1 X67.166 Y93.606 E9.53051
G1 X65.084 Y93.540 E9.66967
G1 X63.299 Y93.363 E9.78952
G1 X61.813 Y93.127 E9.89005
G1 X59.780 Y92.673 E10.02919
G1 X58.335 Y92.253 E10.12971
G1 X56.644 Y91.654 E10.24957
G1 X54.994 Y90.950 E10.36940
G1 X53.409 Y90.152 E10.48798
G1 X51.599 Y89.083 E10.62836
G1 X50.354 Y88.237 E10.72893
G1 X48.932 Y87.145 E10.84874
G1 X47.369 Y85.768 E10.98791
G1 X46.107 Y84.493 E11.10774
G1 X45.112 Y83.364 E11.20825
G1 X43.835 Y81.718 E11.34742
G1 X42.990 Y80.474 E11.44794
G1 X42.069 Y78.934 E11.56778
G1 X41.246 Y77.340 E11.68764
G1 X40.543 Y75.738 E11.80454
G1 X39.820 Y73.737 E11.94663
G1 X39.328 Y72.012 E12.06646
G1 X39.000 Y70.544 E12.16698
G1 X38.674 Y68.487 E12.30613
G1 X38.514 Y66.700 E12.42593
G1 X38.467 Y65.196 E12.52650
G1 X38.532 Y63.114 E12.66563
G1 X38.674 Y61.616 E12.76616
G1 X38.946 Y59.843 E12.88602
G1 X39.400 Y57.810 E13.02516
G1 X39.909 Y56.090 E13.14502
G1 X40.419 Y54.674 E13.24554
G1 X41.246 Y52.763 E13.38467
G1 X41.929 Y51.422 E13.48518
G1 X42.835 Y49.873 E13.60504
G1 X44.005 Y48.150 E13.74419
G1 X45.112 Y46.738 E13.86405
G1 X46.264 Y45.443 E13.97987
G1 X46.684 Y45.778 F30000.000
G1 F2100
G1 X47.748 Y44.714 E14.08038
G1 X49.063 Y43.544 E14.19797
G1 X50.449 Y42.458 E14.31558
G1 X51.893 Y41.467 E14.43260
G1 X53.634 Y40.437 E14.56777
G1 X54.977 Y39.753 E14.66841
G1 X56.588 Y39.047 E14.78593
G1 X58.485 Y38.364 E14.92061
G1 X60.177 Y37.881 E15.03820
G1 X61.646 Y37.552 E15.13871
G1 X63.637 Y37.237 E15.27340
G1 X65.390 Y37.079 E15.39097
G1 X66.894 Y37.032 E15.49148
G1 X68.908 Y37.095 E15.62614
G1 X70.660 Y37.269 E15.74376
G1 X72.146 Y37.504 E15.84427
G1 X74.113 Y37.944 E15.97893
G1 X75.558 Y38.364 E16.07944
G1 X77.217 Y38.953 E16.19706
G1 X79.066 Y39.753 E16.33165
G1 X80.408 Y40.437 E16.43227
G1 X81.927 Y41.326 E16.54984
G1 X83.388 Y42.308 E16.66743
G1 X84.783 Y43.381 E16.78500
G1 X86.295 Y44.714 E16.91967
G1 X87.534 Y45.964 E17.03725
G1 X88.529 Y47.093 E17.13777
G1 X89.614 Y48.479 E17.25538
G1 X90.586 Y49.894 E17.37004
G1 X91.637 Y51.665 E17.50764
G1 X92.320 Y53.006 E17.60816
G1 X93.026 Y54.618 E17.72573
G1 X93.709 Y56.515 E17.86041
G1 X94.192 Y58.207 E17.97800
G1 X94.520 Y59.675 E18.07851
G1 X94.836 Y61.666 E18.21318
G1 X94.993 Y63.419 E18.33073
G1 X95.041 Y64.923 E18.43129
G1 X94.977 Y66.938 E18.56593
G1 X94.836 Y68.436 E18.66647
G1 X94.568 Y70.176 E18.78407
G1 X94.129 Y72.143 E18.91872
G1 X93.709 Y73.588 E19.01925
G1 X93.120 Y75.247 E19.13685
G1 X92.320 Y77.097 E19.27149
G1 X91.637 Y78.437 E19.37201
G1 X90.747 Y79.957 E19.48962
G1 X89.765 Y81.417 E19.60721
G1 X88.692 Y82.813 E19.72479
G1 X87.359 Y84.325 E19.85947
G1 X86.295 Y85.389 E19.95998
G1 X84.980 Y86.559 E20.07756
G1 X83.594 Y87.644 E20.19517
G1 X82.143 Y88.640 E20.31276
G1 X80.408 Y89.666 E20.44739
G1 X79.066 Y90.350 E20.54802
G1 X77.455 Y91.056 E20.66553
G1 X75.558 Y91.739 E20.80020
G1 X73.866 Y92.222 E20.91778
G1 X72.397 Y92.550 E21.01831
G1 X70.406 Y92.866 E21.15299
G1 X68.653 Y93.023 E21.27056
G1 X67.150 Y93.070 E21.37108
G1 X65.135 Y93.007 E21.50574
G1 X63.383 Y92.834 E21.62334
G1 X61.897 Y92.598 E21.72387
G1 X59.930 Y92.158 E21.85852
G1 X58.485 Y91.739 E21.95904
G1 X56.826 Y91.150 E22.07665
G1 X55.207 Y90.458 E22.19423
G1 X53.652 Y89.675 E22.31057
G1 X51.900 Y88.640 E22.44646
G1 X50.655 Y87.794 E22.54702
G1 X49.260 Y86.722 E22.66459
G1 X47.748 Y85.389 E22.79927
G1 X46.684 Y84.325 E22.89978
G1 X45.514 Y83.010 E23.01736
G1 X44.278 Y81.417 E23.15204
G1 X43.296 Y79.957 E23.26963
G1 X42.530 Y78.662 E23.37015
G1 X41.723 Y77.097 E23.48775
G1 X41.034 Y75.525 E23.60241
G1 X40.334 Y73.588 E23.74000
G1 X39.851 Y71.896 E23.85759
G1 X39.523 Y70.427 E23.95811
G1 X39.207 Y68.436 E24.09277
G1 X39.050 Y66.684 E24.21033
G1 X39.002 Y65.179 E24.31089
G1 X39.066 Y63.165 E24.44552
G1 X39.207 Y61.666 E24.54606
G1 X39.475 Y59.926 E24.66366
G1 X39.914 Y57.959 E24.79832
G1 X40.413 Y56.271 E24.91593
G1 X40.923 Y54.855 E25.01644
G1 X41.723 Y53.006 E25.15108
G1 X42.406 Y51.665 E25.25160
G1 X43.296 Y50.146 E25.36921
G1 X44.429 Y48.479 E25.50387
G1 X45.514 Y47.093 E25.62148
G1 X46.643 Y45.821 E25.73505
G1 X47.063 Y46.156 F30000.000
G1 F2100
G1 X48.127 Y45.093 E25.83556
G1 X49.417 Y43.946 E25.95090
G1 X50.777 Y42.882 E26.06626
G1 X52.194 Y41.910 E26.18104
G1 X53.878 Y40.914 E26.31173
G1 X55.220 Y40.230 E26.41234
G1 X56.801 Y39.538 E26.52763
G1 X58.634 Y38.878 E26.65782
G1 X60.079 Y38.458 E26.75833
G1 X61.762 Y38.075 E26.87367
G1 X63.687 Y37.770 E27.00386
G1 X65.407 Y37.615 E27.11918
G1 X66.910 Y37.567 E27.21970
G1 X68.858 Y37.629 E27.34987
G1 X70.576 Y37.798 E27.46523
G1 X72.063 Y38.033 E27.56575
G1 X73.964 Y38.458 E27.69591
G1 X75.409 Y38.878 E27.79642
G1 X77.036 Y39.457 E27.91179
G1 X78.823 Y40.230 E28.04190
G1 X80.165 Y40.914 E28.14251
G1 X81.655 Y41.787 E28.25783
G1 X83.086 Y42.751 E28.37317
G1 X84.455 Y43.804 E28.48850
G1 X85.916 Y45.093 E28.61868
G1 X86.980 Y46.156 E28.71919
G1 X88.127 Y47.447 E28.83453
G1 X89.191 Y48.807 E28.94989
G1 X90.143 Y50.195 E29.06232
G1 X91.159 Y51.908 E29.19541
G1 X91.842 Y53.249 E29.29593
G1 X92.534 Y54.831 E29.41125
G1 X93.195 Y56.664 E29.54144
G1 X93.614 Y58.109 E29.64195
G1 X93.998 Y59.792 E29.75729
G1 X94.303 Y61.717 E29.88747
G1 X94.458 Y63.436 E30.00278
G1 X94.505 Y64.940 E30.10333
G1 X94.444 Y66.888 E30.23349
G1 X94.303 Y68.386 E30.33402
G1 X94.039 Y70.092 E30.44937
G1 X93.614 Y71.994 E30.57953
G1 X93.195 Y73.439 E30.68006
G1 X92.616 Y75.066 E30.79541
G1 X91.842 Y76.854 E30.92556
G1 X91.159 Y78.194 E31.02608
G1 X90.286 Y79.684 E31.14144
G1 X89.322 Y81.116 E31.25678
G1 X88.269 Y82.485 E31.37212
G1 X86.980 Y83.946 E31.50230
G1 X85.916 Y85.010 E31.60281
G1 X84.626 Y86.157 E31.71815
G1 X83.266 Y87.221 E31.83351
G1 X81.842 Y88.197 E31.94885
G1 X80.165 Y89.189 E32.07900
G1 X78.823 Y89.873 E32.17961
G1 X77.242 Y90.564 E32.29488
G1 X75.409 Y91.224 E32.42506
G1 X73.749 Y91.699 E32.54040
G1 X72.281 Y92.028 E32.64092
G1 X70.356 Y92.332 E32.77110
G1 X68.637 Y92.488 E32.88643
G1 X67.133 Y92.535 E32.98695
G1 X65.185 Y92.474 E33.11712
G1 X63.467 Y92.305 E33.23248
G1 X61.981 Y92.069 E33.33300
G1 X60.079 Y91.644 E33.46316
G1 X58.634 Y91.224 E33.56367
G1 X57.007 Y90.646 E33.67904
G1 X55.420 Y89.967 E33.79438
G1 X53.895 Y89.198 E33.90846
G1 X52.201 Y88.197 E34.03987
G1 X50.957 Y87.351 E34.14042
G1 X49.588 Y86.299 E34.25575
G1 X48.127 Y85.010 E34.38593
G1 X47.063 Y83.946 E34.48644
G1 X45.916 Y82.656 E34.60178
G1 X44.721 Y81.116 E34.73196
G1 X43.757 Y79.684 E34.84730
G1 X42.991 Y78.389 E34.94782
G1 X42.201 Y76.854 E35.06318
G1 X41.526 Y75.312 E35.17559
G1 X40.848 Y73.439 E35.30869
G1 X40.429 Y71.994 E35.40920
G1 X40.045 Y70.310 E35.52455
G1 X39.740 Y68.386 E35.65472
G1 X39.585 Y66.667 E35.77003
G1 X39.538 Y65.162 E35.87059
G1 X39.599 Y63.215 E36.00073
G1 X39.740 Y61.717 E36.10127
G1 X40.004 Y60.010 E36.21662
G1 X40.429 Y58.109 E36.34678
G1 X40.917 Y56.453 E36.46214
G1 X41.427 Y55.037 E36.56266
G1 X42.201 Y53.249 E36.69281
G1 X42.884 Y51.908 E36.79332
G1 X43.757 Y50.418 E36.90868
G1 X44.852 Y48.807 E37.03885
G1 X45.916 Y47.447 E37.15421
G1 X47.022 Y46.200 E37.26554
G1 X47.619 Y46.712 F30000.000
G1 F2100
G1 X48.776 Y45.559 E37.38783
G1 X50.036 Y44.452 E37.51335
G1 X51.363 Y43.426 E37.63887
G1 X52.679 Y42.531 E37.75796
G1 X54.200 Y41.632 E37.89017
G1 X55.693 Y40.875 E38.01543
G1 X57.153 Y40.243 E38.13449
G1 X58.812 Y39.645 E38.26648
G1 X60.340 Y39.201 E38.38554
G1 X61.976 Y38.833 E38.51105
G1 X63.718 Y38.557 E38.64305
G1 X65.388 Y38.402 E38.76856
G1 X66.978 Y38.352 E38.88761
G1 X68.741 Y38.407 E39.01959
G1 X70.411 Y38.568 E39.14512
G1 X71.982 Y38.817 E39.26418
G1 X73.703 Y39.201 E39.39616
G1 X75.313 Y39.672 E39.52169
G1 X76.810 Y40.211 E39.64075
G1 X78.429 Y40.911 E39.77272
G1 X79.922 Y41.675 E39.89827
G1 X81.291 Y42.485 E40.01731
G1 X82.680 Y43.426 E40.14283
G1 X84.007 Y44.452 E40.26835
G1 X85.330 Y45.618 E40.40033
G1 X86.455 Y46.743 E40.51938
G1 X87.566 Y47.999 E40.64490
G1 X88.596 Y49.323 E40.77043
G1 X89.493 Y50.637 E40.88945
G1 X90.439 Y52.227 E41.02793
G1 X91.161 Y53.644 E41.14699
G1 X91.830 Y55.182 E41.27248
G1 X92.428 Y56.842 E41.40449
G1 X92.871 Y58.370 E41.52355
G1 X93.240 Y60.006 E41.64906
G1 X93.516 Y61.748 E41.78105
G1 X93.665 Y63.332 E41.90013
G1 X93.721 Y65.007 E42.02558
G1 X93.665 Y66.771 E42.15759
G1 X93.516 Y68.355 E42.27667
G1 X93.256 Y70.012 E42.40219
G1 X92.871 Y71.733 E42.53417
G1 X92.428 Y73.261 E42.65324
G1 X91.862 Y74.840 E42.77876
G1 X91.161 Y76.458 E42.91073
G1 X90.439 Y77.876 E43.02979
G1 X89.588 Y79.321 E43.15531
G1 X88.647 Y80.710 E43.28084
G1 X87.621 Y82.037 E43.40636
G1 X86.455 Y83.360 E43.53834
G1 X85.267 Y84.544 E43.66386
G1 X84.007 Y85.651 E43.78938
G1 X82.680 Y86.677 E43.91490
G1 X81.364 Y87.571 E44.03396
G1 X79.843 Y88.471 E44.16619
G1 X78.428 Y89.191 E44.28503
G1 X76.890 Y89.860 E44.41052
G1 X75.231 Y90.457 E44.54250
G1 X73.620 Y90.923 E44.66802
G1 X72.067 Y91.270 E44.78709
G1 X70.325 Y91.546 E44.91907
G1 X68.655 Y91.701 E45.04458
G1 X67.065 Y91.751 E45.16365
G1 X65.302 Y91.695 E45.29563
G1 X63.632 Y91.535 E45.42115
G1 X62.061 Y91.286 E45.54022
G1 X60.340 Y90.901 E45.67219
G1 X58.812 Y90.457 E45.79125
G1 X57.233 Y89.892 E45.91679
G1 X55.693 Y89.228 E46.04229
G1 X54.200 Y88.471 E46.16757
G1 X52.679 Y87.571 E46.29977
G1 X51.363 Y86.677 E46.41886
G1 X50.036 Y85.651 E46.54438
G1 X48.713 Y84.485 E46.67636
G1 X47.529 Y83.297 E46.80187
G1 X46.477 Y82.103 E46.92094
G1 X45.396 Y80.710 E47.05293
G1 X44.455 Y79.321 E47.17844
G1 X43.645 Y77.952 E47.29751
G1 X42.845 Y76.380 E47.42948
G1 X42.213 Y74.920 E47.54854
G1 X41.642 Y73.343 E47.67406
G1 X41.150 Y71.649 E47.80605
G1 X40.803 Y70.097 E47.92511
G1 X40.538 Y68.440 E48.05063
G1 X40.378 Y66.770 E48.17618
G1 X40.322 Y65.095 E48.30164
G1 X40.378 Y63.332 E48.43362
G1 X40.527 Y61.748 E48.55271
G1 X40.787 Y60.091 E48.67824
G1 X41.172 Y58.370 E48.81021
G1 X41.616 Y56.842 E48.92927
G1 X42.181 Y55.263 E49.05480
G1 X42.882 Y53.644 E49.18677
G1 X43.604 Y52.227 E49.30583
G1 X44.455 Y50.782 E49.43136
G1 X45.447 Y49.323 E49.56334
G1 X46.477 Y47.999 E49.68887
G1 X47.577 Y46.755 E49.81313
G1 X48.043 Y47.137 F30000.000
G1 F2100
G1 X49.180 Y46.003 E49.93330
G1 X50.411 Y44.920 E50.05600
G1 X51.708 Y43.917 E50.17869
G1 X53.009 Y43.033 E50.29637
G1 X54.480 Y42.163 E50.42430
G1 X55.940 Y41.422 E50.54680
G1 X57.382 Y40.797 E50.66444
G1 X58.989 Y40.219 E50.79220
G1 X60.498 Y39.780 E50.90985
G1 X62.098 Y39.421 E51.03255
G1 X63.784 Y39.153 E51.16031
G1 X65.349 Y39.006 E51.27795
G1 X66.988 Y38.952 E51.40064
G1 X68.694 Y39.006 E51.52839
G1 X70.326 Y39.162 E51.65110
G1 X71.879 Y39.408 E51.76875
G1 X73.545 Y39.780 E51.89650
G1 X75.055 Y40.219 E52.01415
G1 X76.598 Y40.772 E52.13686
G1 X78.165 Y41.450 E52.26460
G1 X79.625 Y42.197 E52.38732
G1 X80.978 Y42.997 E52.50495
G1 X82.335 Y43.917 E52.62765
G1 X83.632 Y44.920 E52.75035
G1 X84.912 Y46.049 E52.87810
G1 X86.070 Y47.210 E53.00079
G1 X87.110 Y48.389 E53.11844
G1 X88.117 Y49.683 E53.24115
G1 X88.996 Y50.974 E53.35806
G1 X89.909 Y52.508 E53.49160
G1 X90.651 Y53.969 E53.61429
G1 X91.276 Y55.412 E53.73192
G1 X91.854 Y57.018 E53.85969
G1 X92.293 Y58.528 E53.97734
G1 X92.652 Y60.128 E54.10004
G1 X92.919 Y61.814 E54.22779
G1 X93.067 Y63.379 E54.34546
G1 X93.121 Y65.017 E54.46810
G1 X93.067 Y66.724 E54.59587
G1 X92.919 Y68.289 E54.71354
G1 X92.665 Y69.909 E54.83624
G1 X92.293 Y71.575 E54.96399
G1 X91.854 Y73.084 E55.08164
G1 X91.300 Y74.628 E55.20435
G1 X90.623 Y76.194 E55.33209
G1 X89.909 Y77.595 E55.44974
G1 X89.076 Y79.007 E55.57244
G1 X88.156 Y80.365 E55.69514
G1 X87.153 Y81.662 E55.81784
G1 X86.024 Y82.942 E55.94559
G1 X84.912 Y84.054 E56.06324
G1 X83.684 Y85.140 E56.18593
G1 X82.390 Y86.146 E56.30864
G1 X81.035 Y87.070 E56.43134
G1 X79.563 Y87.940 E56.55929
G1 X78.164 Y88.652 E56.67676
G1 X76.661 Y89.305 E56.79944
G1 X75.055 Y89.884 E56.92719
G1 X73.480 Y90.339 E57.04989
G1 X71.945 Y90.682 E57.16754
G1 X70.259 Y90.949 E57.29530
G1 X68.627 Y91.101 E57.41799
G1 X67.055 Y91.151 E57.53564
G1 X65.349 Y91.097 E57.66339
G1 X63.717 Y90.941 E57.78609
G1 X62.164 Y90.695 E57.90375
G1 X60.498 Y90.322 E58.03149
G1 X58.989 Y89.884 E58.14914
G1 X57.445 Y89.330 E58.27185
G1 X55.940 Y88.681 E58.39454
G1 X54.480 Y87.940 E58.51705
G1 X53.009 Y87.070 E58.64497
G1 X51.708 Y86.186 E58.76265
G1 X50.411 Y85.183 E58.88534
G1 X49.131 Y84.054 E59.01310
G1 X47.973 Y82.893 E59.13579
G1 X46.933 Y81.714 E59.25344
G1 X45.887 Y80.365 E59.38120
G1 X45.003 Y79.065 E59.49884
G1 X44.167 Y77.654 E59.62155
G1 X43.421 Y76.194 E59.74424
G1 X42.798 Y74.762 E59.86115
G1 X42.189 Y73.084 E59.99469
G1 X41.751 Y71.575 E60.11233
G1 X41.391 Y69.975 E60.23503
G1 X41.124 Y68.289 E60.36279
G1 X40.976 Y66.723 E60.48046
G1 X40.922 Y65.085 E60.60311
G1 X40.976 Y63.379 E60.73086
G1 X41.124 Y61.814 E60.84853
G1 X41.378 Y60.194 E60.97124
G1 X41.751 Y58.528 E61.09898
G1 X42.189 Y57.018 E61.21663
G1 X42.743 Y55.475 E61.33934
G1 X43.421 Y53.908 E61.46708
G1 X44.134 Y52.507 E61.58473
G1 X44.967 Y51.095 E61.70743
G1 X45.927 Y49.683 E61.83518
G1 X46.933 Y48.389 E61.95789
G1 X48.001 Y47.180 E62.07862
G1 X48.467 Y47.561 F30000.000
G1 F2100
G1 X49.584 Y46.446 E62.19668
G1 X50.786 Y45.388 E62.31656
G1 X52.014 Y44.436 E62.43280
G1 X53.338 Y43.534 E62.55270
G1 X54.760 Y42.693 E62.67634
G1 X56.186 Y41.968 E62.79608
G1 X57.612 Y41.352 E62.91231
G1 X59.165 Y40.792 E63.03584
G1 X60.657 Y40.359 E63.15208
G1 X62.220 Y40.008 E63.27195
G1 X63.850 Y39.750 E63.39548
G1 X65.396 Y39.604 E63.51172
G1 X66.997 Y39.552 E63.63159
G1 X68.647 Y39.604 E63.75511
G1 X70.193 Y39.750 E63.87134
G1 X71.776 Y39.999 E63.99123
G1 X73.387 Y40.359 E64.11475
G1 X74.878 Y40.792 E64.23099
G1 X76.386 Y41.334 E64.35087
G1 X77.901 Y41.989 E64.47438
