; generated by Slic3r 1.3.0 on 2021-12-05 at 22:37:42

; external perimeters extrusion width = 0.44mm (2.78mm^3/s)
; perimeters extrusion width = 0.40mm (7.14mm^3/s)
; infill extrusion width = 0.50mm (10.97mm^3/s)
; solid infill extrusion width = 0.60mm (6.68mm^3/s)
; top infill extrusion width = 0.40mm (2.14mm^3/s)

M107
M190 S80 ; set bed temperature and wait for it to be reached
M104 S210 ; set temperature
G28 ; home all axes
G1 Z5 F5000 ; lift nozzle

; Filament gcode

M109 S210 ; set temperature and wait for it to be reached
G21 ; set units to millimeters
G90 ; use absolute coordinates
M82 ; use absolute distances for extrusion
G92 E0
G1 Z0.300 F30000.000
G1 E-2.00000 F2400.00000
G92 E0
G1 X56.374 Y13.300 F30000.000
G1 E2.00000 F2400.00000
G1 F2100
G1 X57.482 Y11.890 E2.11982
G1 X59.089 Y11.094 E2.23964
G1 X60.050 Y10.979 E2.30428
G1 X69.950 Y10.979 E2.96565
G1 X71.700 Y11.374 E3.08547
G1 X73.110 Y12.482 E3.20530
G1 X73.906 Y14.089 E3.32512
G1 X74.021 Y15.050 E3.38975
G1 X74.021 Y114.950 E10.06361
G1 X73.626 Y116.700 E10.18344
G1 X72.518 Y118.110 E10.30326
G1 X70.911 Y118.906 E10.42308
G1 X69.950 Y119.021 E10.48771
G1 X60.050 Y119.021 E11.14909
G1 X58.300 Y118.626 E11.26891
G1 X56.890 Y117.518 E11.38873
G1 X56.094 Y115.911 E11.50855
G1 X55.979 Y114.950 E11.57319
G1 X55.979 Y15.050 E18.24705
G1 X56.361 Y13.359 E18.36286
G1 X56.909 Y13.427 F30000.000
G1 F2100
G1 X58.004 Y12.167 E18.47442
G1 X60.050 Y11.514 E18.61790
G1 X69.950 Y11.514 E19.27927
G1 X71.573 Y11.909 E19.39083
G1 X72.833 Y13.004 E19.50238
G1 X73.486 Y15.050 E19.64586
G1 X73.486 Y114.950 E26.31972
G1 X73.091 Y116.573 E26.43128
G1 X71.996 Y117.833 E26.54283
G1 X69.950 Y118.486 E26.68631
G1 X60.050 Y118.486 E27.34768
G1 X58.427 Y118.091 E27.45924
G1 X57.167 Y116.996 E27.57080
G1 X56.514 Y114.950 E27.71427
G1 X56.514 Y15.050 E34.38813
G1 X56.895 Y13.486 E34.49568
G1 E32.49568 F2400.00000
G92 E0
G1 X69.114 Y15.886 F30000.000
G1 E2.00000 F2400.00000
G1 F2100
G1 X69.114 Y114.114 E8.56221
G1 X60.886 Y114.114 E9.11194
G1 X60.886 Y15.886 E15.67415
G1 X69.054 Y15.886 E16.21987
G1 X69.650 Y15.350 F30000.000
G1 F2100
G1 X69.650 Y114.650 E22.85365
G1 X60.350 Y114.650 E23.47494
G1 X60.350 Y15.350 E30.10871
G1 X69.590 Y15.350 E30.72600
G1 X69.638 Y15.750 F30000.000
G1 E28.72600 F2400.00000
G92 E0
G1 X61.365 Y16.478 F30000.000
G1 E2.00000 F2400.00000
G1 F2100
G1 X61.478 Y16.364 E2.01079
G1 X62.240 Y16.364 E2.06192
G1 X61.364 Y17.240 E2.14505
G1 X61.364 Y18.001 E2.19619
G1 X63.001 Y16.364 E2.35163
G1 X63.763 Y16.364 E2.40276
G1 X61.364 Y18.763 E2.63051
G1 X61.364 Y19.524 E2.68165
G1 X64.524 Y16.364 E2.98171
G1 X65.285 Y16.364 E3.03284
G1 X61.364 Y20.285 E3.40522
G1 X61.364 Y21.047 E3.45635
G1 X66.047 Y16.364 E3.90104
G1 X66.808 Y16.364 E3.95217
G1 X61.364 Y21.808 E4.46917
G1 X61.364 Y22.570 E4.52030
G1 X67.570 Y16.364 E5.10961
G1 X68.331 Y16.364 E5.16074
G1 X61.364 Y23.331 E5.82236
G1 X61.364 Y24.093 E5.87349
G1 X68.636 Y16.821 E6.56403
G1 X68.636 Y17.583 E6.61516
G1 X61.364 Y24.854 E7.30569
G1 X61.364 Y25.615 E7.35683
G1 X68.636 Y18.344 E8.04736
G1 X68.636 Y19.106 E8.09849
G1 X61.364 Y26.377 E8.78903
G1 X61.364 Y27.138 E8.84016
G1 X68.636 Y19.867 E9.53069
G1 X68.636 Y20.628 E9.58183
G1 X61.364 Y27.900 E10.27236
G1 X61.364 Y28.661 E10.32349
G1 X68.636 Y21.390 E11.01403
G1 X68.636 Y22.151 E11.06516
G1 X61.364 Y29.423 E11.75569
G1 X61.364 Y30.184 E11.80682
G1 X68.636 Y22.913 E12.49736
G1 X68.636 Y23.674 E12.54849
G1 X61.364 Y30.945 E13.23902
G1 X61.364 Y31.707 E13.29016
G1 X68.636 Y24.436 E13.98069
G1 X68.636 Y25.197 E14.03182
G1 X61.364 Y32.468 E14.72236
G1 X61.364 Y33.230 E14.77349
G1 X68.636 Y25.958 E15.46402
G1 X68.636 Y26.720 E15.51516
G1 X61.364 Y33.991 E16.20569
G1 X61.364 Y34.752 E16.25682
G1 X68.636 Y27.481 E16.94736
G1 X68.636 Y28.243 E16.99849
G1 X61.364 Y35.514 E17.68902
G1 X61.364 Y36.275 E17.74015
G1 X68.636 Y29.004 E18.43069
G1 X68.636 Y29.766 E18.48182
G1 X61.364 Y37.037 E19.17236
G1 X61.364 Y37.798 E19.22349
G1 X68.636 Y30.527 E19.91402
G1 X68.636 Y31.288 E19.96515
G1 X61.364 Y38.560 E20.65569
G1 X61.364 Y39.321 E20.70682
G1 X68.636 Y32.050 E21.39735
G1 X68.636 Y32.811 E21.44849
G1 X61.364 Y40.082 E22.13902
G1 X61.364 Y40.844 E22.19015
G1 X68.636 Y33.573 E22.88069
G1 X68.636 Y34.334 E22.93182
G1 X61.364 Y41.605 E23.62235
G1 X61.364 Y42.367 E23.67349
G1 X68.636 Y35.095 E24.36402
G1 X68.636 Y35.857 E24.41515
G1 X61.364 Y43.128 E25.10569
G1 X61.364 Y43.890 E25.15682
G1 X68.636 Y36.618 E25.84735
G1 X68.636 Y37.380 E25.89848
G1 X61.364 Y44.651 E26.58902
G1 X61.364 Y45.412 E26.64015
G1 X68.636 Y38.141 E27.33068
G1 X68.636 Y38.903 E27.38182
G1 X61.364 Y46.174 E28.07235
G1 X61.364 Y46.935 E28.12348
G1 X68.636 Y39.664 E28.81402
G1 X68.636 Y40.425 E28.86515
G1 X61.364 Y47.697 E29.55568
G1 X61.364 Y48.458 E29.60682
G1 X68.636 Y41.187 E30.29735
G1 X68.636 Y41.948 E30.34848
G1 X61.364 Y49.219 E31.03902
G1 X61.364 Y49.981 E31.09015
G1 X68.636 Y42.710 E31.78068
G1 X68.636 Y43.471 E31.83181
G1 X61.364 Y50.742 E32.52235
G1 X61.364 Y51.504 E32.57348
G1 X68.636 Y44.233 E33.26401
G1 X68.636 Y44.994 E33.31515
G1 X61.364 Y52.265 E34.00568
G1 X61.364 Y53.027 E34.05681
G1 X68.636 Y45.755 E34.74735
G1 X68.636 Y46.517 E34.79848
G1 X61.364 Y53.788 E35.48901
G1 X61.364 Y54.549 E35.54015
G1 X68.636 Y47.278 E36.23068
G1 X68.636 Y48.040 E36.28181
G1 X61.364 Y55.311 E36.97235
G1 X61.364 Y56.072 E37.02348
G1 X68.636 Y48.801 E37.71401
G1 X68.636 Y49.562 E37.76514
G1 X61.364 Y56.834 E38.45568
G1 X61.364 Y57.595 E38.50681
G1 X68.636 Y50.324 E39.19734
G1 X68.636 Y51.085 E39.24848
G1 X61.364 Y58.356 E39.93901
G1 X61.364 Y59.118 E39.99014
G1 X68.636 Y51.847 E40.68068
G1 X68.636 Y52.608 E40.73181
G1 X61.364 Y59.879 E41.42234
G1 X61.364 Y60.641 E41.47348
G1 X68.636 Y53.370 E42.16401
G1 X68.636 Y54.131 E42.21514
G1 X61.364 Y61.402 E42.90568
G1 X61.364 Y62.164 E42.95681
G1 X68.636 Y54.892 E43.64734
G1 X68.636 Y55.654 E43.69847
G1 X61.364 Y62.925 E44.38901
G1 X61.364 Y63.686 E44.44014
G1 X68.636 Y56.415 E45.13067
G1 X68.636 Y57.177 E45.18181
G1 X61.364 Y64.448 E45.87234
G1 X61.364 Y65.209 E45.92347
G1 X68.636 Y57.938 E46.61401
G1 X68.636 Y58.700 E46.66514
G1 X61.364 Y65.971 E47.35567
G1 X61.364 Y66.732 E47.40681
G1 X68.636 Y59.461 E48.09734
G1 X68.636 Y60.222 E48.14847
G1 X61.364 Y67.494 E48.83901
G1 X61.364 Y68.255 E48.89014
G1 X68.636 Y60.984 E49.58067
G1 X68.636 Y61.745 E49.63180
G1 X61.364 Y69.016 E50.32234
G1 X61.364 Y69.778 E50.37347
G1 X68.636 Y62.507 E51.06400
G1 X68.636 Y63.268 E51.11514
G1 X61.364 Y70.539 E51.80567
G1 X61.364 Y71.301 E51.85680
G1 X68.636 Y64.029 E52.54734
G1 X68.636 Y64.791 E52.59847
G1 X61.364 Y72.062 E53.28900
G1 X61.364 Y72.823 E53.34014
G1 X68.636 Y65.552 E54.03067
G1 X68.636 Y66.314 E54.08180
G1 X61.364 Y73.585 E54.77234
G1 X61.364 Y74.346 E54.82347
G1 X68.636 Y67.075 E55.51400
G1 X68.636 Y67.837 E55.56513
G1 X61.364 Y75.108 E56.25567
G1 X61.364 Y75.869 E56.30680
G1 X68.636 Y68.598 E56.99734
G1 X68.636 Y69.359 E57.04847
G1 X61.364 Y76.631 E57.73900
G1 X61.364 Y77.392 E57.79013
G1 X68.636 Y70.121 E58.48067
G1 X68.636 Y70.882 E58.53180
G1 X61.364 Y78.153 E59.22233
G1 X61.364 Y78.915 E59.27347
G1 X68.636 Y71.644 E59.96400
G1 X68.636 Y72.405 E60.01513
G1 X61.364 Y79.676 E60.70567
G1 X61.364 Y80.438 E60.75680
G1 X68.636 Y73.167 E61.44733
G1 X68.636 Y73.928 E61.49847
G1 X61.364 Y81.199 E62.18900
G1 X61.364 Y81.961 E62.24013
G1 X68.636 Y74.689 E62.93067
G1 X68.636 Y75.451 E62.98180
G1 X61.364 Y82.722 E63.67233
G1 X61.364 Y83.483 E63.72346
G1 X68.636 Y76.212 E64.41400
G1 X68.636 Y76.974 E64.46513
G1 X61.364 Y84.245 E65.15567
G1 X61.364 Y85.006 E65.20680
G1 X68.636 Y77.735 E65.89733
G1 X68.636 Y78.496 E65.94846
G1 X61.364 Y85.768 E66.63900
G1 X61.364 Y86.529 E66.69013
G1 X68.636 Y79.258 E67.38066
G1 X68.636 Y80.019 E67.43180
G1 X61.364 Y87.290 E68.12233
G1 X61.364 Y88.052 E68.17346
G1 X68.636 Y80.781 E68.86400
G1 X68.636 Y81.542 E68.91513
G1 X61.364 Y88.813 E69.60566
G1 X61.364 Y89.575 E69.65680
G1 X68.636 Y82.304 E70.34733
G1 X68.636 Y83.065 E70.39846
G1 X61.364 Y90.336 E71.08900
G1 X61.364 Y91.098 E71.14013
G1 X68.636 Y83.826 E71.83066
G1 X68.636 Y84.588 E71.88179
G1 X61.364 Y91.859 E72.57233
G1 X61.364 Y92.620 E72.62346
G1 X68.636 Y85.349 E73.31400
G1 X68.636 Y86.111 E73.36513
G1 X61.364 Y93.382 E74.05566
G1 X61.364 Y94.143 E74.10679
G1 X68.636 Y86.872 E74.79733
G1 X68.636 Y87.634 E74.84846
G1 X61.364 Y94.905 E75.53899
G1 X61.364 Y95.666 E75.59013
G1 X68.636 Y88.395 E76.28066
G1 X68.636 Y89.156 E76.33179
G1 X61.364 Y96.428 E77.02233
G1 X61.364 Y97.189 E77.07346
G1 X68.636 Y89.918 E77.76399
G1 X68.636 Y90.679 E77.81513
G1 X61.364 Y97.950 E78.50566
G1 X61.364 Y98.712 E78.55679
G1 X68.636 Y91.441 E79.24733
G1 X68.636 Y92.202 E79.29846
G1 X61.364 Y99.473 E79.98899
G1 X61.364 Y100.235 E80.04012
G1 X68.636 Y92.963 E80.73066
G1 X68.636 Y93.725 E80.78179
G1 X61.364 Y100.996 E81.47233
G1 X61.364 Y101.757 E81.52346
G1 X68.636 Y94.486 E82.21399
G1 X68.636 Y95.248 E82.26512
G1 X61.364 Y102.519 E82.95566
G1 X61.364 Y103.280 E83.00679
G1 X68.636 Y96.009 E83.69733
G1 X68.636 Y96.771 E83.74846
G1 X61.364 Y104.042 E84.43899
G1 X61.364 Y104.803 E84.49012
G1 X68.636 Y97.532 E85.18066
G1 X68.636 Y98.293 E85.23179
G1 X61.364 Y105.565 E85.92232
G1 X61.364 Y106.326 E85.97346
G1 X68.636 Y99.055 E86.66399
G1 X68.636 Y99.816 E86.71512
G1 X61.364 Y107.087 E87.40566
G1 X61.364 Y107.849 E87.45679
G1 X68.636 Y100.578 E88.14732
G1 X68.636 Y101.339 E88.19846
G1 X61.364 Y108.610 E88.88899
G1 X61.364 Y109.372 E88.94012
G1 X68.636 Y102.101 E89.63066
G1 X68.636 Y102.862 E89.68179
G1 X61.364 Y110.133 E90.37232
G1 X61.364 Y110.895 E90.42345
G1 X68.636 Y103.623 E91.11399
G1 X68.636 Y104.385 E91.16512
G1 X61.364 Y111.656 E91.85566
G1 X61.364 Y112.417 E91.90679
G1 X68.636 Y105.146 E92.59732
G1 X68.636 Y105.908 E92.64845
G1 X61.364 Y113.179 E93.33899
G1 X61.364 Y113.636 E93.36966
G1 X61.669 Y113.636 E93.39012
G1 X68.636 Y106.669 E94.05172
G1 X68.636 Y107.430 E94.10286
G1 X62.430 Y113.636 E94.69215
G1 X63.192 Y113.636 E94.74328
G1 X68.636 Y108.192 E95.26026
G1 X68.636 Y108.953 E95.31139
G1 X63.953 Y113.636 E95.75606
G1 X64.715 Y113.636 E95.80720
G1 X68.636 Y109.715 E96.17956
G1 X68.636 Y110.476 E96.23069
G1 X65.476 Y113.636 E96.53074
G1 X66.238 Y113.636 E96.58187
G1 X68.636 Y111.238 E96.80961
G1 X68.636 Y111.999 E96.86074
G1 X66.999 Y113.636 E97.01616
G1 X67.760 Y113.636 E97.06730
G1 X68.636 Y112.760 E97.15041
G1 X68.636 Y113.522 E97.20154
G1 X68.522 Y113.636 E97.21235
G1 Z0.500 F30000.000
G1 X69.353 Y15.647 F30000.000
G1 F6000
G1 X69.353 Y114.353 E100.14305
G1 X60.647 Y114.353 E100.40154
G1 X60.647 Y15.647 E103.33224
G1 X69.293 Y15.647 E103.58895
G1 X69.730 Y15.270 F30000.000
G1 F2100
G1 X69.730 Y114.730 E106.87285
G1 X60.270 Y114.730 E107.18519
G1 X60.270 Y15.270 E110.46909
G1 X69.670 Y15.270 E110.77946
G1 X69.717 Y15.670 F30000.000
G1 X68.944 Y16.153 F30000.000
G1 F3600
G1 X68.847 Y16.056 E110.78582
G1 X68.059 Y16.056 E110.82232
G1 X68.944 Y16.941 E110.88031
G1 X68.944 Y17.729 E110.91681
G1 X67.271 Y16.056 E111.02642
G1 X66.483 Y16.056 E111.06292
G1 X68.944 Y18.517 E111.22415
G1 X68.944 Y19.304 E111.26065
G1 X65.696 Y16.056 E111.47351
G1 X64.908 Y16.056 E111.51001
G1 X68.944 Y20.092 E111.77449
G1 X68.944 Y20.880 E111.81099
G1 X64.120 Y16.056 E112.12709
G1 X63.332 Y16.056 E112.16359
G1 X68.944 Y21.668 E112.53132
G1 X68.944 Y22.456 E112.56782
G1 X62.544 Y16.056 E112.98716
G1 X61.756 Y16.056 E113.02367
G1 X68.944 Y23.244 E113.49464
G1 X68.944 Y24.032 E113.53114
G1 X61.056 Y16.143 E114.04798
G1 X61.056 Y16.931 E114.08448
G1 X68.944 Y24.820 E114.60133
G1 X68.944 Y25.608 E114.63783
G1 X61.056 Y17.719 E115.15467
G1 X61.056 Y18.507 E115.19118
G1 X68.944 Y26.396 E115.70802
G1 X68.944 Y27.184 E115.74452
G1 X61.056 Y19.295 E116.26136
G1 X61.056 Y20.083 E116.29787
G1 X68.944 Y27.972 E116.81471
G1 X68.944 Y28.760 E116.85121
G1 X61.056 Y20.871 E117.36806
G1 X61.056 Y21.659 E117.40456
G1 X68.944 Y29.548 E117.92140
G1 X68.944 Y30.336 E117.95790
G1 X61.056 Y22.447 E118.47475
G1 X61.056 Y23.235 E118.51125
G1 X68.944 Y31.123 E119.02809
G1 X68.944 Y31.911 E119.06460
G1 X61.056 Y24.023 E119.58144
G1 X61.056 Y24.811 E119.61794
G1 X68.944 Y32.699 E120.13478
G1 X68.944 Y33.487 E120.17129
G1 X61.056 Y25.599 E120.68813
G1 X61.056 Y26.387 E120.72463
G1 X68.944 Y34.275 E121.24147
G1 X68.944 Y35.063 E121.27798
G1 X61.056 Y27.174 E121.79482
G1 X61.056 Y27.962 E121.83132
G1 X68.944 Y35.851 E122.34817
G1 X68.944 Y36.639 E122.38467
G1 X61.056 Y28.750 E122.90151
G1 X61.056 Y29.538 E122.93801
G1 X68.944 Y37.427 E123.45486
G1 X68.944 Y38.215 E123.49136
G1 X61.056 Y30.326 E124.00820
G1 X61.056 Y31.114 E124.04471
G1 X68.944 Y39.003 E124.56155
G1 X68.944 Y39.791 E124.59805
G1 X61.056 Y31.902 E125.11489
G1 X61.056 Y32.690 E125.15140
G1 X68.944 Y40.579 E125.66824
G1 X68.944 Y41.367 E125.70474
G1 X61.056 Y33.478 E126.22159
G1 X61.056 Y34.266 E126.25809
G1 X68.944 Y42.155 E126.77493
G1 X68.944 Y42.942 E126.81143
G1 X61.056 Y35.054 E127.32828
G1 X61.056 Y35.842 E127.36478
G1 X68.944 Y43.730 E127.88162
G1 X68.944 Y44.518 E127.91812
G1 X61.056 Y36.630 E128.43497
G1 X61.056 Y37.418 E128.47147
G1 X68.944 Y45.306 E128.98831
G1 X68.944 Y46.094 E129.02482
G1 X61.056 Y38.206 E129.54166
G1 X61.056 Y38.993 E129.57816
G1 X68.944 Y46.882 E130.09500
G1 X68.944 Y47.670 E130.13151
G1 X61.056 Y39.781 E130.64835
G1 X61.056 Y40.569 E130.68485
G1 X68.944 Y48.458 E131.20170
G1 X68.944 Y49.246 E131.23820
G1 X61.056 Y41.357 E131.75504
G1 X61.056 Y42.145 E131.79154
G1 X68.944 Y50.034 E132.30839
G1 X68.944 Y50.822 E132.34489
G1 X61.056 Y42.933 E132.86173
G1 X61.056 Y43.721 E132.89824
G1 X68.944 Y51.610 E133.41508
G1 X68.944 Y52.398 E133.45158
G1 X61.056 Y44.509 E133.96842
G1 X61.056 Y45.297 E134.00493
G1 X68.944 Y53.186 E134.52177
G1 X68.944 Y53.974 E134.55827
G1 X61.056 Y46.085 E135.07511
G1 X61.056 Y46.873 E135.11162
G1 X68.944 Y54.761 E135.62846
G1 X68.944 Y55.549 E135.66496
G1 X61.056 Y47.661 E136.18181
G1 X61.056 Y48.449 E136.21831
G1 X68.944 Y56.337 E136.73515
G1 X68.944 Y57.125 E136.77165
G1 X61.056 Y49.237 E137.28850
G1 X61.056 Y50.025 E137.32500
G1 X68.944 Y57.913 E137.84184
G1 X68.944 Y58.701 E137.87834
G1 X61.056 Y50.812 E138.39519
G1 X61.056 Y51.600 E138.43169
G1 X68.944 Y59.489 E138.94853
G1 X68.944 Y60.277 E138.98504
G1 X61.056 Y52.388 E139.50188
G1 X61.056 Y53.176 E139.53838
G1 X68.944 Y61.065 E140.05522
G1 X68.944 Y61.853 E140.09173
G1 X61.056 Y53.964 E140.60857
G1 X61.056 Y54.752 E140.64507
G1 X68.944 Y62.641 E141.16191
G1 X68.944 Y63.429 E141.19842
G1 X61.056 Y55.540 E141.71526
G1 X61.056 Y56.328 E141.75176
G1 X68.944 Y64.217 E142.26861
G1 X68.944 Y65.005 E142.30511
G1 X61.056 Y57.116 E142.82195
G1 X61.056 Y57.904 E142.85845
G1 X68.944 Y65.793 E143.37530
G1 X68.944 Y66.580 E143.41180
G1 X61.056 Y58.692 E143.92864
G1 X61.056 Y59.480 E143.96515
G1 X68.944 Y67.368 E144.48199
G1 X68.944 Y68.156 E144.51849
G1 X61.056 Y60.268 E145.03533
G1 X61.056 Y61.056 E145.07184
G1 X68.944 Y68.944 E145.58868
G1 X68.944 Y69.732 E145.62518
G1 X61.056 Y61.844 E146.14202
G1 X61.056 Y62.631 E146.17853
G1 X68.944 Y70.520 E146.69537
G1 X68.944 Y71.308 E146.73187
G1 X61.056 Y63.419 E147.24872
G1 X61.056 Y64.207 E147.28522
G1 X68.944 Y72.096 E147.80206
G1 X68.944 Y72.884 E147.83856
G1 X61.056 Y64.995 E148.35541
G1 X61.056 Y65.783 E148.39191
G1 X68.944 Y73.672 E148.90875
G1 X68.944 Y74.460 E148.94525
G1 X61.056 Y66.571 E149.46210
G1 X61.056 Y67.359 E149.49860
G1 X68.944 Y75.248 E150.01544
G1 X68.944 Y76.036 E150.05195
G1 X61.056 Y68.147 E150.56879
G1 X61.056 Y68.935 E150.60529
G1 X68.944 Y76.824 E151.12213
G1 X68.944 Y77.612 E151.15864
G1 X61.056 Y69.723 E151.67548
G1 X61.056 Y70.511 E151.71198
G1 X68.944 Y78.399 E152.22882
G1 X68.944 Y79.187 E152.26533
G1 X61.056 Y71.299 E152.78217
G1 X61.056 Y72.087 E152.81867
G1 X68.944 Y79.975 E153.33551
G1 X68.944 Y80.763 E153.37202
G1 X61.056 Y72.875 E153.88886
G1 X61.056 Y73.663 E153.92536
G1 X68.944 Y81.551 E154.44221
G1 X68.944 Y82.339 E154.47871
G1 X61.056 Y74.450 E154.99555
G1 X61.056 Y75.238 E155.03205
G1 X68.944 Y83.127 E155.54890
G1 X68.944 Y83.915 E155.58540
G1 X61.056 Y76.026 E156.10224
