; generated by Slic3r 1.3.0 on 2021-12-05 at 21:54:07

; external perimeters extrusion width = 0.44mm (2.78mm^3/s)
; perimeters extrusion width = 0.40mm (7.14mm^3/s)
; infill extrusion width = 0.50mm (10.97mm^3/s)
; solid infill extrusion width = 0.60mm (6.68mm^3/s)
; top infill extrusion width = 0.40mm (2.14mm^3/s)

M107
M190 S80 ; set bed temperature and wait for it to be reached
M104 S210 ; set temperature
G28 ; home all axes
G1 Z5 F5000 ; lift nozzle

; Filament gcode

M109 S210 ; set temperature and wait for it to be reached
G21 ; set units to millimeters
G90 ; use absolute coordinates
M82 ; use absolute distances for extrusion
G92 E0
G1 Z0.300 F30000.000
G1 E-2.00000 F2400.00000
G92 E0
G1 X53.874 Y13.300 F30000.000
G1 E2.00000 F2400.00000
G1 F2100
G1 X54.982 Y11.890 E2.11982
G1 X56.589 Y11.094 E2.23964
G1 X57.550 Y10.979 E2.30428
G1 X72.450 Y10.979 E3.29968
G1 X74.200 Y11.374 E3.41950
G1 X75.610 Y12.482 E3.53932
G1 X76.406 Y14.089 E3.65915
G1 X76.521 Y15.050 E3.72378
G1 X76.521 Y114.950 E10.39764
G1 X76.126 Y116.700 E10.51746
G1 X75.018 Y118.110 E10.63729
G1 X73.411 Y118.906 E10.75711
G1 X72.450 Y119.021 E10.82174
G1 X57.550 Y119.021 E11.81714
G1 X55.800 Y118.626 E11.93696
G1 X54.390 Y117.518 E12.05679
G1 X53.594 Y115.911 E12.17661
G1 X53.479 Y114.950 E12.24124
G1 X53.479 Y15.050 E18.91510
G1 X53.861 Y13.359 E19.03092
G1 X54.409 Y13.427 F30000.000
G1 F2100
G1 X55.504 Y12.167 E19.14247
G1 X57.550 Y11.514 E19.28595
G1 X72.450 Y11.514 E20.28135
G1 X74.073 Y11.909 E20.39291
G1 X75.333 Y13.004 E20.50446
G1 X75.986 Y15.050 E20.64794
G1 X75.986 Y114.950 E27.32180
G1 X75.591 Y116.573 E27.43336
G1 X74.496 Y117.833 E27.54491
G1 X72.450 Y118.486 E27.68839
G1 X57.550 Y118.486 E28.68379
G1 X55.927 Y118.091 E28.79535
G1 X54.667 Y116.996 E28.90690
G1 X54.014 Y114.950 E29.05038
G1 X54.014 Y15.050 E35.72424
G1 X54.395 Y13.486 E35.83179
G1 E33.83179 F2400.00000
G92 E0
G1 X71.614 Y15.886 F30000.000
G1 E2.00000 F2400.00000
G1 F2100
G1 X71.614 Y114.114 E8.56221
G1 X58.386 Y114.114 E9.44597
G1 X58.386 Y15.886 E16.00818
G1 X71.554 Y15.886 E16.88792
G1 X72.150 Y15.350 F30000.000
G1 F2100
G1 X72.150 Y114.650 E23.52170
G1 X57.850 Y114.650 E24.47702
G1 X57.850 Y15.350 E31.11079
G1 X72.090 Y15.350 E32.06210
G1 X72.131 Y15.750 F30000.000
G1 E30.06210 F2400.00000
G92 E0
G1 X58.978 Y16.364 F30000.000
G1 E2.00000 F2400.00000
G1 F2100
G1 X58.864 Y16.478 E2.01078
G1 X58.864 Y17.237 E2.06161
G1 X59.737 Y16.364 E2.14427
G1 X60.497 Y16.364 E2.19509
G1 X58.864 Y17.997 E2.34963
G1 X58.864 Y18.756 E2.40046
G1 X61.256 Y16.364 E2.62687
G1 X62.015 Y16.364 E2.67770
G1 X58.864 Y19.515 E2.97599
G1 X58.864 Y20.274 E3.02681
G1 X62.774 Y16.364 E3.39698
G1 X63.533 Y16.364 E3.44780
G1 X58.864 Y21.033 E3.88985
G1 X58.864 Y21.792 E3.94067
G1 X64.292 Y16.364 E4.45459
G1 X65.051 Y16.364 E4.50542
G1 X58.864 Y22.551 E5.09121
G1 X58.864 Y23.310 E5.14204
G1 X65.810 Y16.364 E5.79971
G1 X66.570 Y16.364 E5.85054
G1 X58.864 Y24.070 E6.58009
G1 X58.864 Y24.829 E6.63091
G1 X67.329 Y16.364 E7.43234
G1 X68.088 Y16.364 E7.48316
G1 X58.864 Y25.588 E8.35647
G1 X58.864 Y26.347 E8.40729
G1 X68.847 Y16.364 E9.35247
G1 X69.606 Y16.364 E9.40330
G1 X58.864 Y27.106 E10.42035
G1 X58.864 Y27.865 E10.47118
G1 X70.365 Y16.364 E11.56011
G1 X71.124 Y16.364 E11.61094
G1 X58.864 Y28.624 E12.77175
G1 X58.864 Y29.384 E12.82257
G1 X71.136 Y17.112 E13.98444
G1 X71.136 Y17.871 E14.03527
G1 X58.864 Y30.143 E15.19714
G1 X58.864 Y30.902 E15.24796
G1 X71.136 Y18.631 E16.40983
G1 X71.136 Y19.390 E16.46066
G1 X58.864 Y31.661 E17.62253
G1 X58.864 Y32.420 E17.67335
G1 X71.136 Y20.149 E18.83523
G1 X71.136 Y20.908 E18.88605
G1 X58.864 Y33.179 E20.04792
G1 X58.864 Y33.938 E20.09875
G1 X71.136 Y21.667 E21.26062
G1 X71.136 Y22.426 E21.31144
G1 X58.864 Y34.697 E22.47331
G1 X58.864 Y35.457 E22.52414
G1 X71.136 Y23.185 E23.68601
G1 X71.136 Y23.945 E23.73683
G1 X58.864 Y36.216 E24.89870
G1 X58.864 Y36.975 E24.94953
G1 X71.136 Y24.704 E26.11140
G1 X71.136 Y25.463 E26.16222
G1 X58.864 Y37.734 E27.32410
G1 X58.864 Y38.493 E27.37492
G1 X71.136 Y26.222 E28.53679
G1 X71.136 Y26.981 E28.58762
G1 X58.864 Y39.252 E29.74949
G1 X58.864 Y40.011 E29.80031
G1 X71.136 Y27.740 E30.96218
G1 X71.136 Y28.499 E31.01301
G1 X58.864 Y40.770 E32.17488
G1 X58.864 Y41.530 E32.22570
G1 X71.136 Y29.258 E33.38757
G1 X71.136 Y30.018 E33.43840
G1 X58.864 Y42.289 E34.60027
G1 X58.864 Y43.048 E34.65109
G1 X71.136 Y30.777 E35.81296
G1 X71.136 Y31.536 E35.86379
G1 X58.864 Y43.807 E37.02566
G1 X58.864 Y44.566 E37.07648
G1 X71.136 Y32.295 E38.23836
G1 X71.136 Y33.054 E38.28918
G1 X58.864 Y45.325 E39.45105
G1 X58.864 Y46.084 E39.50188
G1 X71.136 Y33.813 E40.66375
G1 X71.136 Y34.572 E40.71457
G1 X58.864 Y46.844 E41.87644
G1 X58.864 Y47.603 E41.92727
G1 X71.136 Y35.331 E43.08914
G1 X71.136 Y36.091 E43.13996
G1 X58.864 Y48.362 E44.30183
G1 X58.864 Y49.121 E44.35266
G1 X71.136 Y36.850 E45.51453
G1 X71.136 Y37.609 E45.56535
G1 X58.864 Y49.880 E46.72723
G1 X58.864 Y50.639 E46.77805
G1 X71.136 Y38.368 E47.93992
G1 X71.136 Y39.127 E47.99075
G1 X58.864 Y51.398 E49.15262
G1 X58.864 Y52.157 E49.20344
G1 X71.136 Y39.886 E50.36531
G1 X71.136 Y40.645 E50.41614
G1 X58.864 Y52.917 E51.57801
G1 X58.864 Y53.676 E51.62883
G1 X71.136 Y41.404 E52.79070
G1 X71.136 Y42.164 E52.84153
G1 X58.864 Y54.435 E54.00340
G1 X58.864 Y55.194 E54.05422
G1 X71.136 Y42.923 E55.21610
G1 X71.136 Y43.682 E55.26692
G1 X58.864 Y55.953 E56.42879
G1 X58.864 Y56.712 E56.47962
G1 X71.136 Y44.441 E57.64149
G1 X71.136 Y45.200 E57.69231
G1 X58.864 Y57.471 E58.85418
G1 X58.864 Y58.230 E58.90501
G1 X71.136 Y45.959 E60.06688
G1 X71.136 Y46.718 E60.11770
G1 X58.864 Y58.990 E61.27957
G1 X58.864 Y59.749 E61.33040
G1 X71.136 Y47.478 E62.49227
G1 X71.136 Y48.237 E62.54309
G1 X58.864 Y60.508 E63.70497
G1 X58.864 Y61.267 E63.75579
G1 X71.136 Y48.996 E64.91766
G1 X71.136 Y49.755 E64.96849
G1 X58.864 Y62.026 E66.13036
G1 X58.864 Y62.785 E66.18118
G1 X71.136 Y50.514 E67.34305
G1 X71.136 Y51.273 E67.39388
G1 X58.864 Y63.544 E68.55575
G1 X58.864 Y64.303 E68.60657
G1 X71.136 Y52.032 E69.76844
G1 X71.136 Y52.791 E69.81927
G1 X58.864 Y65.063 E70.98114
G1 X58.864 Y65.822 E71.03196
G1 X71.136 Y53.551 E72.19384
G1 X71.136 Y54.310 E72.24466
G1 X58.864 Y66.581 E73.40653
G1 X58.864 Y67.340 E73.45736
G1 X71.136 Y55.069 E74.61923
G1 X71.136 Y55.828 E74.67005
G1 X58.864 Y68.099 E75.83192
G1 X58.864 Y68.858 E75.88275
G1 X71.136 Y56.587 E77.04462
G1 X71.136 Y57.346 E77.09544
G1 X58.864 Y69.617 E78.25731
G1 X58.864 Y70.377 E78.30814
G1 X71.136 Y58.105 E79.47001
G1 X71.136 Y58.864 E79.52083
G1 X58.864 Y71.136 E80.68271
G1 X58.864 Y71.895 E80.73353
G1 X71.136 Y59.624 E81.89540
G1 X71.136 Y60.383 E81.94623
G1 X58.864 Y72.654 E83.10810
G1 X58.864 Y73.413 E83.15892
G1 X71.136 Y61.142 E84.32079
G1 X71.136 Y61.901 E84.37162
G1 X58.864 Y74.172 E85.53349
G1 X58.864 Y74.931 E85.58431
G1 X71.136 Y62.660 E86.74618
G1 X71.136 Y63.419 E86.79701
G1 X58.864 Y75.690 E87.95888
G1 X58.864 Y76.450 E88.00970
G1 X71.136 Y64.178 E89.17158
G1 X71.136 Y64.938 E89.22240
G1 X58.864 Y77.209 E90.38427
G1 X58.864 Y77.968 E90.43510
G1 X71.136 Y65.697 E91.59697
G1 X71.136 Y66.456 E91.64779
G1 X58.864 Y78.727 E92.80966
G1 X58.864 Y79.486 E92.86049
G1 X71.136 Y67.215 E94.02236
G1 X71.136 Y67.974 E94.07318
G1 X58.864 Y80.245 E95.23505
G1 X58.864 Y81.004 E95.28588
G1 X71.136 Y68.733 E96.44775
G1 X71.136 Y69.492 E96.49857
G1 X58.864 Y81.763 E97.66045
G1 X58.864 Y82.523 E97.71127
G1 X71.136 Y70.251 E98.87314
G1 X71.136 Y71.011 E98.92397
G1 X58.864 Y83.282 E100.08584
G1 X58.864 Y84.041 E100.13666
G1 X71.136 Y71.770 E101.29853
G1 X71.136 Y72.529 E101.34936
G1 X58.864 Y84.800 E102.51123
G1 X58.864 Y85.559 E102.56205
G1 X71.136 Y73.288 E103.72392
G1 X71.136 Y74.047 E103.77475
G1 X58.864 Y86.318 E104.93662
G1 X58.864 Y87.077 E104.98744
G1 X71.136 Y74.806 E106.14932
G1 X71.136 Y75.565 E106.20014
G1 X58.864 Y87.837 E107.36201
G1 X58.864 Y88.596 E107.41284
G1 X71.136 Y76.324 E108.57471
G1 X71.136 Y77.084 E108.62553
G1 X58.864 Y89.355 E109.78740
G1 X58.864 Y90.114 E109.83823
G1 X71.136 Y77.843 E111.00010
G1 X71.136 Y78.602 E111.05092
G1 X58.864 Y90.873 E112.21280
G1 X58.864 Y91.632 E112.26362
G1 X71.136 Y79.361 E113.42549
G1 X71.136 Y80.120 E113.47632
G1 X58.864 Y92.391 E114.63819
G1 X58.864 Y93.150 E114.68901
G1 X71.136 Y80.879 E115.85088
G1 X71.136 Y81.638 E115.90171
G1 X58.864 Y93.910 E117.06358
G1 X58.864 Y94.669 E117.11440
G1 X71.136 Y82.398 E118.27627
G1 X71.136 Y83.157 E118.32710
G1 X58.864 Y95.428 E119.48897
G1 X58.864 Y96.187 E119.53980
G1 X71.136 Y83.916 E120.70167
G1 X71.136 Y84.675 E120.75249
G1 X58.864 Y96.946 E121.91436
G1 X58.864 Y97.705 E121.96519
G1 X71.136 Y85.434 E123.12706
G1 X71.136 Y86.193 E123.17788
G1 X58.864 Y98.464 E124.33975
G1 X58.864 Y99.223 E124.39058
G1 X71.136 Y86.952 E125.55245
G1 X71.136 Y87.711 E125.60327
G1 X58.864 Y99.983 E126.76515
G1 X58.864 Y100.742 E126.81597
G1 X71.136 Y88.471 E127.97784
G1 X71.136 Y89.230 E128.02867
G1 X58.864 Y101.501 E129.19054
G1 X58.864 Y102.260 E129.24136
G1 X71.136 Y89.989 E130.40323
G1 X71.136 Y90.748 E130.45406
G1 X58.864 Y103.019 E131.61593
G1 X58.864 Y103.778 E131.66675
G1 X71.136 Y91.507 E132.82863
G1 X71.136 Y92.266 E132.87945
G1 X58.864 Y104.537 E134.04132
G1 X58.864 Y105.297 E134.09215
G1 X71.136 Y93.025 E135.25402
G1 X71.136 Y93.784 E135.30484
G1 X58.864 Y106.056 E136.46671
G1 X58.864 Y106.815 E136.51754
G1 X71.136 Y94.544 E137.67941
G1 X71.136 Y95.303 E137.73023
G1 X58.864 Y107.574 E138.89211
G1 X58.864 Y108.333 E138.94293
G1 X71.136 Y96.062 E140.10480
G1 X71.136 Y96.821 E140.15563
G1 X58.864 Y109.092 E141.31750
G1 X58.864 Y109.851 E141.36832
G1 X71.136 Y97.580 E142.53019
G1 X71.136 Y98.339 E142.58102
G1 X58.864 Y110.610 E143.74289
G1 X58.864 Y111.370 E143.79371
G1 X71.136 Y99.098 E144.95558
G1 X71.136 Y99.857 E145.00641
G1 X58.864 Y112.129 E146.16828
G1 X58.864 Y112.888 E146.21911
G1 X71.136 Y100.617 E147.38098
G1 X71.136 Y101.376 E147.43180
G1 X58.876 Y113.636 E148.59260
G1 X59.635 Y113.636 E148.64342
G1 X71.136 Y102.135 E149.73234
G1 X71.136 Y102.894 E149.78317
G1 X60.394 Y113.636 E150.80021
G1 X61.153 Y113.636 E150.85104
G1 X71.136 Y103.653 E151.79620
G1 X71.136 Y104.412 E151.84703
G1 X61.912 Y113.636 E152.72032
G1 X62.671 Y113.636 E152.77114
G1 X71.136 Y105.171 E153.57256
G1 X71.136 Y105.931 E153.62338
G1 X63.431 Y113.636 E154.35292
G1 X64.190 Y113.636 E154.40375
G1 X71.136 Y106.690 E155.06141
G1 X71.136 Y107.449 E155.11223
G1 X64.949 Y113.636 E155.69802
G1 X65.708 Y113.636 E155.74884
G1 X71.136 Y108.208 E156.26275
G1 X71.136 Y108.967 E156.31357
G1 X66.467 Y113.636 E156.75560
G1 X67.226 Y113.636 E156.80643
G1 X71.136 Y109.726 E157.17658
G1 X71.136 Y110.485 E157.22741
G1 X67.985 Y113.636 E157.52569
G1 X68.744 Y113.636 E157.57651
G1 X71.136 Y111.244 E157.80291
G1 X71.136 Y112.004 E157.85374
G1 X69.504 Y113.636 E158.00826
G1 X70.263 Y113.636 E158.05909
G1 X71.136 Y112.763 E158.14173
G1 X71.136 Y113.522 E158.19256
G1 X71.022 Y113.636 E158.20333
G1 Z0.500 F30000.000
G1 X71.853 Y15.647 F30000.000
G1 F6000
G1 X71.853 Y114.353 E161.13403
G1 X58.147 Y114.353 E161.54098
G1 X58.147 Y15.647 E164.47168
G1 X71.793 Y15.647 E164.87685
G1 X72.230 Y15.270 F30000.000
G1 F2100
G1 X72.230 Y114.730 E168.16075
G1 X57.770 Y114.730 E168.63818
G1 X57.770 Y15.270 E171.92208
G1 X72.170 Y15.270 E172.39753
G1 X72.211 Y15.670 F30000.000
G1 X71.444 Y16.153 F30000.000
G1 F3600
G1 X71.347 Y16.056 E172.40391
G1 X70.557 Y16.056 E172.44059
G1 X71.444 Y16.943 E172.49884
G1 X71.444 Y17.733 E172.53553
G1 X69.767 Y16.056 E172.64566
G1 X68.978 Y16.056 E172.68235
G1 X71.444 Y18.522 E172.84436
G1 X71.444 Y19.312 E172.88104
G1 X68.188 Y16.056 E173.09493
G1 X67.398 Y16.056 E173.13162
G1 X71.444 Y20.102 E173.39738
G1 X71.444 Y20.892 E173.43407
G1 X66.608 Y16.056 E173.75172
G1 X65.818 Y16.056 E173.78840
G1 X71.444 Y21.682 E174.15792
G1 X71.444 Y22.472 E174.19461
G1 X65.028 Y16.056 E174.61601
G1 X64.238 Y16.056 E174.65270
G1 X71.444 Y23.262 E175.12598
G1 X71.444 Y24.052 E175.16266
G1 X63.448 Y16.056 E175.68782
G1 X62.659 Y16.056 E175.72450
G1 X71.444 Y24.841 E176.30154
G1 X71.444 Y25.631 E176.33823
G1 X61.869 Y16.056 E176.96714
G1 X61.079 Y16.056 E177.00383
G1 X71.444 Y26.421 E177.68462
G1 X71.444 Y27.211 E177.72131
G1 X60.289 Y16.056 E178.45398
G1 X59.499 Y16.056 E178.49066
G1 X71.444 Y28.001 E179.27521
G1 X71.444 Y28.791 E179.31190
G1 X58.709 Y16.056 E180.14833
G1 X58.556 Y16.056 E180.15546
G1 X58.556 Y16.692 E180.18501
G1 X71.444 Y29.581 E181.03152
G1 X71.444 Y30.371 E181.06821
G1 X58.556 Y17.482 E181.91472
G1 X58.556 Y18.272 E181.95140
G1 X71.444 Y31.160 E182.79792
G1 X71.444 Y31.950 E182.83460
G1 X58.556 Y19.062 E183.68111
G1 X58.556 Y19.852 E183.71780
G1 X71.444 Y32.740 E184.56431
G1 X71.444 Y33.530 E184.60099
G1 X58.556 Y20.641 E185.44750
G1 X58.556 Y21.431 E185.48419
G1 X71.444 Y34.320 E186.33070
G1 X71.444 Y35.110 E186.36738
G1 X58.556 Y22.221 E187.21390
G1 X58.556 Y23.011 E187.25058
G1 X71.444 Y35.900 E188.09709
G1 X71.444 Y36.690 E188.13378
G1 X58.556 Y23.801 E188.98029
G1 X58.556 Y24.591 E189.01697
G1 X71.444 Y37.479 E189.86349
G1 X71.444 Y38.269 E189.90017
G1 X58.556 Y25.381 E190.74668
G1 X58.556 Y26.171 E190.78337
G1 X71.444 Y39.059 E191.62988
G1 X71.444 Y39.849 E191.66656
G1 X58.556 Y26.960 E192.51308
G1 X58.556 Y27.750 E192.54976
G1 X71.444 Y40.639 E193.39627
G1 X71.444 Y41.429 E193.43295
G1 X58.556 Y28.540 E194.27947
G1 X58.556 Y29.330 E194.31615
G1 X71.444 Y42.219 E195.16266
G1 X71.444 Y43.009 E195.19935
G1 X58.556 Y30.120 E196.04586
G1 X58.556 Y30.910 E196.08254
G1 X71.444 Y43.799 E196.92906
G1 X71.444 Y44.588 E196.96574
G1 X58.556 Y31.700 E197.81225
G1 X58.556 Y32.490 E197.84894
G1 X71.444 Y45.378 E198.69545
G1 X71.444 Y46.168 E198.73213
G1 X58.556 Y33.279 E199.57865
G1 X58.556 Y34.069 E199.61533
G1 X71.444 Y46.958 E200.46184
G1 X71.444 Y47.748 E200.49853
G1 X58.556 Y34.859 E201.34504
G1 X58.556 Y35.649 E201.38172
G1 X71.444 Y48.538 E202.22823
G1 X71.444 Y49.328 E202.26492
G1 X58.556 Y36.439 E203.11143
G1 X58.556 Y37.229 E203.14811
G1 X71.444 Y50.118 E203.99463
G1 X71.444 Y50.907 E204.03131
G1 X58.556 Y38.019 E204.87782
G1 X58.556 Y38.809 E204.91451
G1 X71.444 Y51.697 E205.76102
G1 X71.444 Y52.487 E205.79770
G1 X58.556 Y39.599 E206.64421
G1 X58.556 Y40.388 E206.68090
G1 X71.444 Y53.277 E207.52741
G1 X71.444 Y54.067 E207.56409
G1 X58.556 Y41.178 E208.41061
G1 X58.556 Y41.968 E208.44729
G1 X71.444 Y54.857 E209.29380
G1 X71.444 Y55.647 E209.33049
G1 X58.556 Y42.758 E210.17700
G1 X58.556 Y43.548 E210.21368
G1 X71.444 Y56.437 E211.06020
G1 X71.444 Y57.226 E211.09688
G1 X58.556 Y44.338 E211.94339
G1 X58.556 Y45.128 E211.98008
G1 X71.444 Y58.016 E212.82659
G1 X71.444 Y58.806 E212.86327
G1 X58.556 Y45.918 E213.70978
G1 X58.556 Y46.707 E213.74647
G1 X71.444 Y59.596 E214.59298
G1 X71.444 Y60.386 E214.62966
G1 X58.556 Y47.497 E215.47618
G1 X58.556 Y48.287 E215.51286
G1 X71.444 Y61.176 E216.35937
G1 X71.444 Y61.966 E216.39606
G1 X58.556 Y49.077 E217.24257
G1 X58.556 Y49.867 E217.27925
G1 X71.444 Y62.756 E218.12577
G1 X71.444 Y63.546 E218.16245
G1 X58.556 Y50.657 E219.00896
G1 X58.556 Y51.447 E219.04564
G1 X71.444 Y64.335 E219.89216
G1 X71.444 Y65.125 E219.92884
G1 X58.556 Y52.237 E220.77535
G1 X58.556 Y53.026 E220.81204
G1 X71.444 Y65.915 E221.65855
G1 X71.444 Y66.705 E221.69523
G1 X58.556 Y53.816 E222.54175
G1 X58.556 Y54.606 E222.57843
G1 X71.444 Y67.495 E223.42494
G1 X71.444 Y68.285 E223.46163
G1 X58.556 Y55.396 E224.30814
G1 X58.556 Y56.186 E224.34482
G1 X71.444 Y69.075 E225.19133
G1 X71.444 Y69.865 E225.22802
G1 X58.556 Y56.976 E226.07453
G1 X58.556 Y57.766 E226.11121
G1 X71.444 Y70.654 E226.95773
G1 X71.444 Y71.444 E226.99441
G1 X58.556 Y58.556 E227.84092
G1 X58.556 Y59.345 E227.87761
G1 X71.444 Y72.234 E228.72412
G1 X71.444 Y73.024 E228.76080
G1 X58.556 Y60.135 E229.60732
G1 X58.556 Y60.925 E229.64400
G1 X71.444 Y73.814 E230.49051
G1 X71.444 Y74.604 E230.52720
G1 X58.556 Y61.715 E231.37371
G1 X58.556 Y62.505 E231.41039
G1 X71.444 Y75.394 E232.25690
G1 X71.444 Y76.184 E232.29359
G1 X58.556 Y63.295 E233.14010
G1 X58.556 Y64.085 E233.17678
G1 X71.444 Y76.973 E234.02330
G1 X71.444 Y77.763 E234.05998
