; generated by Slic3r 1.3.0 on 2021-08-02 at 20:59:26

; external perimeters extrusion width = 0.44mm (2.78mm^3/s)
; perimeters extrusion width = 0.40mm (7.14mm^3/s)
; infill extrusion width = 0.50mm (10.97mm^3/s)
; solid infill extrusion width = 0.60mm (6.68mm^3/s)
; top infill extrusion width = 0.40mm (2.14mm^3/s)

M107
M190 S80 ; set bed temperature and wait for it to be reached
M104 S210 ; set temperature
G28 ; home all axes
G1 Z5 F5000 ; lift nozzle

; Filament gcode

M109 S210 ; set temperature and wait for it to be reached
G21 ; set units to millimeters
G90 ; use absolute coordinates
M82 ; use absolute distances for extrusion
G92 E0
G1 Z0.300 F30000.000
G1 E-2.00000 F2400.00000
G92 E0
G1 X42.873 Y52.144 F30000.000
G1 E2.00000 F2400.00000
G1 F2100
G1 X44.610 Y50.761 E2.14835
G1 X46.722 Y50.077 E2.29669
G1 X49.158 Y50.233 E2.45976
G1 X74.058 Y56.905 E4.18190
G1 X76.066 Y57.854 E4.33025
G1 X77.612 Y59.448 E4.47859
G1 X78.499 Y61.484 E4.62694
G1 X78.664 Y62.907 E4.72266
G1 X78.664 Y63.780 E4.78099
G1 X78.267 Y65.965 E4.92934
G1 X77.127 Y67.871 E5.07768
G1 X75.390 Y69.254 E5.22603
G1 X72.450 Y69.994 E5.42858
G1 X47.550 Y69.994 E7.09203
G1 X45.365 Y69.597 E7.24038
G1 X43.459 Y68.457 E7.38872
G1 X42.076 Y66.720 E7.53707
G1 X41.336 Y63.780 E7.73962
G1 X41.336 Y56.235 E8.24367
G1 X41.733 Y54.050 E8.39202
G1 X42.842 Y52.196 E8.53635
G1 X43.402 Y52.357 F30000.000
G1 F2100
G1 X45.116 Y51.105 E8.67811
G1 X47.169 Y50.570 E8.81986
G1 X49.020 Y50.750 E8.94408
G1 X73.920 Y57.422 E10.66622
G1 X75.830 Y58.345 E10.80798
G1 X77.269 Y59.904 E10.94973
G1 X78.128 Y62.907 E11.15836
G1 X78.128 Y63.780 E11.21669
G1 X77.732 Y65.865 E11.35844
G1 X76.598 Y67.658 E11.50020
G1 X74.884 Y68.910 E11.64195
G1 X72.450 Y69.458 E11.80865
G1 X47.550 Y69.458 E13.47210
G1 X45.465 Y69.062 E13.61386
G1 X43.672 Y67.928 E13.75561
G1 X42.420 Y66.214 E13.89737
G1 X41.872 Y63.780 E14.06407
G1 X41.872 Y56.235 E14.56812
G1 X42.268 Y54.151 E14.70987
G1 X43.370 Y52.408 E14.84762
G1 X43.931 Y52.582 F30000.000
G1 F2100
G1 X45.616 Y51.470 E14.98246
G1 X47.599 Y51.093 E15.11730
G1 X48.881 Y51.268 E15.20376
G1 X73.781 Y57.940 E16.92590
G1 X75.590 Y58.835 E17.06074
G1 X76.916 Y60.357 E17.19558
G1 X77.592 Y62.907 E17.37184
G1 X77.592 Y63.780 E17.43017
G1 X77.196 Y65.759 E17.56502
G1 X76.069 Y67.434 E17.69986
G1 X74.384 Y68.545 E17.83470
G1 X72.450 Y68.923 E17.96635
G1 X47.550 Y68.923 E19.62981
G1 X45.571 Y68.526 E19.76465
G1 X43.897 Y67.399 E19.89949
G1 X42.785 Y65.714 E20.03433
G1 X42.408 Y63.780 E20.16599
G1 X42.408 Y56.235 E20.67004
G1 X42.804 Y54.256 E20.80488
G1 X43.897 Y52.631 E20.93571
G1 X44.458 Y52.820 F30000.000
G1 F2100
G1 X46.108 Y51.860 E21.06326
G1 X48.742 Y51.785 E21.23932
G1 X73.642 Y58.457 E22.96146
G1 X75.344 Y59.323 E23.08901
G1 X76.549 Y60.804 E23.21657
G1 X77.057 Y62.907 E23.36110
G1 X77.057 Y63.780 E23.41943
G1 X76.661 Y65.648 E23.54698
G1 X75.542 Y67.195 E23.67453
G1 X73.892 Y68.155 E23.80208
G1 X72.450 Y68.387 E23.89965
G1 X47.550 Y68.387 E25.56311
G1 X45.682 Y67.991 E25.69066
G1 X44.135 Y66.872 E25.81821
G1 X43.175 Y65.222 E25.94577
G1 X42.943 Y63.780 E26.04334
G1 X42.943 Y56.235 E26.54739
G1 X43.339 Y54.367 E26.67494
G1 X44.423 Y52.869 E26.79848
G1 X44.982 Y53.076 F30000.000
G1 F2100
G1 X46.589 Y52.279 E26.91831
G1 X48.604 Y52.303 E27.05289
G1 X73.504 Y58.974 E28.77502
G1 X75.091 Y59.809 E28.89484
G1 X76.166 Y61.245 E29.01467
G1 X76.521 Y62.907 E29.12822
G1 X76.521 Y63.780 E29.18655
G1 X76.126 Y65.530 E29.30637
G1 X75.018 Y66.940 E29.42620
G1 X73.411 Y67.736 E29.54602
G1 X72.450 Y67.851 E29.61065
G1 X47.550 Y67.851 E31.27411
G1 X45.800 Y67.456 E31.39393
G1 X44.390 Y66.348 E31.51375
G1 X43.594 Y64.741 E31.63357
G1 X43.479 Y63.780 E31.69821
G1 X43.479 Y56.235 E32.20226
G1 X43.874 Y54.485 E32.32208
G1 X44.945 Y53.123 E32.43790
G1 X45.504 Y53.352 F30000.000
G1 F2100
G1 X47.055 Y52.734 E32.54945
G1 X48.465 Y52.820 E32.64381
G1 X73.365 Y59.492 E34.36594
G1 X74.830 Y60.293 E34.47750
G1 X75.765 Y61.677 E34.58906
G1 X75.986 Y62.907 E34.67256
G1 X75.986 Y63.780 E34.73089
G1 X75.591 Y65.403 E34.84245
G1 X74.496 Y66.663 E34.95400
G1 X72.450 Y67.316 E35.09748
G1 X47.550 Y67.316 E36.76093
G1 X45.927 Y66.921 E36.87249
G1 X44.667 Y65.826 E36.98405
G1 X44.014 Y63.780 E37.12752
G1 X44.014 Y56.235 E37.63157
G1 X44.409 Y54.612 E37.74313
G1 X45.464 Y53.397 E37.85068
G1 X45.981 Y53.974 F30000.000
G1 F2100
G1 X46.952 Y53.228 E37.94228
G1 X74.063 Y60.493 E40.04272
G1 X75.199 Y61.974 E40.18240
G1 X75.199 Y64.919 E40.40281
G1 X73.589 Y66.530 E40.57326
G1 X46.411 Y66.530 E42.60711
G1 X44.801 Y64.919 E42.77756
G1 X44.801 Y54.879 E43.52889
G1 X45.933 Y54.010 E43.63573
G1 X46.346 Y54.450 F30000.000
G1 F2100
G1 X47.082 Y53.885 E43.70518
G1 X73.711 Y61.020 E45.76824
G1 X74.599 Y62.177 E45.87744
G1 X74.599 Y64.670 E46.06401
G1 X73.340 Y65.930 E46.19726
G1 X46.660 Y65.930 E48.19392
G1 X45.401 Y64.670 E48.32717
G1 X45.401 Y55.175 E49.03775
G1 X46.299 Y54.486 E49.12246
G1 X46.711 Y54.926 F30000.000
G1 F2100
G1 X47.213 Y54.541 E49.16977
G1 X73.359 Y61.547 E51.19544
G1 X73.999 Y62.381 E51.27416
G1 X73.999 Y64.422 E51.42688
G1 X73.092 Y65.330 E51.52294
G1 X46.908 Y65.330 E53.48239
G1 X46.001 Y64.422 E53.57845
G1 X46.001 Y55.471 E54.24829
G1 X46.664 Y54.962 E54.31085
G1 X47.077 Y55.402 F30000.000
G1 F2100
G1 X47.343 Y55.197 E54.33602
G1 X73.007 Y62.073 E56.32431
G1 X73.399 Y62.585 E56.37254
G1 X73.399 Y64.173 E56.49143
G1 X72.843 Y64.730 E56.55028
G1 X47.157 Y64.730 E58.47254
G1 X46.601 Y64.173 E58.53140
G1 X46.601 Y55.767 E59.16050
G1 X47.029 Y55.438 E59.20092
G1 E57.20092 F2400.00000
G92 E0
G1 X45.550 Y65.780 F30000.000
G1 X47.405 Y64.130 F30000.000
G1 E2.00000 F2400.00000
G1 F2100
G1 X47.201 Y63.925 E2.02166
G1 X47.201 Y56.063 E2.61002
G1 X47.474 Y55.853 E2.63581
G1 X72.655 Y62.600 E4.58671
G1 X72.799 Y62.788 E4.60446
G1 X72.799 Y63.925 E4.68951
G1 X72.595 Y64.130 E4.71117
G1 X47.465 Y64.130 E6.59174
G1 E4.59174 F2400.00000
G92 E0
G1 X72.150 Y63.480 F30000.000
G1 E2.00000 F2400.00000
G1 F2100
G1 X47.850 Y63.480 E3.62337
G1 X47.850 Y56.626 E4.08126
G1 X72.150 Y63.137 E5.76190
G1 X72.150 Y63.420 E5.78080
G1 X71.765 Y63.370 F30000.000
G1 E3.78080 F2400.00000
G92 E0
G1 X68.282 Y62.945 F30000.000
G1 E2.00000 F2400.00000
G1 F2100
G1 X48.386 Y62.945 E3.32918
G1 X48.386 Y57.324 E3.70465
G1 X68.319 Y62.665 E5.08326
G1 X68.290 Y62.885 E5.09808
G1 X68.566 Y62.840 F30000.000
G1 F2100
G1 X68.998 Y62.897 E5.12774
G1 F2100
G1 X69.430 Y62.954 E5.15209
G1 F2100
G1 X69.862 Y63.010 E5.17112
G1 F2100
G1 X70.294 Y63.067 E5.18483
G1 F2100
G1 X70.726 Y63.124 E5.19322
G1 F2100
G1 X71.158 Y63.181 E5.19629
G1 E3.19629 F2400.00000
G92 E0
G1 X67.089 Y62.645 F30000.000
G1 E2.00000 F2400.00000
G1 F2100
G1 X66.657 Y62.589 E2.00307
G1 F2100
G1 X66.225 Y62.532 E2.01146
G1 F2100
G1 X65.793 Y62.475 E2.02517
G1 F2100
G1 X65.361 Y62.418 E2.04420
G1 F2100
G1 X64.929 Y62.361 E2.06855
G1 F2100
G1 X64.497 Y62.304 E2.09821
G1 X64.000 Y62.352 F30000.000
G1 F2100
G1 X63.886 Y62.466 E2.10921
G1 X63.110 Y62.466 F30000.000
G1 F2100
G1 X63.673 Y61.903 E2.16372
G1 X63.061 Y61.739 E2.20713
G1 X62.334 Y62.466 E2.27752
G1 X61.557 Y62.466 E2.33068
G1 X62.448 Y61.575 E2.41697
G1 X61.836 Y61.411 E2.46037
G1 X60.781 Y62.466 E2.56254
G1 X60.005 Y62.466 E2.61569
G1 X61.224 Y61.246 E2.73375
G1 X60.612 Y61.082 E2.77715
G1 X59.228 Y62.466 E2.91110
G1 X58.452 Y62.466 E2.96425
G1 X59.999 Y60.918 E3.11408
G1 X59.387 Y60.754 E3.15748
G1 X57.676 Y62.466 E3.32320
G1 X56.899 Y62.466 E3.37636
G1 X58.775 Y60.590 E3.55796
G1 X58.162 Y60.426 E3.60136
G1 X56.123 Y62.466 E3.79885
G1 X55.347 Y62.466 E3.85200
G1 X57.550 Y60.262 E4.06538
G1 X56.938 Y60.098 E4.10878
G1 X54.570 Y62.466 E4.33804
G1 X53.794 Y62.466 E4.39120
G1 X56.326 Y59.934 E4.63634
G1 X55.713 Y59.770 E4.67974
G1 X53.018 Y62.466 E4.94078
G1 X52.241 Y62.466 E4.99393
G1 X55.101 Y59.606 E5.27085
G1 X54.489 Y59.442 E5.31425
G1 X51.465 Y62.466 E5.60706
G1 X50.688 Y62.466 E5.66021
G1 X53.876 Y59.278 E5.96890
G1 X53.264 Y59.114 E6.01231
G1 X49.912 Y62.466 E6.33688
G1 X49.136 Y62.466 E6.39004
G1 X52.652 Y58.950 E6.73050
G1 X52.040 Y58.786 E6.77390
G1 X48.864 Y61.961 E7.08136
G1 X48.864 Y61.184 E7.13451
G1 X51.427 Y58.622 E7.38268
G1 X50.815 Y58.457 E7.42608
G1 X48.864 Y60.408 E7.61496
G1 X48.864 Y59.632 E7.66811
G1 X50.203 Y58.293 E7.79770
G1 X49.590 Y58.129 E7.84111
G1 X48.864 Y58.855 E7.91141
G1 X48.864 Y58.079 E7.96456
G1 X48.978 Y57.965 E7.97558
G1 Z0.500 F30000.000
G1 X70.454 Y63.183 F30000.000
G1 F4550.93
G1 X48.147 Y63.183 E8.63789
G1 X48.147 Y57.013 E8.82108
G1 X70.478 Y62.997 E9.50751
G1 X70.461 Y63.124 E9.51130
G1 X72.230 Y63.076 F30000.000
G1 F2100
G1 X72.230 Y63.560 E9.52730
G1 X47.770 Y63.560 E10.33490
G1 X47.770 Y56.522 E10.56729
G1 X72.172 Y63.060 E11.40140
G1 X72.001 Y63.403 F30000.000
G1 X72.041 Y63.297 F30000.000
G1 F910.186
G1 X71.579 Y63.236 E11.40821
G1 F910.186
G1 X71.116 Y63.175 E11.41869
G1 F910.186
G1 X70.653 Y63.115 E11.43284
G1 X69.659 Y62.984 F30000.000
G1 F910.186
G1 X69.227 Y62.927 E11.43480
G1 F910.186
G1 X68.795 Y62.870 E11.44030
G1 F910.186
G1 X68.363 Y62.813 E11.44935
G1 F910.186
G1 X67.931 Y62.756 E11.46194
G1 X67.530 Y62.716 F30000.000
G1 F2730.56
G1 X67.433 Y62.618 E11.46831
G1 X66.355 Y62.330 E11.52007
G1 X66.800 Y62.774 E11.54926
G1 X66.011 Y62.774 E11.58586
G1 X65.277 Y62.041 E11.63399
G1 X64.199 Y61.752 E11.68575
G1 X65.222 Y62.774 E11.75283
G1 X64.433 Y62.774 E11.78943
G1 X63.122 Y61.463 E11.87546
G1 X62.044 Y61.174 E11.92722
G1 X63.644 Y62.774 E12.03219
G1 X62.855 Y62.774 E12.06879
G1 X60.966 Y60.886 E12.19271
G1 X59.888 Y60.597 E12.24447
G1 X62.066 Y62.774 E12.38733
G1 X61.277 Y62.774 E12.42393
G1 X58.810 Y60.308 E12.58574
G1 X57.733 Y60.019 E12.63750
G1 X60.488 Y62.774 E12.81826
G1 X59.699 Y62.774 E12.85486
G1 X56.655 Y59.730 E13.05456
G1 X55.577 Y59.442 E13.10633
G1 X58.910 Y62.774 E13.32498
G1 X58.121 Y62.774 E13.36158
G1 X54.499 Y59.153 E13.59917
G1 X53.421 Y58.864 E13.65094
G1 X57.332 Y62.774 E13.90748
G1 X56.543 Y62.774 E13.94408
G1 X52.344 Y58.575 E14.21957
G1 X51.266 Y58.287 E14.27133
G1 X55.754 Y62.774 E14.56576
G1 X54.965 Y62.774 E14.60237
G1 X50.188 Y57.998 E14.91575
G1 X49.110 Y57.709 E14.96751
G1 X54.176 Y62.774 E15.29984
G1 X53.387 Y62.774 E15.33644
G1 X48.556 Y57.943 E15.65339
G1 X48.556 Y58.732 E15.68999
G1 X52.598 Y62.774 E15.95517
G1 X51.809 Y62.774 E15.99177
G1 X48.556 Y59.521 E16.20519
G1 X48.556 Y60.310 E16.24180
G1 X51.020 Y62.774 E16.40345
G1 X50.231 Y62.774 E16.44006
G1 X48.556 Y61.099 E16.54995
G1 X48.556 Y61.888 E16.58655
G1 X49.442 Y62.774 E16.64469
G1 X48.653 Y62.774 E16.68129
G1 X48.556 Y62.677 E16.68766
G1 Z0.700 F30000.000
G1 X70.454 Y63.183 F30000.000
G1 F4516.36
G1 X48.147 Y63.183 E17.34997
G1 X48.147 Y57.013 E17.53316
G1 X70.478 Y62.997 E18.21959
G1 X70.461 Y63.124 E18.22338
G1 X72.230 Y63.076 F30000.000
G1 F2100
G1 X72.230 Y63.560 E18.23937
G1 X47.770 Y63.560 E19.04698
G1 X47.770 Y56.522 E19.27937
G1 X72.172 Y63.060 E20.11348
G1 X72.001 Y63.403 F30000.000
G1 X72.041 Y63.297 F30000.000
G1 F903.273
G1 X71.579 Y63.236 E20.12029
G1 F903.273
G1 X71.116 Y63.175 E20.13077
G1 F903.273
G1 X70.653 Y63.115 E20.14492
G1 X69.659 Y62.984 F30000.000
G1 F903.273
G1 X69.268 Y62.932 E20.14667
G1 F903.273
G1 X68.822 Y62.873 E20.15231
G1 F903.273
G1 X68.376 Y62.815 E20.16162
G1 F903.273
G1 X67.931 Y62.756 E20.17461
G1 X67.522 Y62.678 F30000.000
G1 F2709.82
G1 X67.425 Y62.774 E20.18105
G1 X66.625 Y62.774 F30000.000
G1 F2709.82
G1 X66.940 Y62.460 E20.20194
G1 X66.309 Y62.291 E20.23263
G1 X65.826 Y62.774 E20.26475
G1 X65.026 Y62.774 E20.30233
G1 X65.678 Y62.122 E20.34569
G1 X65.048 Y61.953 E20.37638
G1 X64.227 Y62.774 E20.43096
G1 X63.427 Y62.774 E20.46855
G1 X64.417 Y61.784 E20.53437
G1 X63.787 Y61.615 E20.56506
G1 X62.628 Y62.774 E20.64211
G1 X61.828 Y62.774 E20.67969
G1 X63.156 Y61.447 E20.76798
G1 X62.525 Y61.278 E20.79867
G1 X61.029 Y62.774 E20.89818
G1 X60.229 Y62.774 E20.93577
G1 X61.895 Y61.109 E21.04652
G1 X61.264 Y60.940 E21.07721
G1 X59.430 Y62.774 E21.19919
G1 X58.630 Y62.774 E21.23678
G1 X60.634 Y60.771 E21.37000
G1 X60.003 Y60.602 E21.40069
G1 X57.830 Y62.774 E21.54514
G1 X57.031 Y62.774 E21.58272
G1 X59.373 Y60.433 E21.73841
G1 X58.742 Y60.264 E21.76910
G1 X56.231 Y62.774 E21.93601
G1 X55.432 Y62.774 E21.97360
G1 X58.111 Y60.095 E22.15175
G1 X57.481 Y59.926 E22.18244
G1 X54.632 Y62.774 E22.37182
G1 X53.833 Y62.774 E22.40941
G1 X56.850 Y59.757 E22.61002
G1 X56.220 Y59.588 E22.64071
G1 X53.033 Y62.774 E22.85256
G1 X52.234 Y62.774 E22.89015
G1 X55.589 Y59.419 E23.11323
G1 X54.959 Y59.250 E23.14392
G1 X51.434 Y62.774 E23.37823
G1 X50.635 Y62.774 E23.41582
G1 X54.328 Y59.081 E23.66137
G1 X53.697 Y58.912 E23.69206
G1 X49.835 Y62.774 E23.94884
G1 X49.035 Y62.774 E23.98643
G1 X53.067 Y58.743 E24.25444
G1 X52.436 Y58.574 E24.28513
G1 X48.556 Y62.455 E24.54312
G1 X48.556 Y61.655 E24.58070
G1 X51.806 Y58.405 E24.79677
G1 X51.175 Y58.236 E24.82746
G1 X48.556 Y60.856 E25.00160
G1 X48.556 Y60.056 E25.03919
G1 X50.544 Y58.067 E25.17141
G1 X49.914 Y57.898 E25.20210
G1 X48.556 Y59.257 E25.29240
G1 X48.556 Y58.457 E25.32999
G1 X49.283 Y57.729 E25.37836
G1 X48.653 Y57.560 E25.40905
G1 X48.556 Y57.657 E25.41550
M106 S255
G1 Z0.900 F30000.000
G1 X70.454 Y63.183 F30000.000
G1 F4550.92
G1 X48.147 Y63.183 E26.07781
G1 X48.147 Y57.013 E26.26100
G1 X70.478 Y62.997 E26.94743
G1 X70.461 Y63.124 E26.95122
G1 X72.230 Y63.076 F30000.000
G1 F2100
G1 X72.230 Y63.560 E26.96722
G1 X47.770 Y63.560 E27.77482
G1 X47.770 Y56.522 E28.00721
G1 X72.172 Y63.060 E28.84132
G1 X72.001 Y63.403 F30000.000
G1 X72.041 Y63.297 F30000.000
G1 F910.183
G1 X71.579 Y63.236 E28.84813
G1 F910.183
G1 X71.116 Y63.175 E28.85861
G1 F910.183
G1 X70.653 Y63.115 E28.87276
G1 X69.659 Y62.984 F30000.000
G1 F910.183
G1 X69.302 Y62.937 E28.87429
G1 F910.183
G1 X68.945 Y62.890 E28.87859
G1 F910.183
G1 X68.589 Y62.843 E28.88564
G1 F910.183
G1 X68.232 Y62.796 E28.89546
G1 F910.183
G1 X67.931 Y62.756 E28.90549
G1 X67.530 Y62.716 F30000.000
G1 F2730.55
G1 X67.433 Y62.618 E28.91186
G1 X66.355 Y62.330 E28.96363
G1 X66.800 Y62.774 E28.99281
G1 X66.011 Y62.774 E29.02941
G1 X65.277 Y62.041 E29.07754
G1 X64.199 Y61.752 E29.12930
G1 X65.222 Y62.774 E29.19638
G1 X64.433 Y62.774 E29.23298
G1 X63.122 Y61.463 E29.31900
G1 X62.044 Y61.174 E29.37076
G1 X63.644 Y62.774 E29.47573
G1 X62.855 Y62.774 E29.51233
G1 X60.966 Y60.886 E29.63624
G1 X59.888 Y60.597 E29.68801
G1 X62.066 Y62.774 E29.83087
G1 X61.277 Y62.774 E29.86747
G1 X58.810 Y60.308 E30.02928
G1 X57.733 Y60.019 E30.08104
G1 X60.488 Y62.774 E30.26179
G1 X59.699 Y62.774 E30.29839
G1 X56.655 Y59.730 E30.49809
G1 X55.577 Y59.442 E30.54985
G1 X58.910 Y62.774 E30.76850
G1 X58.121 Y62.774 E30.80510
G1 X54.499 Y59.153 E31.04269
G1 X53.421 Y58.864 E31.09446
G1 X57.332 Y62.774 E31.35100
G1 X56.543 Y62.774 E31.38760
G1 X52.344 Y58.575 E31.66308
G1 X51.266 Y58.287 E31.71484
G1 X55.754 Y62.774 E32.00928
G1 X54.965 Y62.774 E32.04588
G1 X50.188 Y57.998 E32.35926
G1 X49.110 Y57.709 E32.41102
G1 X54.176 Y62.774 E32.74334
G1 X53.387 Y62.774 E32.77994
G1 X48.556 Y57.943 E33.09689
G1 X48.556 Y58.732 E33.13349
G1 X52.598 Y62.774 E33.39867
G1 X51.809 Y62.774 E33.43528
G1 X48.556 Y59.521 E33.64870
G1 X48.556 Y60.310 E33.68530
G1 X51.020 Y62.774 E33.84696
G1 X50.231 Y62.774 E33.88356
G1 X48.556 Y61.099 E33.99346
G1 X48.556 Y61.888 E34.03006
G1 X49.442 Y62.774 E34.08819
G1 X48.653 Y62.774 E34.12479
G1 X48.556 Y62.677 E34.13117
G1 Z1.100 F30000.000
G1 X70.454 Y63.183 F30000.000
G1 F4516.34
G1 X48.147 Y63.183 E34.79348
G1 X48.147 Y57.013 E34.97667
G1 X70.478 Y62.997 E35.66310
G1 X70.461 Y63.124 E35.66689
G1 X72.230 Y63.076 F30000.000
G1 F2100
G1 X72.230 Y63.560 E35.68288
G1 X47.770 Y63.560 E36.49049
G1 X47.770 Y56.522 E36.72288
G1 X72.172 Y63.060 E37.55699
G1 X72.001 Y63.403 F30000.000
G1 X72.041 Y63.297 F30000.000
G1 F903.268
G1 X71.579 Y63.236 E37.56380
G1 F903.268
G1 X71.116 Y63.175 E37.57428
G1 F903.268
G1 X70.653 Y63.115 E37.58843
G1 X69.659 Y62.984 F30000.000
G1 F903.268
G1 X69.227 Y62.927 E37.59039
G1 F903.268
G1 X68.795 Y62.870 E37.59589
G1 F903.268
G1 X68.363 Y62.813 E37.60493
G1 F903.268
G1 X67.931 Y62.756 E37.61753
G1 X67.522 Y62.677 F30000.000
