; generated by Slic3r 1.3.0 on 2020-05-20 at 12:33:18

; external perimeters extrusion width = 0.44mm (2.78mm^3/s)
; perimeters extrusion width = 0.40mm (7.14mm^3/s)
; infill extrusion width = 0.50mm (10.97mm^3/s)
; solid infill extrusion width = 0.60mm (6.68mm^3/s)
; top infill extrusion width = 0.40mm (2.14mm^3/s)

M107
M190 S80 ; set bed temperature and wait for it to be reached
M104 S200 ; set temperature
G28 ; home all axes
G1 Z5 F5000 ; lift nozzle

; Filament gcode

M109 S200 ; set temperature and wait for it to be reached
G21 ; set units to millimeters
G90 ; use absolute coordinates
M82 ; use absolute distances for extrusion
G92 E0
G1 Z0.300 F30000.000
G1 E-2.00000 F2400.00000
G92 E0
G1 X37.482 Y61.890 F30000.000
G1 E2.00000 F2400.00000
G1 F2100
G1 X39.089 Y61.094 E2.11982
G1 X40.050 Y60.979 E2.18446
G1 X159.950 Y60.979 E10.19443
G1 X161.700 Y61.374 E10.31425
G1 X163.110 Y62.482 E10.43407
G1 X163.906 Y64.089 E10.55389
G1 X164.021 Y65.050 E10.61853
G1 X164.021 Y134.950 E15.28822
G1 X163.626 Y136.700 E15.40805
G1 X162.518 Y138.110 E15.52787
G1 X160.911 Y138.906 E15.64769
G1 X159.950 Y139.021 E15.71233
G1 X40.050 Y139.021 E23.72229
G1 X38.300 Y138.626 E23.84212
G1 X36.890 Y137.518 E23.96194
G1 X36.094 Y135.911 E24.08176
G1 X35.979 Y134.950 E24.14640
G1 X35.979 Y65.050 E28.81609
G1 X36.374 Y63.300 E28.93592
G1 X37.445 Y61.938 E29.05173
G1 X38.004 Y62.167 F30000.000
G1 F2100
G1 X40.050 Y61.514 E29.19520
G1 X159.950 Y61.514 E37.20517
G1 X161.573 Y61.909 E37.31673
G1 X162.833 Y63.004 E37.42829
G1 X163.486 Y65.050 E37.57176
G1 X163.486 Y134.950 E42.24146
G1 X163.091 Y136.573 E42.35302
G1 X161.996 Y137.833 E42.46457
G1 X159.950 Y138.486 E42.60805
G1 X40.050 Y138.486 E50.61802
G1 X38.427 Y138.091 E50.72958
G1 X37.167 Y136.996 E50.84113
G1 X36.514 Y134.950 E50.98461
G1 X36.514 Y65.050 E55.65431
G1 X36.909 Y63.427 E55.76586
G1 X37.964 Y62.212 E55.87341
G1 X38.524 Y62.687 F30000.000
G1 F2100
G1 X38.911 Y62.301 E55.91434
G1 X161.089 Y62.301 E65.05754
G1 X162.699 Y63.911 E65.22799
G1 X162.699 Y136.089 E70.62943
G1 X161.089 Y137.699 E70.79988
G1 X38.911 Y137.699 E79.94308
G1 X37.301 Y136.089 E80.11353
G1 X37.301 Y63.911 E85.51497
G1 X38.482 Y62.730 E85.64000
G1 X38.949 Y63.112 F30000.000
G1 F2100
G1 X39.160 Y62.901 E85.66233
G1 X160.840 Y62.901 E94.76833
G1 X162.099 Y64.160 E94.90159
G1 X162.099 Y135.840 E100.26583
G1 X160.840 Y137.099 E100.39908
G1 X39.160 Y137.099 E109.50508
G1 X37.901 Y135.840 E109.63834
G1 X37.901 Y64.160 E115.00258
G1 X38.906 Y63.154 E115.10901
G1 X39.373 Y63.536 F30000.000
G1 F2100
G1 X39.408 Y63.501 E115.11274
G1 X160.592 Y63.501 E124.18155
G1 X161.499 Y64.408 E124.27760
G1 X161.499 Y135.592 E129.60465
G1 X160.592 Y136.499 E129.70070
G1 X39.408 Y136.499 E138.76951
G1 X38.501 Y135.592 E138.86556
G1 X38.501 Y64.408 E144.19261
G1 X39.331 Y63.578 E144.28044
G1 X39.657 Y64.101 F30000.000
G1 F2100
G1 X160.343 Y64.101 E153.31205
G1 X160.899 Y64.657 E153.37091
G1 X160.899 Y135.343 E158.66076
G1 X160.343 Y135.899 E158.71961
G1 X39.657 Y135.899 E167.75122
G1 X39.101 Y135.343 E167.81008
G1 X39.101 Y64.657 E173.09993
G1 X39.614 Y64.143 E173.15429
G1 X39.905 Y64.701 F30000.000
G1 F2100
G1 X160.095 Y64.701 E182.14871
G1 X160.299 Y64.905 E182.17037
G1 X160.299 Y135.095 E187.42302
G1 X160.095 Y135.299 E187.44468
G1 X39.905 Y135.299 E196.43909
G1 X39.701 Y135.095 E196.46075
G1 X39.701 Y64.905 E201.71340
G1 X39.863 Y64.743 E201.73057
G1 E199.73057 F2400.00000
G92 E0
G1 X40.350 Y134.650 F30000.000
G1 E2.00000 F2400.00000
G1 F2100
G1 X40.350 Y65.350 E6.62961
G1 X159.650 Y65.350 E14.59950
G1 X159.650 Y134.650 E19.22912
G1 X40.410 Y134.650 E27.19499
G1 X40.486 Y134.274 F30000.000
G1 X40.886 Y134.114 F30000.000
G1 F2100
G1 X40.886 Y65.886 E31.75304
G1 X159.114 Y65.886 E39.65136
G1 X159.114 Y134.114 E44.20941
G1 X40.946 Y134.114 E52.10373
G1 E50.10373 F2400.00000
G92 E0
G1 X49.650 Y130.350 F30000.000
G1 E2.00000 F2400.00000
G1 F2100
G1 X49.650 Y69.650 E6.05509
G1 X150.350 Y69.650 E12.78239
G1 X150.350 Y130.350 E16.83748
G1 X49.710 Y130.350 E23.56078
G1 X49.257 Y130.422 F30000.000
G1 X49.114 Y130.886 F30000.000
G1 F2100
G1 X49.114 Y69.114 E27.68743
G1 X150.886 Y69.114 E34.48630
G1 X150.886 Y130.886 E38.61295
G1 X49.174 Y130.886 E45.40781
G1 E43.40781 F2400.00000
G92 E0
G1 X41.364 Y75.580 F30000.000
G1 E2.00000 F2400.00000
G1 F2100
G1 X41.364 Y76.339 E2.05074
G1 X48.636 Y69.068 E2.73862
G1 X48.636 Y69.826 E2.78936
G1 X41.364 Y77.097 E3.47724
G1 X41.364 Y77.856 E3.52798
G1 X48.636 Y70.585 E4.21587
G1 X48.636 Y71.343 E4.26660
G1 X41.364 Y78.614 E4.95449
G1 X41.364 Y79.373 E5.00523
G1 X48.636 Y72.102 E5.69311
G1 X48.636 Y72.860 E5.74385
G1 X41.364 Y80.131 E6.43173
G1 X41.364 Y80.890 E6.48247
G1 X48.636 Y73.619 E7.17035
G1 X48.636 Y74.377 E7.22109
G1 X41.364 Y81.648 E7.90897
G1 X41.364 Y82.407 E7.95971
G1 X48.636 Y75.136 E8.64760
G1 X48.636 Y75.894 E8.69834
G1 X41.364 Y83.165 E9.38622
G1 X41.364 Y83.924 E9.43696
G1 X48.636 Y76.653 E10.12484
G1 X48.636 Y77.411 E10.17558
G1 X41.364 Y84.682 E10.86346
G1 X41.364 Y85.441 E10.91420
G1 X48.636 Y78.170 E11.60208
G1 X48.636 Y78.928 E11.65282
G1 X41.364 Y86.199 E12.34071
G1 X41.364 Y86.958 E12.39145
G1 X48.636 Y79.687 E13.07933
G1 X48.636 Y80.445 E13.13007
G1 X41.364 Y87.716 E13.81795
G1 X41.364 Y88.475 E13.86869
G1 X48.636 Y81.204 E14.55657
G1 X48.636 Y81.962 E14.60731
G1 X41.364 Y89.233 E15.29519
G1 X41.364 Y89.992 E15.34593
G1 X48.636 Y82.721 E16.03382
G1 X48.636 Y83.479 E16.08456
G1 X41.364 Y90.750 E16.77244
G1 X41.364 Y91.509 E16.82318
G1 X48.636 Y84.238 E17.51106
G1 X48.636 Y84.996 E17.56180
G1 X41.364 Y92.267 E18.24968
G1 X41.364 Y93.026 E18.30042
G1 X48.636 Y85.755 E18.98830
G1 X48.636 Y86.513 E19.03904
G1 X41.364 Y93.784 E19.72693
G1 X41.364 Y94.543 E19.77766
G1 X48.636 Y87.272 E20.46555
G1 X48.636 Y88.030 E20.51629
G1 X41.364 Y95.301 E21.20417
G1 X41.364 Y96.060 E21.25491
G1 X48.636 Y88.789 E21.94279
G1 X48.636 Y89.547 E21.99353
G1 X41.364 Y96.818 E22.68141
G1 X41.364 Y97.577 E22.73215
G1 X48.636 Y90.306 E23.42003
G1 X48.636 Y91.064 E23.47077
G1 X41.364 Y98.335 E24.15866
G1 X41.364 Y99.094 E24.20940
G1 X48.636 Y91.823 E24.89728
G1 X48.636 Y92.581 E24.94802
G1 X41.364 Y99.852 E25.63590
G1 X41.364 Y100.611 E25.68664
G1 X48.636 Y93.340 E26.37452
G1 X48.636 Y94.098 E26.42526
G1 X41.364 Y101.369 E27.11314
G1 X41.364 Y102.128 E27.16388
G1 X48.636 Y94.857 E27.85177
G1 X48.636 Y95.615 E27.90250
G1 X41.364 Y102.886 E28.59039
G1 X41.364 Y103.645 E28.64113
G1 X48.636 Y96.374 E29.32901
G1 X48.636 Y97.132 E29.37975
G1 X41.364 Y104.403 E30.06763
G1 X41.364 Y105.162 E30.11837
G1 X48.636 Y97.890 E30.80625
G1 X48.636 Y98.649 E30.85699
G1 X41.364 Y105.920 E31.54487
G1 X41.364 Y106.679 E31.59561
G1 X48.636 Y99.407 E32.28350
G1 X48.636 Y100.166 E32.33424
G1 X41.364 Y107.437 E33.02212
G1 X41.364 Y108.196 E33.07286
G1 X48.636 Y100.924 E33.76074
G1 X48.636 Y101.683 E33.81148
G1 X41.364 Y108.954 E34.49936
G1 X41.364 Y109.713 E34.55010
G1 X48.636 Y102.441 E35.23798
G1 X48.636 Y103.200 E35.28872
G1 X41.364 Y110.471 E35.97661
G1 X41.364 Y111.230 E36.02734
G1 X48.636 Y103.958 E36.71523
G1 X48.636 Y104.717 E36.76597
G1 X41.364 Y111.988 E37.45385
G1 X41.364 Y112.747 E37.50459
G1 X48.636 Y105.475 E38.19247
G1 X48.636 Y106.234 E38.24321
G1 X41.364 Y113.505 E38.93109
G1 X41.364 Y114.264 E38.98183
G1 X48.636 Y106.992 E39.66971
G1 X48.636 Y107.751 E39.72045
G1 X41.364 Y115.022 E40.40834
G1 X41.364 Y115.781 E40.45908
G1 X48.636 Y108.509 E41.14696
G1 X48.636 Y109.268 E41.19770
G1 X41.364 Y116.539 E41.88558
G1 X41.364 Y117.298 E41.93632
G1 X48.636 Y110.026 E42.62420
G1 X48.636 Y110.785 E42.67494
G1 X41.364 Y118.056 E43.36282
G1 X41.364 Y118.815 E43.41356
G1 X48.636 Y111.543 E44.10145
G1 X48.636 Y112.302 E44.15219
G1 X41.364 Y119.573 E44.84007
G1 X41.364 Y120.332 E44.89081
G1 X48.636 Y113.060 E45.57869
G1 X48.636 Y113.819 E45.62943
G1 X41.364 Y121.090 E46.31731
G1 X41.364 Y121.849 E46.36805
G1 X48.636 Y114.577 E47.05593
G1 X48.636 Y115.336 E47.10667
G1 X41.364 Y122.607 E47.79455
G1 X41.364 Y123.366 E47.84529
G1 X48.636 Y116.094 E48.53318
G1 X48.636 Y116.853 E48.58392
G1 X41.364 Y124.124 E49.27180
G1 X41.364 Y124.883 E49.32254
G1 X48.636 Y117.611 E50.01042
G1 X48.636 Y118.370 E50.06116
G1 X41.364 Y125.641 E50.74904
G1 X41.364 Y126.400 E50.79978
G1 X48.636 Y119.128 E51.48766
G1 X48.636 Y119.887 E51.53840
G1 X41.364 Y127.158 E52.22629
G1 X41.364 Y127.917 E52.27703
G1 X48.636 Y120.645 E52.96491
G1 X48.636 Y121.404 E53.01565
G1 X41.364 Y128.675 E53.70353
G1 X41.364 Y129.434 E53.75427
G1 X48.636 Y122.162 E54.44215
G1 X48.636 Y122.921 E54.49289
G1 X41.364 Y130.192 E55.18077
G1 X41.364 Y130.951 E55.23151
G1 X48.636 Y123.679 E55.91940
G1 X48.636 Y124.438 E55.97014
G1 X41.364 Y131.709 E56.65802
G1 X41.364 Y132.468 E56.70876
G1 X48.636 Y125.196 E57.39664
G1 X48.636 Y125.955 E57.44738
G1 X41.364 Y133.226 E58.13526
G1 X41.364 Y133.636 E58.16266
G1 X41.713 Y133.636 E58.18600
G1 X48.636 Y126.713 E58.84087
G1 X48.636 Y127.472 E58.89161
G1 X42.472 Y133.636 E59.47473
G1 X43.230 Y133.636 E59.52547
G1 X48.636 Y128.230 E60.03682
G1 X48.636 Y128.989 E60.08756
G1 X43.989 Y133.636 E60.52716
G1 X44.747 Y133.636 E60.57790
G1 X48.636 Y129.747 E60.94575
G1 X48.636 Y130.506 E60.99649
G1 X45.506 Y133.636 E61.29257
G1 X46.264 Y133.636 E61.34331
G1 X48.636 Y131.264 E61.56764
G1 X48.636 Y131.364 E61.57434
G1 X49.294 Y131.364 E61.61838
G1 X47.023 Y133.636 E61.83325
G1 X47.781 Y133.636 E61.88399
G1 X50.053 Y131.364 E62.09885
G1 X50.811 Y131.364 E62.14959
G1 X48.540 Y133.636 E62.36445
G1 X49.298 Y133.636 E62.41519
G1 X51.570 Y131.364 E62.63006
G1 X52.328 Y131.364 E62.68080
G1 X50.057 Y133.636 E62.89566
G1 X50.815 Y133.636 E62.94640
G1 X53.087 Y131.364 E63.16126
G1 X53.845 Y131.364 E63.21200
G1 X51.574 Y133.636 E63.42686
G1 X52.332 Y133.636 E63.47760
G1 X54.603 Y131.364 E63.69247
G1 X55.362 Y131.364 E63.74321
G1 X53.091 Y133.636 E63.95807
G1 X53.849 Y133.636 E64.00881
G1 X56.120 Y131.364 E64.22367
G1 X56.879 Y131.364 E64.27441
G1 X54.608 Y133.636 E64.48928
G1 X55.366 Y133.636 E64.54002
G1 X57.637 Y131.364 E64.75488
G1 X58.396 Y131.364 E64.80562
G1 X56.125 Y133.636 E65.02048
G1 X56.883 Y133.636 E65.07122
G1 X59.154 Y131.364 E65.28609
G1 X59.913 Y131.364 E65.33683
G1 X57.642 Y133.636 E65.55169
G1 X58.400 Y133.636 E65.60243
G1 X60.671 Y131.364 E65.81729
G1 X61.430 Y131.364 E65.86803
G1 X59.159 Y133.636 E66.08289
G1 X59.917 Y133.636 E66.13363
G1 X62.188 Y131.364 E66.34850
G1 X62.947 Y131.364 E66.39924
G1 X60.676 Y133.636 E66.61410
G1 X61.434 Y133.636 E66.66484
G1 X63.705 Y131.364 E66.87970
G1 X64.464 Y131.364 E66.93044
G1 X62.193 Y133.636 E67.14531
G1 X62.951 Y133.636 E67.19605
G1 X65.222 Y131.364 E67.41091
G1 X65.981 Y131.364 E67.46165
G1 X63.710 Y133.636 E67.67651
G1 X64.468 Y133.636 E67.72725
G1 X66.739 Y131.364 E67.94211
G1 X67.498 Y131.364 E67.99285
G1 X65.227 Y133.636 E68.20772
G1 X65.985 Y133.636 E68.25846
G1 X68.256 Y131.364 E68.47332
G1 X69.015 Y131.364 E68.52406
G1 X66.744 Y133.636 E68.73892
G1 X67.502 Y133.636 E68.78966
G1 X69.773 Y131.364 E69.00452
G1 X70.532 Y131.364 E69.05526
G1 X68.261 Y133.636 E69.27013
G1 X69.019 Y133.636 E69.32087
G1 X71.290 Y131.364 E69.53573
G1 X72.049 Y131.364 E69.58647
G1 X69.778 Y133.636 E69.80133
G1 X70.536 Y133.636 E69.85207
G1 X72.807 Y131.364 E70.06694
G1 X73.566 Y131.364 E70.11768
G1 X71.295 Y133.636 E70.33254
G1 X72.053 Y133.636 E70.38328
G1 X74.324 Y131.364 E70.59814
G1 X75.083 Y131.364 E70.64888
G1 X72.812 Y133.636 E70.86374
G1 X73.570 Y133.636 E70.91448
G1 X75.841 Y131.364 E71.12935
G1 X76.600 Y131.364 E71.18009
G1 X74.329 Y133.636 E71.39495
G1 X75.087 Y133.636 E71.44569
G1 X77.358 Y131.364 E71.66055
G1 X78.117 Y131.364 E71.71129
G1 X75.846 Y133.636 E71.92615
G1 X76.604 Y133.636 E71.97689
G1 X78.875 Y131.364 E72.19176
G1 X79.634 Y131.364 E72.24250
G1 X77.363 Y133.636 E72.45736
G1 X78.121 Y133.636 E72.50810
G1 X80.392 Y131.364 E72.72296
G1 X81.151 Y131.364 E72.77370
G1 X78.880 Y133.636 E72.98857
G1 X79.638 Y133.636 E73.03931
G1 X81.909 Y131.364 E73.25417
G1 X82.668 Y131.364 E73.30491
G1 X80.397 Y133.636 E73.51977
G1 X81.155 Y133.636 E73.57051
G1 X83.426 Y131.364 E73.78537
G1 X84.185 Y131.364 E73.83611
G1 X81.914 Y133.636 E74.05098
G1 X82.672 Y133.636 E74.10172
G1 X84.943 Y131.364 E74.31658
G1 X85.702 Y131.364 E74.36732
G1 X83.431 Y133.636 E74.58218
G1 X84.189 Y133.636 E74.63292
G1 X86.460 Y131.364 E74.84779
G1 X87.219 Y131.364 E74.89852
G1 X84.948 Y133.636 E75.11339
G1 X85.706 Y133.636 E75.16413
G1 X87.977 Y131.364 E75.37899
G1 X88.736 Y131.364 E75.42973
G1 X86.465 Y133.636 E75.64459
G1 X87.223 Y133.636 E75.69533
G1 X89.494 Y131.364 E75.91020
G1 X90.253 Y131.364 E75.96094
G1 X87.982 Y133.636 E76.17580
G1 X88.740 Y133.636 E76.22654
G1 X91.011 Y131.364 E76.44140
G1 X91.770 Y131.364 E76.49214
G1 X89.499 Y133.636 E76.70700
G1 X90.257 Y133.636 E76.75774
G1 X92.528 Y131.364 E76.97261
G1 X93.287 Y131.364 E77.02335
G1 X91.016 Y133.636 E77.23821
G1 X91.774 Y133.636 E77.28895
G1 X94.045 Y131.364 E77.50381
G1 X94.804 Y131.364 E77.55455
G1 X92.533 Y133.636 E77.76942
G1 X93.291 Y133.636 E77.82016
G1 X95.562 Y131.364 E78.03502
G1 X96.321 Y131.364 E78.08576
G1 X94.050 Y133.636 E78.30062
G1 X94.808 Y133.636 E78.35136
G1 X97.079 Y131.364 E78.56622
G1 X97.838 Y131.364 E78.61696
G1 X95.567 Y133.636 E78.83183
G1 X96.325 Y133.636 E78.88257
G1 X98.596 Y131.364 E79.09743
G1 X99.355 Y131.364 E79.14817
G1 X97.084 Y133.636 E79.36303
G1 X97.842 Y133.636 E79.41377
G1 X100.113 Y131.364 E79.62864
G1 X100.872 Y131.364 E79.67938
G1 X98.601 Y133.636 E79.89424
G1 X99.359 Y133.636 E79.94498
G1 X101.630 Y131.364 E80.15984
G1 X102.389 Y131.364 E80.21058
G1 X100.118 Y133.636 E80.42544
G1 X100.876 Y133.636 E80.47618
G1 X103.147 Y131.364 E80.69105
G1 X103.906 Y131.364 E80.74179
G1 X101.635 Y133.636 E80.95665
G1 X102.393 Y133.636 E81.00739
G1 X104.664 Y131.364 E81.22225
G1 X105.423 Y131.364 E81.27299
G1 X103.152 Y133.636 E81.48786
G1 X103.910 Y133.636 E81.53860
G1 X106.181 Y131.364 E81.75346
G1 X106.940 Y131.364 E81.80420
G1 X104.669 Y133.636 E82.01906
G1 X105.427 Y133.636 E82.06980
G1 X107.698 Y131.364 E82.28466
G1 X108.457 Y131.364 E82.33540
G1 X106.186 Y133.636 E82.55027
G1 X106.944 Y133.636 E82.60101
G1 X109.215 Y131.364 E82.81587
G1 X109.974 Y131.364 E82.86661
G1 X107.703 Y133.636 E83.08147
G1 X108.461 Y133.636 E83.13221
G1 X110.732 Y131.364 E83.34707
G1 X111.491 Y131.364 E83.39781
G1 X109.220 Y133.636 E83.61268
G1 X109.978 Y133.636 E83.66342
G1 X112.249 Y131.364 E83.87828
G1 X113.008 Y131.364 E83.92902
G1 X110.737 Y133.636 E84.14388
G1 X111.495 Y133.636 E84.19462
G1 X113.766 Y131.364 E84.40949
G1 X114.525 Y131.364 E84.46023
G1 X112.254 Y133.636 E84.67509
G1 X113.012 Y133.636 E84.72583
G1 X115.283 Y131.364 E84.94069
G1 X116.042 Y131.364 E84.99143
G1 X113.771 Y133.636 E85.20629
G1 X114.529 Y133.636 E85.25703
G1 X116.800 Y131.364 E85.47190
G1 X117.559 Y131.364 E85.52264
G1 X115.288 Y133.636 E85.73750
G1 X116.046 Y133.636 E85.78824
G1 X118.317 Y131.364 E86.00310
G1 X119.076 Y131.364 E86.05384
G1 X116.805 Y133.636 E86.26871
G1 X117.563 Y133.636 E86.31945
G1 X119.834 Y131.364 E86.53431
G1 X120.593 Y131.364 E86.58505
G1 X118.322 Y133.636 E86.79991
G1 X119.080 Y133.636 E86.85065
G1 X121.351 Y131.364 E87.06551
G1 X122.110 Y131.364 E87.11625
G1 X119.839 Y133.636 E87.33112
G1 X120.597 Y133.636 E87.38186
G1 X122.868 Y131.364 E87.59672
G1 X123.627 Y131.364 E87.64746
G1 X121.355 Y133.636 E87.86232
G1 X122.114 Y133.636 E87.91306
G1 X124.385 Y131.364 E88.12793
G1 X125.144 Y131.364 E88.17867
G1 X122.872 Y133.636 E88.39353
G1 X123.631 Y133.636 E88.44427
G1 X125.902 Y131.364 E88.65913
G1 X126.661 Y131.364 E88.70987
G1 X124.389 Y133.636 E88.92473
G1 X125.148 Y133.636 E88.97547
G1 X127.419 Y131.364 E89.19034
G1 X128.178 Y131.364 E89.24108
G1 X125.906 Y133.636 E89.45594
G1 X126.665 Y133.636 E89.50668
G1 X128.936 Y131.364 E89.72154
G1 X129.695 Y131.364 E89.77228
G1 X127.423 Y133.636 E89.98715
G1 X128.182 Y133.636 E90.03789
G1 X130.453 Y131.364 E90.25275
G1 X131.212 Y131.364 E90.30349
G1 X128.940 Y133.636 E90.51835
G1 X129.699 Y133.636 E90.56909
G1 X131.970 Y131.364 E90.78395
G1 X132.729 Y131.364 E90.83469
G1 X130.457 Y133.636 E91.04956
