; generated by Slic3r 1.3.0 on 2020-05-22 at 17:47:15

; external perimeters extrusion width = 0.44mm (2.78mm^3/s)
; perimeters extrusion width = 0.40mm (7.14mm^3/s)
; infill extrusion width = 0.50mm (10.97mm^3/s)
; solid infill extrusion width = 0.60mm (6.68mm^3/s)
; top infill extrusion width = 0.40mm (2.14mm^3/s)

M107
M190 S80 ; set bed temperature and wait for it to be reached
M104 S200 ; set temperature
G28 ; home all axes
G1 Z5 F5000 ; lift nozzle

; Filament gcode

M109 S200 ; set temperature and wait for it to be reached
G21 ; set units to millimeters
G90 ; use absolute coordinates
M82 ; use absolute distances for extrusion
G92 E0
G1 Z0.300 F30000.000
G1 E-2.00000 F2400.00000
G92 E0
G1 X47.482 Y72.890 F30000.000
G1 E2.00000 F2400.00000
G1 F2100
G1 X49.089 Y72.094 E2.11982
G1 X50.050 Y71.979 E2.18446
G1 X149.950 Y71.979 E8.85832
G1 X151.700 Y72.374 E8.97814
G1 X153.110 Y73.482 E9.09796
G1 X153.906 Y75.089 E9.21778
G1 X154.021 Y76.050 E9.28242
G1 X154.021 Y123.950 E12.48240
G1 X153.626 Y125.700 E12.60222
G1 X152.518 Y127.110 E12.72204
G1 X150.911 Y127.906 E12.84186
G1 X149.950 Y128.021 E12.90650
G1 X50.050 Y128.021 E19.58036
G1 X48.300 Y127.626 E19.70018
G1 X46.890 Y126.518 E19.82000
G1 X46.094 Y124.911 E19.93982
G1 X45.979 Y123.950 E20.00446
G1 X45.979 Y76.050 E23.20444
G1 X46.374 Y74.300 E23.32426
G1 X47.445 Y72.938 E23.44007
G1 X48.004 Y73.167 F30000.000
G1 F2100
G1 X50.050 Y72.514 E23.58355
G1 X149.950 Y72.514 E30.25741
G1 X151.573 Y72.909 E30.36897
G1 X152.833 Y74.004 E30.48052
G1 X153.486 Y76.050 E30.62400
G1 X153.486 Y123.950 E33.82398
G1 X153.091 Y125.573 E33.93554
G1 X151.996 Y126.833 E34.04709
G1 X149.950 Y127.486 E34.19057
G1 X50.050 Y127.486 E40.86443
G1 X48.427 Y127.091 E40.97599
G1 X47.167 Y125.996 E41.08754
G1 X46.514 Y123.950 E41.23102
G1 X46.514 Y76.050 E44.43100
G1 X46.909 Y74.427 E44.54255
G1 X47.964 Y73.212 E44.65010
G1 X48.524 Y73.687 F30000.000
G1 F2100
G1 X48.911 Y73.301 E44.69103
G1 X151.089 Y73.301 E52.33753
G1 X152.699 Y74.911 E52.50798
G1 X152.699 Y125.089 E56.26304
G1 X151.089 Y126.699 E56.43349
G1 X48.911 Y126.699 E64.07998
G1 X47.301 Y125.089 E64.25043
G1 X47.301 Y74.911 E68.00549
G1 X48.482 Y73.730 E68.13053
G1 X48.949 Y74.112 F30000.000
G1 F2100
G1 X49.160 Y73.901 E68.15285
G1 X150.840 Y73.901 E75.76215
G1 X152.099 Y75.160 E75.89541
G1 X152.099 Y124.840 E79.61327
G1 X150.840 Y126.099 E79.74652
G1 X49.160 Y126.099 E87.35582
G1 X47.901 Y124.840 E87.48907
G1 X47.901 Y75.160 E91.20694
G1 X48.906 Y74.154 E91.31337
G1 X49.373 Y74.536 F30000.000
G1 F2100
G1 X49.408 Y74.501 E91.31710
G1 X150.592 Y74.501 E98.88920
G1 X151.499 Y75.408 E98.98526
G1 X151.499 Y124.592 E102.66592
G1 X150.592 Y125.499 E102.76198
G1 X49.408 Y125.499 E110.33408
G1 X48.501 Y124.592 E110.43013
G1 X48.501 Y75.408 E114.11080
G1 X49.331 Y74.578 E114.19863
G1 X49.657 Y75.101 F30000.000
G1 F2100
G1 X150.343 Y75.101 E121.73354
G1 X150.899 Y75.657 E121.79240
G1 X150.899 Y124.343 E125.43587
G1 X150.343 Y124.899 E125.49472
G1 X49.657 Y124.899 E133.02963
G1 X49.101 Y124.343 E133.08849
G1 X49.101 Y75.657 E136.73195
G1 X49.614 Y75.143 E136.78632
G1 X49.905 Y75.701 F30000.000
G1 F2100
G1 X150.095 Y75.701 E144.28403
G1 X150.299 Y75.905 E144.30569
G1 X150.299 Y124.095 E147.91196
G1 X150.095 Y124.299 E147.93362
G1 X49.905 Y124.299 E155.43133
G1 X49.701 Y124.095 E155.45299
G1 X49.701 Y75.905 E159.05926
G1 X49.863 Y75.743 E159.07643
G1 E157.07643 F2400.00000
G92 E0
G1 X50.350 Y123.650 F30000.000
G1 E2.00000 F2400.00000
G1 F2100
G1 X50.350 Y76.350 E5.15990
G1 X149.650 Y76.350 E11.79367
G1 X149.650 Y123.650 E14.95357
G1 X50.410 Y123.650 E21.58334
G1 X50.497 Y123.278 F30000.000
G1 X50.886 Y123.114 F30000.000
G1 F2100
G1 X50.886 Y76.886 E24.67167
G1 X149.114 Y76.886 E31.23388
G1 X149.114 Y123.114 E34.32221
G1 X50.946 Y123.114 E40.88042
G1 E38.88042 F2400.00000
G92 E0
G1 X59.650 Y120.350 F30000.000
G1 E2.00000 F2400.00000
G1 F2100
G1 X59.650 Y79.650 E4.71898
G1 X140.350 Y79.650 E10.11018
G1 X140.350 Y120.350 E12.82916
G1 X59.710 Y120.350 E18.21635
G1 X59.255 Y120.412 F30000.000
G1 X59.114 Y120.886 F30000.000
G1 F2100
G1 X59.114 Y79.114 E21.00689
G1 X140.886 Y79.114 E26.46965
G1 X140.886 Y120.886 E29.26020
G1 X59.174 Y120.886 E34.71895
G1 E32.71895 F2400.00000
G92 E0
G1 X51.364 Y85.089 F30000.000
G1 E2.00000 F2400.00000
G1 F2100
G1 X51.364 Y85.850 E2.05108
G1 X58.636 Y78.579 E2.74127
G1 X58.636 Y79.340 E2.79235
G1 X51.364 Y86.611 E3.48254
G1 X51.364 Y87.372 E3.53362
G1 X58.636 Y80.101 E4.22381
G1 X58.636 Y80.862 E4.27489
G1 X51.364 Y88.133 E4.96508
G1 X51.364 Y88.894 E5.01616
G1 X58.636 Y81.623 E5.70635
G1 X58.636 Y82.384 E5.75743
G1 X51.364 Y89.655 E6.44762
G1 X51.364 Y90.416 E6.49870
G1 X58.636 Y83.145 E7.18889
G1 X58.636 Y83.906 E7.23997
G1 X51.364 Y91.177 E7.93016
G1 X51.364 Y91.938 E7.98124
G1 X58.636 Y84.667 E8.67143
G1 X58.636 Y85.428 E8.72251
G1 X51.364 Y92.699 E9.41270
G1 X51.364 Y93.460 E9.46378
G1 X58.636 Y86.189 E10.15397
G1 X58.636 Y86.950 E10.20505
G1 X51.364 Y94.221 E10.89524
G1 X51.364 Y94.982 E10.94632
G1 X58.636 Y87.711 E11.63651
G1 X58.636 Y88.472 E11.68759
G1 X51.364 Y95.743 E12.37778
G1 X51.364 Y96.504 E12.42886
G1 X58.636 Y89.233 E13.11905
G1 X58.636 Y89.994 E13.17013
G1 X51.364 Y97.265 E13.86032
G1 X51.364 Y98.027 E13.91140
G1 X58.636 Y90.755 E14.60159
G1 X58.636 Y91.516 E14.65267
G1 X51.364 Y98.788 E15.34286
G1 X51.364 Y99.549 E15.39395
G1 X58.636 Y92.277 E16.08413
G1 X58.636 Y93.038 E16.13522
G1 X51.364 Y100.310 E16.82540
G1 X51.364 Y101.071 E16.87649
G1 X58.636 Y93.799 E17.56668
G1 X58.636 Y94.561 E17.61776
G1 X51.364 Y101.832 E18.30795
G1 X51.364 Y102.593 E18.35903
G1 X58.636 Y95.322 E19.04922
G1 X58.636 Y96.083 E19.10030
G1 X51.364 Y103.354 E19.79049
G1 X51.364 Y104.115 E19.84157
G1 X58.636 Y96.844 E20.53176
G1 X58.636 Y97.605 E20.58284
G1 X51.364 Y104.876 E21.27303
G1 X51.364 Y105.637 E21.32411
G1 X58.636 Y98.366 E22.01430
G1 X58.636 Y99.127 E22.06538
G1 X51.364 Y106.398 E22.75557
G1 X51.364 Y107.159 E22.80665
G1 X58.636 Y99.888 E23.49684
G1 X58.636 Y100.649 E23.54792
G1 X51.364 Y107.920 E24.23811
G1 X51.364 Y108.681 E24.28919
G1 X58.636 Y101.410 E24.97938
G1 X58.636 Y102.171 E25.03046
G1 X51.364 Y109.442 E25.72065
G1 X51.364 Y110.203 E25.77173
G1 X58.636 Y102.932 E26.46192
G1 X58.636 Y103.693 E26.51300
G1 X51.364 Y110.964 E27.20319
G1 X51.364 Y111.725 E27.25427
G1 X58.636 Y104.454 E27.94446
G1 X58.636 Y105.215 E27.99554
G1 X51.364 Y112.486 E28.68573
G1 X51.364 Y113.247 E28.73681
G1 X58.636 Y105.976 E29.42700
G1 X58.636 Y106.737 E29.47808
G1 X51.364 Y114.008 E30.16827
G1 X51.364 Y114.769 E30.21935
G1 X58.636 Y107.498 E30.90954
G1 X58.636 Y108.259 E30.96062
G1 X51.364 Y115.530 E31.65081
G1 X51.364 Y116.291 E31.70189
G1 X58.636 Y109.020 E32.39208
G1 X58.636 Y109.781 E32.44316
G1 X51.364 Y117.053 E33.13335
G1 X51.364 Y117.814 E33.18443
G1 X58.636 Y110.542 E33.87462
G1 X58.636 Y111.303 E33.92570
G1 X51.364 Y118.575 E34.61589
G1 X51.364 Y119.336 E34.66697
G1 X58.636 Y112.064 E35.35716
G1 X58.636 Y112.825 E35.40824
G1 X51.364 Y120.097 E36.09843
G1 X51.364 Y120.858 E36.14951
G1 X58.636 Y113.587 E36.83970
G1 X58.636 Y114.348 E36.89078
G1 X51.364 Y121.619 E37.58097
G1 X51.364 Y122.380 E37.63205
G1 X58.636 Y115.109 E38.32224
G1 X58.636 Y115.870 E38.37332
G1 X51.870 Y122.636 E39.01555
G1 X52.631 Y122.636 E39.06663
G1 X58.636 Y116.631 E39.63663
G1 X58.636 Y117.392 E39.68771
G1 X53.392 Y122.636 E40.18546
G1 X54.153 Y122.636 E40.23654
G1 X58.636 Y118.153 E40.66205
G1 X58.636 Y118.914 E40.71313
G1 X54.914 Y122.636 E41.06641
G1 X55.675 Y122.636 E41.11749
G1 X58.636 Y119.675 E41.39853
G1 X58.636 Y120.436 E41.44961
G1 X56.436 Y122.636 E41.65841
G1 X57.197 Y122.636 E41.70949
G1 X58.636 Y121.197 E41.84605
G1 X58.636 Y121.364 E41.85729
G1 X59.229 Y121.364 E41.89713
G1 X57.958 Y122.636 E42.01779
G1 X58.719 Y122.636 E42.06887
G1 X59.990 Y121.364 E42.18953
G1 X60.751 Y121.364 E42.24061
G1 X59.480 Y122.636 E42.36127
G1 X60.241 Y122.636 E42.41236
G1 X61.512 Y121.364 E42.53302
G1 X62.273 Y121.364 E42.58410
G1 X61.002 Y122.636 E42.70476
G1 X61.763 Y122.636 E42.75584
G1 X63.034 Y121.364 E42.87650
G1 X63.795 Y121.364 E42.92758
G1 X62.524 Y122.636 E43.04825
G1 X63.285 Y122.636 E43.09933
G1 X64.556 Y121.364 E43.21999
G1 X65.317 Y121.364 E43.27107
G1 X64.046 Y122.636 E43.39173
G1 X64.807 Y122.636 E43.44281
G1 X66.079 Y121.364 E43.56348
G1 X66.840 Y121.364 E43.61456
G1 X65.568 Y122.636 E43.73522
G1 X66.329 Y122.636 E43.78630
G1 X67.601 Y121.364 E43.90696
G1 X68.362 Y121.364 E43.95804
G1 X67.090 Y122.636 E44.07871
G1 X67.852 Y122.636 E44.12979
G1 X69.123 Y121.364 E44.25045
G1 X69.884 Y121.364 E44.30153
G1 X68.613 Y122.636 E44.42219
G1 X69.374 Y122.636 E44.47327
G1 X70.645 Y121.364 E44.59394
G1 X71.406 Y121.364 E44.64502
G1 X70.135 Y122.636 E44.76568
G1 X70.896 Y122.636 E44.81676
G1 X72.167 Y121.364 E44.93742
G1 X72.928 Y121.364 E44.98850
G1 X71.657 Y122.636 E45.10917
G1 X72.418 Y122.636 E45.16025
G1 X73.689 Y121.364 E45.28091
G1 X74.450 Y121.364 E45.33199
G1 X73.179 Y122.636 E45.45265
G1 X73.940 Y122.636 E45.50373
G1 X75.211 Y121.364 E45.62439
G1 X75.972 Y121.364 E45.67548
G1 X74.701 Y122.636 E45.79614
G1 X75.462 Y122.636 E45.84722
G1 X76.733 Y121.364 E45.96788
G1 X77.494 Y121.364 E46.01896
G1 X76.223 Y122.636 E46.13962
G1 X76.984 Y122.636 E46.19071
G1 X78.255 Y121.364 E46.31137
G1 X79.016 Y121.364 E46.36245
G1 X77.745 Y122.636 E46.48311
G1 X78.506 Y122.636 E46.53419
G1 X79.777 Y121.364 E46.65485
G1 X80.538 Y121.364 E46.70594
G1 X79.267 Y122.636 E46.82660
G1 X80.028 Y122.636 E46.87768
G1 X81.299 Y121.364 E46.99834
G1 X82.060 Y121.364 E47.04942
G1 X80.789 Y122.636 E47.17008
G1 X81.550 Y122.636 E47.22117
G1 X82.821 Y121.364 E47.34183
G1 X83.582 Y121.364 E47.39291
G1 X82.311 Y122.636 E47.51357
G1 X83.072 Y122.636 E47.56465
G1 X84.344 Y121.364 E47.68531
G1 X85.105 Y121.364 E47.73639
G1 X83.833 Y122.636 E47.85706
G1 X84.594 Y122.636 E47.90814
G1 X85.866 Y121.364 E48.02880
G1 X86.627 Y121.364 E48.07988
G1 X85.355 Y122.636 E48.20054
G1 X86.116 Y122.636 E48.25162
G1 X87.388 Y121.364 E48.37229
G1 X88.149 Y121.364 E48.42337
G1 X86.878 Y122.636 E48.54403
G1 X87.639 Y122.636 E48.59511
G1 X88.910 Y121.364 E48.71577
G1 X89.671 Y121.364 E48.76685
G1 X88.400 Y122.636 E48.88752
G1 X89.161 Y122.636 E48.93860
G1 X90.432 Y121.364 E49.05926
G1 X91.193 Y121.364 E49.11034
G1 X89.922 Y122.636 E49.23100
G1 X90.683 Y122.636 E49.28208
G1 X91.954 Y121.364 E49.40275
G1 X92.715 Y121.364 E49.45383
G1 X91.444 Y122.636 E49.57449
G1 X92.205 Y122.636 E49.62557
G1 X93.476 Y121.364 E49.74623
G1 X94.237 Y121.364 E49.79731
G1 X92.966 Y122.636 E49.91798
G1 X93.727 Y122.636 E49.96906
G1 X94.998 Y121.364 E50.08972
G1 X95.759 Y121.364 E50.14080
G1 X94.488 Y122.636 E50.26146
G1 X95.249 Y122.636 E50.31254
G1 X96.520 Y121.364 E50.43321
G1 X97.281 Y121.364 E50.48429
G1 X96.010 Y122.636 E50.60495
G1 X96.771 Y122.636 E50.65603
G1 X98.042 Y121.364 E50.77669
G1 X98.803 Y121.364 E50.82777
G1 X97.532 Y122.636 E50.94844
G1 X98.293 Y122.636 E50.99952
G1 X99.564 Y121.364 E51.12018
G1 X100.325 Y121.364 E51.17126
G1 X99.054 Y122.636 E51.29192
G1 X99.815 Y122.636 E51.34300
G1 X101.086 Y121.364 E51.46366
G1 X101.847 Y121.364 E51.51475
G1 X100.576 Y122.636 E51.63541
G1 X101.337 Y122.636 E51.68649
G1 X102.608 Y121.364 E51.80715
G1 X103.370 Y121.364 E51.85823
G1 X102.098 Y122.636 E51.97889
G1 X102.859 Y122.636 E52.02998
G1 X104.131 Y121.364 E52.15064
G1 X104.892 Y121.364 E52.20172
G1 X103.620 Y122.636 E52.32238
G1 X104.381 Y122.636 E52.37346
G1 X105.653 Y121.364 E52.49412
G1 X106.414 Y121.364 E52.54521
G1 X105.143 Y122.636 E52.66587
G1 X105.904 Y122.636 E52.71695
G1 X107.175 Y121.364 E52.83761
G1 X107.936 Y121.364 E52.88869
G1 X106.665 Y122.636 E53.00935
G1 X107.426 Y122.636 E53.06043
G1 X108.697 Y121.364 E53.18110
G1 X109.458 Y121.364 E53.23218
G1 X108.187 Y122.636 E53.35284
G1 X108.948 Y122.636 E53.40392
G1 X110.219 Y121.364 E53.52458
G1 X110.980 Y121.364 E53.57566
G1 X109.709 Y122.636 E53.69633
G1 X110.470 Y122.636 E53.74741
G1 X111.741 Y121.364 E53.86807
G1 X112.502 Y121.364 E53.91915
G1 X111.231 Y122.636 E54.03981
G1 X111.992 Y122.636 E54.09089
G1 X113.263 Y121.364 E54.21156
G1 X114.024 Y121.364 E54.26264
G1 X112.753 Y122.636 E54.38330
G1 X113.514 Y122.636 E54.43438
G1 X114.785 Y121.364 E54.55504
G1 X115.546 Y121.364 E54.60612
G1 X114.275 Y122.636 E54.72679
G1 X115.036 Y122.636 E54.77787
G1 X116.307 Y121.364 E54.89853
G1 X117.068 Y121.364 E54.94961
G1 X115.797 Y122.636 E55.07027
G1 X116.558 Y122.636 E55.12135
G1 X117.829 Y121.364 E55.24202
G1 X118.590 Y121.364 E55.29310
G1 X117.319 Y122.636 E55.41376
G1 X118.080 Y122.636 E55.46484
G1 X119.351 Y121.364 E55.58550
G1 X120.112 Y121.364 E55.63658
G1 X118.841 Y122.636 E55.75725
G1 X119.602 Y122.636 E55.80833
G1 X120.873 Y121.364 E55.92899
G1 X121.635 Y121.364 E55.98007
G1 X120.363 Y122.636 E56.10073
G1 X121.124 Y122.636 E56.15181
G1 X122.396 Y121.364 E56.27248
G1 X123.157 Y121.364 E56.32356
G1 X121.885 Y122.636 E56.44422
G1 X122.646 Y122.636 E56.49530
G1 X123.918 Y121.364 E56.61596
G1 X124.679 Y121.364 E56.66704
G1 X123.407 Y122.636 E56.78771
G1 X124.169 Y122.636 E56.83879
G1 X125.440 Y121.364 E56.95945
G1 X126.201 Y121.364 E57.01053
G1 X124.930 Y122.636 E57.13119
G1 X125.691 Y122.636 E57.18227
G1 X126.962 Y121.364 E57.30293
G1 X127.723 Y121.364 E57.35402
G1 X126.452 Y122.636 E57.47468
G1 X127.213 Y122.636 E57.52576
G1 X128.484 Y121.364 E57.64642
G1 X129.245 Y121.364 E57.69750
G1 X127.974 Y122.636 E57.81816
G1 X128.735 Y122.636 E57.86924
G1 X130.006 Y121.364 E57.98991
G1 X130.767 Y121.364 E58.04099
G1 X129.496 Y122.636 E58.16165
G1 X130.257 Y122.636 E58.21273
G1 X131.528 Y121.364 E58.33339
G1 X132.289 Y121.364 E58.38447
G1 X131.018 Y122.636 E58.50514
G1 X131.779 Y122.636 E58.55622
G1 X133.050 Y121.364 E58.67688
G1 X133.811 Y121.364 E58.72796
G1 X132.540 Y122.636 E58.84862
G1 X133.301 Y122.636 E58.89970
G1 X134.572 Y121.364 E59.02037
G1 X135.333 Y121.364 E59.07145
G1 X134.062 Y122.636 E59.19211
G1 X134.823 Y122.636 E59.24319
G1 X136.094 Y121.364 E59.36385
G1 X136.855 Y121.364 E59.41493
G1 X135.584 Y122.636 E59.53560
G1 X136.345 Y122.636 E59.58668
G1 X137.616 Y121.364 E59.70734
G1 X138.377 Y121.364 E59.75842
G1 X137.106 Y122.636 E59.87908
G1 X137.867 Y122.636 E59.93016
G1 X139.138 Y121.364 E60.05082
G1 X139.899 Y121.364 E60.10191
G1 X138.628 Y122.636 E60.22257
G1 X139.389 Y122.636 E60.27365
G1 X140.661 Y121.364 E60.39431
G1 X141.422 Y121.364 E60.44539
G1 X140.150 Y122.636 E60.56605
G1 E58.56605 F2400.00000
G92 E0
G1 X148.522 Y122.636 F30000.000
G1 E2.00000 F2400.00000
G1 F2100
G1 X148.636 Y122.522 E2.01080
G1 X148.636 Y121.761 E2.06188
G1 X147.761 Y122.636 E2.14492
G1 X147.000 Y122.636 E2.19600
G1 X148.636 Y121.000 E2.35127
G1 X148.636 Y120.239 E2.40235
G1 X146.239 Y122.636 E2.62987
G1 X145.478 Y122.636 E2.68095
G1 X148.636 Y119.478 E2.98070
G1 X148.636 Y118.717 E3.03179
G1 X144.717 Y122.636 E3.40378
G1 X143.956 Y122.636 E3.45486
G1 X148.636 Y117.956 E3.89909
G1 X148.636 Y117.195 E3.95017
G1 X143.195 Y122.636 E4.46664
G1 X142.434 Y122.636 E4.51772
G1 X148.636 Y116.434 E5.10643
G1 X148.636 Y115.672 E5.15751
G1 X141.672 Y122.636 E5.81846
G1 X140.911 Y122.636 E5.86954
G1 X148.636 Y114.911 E6.60273
G1 X148.636 Y114.150 E6.65381
G1 X141.364 Y121.422 E7.34400
G1 X141.364 Y120.661 E7.39508
G1 X148.636 Y113.389 E8.08527
G1 X148.636 Y112.628 E8.13635
G1 X141.364 Y119.899 E8.82654
G1 X141.364 Y119.138 E8.87762
G1 X148.636 Y111.867 E9.56781
G1 X148.636 Y111.106 E9.61889
G1 X141.364 Y118.377 E10.30908
G1 X141.364 Y117.616 E10.36016
G1 X148.636 Y110.345 E11.05035
G1 X148.636 Y109.584 E11.10143
G1 X141.364 Y116.855 E11.79162
G1 X141.364 Y116.094 E11.84270
G1 X148.636 Y108.823 E12.53289
G1 X148.636 Y108.062 E12.58397
G1 X141.364 Y115.333 E13.27416
G1 X141.364 Y114.572 E13.32524
G1 X148.636 Y107.301 E14.01543
G1 X148.636 Y106.540 E14.06651
G1 X141.364 Y113.811 E14.75670
G1 X141.364 Y113.050 E14.80778
G1 X148.636 Y105.779 E15.49797
G1 X148.636 Y105.018 E15.54905
G1 X141.364 Y112.289 E16.23924
G1 X141.364 Y111.528 E16.29032
G1 X148.636 Y104.257 E16.98051
G1 X148.636 Y103.496 E17.03160
G1 X141.364 Y110.767 E17.72178
G1 X141.364 Y110.006 E17.77287
