; generated by Slic3r 1.3.0 on 2023-03-03 at 00:29:40

; external perimeters extrusion width = 0.44mm (2.78mm^3/s)
; perimeters extrusion width = 0.40mm (7.14mm^3/s)
; infill extrusion width = 0.50mm (10.97mm^3/s)
; solid infill extrusion width = 0.60mm (6.68mm^3/s)
; top infill extrusion width = 0.40mm (2.14mm^3/s)

M107
M190 S80 ; set bed temperature and wait for it to be reached
M104 S210 ; set temperature
G28 ; home all axes
G1 Z5 F5000 ; lift nozzle

; Filament gcode

M109 S210 ; set temperature and wait for it to be reached
G21 ; set units to millimeters
G90 ; use absolute coordinates
M82 ; use absolute distances for extrusion
G92 E0
G1 Z0.300 F30000.000
G1 E-2.00000 F2400.00000
G92 E0
G1 X38.196 Y36.644 F30000.000
G1 E2.00000 F2400.00000
G1 F2100
G1 X40.227 Y34.854 E2.18083
G1 X42.169 Y33.358 E2.34459
G1 X43.984 Y32.124 E2.49127
G1 X46.314 Y30.746 E2.67210
G1 X48.271 Y29.749 E2.81878
G1 X50.517 Y28.768 E2.98254
G1 X53.064 Y27.851 E3.16337
G1 X55.420 Y27.175 E3.32713
G1 X57.563 Y26.696 E3.47381
G1 X60.236 Y26.272 E3.65465
G1 X62.678 Y26.050 E3.81840
G1 X65.128 Y25.981 E3.98215
G1 X67.578 Y26.066 E4.14592
G1 X69.764 Y26.272 E4.29260
G1 X72.437 Y26.696 E4.47343
G1 X74.828 Y27.238 E4.63719
G1 X76.936 Y27.851 E4.78387
G1 X79.483 Y28.768 E4.96470
G1 X81.498 Y29.640 E5.11138
G1 X83.686 Y30.746 E5.27514
G1 X86.016 Y32.124 E5.45597
G1 X87.831 Y33.358 E5.60265
G1 X89.773 Y34.854 E5.76641
G1 X91.617 Y36.469 E5.93016
G1 X93.356 Y38.196 E6.09392
G1 X95.146 Y40.227 E6.27476
G1 X96.492 Y41.962 E6.42144
G1 X97.876 Y43.984 E6.58519
G1 X99.254 Y46.314 E6.76603
G1 X100.360 Y48.502 E6.92978
G1 X101.232 Y50.517 E7.07646
G1 X102.070 Y52.821 E7.24022
G1 X102.744 Y55.111 E7.39967
G1 X103.352 Y57.814 E7.58480
G1 X103.695 Y59.983 E7.73148
G1 X103.934 Y62.422 E7.89524
G1 X104.019 Y65.128 E8.07607
G1 X103.934 Y67.578 E8.23983
G1 X103.728 Y69.764 E8.38651
G1 X103.304 Y72.437 E8.56734
G1 X102.825 Y74.580 E8.71403
G1 X102.149 Y76.936 E8.87778
G1 X101.232 Y79.483 E9.05861
G1 X100.360 Y81.498 E9.20529
G1 X99.254 Y83.686 E9.36906
G1 X98.014 Y85.800 E9.53281
G1 X96.642 Y87.831 E9.69656
G1 X94.983 Y89.970 E9.87740
G1 X93.531 Y91.617 E10.02408
G1 X91.804 Y93.356 E10.18783
G1 X89.773 Y95.146 E10.36867
G1 X88.038 Y96.492 E10.51535
G1 X86.016 Y97.876 E10.67911
G1 X83.686 Y99.254 E10.85993
G1 X81.498 Y100.360 E11.02370
G1 X79.483 Y101.232 E11.17038
G1 X76.936 Y102.149 E11.35121
G1 X74.580 Y102.825 E11.51496
G1 X72.186 Y103.352 E11.67872
G1 X69.764 Y103.728 E11.84248
G1 X67.578 Y103.934 E11.98916
G1 X64.872 Y104.019 E12.16999
G1 X62.678 Y103.950 E12.31667
G1 X60.236 Y103.728 E12.48043
G1 X57.563 Y103.304 E12.66126
G1 X55.173 Y102.762 E12.82501
G1 X53.064 Y102.149 E12.97170
G1 X50.517 Y101.232 E13.15254
G1 X48.271 Y100.251 E13.31629
G1 X46.090 Y99.131 E13.48004
G1 X44.200 Y98.014 E13.62673
G1 X42.169 Y96.642 E13.79049
G1 X40.030 Y94.983 E13.97132
G1 X38.196 Y93.356 E14.13508
G1 X36.644 Y91.804 E14.28176
G1 X34.854 Y89.773 E14.46259
G1 X33.508 Y88.038 E14.60927
G1 X32.124 Y86.016 E14.77303
G1 X30.746 Y83.686 E14.95386
G1 X29.749 Y81.729 E15.10054
G1 X28.768 Y79.483 E15.26430
G1 X27.851 Y76.936 E15.44513
G1 X27.238 Y74.828 E15.59181
G1 X26.696 Y72.437 E15.75557
G1 X26.304 Y70.017 E15.91933
G1 X26.072 Y67.642 E16.07878
G1 X25.981 Y64.872 E16.26391
G1 X26.050 Y62.678 E16.41059
G1 X26.272 Y60.236 E16.57434
G1 X26.696 Y57.563 E16.75518
G1 X27.175 Y55.420 E16.90186
G1 X27.851 Y53.064 E17.06561
G1 X28.768 Y50.517 E17.24645
G1 X29.640 Y48.502 E17.39313
G1 X30.746 Y46.314 E17.55688
G1 X32.124 Y43.984 E17.73772
G1 X33.358 Y42.169 E17.88440
G1 X34.854 Y40.227 E18.04815
G1 X36.469 Y38.383 E18.21192
G1 X38.154 Y36.686 E18.37166
G1 X38.575 Y37.023 F30000.000
G1 F2100
G1 X40.555 Y35.277 E18.54800
G1 X42.290 Y33.931 E18.69468
G1 X44.286 Y32.567 E18.85619
G1 X46.558 Y31.223 E19.03253
G1 X48.715 Y30.131 E19.19404
G1 X50.730 Y29.260 E19.34072
G1 X53.213 Y28.365 E19.51706
G1 X55.537 Y27.698 E19.67857
G1 X57.680 Y27.219 E19.82525
G1 X60.287 Y26.806 E20.00159
G1 X62.694 Y26.585 E20.16310
G1 X65.111 Y26.516 E20.32461
G1 X67.306 Y26.585 E20.47129
G1 X69.713 Y26.806 E20.63280
G1 X72.320 Y27.219 E20.80914
G1 X74.678 Y27.753 E20.97065
G1 X76.787 Y28.365 E21.11733
G1 X79.270 Y29.260 E21.29367
G1 X81.285 Y30.131 E21.44035
G1 X83.442 Y31.223 E21.60186
G1 X85.527 Y32.448 E21.76337
G1 X87.530 Y33.801 E21.92488
G1 X89.616 Y35.418 E22.10122
G1 X91.263 Y36.870 E22.24790
G1 X92.977 Y38.575 E22.40941
G1 X94.723 Y40.555 E22.58575
G1 X96.069 Y42.290 E22.73243
G1 X97.433 Y44.286 E22.89394
G1 X98.777 Y46.558 E23.07028
G1 X99.774 Y48.514 E23.21696
G1 X100.740 Y50.730 E23.37847
G1 X101.635 Y53.213 E23.55481
G1 X102.247 Y55.322 E23.70150
G1 X102.781 Y57.680 E23.86300
G1 X103.194 Y60.287 E24.03934
G1 X103.415 Y62.694 E24.20085
G1 X103.484 Y65.111 E24.36236
G1 X103.415 Y67.306 E24.50904
G1 X103.194 Y69.713 E24.67056
G1 X102.781 Y72.320 E24.84689
G1 X102.302 Y74.463 E24.99358
G1 X101.635 Y76.787 E25.15508
G1 X100.740 Y79.270 E25.33142
G1 X99.774 Y81.486 E25.49293
G1 X98.777 Y83.442 E25.63961
G1 X97.552 Y85.527 E25.80112
G1 X96.199 Y87.530 E25.96263
G1 X94.582 Y89.616 E26.13897
G1 X92.977 Y91.425 E26.30048
G1 X91.425 Y92.977 E26.44716
G1 X89.445 Y94.723 E26.62350
G1 X87.710 Y96.069 E26.77018
G1 X85.714 Y97.433 E26.93169
G1 X83.442 Y98.777 E27.10803
G1 X81.486 Y99.774 E27.25471
G1 X79.270 Y100.740 E27.41622
G1 X76.787 Y101.635 E27.59256
G1 X74.463 Y102.302 E27.75406
G1 X72.102 Y102.823 E27.91558
G1 X69.713 Y103.194 E28.07709
G1 X67.527 Y103.401 E28.22377
G1 X64.889 Y103.484 E28.40011
G1 X62.694 Y103.415 E28.54679
G1 X60.287 Y103.194 E28.70830
G1 X57.680 Y102.781 E28.88464
G1 X55.322 Y102.247 E29.04614
G1 X53.213 Y101.635 E29.19283
G1 X50.730 Y100.740 E29.36917
G1 X48.715 Y99.869 E29.51585
G1 X46.558 Y98.777 E29.67736
G1 X44.286 Y97.433 E29.85370
G1 X42.290 Y96.069 E30.01521
G1 X40.384 Y94.582 E30.17672
G1 X38.737 Y93.130 E30.32340
G1 X37.022 Y91.425 E30.48491
G1 X35.277 Y89.445 E30.66125
G1 X33.931 Y87.710 E30.80793
G1 X32.567 Y85.714 E30.96944
G1 X31.223 Y83.442 E31.14578
G1 X30.131 Y81.285 E31.30729
G1 X29.259 Y79.270 E31.45397
G1 X28.365 Y76.787 E31.63031
G1 X27.753 Y74.678 E31.77699
G1 X27.219 Y72.320 E31.93850
G1 X26.834 Y69.933 E32.10001
G1 X26.605 Y67.591 E32.25722
G1 X26.516 Y64.889 E32.43785
G1 X26.585 Y62.694 E32.58453
G1 X26.806 Y60.287 E32.74604
G1 X27.219 Y57.680 E32.92238
G1 X27.698 Y55.537 E33.06907
G1 X28.365 Y53.213 E33.23057
G1 X29.260 Y50.730 E33.40691
G1 X30.131 Y48.715 E33.55359
G1 X31.223 Y46.558 E33.71510
G1 X32.567 Y44.286 E33.89144
G1 X33.801 Y42.470 E34.03812
G1 X35.277 Y40.555 E34.19963
G1 X36.870 Y38.737 E34.36114
G1 X38.533 Y37.065 E34.51864
G1 E32.51864 F2400.00000
G92 E0
G1 X80.858 Y74.287 F30000.000
G1 E2.00000 F2400.00000
G1 F2100
G1 X80.524 Y74.852 E2.04386
G1 X79.875 Y75.807 E2.12102
G1 X79.167 Y76.720 E2.19818
G1 X78.403 Y77.586 E2.27535
G1 X77.586 Y78.403 E2.35251
G1 X76.720 Y79.167 E2.42967
G1 X75.814 Y79.869 E2.50623
G1 X74.852 Y80.524 E2.58398
G1 X73.858 Y81.112 E2.66116
G1 X72.828 Y81.636 E2.73832
G1 X71.768 Y82.095 E2.81549
G1 X70.682 Y82.486 E2.89265
G1 X69.581 Y82.806 E2.96920
G1 X68.445 Y83.060 E3.04696
G1 X67.304 Y83.241 E3.12414
G1 X66.154 Y83.350 E3.20130
G1 X65.000 Y83.386 E3.27846
G1 X63.846 Y83.350 E3.35563
G1 X62.696 Y83.241 E3.43279
G1 X61.555 Y83.060 E3.50995
G1 X60.428 Y82.808 E3.58711
G1 X59.318 Y82.486 E3.66428
G1 X58.240 Y82.098 E3.74083
G1 X57.172 Y81.636 E3.81859
G1 X56.142 Y81.112 E3.89576
G1 X55.156 Y80.528 E3.97232
G1 X54.193 Y79.875 E4.05007
G1 X53.280 Y79.167 E4.12725
G1 X52.414 Y78.403 E4.20441
G1 X51.597 Y77.586 E4.28159
G1 X50.828 Y76.713 E4.35935
G1 X50.125 Y75.807 E4.43590
G1 X49.476 Y74.852 E4.51306
G1 X48.888 Y73.858 E4.59023
G1 X48.364 Y72.828 E4.66739
G1 X47.905 Y71.768 E4.74455
G1 X47.514 Y70.682 E4.82172
G1 X47.192 Y69.572 E4.89888
G1 X46.940 Y68.445 E4.97604
G1 X46.759 Y67.304 E5.05321
G1 X46.650 Y66.154 E5.13037
G1 X46.614 Y65.000 E5.20755
G1 X46.651 Y63.836 E5.28530
G1 X46.759 Y62.696 E5.36186
G1 X46.940 Y61.555 E5.43902
G1 X47.192 Y60.428 E5.51618
G1 X47.514 Y59.318 E5.59334
G1 X47.905 Y58.232 E5.67051
G1 X48.364 Y57.172 E5.74767
G1 X48.888 Y56.142 E5.82483
G1 X49.476 Y55.148 E5.90200
G1 X50.125 Y54.193 E5.97916
G1 X50.833 Y53.280 E6.05632
G1 X51.597 Y52.414 E6.13349
G1 X52.414 Y51.597 E6.21065
G1 X53.273 Y50.839 E6.28720
G1 X54.193 Y50.125 E6.36496
G1 X55.148 Y49.476 E6.44214
G1 X56.142 Y48.888 E6.51930
G1 X57.172 Y48.364 E6.59646
G1 X58.232 Y47.905 E6.67362
G1 X59.318 Y47.514 E6.75079
G1 X60.428 Y47.192 E6.82795
G1 X61.555 Y46.940 E6.90511
G1 X62.696 Y46.759 E6.98228
G1 X63.846 Y46.650 E7.05944
G1 X64.991 Y46.614 E7.13599
G1 X66.154 Y46.650 E7.21375
G1 X67.304 Y46.759 E7.29093
G1 X68.445 Y46.940 E7.36809
G1 X69.572 Y47.192 E7.44525
G1 X70.682 Y47.514 E7.52241
G1 X71.768 Y47.905 E7.59958
G1 X72.828 Y48.364 E7.67674
G1 X73.858 Y48.888 E7.75390
G1 X74.852 Y49.476 E7.83107
G1 X75.807 Y50.125 E7.90823
G1 X76.720 Y50.833 E7.98539
G1 X77.586 Y51.597 E8.06257
G1 X78.409 Y52.421 E8.14033
G1 X79.167 Y53.280 E8.21688
G1 X79.875 Y54.193 E8.29404
G1 X80.524 Y55.148 E8.37121
G1 X81.112 Y56.143 E8.44838
G1 X81.640 Y57.180 E8.52614
G1 X82.095 Y58.232 E8.60269
G1 X82.486 Y59.318 E8.67986
G1 X82.808 Y60.428 E8.75702
G1 X83.060 Y61.555 E8.83418
G1 X83.241 Y62.696 E8.91135
G1 X83.350 Y63.846 E8.98851
G1 X83.386 Y65.000 E9.06567
G1 X83.350 Y66.154 E9.14283
G1 X83.241 Y67.304 E9.22000
G1 X83.060 Y68.445 E9.29717
G1 X82.806 Y69.581 E9.37493
G1 X82.486 Y70.682 E9.45149
G1 X82.095 Y71.768 E9.52865
G1 X81.636 Y72.828 E9.60581
G1 X81.112 Y73.858 E9.68297
G1 X80.889 Y74.235 E9.71227
G1 X80.397 Y74.014 F30000.000
G1 F2100
G1 X80.071 Y74.565 E9.75500
G1 X79.441 Y75.492 E9.82992
G1 X78.754 Y76.378 E9.90483
G1 X78.012 Y77.219 E9.97975
G1 X77.219 Y78.012 E10.05466
G1 X76.378 Y78.754 E10.12957
G1 X75.499 Y79.436 E10.20389
G1 X74.565 Y80.071 E10.27939
G1 X73.599 Y80.642 E10.35431
G1 X72.600 Y81.151 E10.42923
G1 X71.571 Y81.597 E10.50414
G1 X70.516 Y81.977 E10.57905
G1 X69.448 Y82.287 E10.65337
G1 X68.345 Y82.534 E10.72888
G1 X67.237 Y82.709 E10.80380
G1 X66.121 Y82.815 E10.87871
G1 X65.000 Y82.850 E10.95362
G1 X63.879 Y82.815 E11.02854
G1 X62.763 Y82.709 E11.10345
G1 X61.655 Y82.534 E11.17837
G1 X60.561 Y82.289 E11.25328
G1 X59.484 Y81.977 E11.32819
G1 X58.437 Y81.600 E11.40251
G1 X57.400 Y81.151 E11.47802
G1 X56.401 Y80.642 E11.55293
G1 X55.443 Y80.076 E11.62725
G1 X54.508 Y79.441 E11.70276
G1 X53.622 Y78.754 E11.77767
G1 X52.781 Y78.012 E11.85259
G1 X51.988 Y77.219 E11.92751
G1 X51.241 Y76.371 E12.00301
G1 X50.559 Y75.492 E12.07733
G1 X49.929 Y74.565 E12.15224
G1 X49.358 Y73.599 E12.22716
G1 X48.849 Y72.600 E12.30207
G1 X48.403 Y71.571 E12.37698
G1 X48.023 Y70.516 E12.45190
G1 X47.711 Y69.439 E12.52681
G1 X47.466 Y68.345 E12.60173
G1 X47.291 Y67.237 E12.67664
G1 X47.185 Y66.121 E12.75155
G1 X47.150 Y65.000 E12.82647
G1 X47.186 Y63.870 E12.90198
G1 X47.291 Y62.763 E12.97629
G1 X47.466 Y61.655 E13.05121
G1 X47.711 Y60.561 E13.12612
G1 X48.023 Y59.484 E13.20104
G1 X48.403 Y58.429 E13.27595
G1 X48.849 Y57.400 E13.35086
G1 X49.358 Y56.401 E13.42578
G1 X49.929 Y55.435 E13.50069
G1 X50.559 Y54.508 E13.57561
G1 X51.246 Y53.622 E13.65052
G1 X51.988 Y52.781 E13.72543
G1 X52.781 Y51.988 E13.80035
G1 X53.615 Y51.252 E13.87466
G1 X54.508 Y50.559 E13.95017
G1 X55.435 Y49.929 E14.02509
G1 X56.401 Y49.358 E14.10000
G1 X57.400 Y48.849 E14.17492
G1 X58.429 Y48.403 E14.24983
G1 X59.484 Y48.023 E14.32474
G1 X60.561 Y47.711 E14.39966
G1 X61.655 Y47.466 E14.47457
G1 X62.763 Y47.291 E14.54949
G1 X63.879 Y47.185 E14.62440
G1 X64.991 Y47.150 E14.69871
G1 X66.121 Y47.185 E14.77422
G1 X67.237 Y47.291 E14.84914
G1 X68.345 Y47.466 E14.92405
G1 X69.439 Y47.711 E14.99897
G1 X70.516 Y48.023 E15.07388
G1 X71.571 Y48.403 E15.14880
G1 X72.600 Y48.849 E15.22371
G1 X73.599 Y49.358 E15.29862
G1 X74.565 Y49.929 E15.37354
G1 X75.492 Y50.559 E15.44845
G1 X76.378 Y51.246 E15.52337
G1 X77.219 Y51.988 E15.59828
G1 X78.018 Y52.787 E15.67379
G1 X78.754 Y53.622 E15.74811
G1 X79.441 Y54.508 E15.82302
G1 X80.071 Y55.435 E15.89793
G1 X80.642 Y56.401 E15.97285
G1 X81.155 Y57.408 E16.04836
G1 X81.597 Y58.429 E16.12267
G1 X81.977 Y59.484 E16.19759
G1 X82.289 Y60.561 E16.27250
G1 X82.534 Y61.655 E16.34742
G1 X82.709 Y62.763 E16.42233
G1 X82.815 Y63.879 E16.49724
G1 X82.850 Y65.000 E16.57216
G1 X82.815 Y66.121 E16.64707
G1 X82.709 Y67.237 E16.72199
G1 X82.534 Y68.345 E16.79691
G1 X82.287 Y69.448 E16.87241
G1 X81.977 Y70.516 E16.94673
G1 X81.597 Y71.571 E17.02164
G1 X81.151 Y72.600 E17.09655
G1 X80.642 Y73.599 E17.17147
G1 X80.428 Y73.962 E17.19964
G1 X80.598 Y74.360 F30000.000
G1 E15.19964 F2400.00000
G92 E0
G1 X94.402 Y82.263 F30000.000
G1 E2.00000 F2400.00000
G1 F2100
G1 X93.803 Y83.280 E2.07885
G1 X92.599 Y85.052 E2.22197
G1 X91.285 Y86.745 E2.36514
G1 X89.868 Y88.353 E2.50831
G1 X88.353 Y89.868 E2.65148
G1 X86.745 Y91.285 E2.79465
G1 X85.052 Y92.599 E2.93782
G1 X83.279 Y93.803 E3.08099
G1 X81.435 Y94.894 E3.22416
G1 X79.525 Y95.867 E3.36733
G1 X77.558 Y96.718 E3.51050
G1 X75.542 Y97.444 E3.65367
G1 X73.484 Y98.042 E3.79684
G1 X71.393 Y98.510 E3.93996
G1 X69.212 Y98.851 E4.08743
G1 X67.142 Y99.047 E4.22634
G1 X65.000 Y99.114 E4.36951
G1 X62.858 Y99.047 E4.51268
G1 X60.724 Y98.845 E4.65585
G1 X58.608 Y98.510 E4.79897
G1 X56.455 Y98.024 E4.94644
G1 X54.458 Y97.444 E5.08536
G1 X52.442 Y96.718 E5.22853
G1 X50.475 Y95.867 E5.37170
G1 X48.565 Y94.894 E5.51487
G1 X46.721 Y93.803 E5.65804
G1 X44.948 Y92.599 E5.80121
G1 X43.255 Y91.285 E5.94438
G1 X41.647 Y89.868 E6.08755
G1 X40.177 Y88.398 E6.22646
G1 X38.714 Y86.744 E6.37393
G1 X37.401 Y85.052 E6.51705
G1 X36.197 Y83.279 E6.66022
G1 X35.106 Y81.435 E6.80339
G1 X34.133 Y79.525 E6.94656
G1 X33.282 Y77.558 E7.08973
G1 X32.556 Y75.542 E7.23290
G1 X31.958 Y73.484 E7.37607
G1 X31.490 Y71.392 E7.51924
G1 X31.155 Y69.276 E7.66241
G1 X30.959 Y67.205 E7.80133
G1 X30.886 Y64.999 E7.94879
G1 X30.953 Y62.858 E8.09191
G1 X31.155 Y60.724 E8.23508
G1 X31.490 Y58.608 E8.37825
G1 X31.958 Y56.516 E8.52142
G1 X32.556 Y54.458 E8.66459
G1 X33.282 Y52.442 E8.80776
G1 X34.133 Y50.475 E8.95093
G1 X35.106 Y48.565 E9.09410
G1 X36.197 Y46.721 E9.23727
G1 X37.401 Y44.948 E9.38044
G1 X38.715 Y43.255 E9.52361
G1 X40.132 Y41.647 E9.66678
G1 X41.647 Y40.132 E9.80995
G1 X43.255 Y38.715 E9.95312
G1 X44.948 Y37.401 E10.09629
G1 X46.721 Y36.197 E10.23946
G1 X48.565 Y35.106 E10.38263
G1 X50.475 Y34.133 E10.52580
G1 X52.442 Y33.282 E10.66897
G1 X54.458 Y32.556 E10.81214
G1 X56.516 Y31.958 E10.95531
G1 X58.608 Y31.490 E11.09848
G1 X60.724 Y31.155 E11.24165
G1 X62.857 Y30.953 E11.38477
G1 X65.064 Y30.888 E11.53223
G1 X67.142 Y30.953 E11.67115
G1 X69.276 Y31.155 E11.81432
G1 X71.392 Y31.490 E11.95749
G1 X73.483 Y31.958 E12.10061
G1 X75.602 Y32.577 E12.24807
G1 X77.558 Y33.282 E12.38699
G1 X79.525 Y34.133 E12.53016
G1 X81.435 Y35.106 E12.67333
G1 X83.279 Y36.197 E12.81650
G1 X85.052 Y37.401 E12.95967
G1 X86.745 Y38.715 E13.10284
G1 X88.353 Y40.132 E13.24601
G1 X89.868 Y41.647 E13.38918
G1 X91.285 Y43.255 E13.53235
G1 X92.599 Y44.948 E13.67552
G1 X93.803 Y46.721 E13.81869
G1 X94.894 Y48.565 E13.96186
G1 X95.867 Y50.475 E14.10503
G1 X96.718 Y52.442 E14.24820
G1 X97.444 Y54.458 E14.39137
G1 X98.024 Y56.455 E14.53029
G1 X98.510 Y58.608 E14.67775
G1 X98.845 Y60.724 E14.82087
G1 X99.047 Y62.858 E14.96404
G1 X99.114 Y65.000 E15.10721
G1 X99.047 Y67.142 E15.25038
G1 X98.851 Y69.212 E15.38930
G1 X98.510 Y71.393 E15.53677
G1 X98.042 Y73.484 E15.67989
G1 X97.444 Y75.542 E15.82306
G1 X96.718 Y77.558 E15.96623
G1 X95.867 Y79.525 E16.10940
G1 X94.923 Y81.378 E16.24831
G1 X94.432 Y82.211 E16.31292
G1 X94.863 Y82.535 F30000.000
G1 F2100
G1 X94.256 Y83.567 E16.39293
G1 X93.032 Y85.367 E16.53833
G1 X91.698 Y87.087 E16.68375
G1 X90.259 Y88.719 E16.82916
G1 X88.719 Y90.259 E16.97458
G1 X87.087 Y91.698 E17.12000
G1 X85.367 Y93.032 E17.26542
G1 X83.566 Y94.256 E17.41084
G1 X81.693 Y95.364 E17.55626
G1 X79.753 Y96.352 E17.70168
G1 X77.755 Y97.217 E17.84710
G1 X75.707 Y97.954 E17.99252
G1 X73.617 Y98.561 E18.13793
G1 X71.493 Y99.036 E18.28334
G1 X69.279 Y99.383 E18.43305
G1 X67.176 Y99.581 E18.57418
