; generated by Slic3r 1.3.0 on 2020-08-19 at 19:03:55

; external perimeters extrusion width = 0.44mm (2.78mm^3/s)
; perimeters extrusion width = 0.40mm (7.14mm^3/s)
; infill extrusion width = 0.50mm (10.97mm^3/s)
; solid infill extrusion width = 0.60mm (6.68mm^3/s)
; top infill extrusion width = 0.40mm (2.14mm^3/s)

M107
M190 S80 ; set bed temperature and wait for it to be reached
M104 S200 ; set temperature
G28 ; home all axes
G1 Z5 F5000 ; lift nozzle

; Filament gcode

M109 S200 ; set temperature and wait for it to be reached
G21 ; set units to millimeters
G90 ; use absolute coordinates
M82 ; use absolute distances for extrusion
G92 E0
G1 Z0.300 F30000.000
G1 E-2.00000 F2400.00000
G92 E0
G1 X18.759 Y24.000 F30000.000
G1 E2.00000 F2400.00000
G1 F2100
G1 X19.577 Y23.406 E2.06750
G1 X19.998 Y23.138 E2.10087
G1 X20.624 Y22.785 E2.14891
G1 X21.336 Y22.438 E2.20180
G1 X22.275 Y22.066 E2.26926
G1 X22.997 Y21.840 E2.31977
G1 X23.481 Y21.716 E2.35314
G1 X24.220 Y21.567 E2.40356
G1 X24.968 Y21.464 E2.45398
G1 X25.977 Y21.401 E2.52149
G1 X26.732 Y21.409 E2.57195
G1 X27.231 Y21.440 E2.60532
G1 X27.981 Y21.527 E2.65576
G1 X28.724 Y21.661 E2.70623
G1 X29.703 Y21.912 E2.77373
G1 X30.178 Y22.066 E2.80710
G1 X30.883 Y22.337 E2.85754
G1 X32.498 Y23.061 E2.97576
G1 X33.702 Y23.893 E3.07354
G1 X141.818 Y132.009 E13.28809
G1 X142.917 Y134.018 E13.44103
G1 X143.244 Y135.519 E13.54364
G1 X143.381 Y136.388 E13.60246
G1 X143.433 Y137.209 E13.65736
G1 X143.406 Y138.082 E13.71575
G1 X143.303 Y138.895 E13.77051
G1 X143.111 Y139.756 E13.82941
G1 X142.858 Y140.535 E13.88417
G1 X142.639 Y141.067 E13.92257
G1 X142.245 Y141.840 E13.98054
G1 X141.808 Y142.529 E14.03505
G1 X141.458 Y142.998 E14.07411
G1 X140.883 Y143.649 E14.13214
G1 X140.288 Y144.208 E14.18670
G1 X139.832 Y144.575 E14.22578
G1 X139.121 Y145.058 E14.28324
G1 X138.399 Y145.455 E14.33825
G1 X137.876 Y145.692 E14.37663
G1 X137.060 Y145.987 E14.43458
G1 X136.252 Y146.194 E14.49028
G1 X135.396 Y146.330 E14.54823
G1 X134.822 Y146.374 E14.58665
G1 X134.000 Y146.374 E14.64156
G1 X133.131 Y146.291 E14.69990
G1 X132.570 Y146.192 E14.73797
G1 X131.774 Y145.988 E14.79283
G1 X130.951 Y145.692 E14.85128
G1 X130.432 Y145.456 E14.88940
G1 X129.714 Y145.062 E14.94409
G1 X129.317 Y144.806 E14.97568
G1 X48.008 Y88.592 E21.57930
G1 X46.275 Y87.241 E21.72608
G1 X45.519 Y86.617 E21.79158
G1 X44.616 Y85.779 E21.87387
G1 X43.874 Y84.992 E21.94618
G1 X43.180 Y84.161 E22.01848
G1 X42.508 Y83.250 E22.09410
G1 X41.854 Y82.233 E22.17487
G1 X15.906 Y39.581 E25.51014
G1 X15.460 Y38.761 E25.57251
G1 X15.145 Y38.074 E25.62297
G1 X14.875 Y37.369 E25.67340
G1 X14.720 Y36.894 E25.70677
G1 X14.525 Y36.165 E25.75722
G1 X14.336 Y35.172 E25.82473
G1 X14.249 Y34.422 E25.87518
G1 X14.209 Y33.668 E25.92564
G1 X14.209 Y33.168 E25.95902
G1 X14.249 Y32.415 E26.00943
G1 X14.336 Y31.664 E26.05990
G1 X14.525 Y30.672 E26.12737
G1 X14.721 Y29.942 E26.17789
G1 X14.875 Y29.467 E26.21126
G1 X15.145 Y28.762 E26.26166
G1 X15.576 Y27.848 E26.32919
G1 X15.947 Y27.190 E26.37964
G1 X16.358 Y26.557 E26.43008
G1 X16.651 Y26.152 E26.46345
G1 X17.126 Y25.566 E26.51388
G1 X17.818 Y24.829 E26.58141
G1 X18.182 Y24.487 E26.61477
G1 X18.713 Y24.038 E26.66121
G1 X19.100 Y24.412 F30000.000
G1 F2100
G1 X19.864 Y23.858 E26.72422
G1 X20.285 Y23.590 E26.75758
G1 X20.882 Y23.254 E26.80337
G1 X21.564 Y22.923 E26.85401
G1 X22.441 Y22.576 E26.91699
G1 X23.130 Y22.359 E26.96524
G1 X23.614 Y22.235 E26.99861
G1 X24.321 Y22.093 E27.04678
G1 X25.035 Y21.996 E27.09497
G1 X25.977 Y21.937 E27.15798
G1 X26.698 Y21.944 E27.20619
G1 X27.197 Y21.975 E27.23957
G1 X27.913 Y22.058 E27.28776
G1 X28.624 Y22.187 E27.33597
G1 X29.537 Y22.421 E27.39898
G1 X30.012 Y22.576 E27.43235
G1 X30.686 Y22.835 E27.48054
G1 X32.277 Y23.549 E27.59709
G1 X33.323 Y24.271 E27.68200
G1 X141.440 Y132.388 E37.89655
G1 X142.394 Y134.132 E38.02937
G1 X142.718 Y135.619 E38.13103
G1 X142.850 Y136.455 E38.18758
G1 X142.897 Y137.208 E38.23799
G1 X142.871 Y138.049 E38.29416
G1 X142.777 Y138.796 E38.34445
G1 X142.593 Y139.623 E38.40106
G1 X142.360 Y140.339 E38.45135
G1 X142.154 Y140.838 E38.48743
G1 X141.775 Y141.582 E38.54324
G1 X141.374 Y142.215 E38.59331
G1 X141.046 Y142.656 E38.62997
G1 X140.493 Y143.282 E38.68582
G1 X139.946 Y143.796 E38.73594
G1 X139.519 Y144.141 E38.77261
G1 X138.833 Y144.606 E38.82798
G1 X138.170 Y144.970 E38.87849
G1 X137.389 Y145.309 E38.93535
G1 X136.674 Y145.542 E38.98563
G1 X136.153 Y145.668 E39.02144
G1 X135.328 Y145.798 E39.07723
G1 X134.789 Y145.839 E39.11332
G1 X134.034 Y145.839 E39.16374
G1 X133.198 Y145.760 E39.21987
G1 X132.670 Y145.666 E39.25567
G1 X131.940 Y145.479 E39.30604
G1 X131.148 Y145.194 E39.36227
G1 X130.660 Y144.972 E39.39810
G1 X130.001 Y144.609 E39.44834
G1 X129.621 Y144.365 E39.47850
G1 X48.313 Y88.151 E46.08212
G1 X46.606 Y86.820 E46.22673
G1 X45.861 Y86.205 E46.29131
G1 X44.993 Y85.398 E46.37048
G1 X44.268 Y84.630 E46.44098
G1 X43.592 Y83.820 E46.51147
G1 X42.941 Y82.935 E46.58484
G1 X42.312 Y81.955 E46.66269
G1 X16.363 Y39.303 E49.99796
G1 X15.944 Y38.533 E50.05651
G1 X15.643 Y37.877 E50.10472
G1 X15.384 Y37.204 E50.15291
G1 X15.230 Y36.729 E50.18628
G1 X15.044 Y36.032 E50.23448
G1 X14.867 Y35.105 E50.29750
G1 X14.783 Y34.388 E50.34570
G1 X14.745 Y33.668 E50.39391
G1 X14.745 Y33.168 E50.42729
G1 X14.783 Y32.448 E50.47545
G1 X14.867 Y31.731 E50.52367
G1 X15.044 Y30.805 E50.58666
G1 X15.230 Y30.107 E50.63492
G1 X15.384 Y29.632 E50.66829
G1 X15.643 Y28.959 E50.71645
G1 X16.045 Y28.106 E50.77949
G1 X16.399 Y27.477 E50.82769
G1 X16.791 Y26.871 E50.87588
G1 X17.085 Y26.467 E50.90925
G1 X17.539 Y25.907 E50.95744
G1 X18.185 Y25.219 E51.02047
G1 X18.549 Y24.877 E51.05383
G1 X19.054 Y24.451 E51.09802
G1 X19.602 Y25.018 F30000.000
G1 F2100
G1 X20.177 Y24.593 E51.15154
G1 X20.743 Y24.231 E51.20184
G1 X21.331 Y23.905 E51.25215
G1 X22.017 Y23.582 E51.30892
G1 X22.562 Y23.366 E51.35275
G1 X23.200 Y23.156 E51.40304
G1 X23.851 Y22.986 E51.45338
G1 X24.596 Y22.844 E51.51011
G1 X25.263 Y22.762 E51.56042
G1 X25.934 Y22.723 E51.61071
G1 X26.606 Y22.725 E51.66100
G1 X27.277 Y22.770 E51.71131
G1 X27.943 Y22.857 E51.76162
G1 X28.603 Y22.986 E51.81192
G1 X29.170 Y23.132 E51.85576
G1 X29.810 Y23.337 E51.90606
G1 X30.516 Y23.616 E51.96282
G1 X31.300 Y24.002 E52.02826
G1 X31.377 Y24.022 E52.03422
G1 X31.962 Y24.022 E52.07796
G1 X141.689 Y133.749 E63.69073
G1 X141.694 Y134.764 E63.76670
G1 X141.919 Y135.642 E63.83450
G1 X142.012 Y136.115 E63.87059
G1 X142.075 Y136.596 E63.90685
G1 X142.108 Y137.077 E63.94293
G1 X142.111 Y137.562 E63.97925
G1 X142.084 Y138.044 E64.01540
G1 X142.025 Y138.526 E64.05173
G1 X141.938 Y138.998 E64.08764
G1 X141.820 Y139.471 E64.12409
G1 X141.672 Y139.933 E64.16043
G1 X141.462 Y140.462 E64.20302
G1 X141.255 Y140.895 E64.23896
G1 X141.018 Y141.322 E64.27547
G1 X140.527 Y142.045 E64.34085
G1 X140.216 Y142.425 E64.37765
G1 X139.889 Y142.776 E64.41351
G1 X139.476 Y143.164 E64.45597
G1 X139.096 Y143.476 E64.49275
G1 X138.373 Y143.967 E64.55816
G1 X137.872 Y144.242 E64.60087
G1 X137.432 Y144.447 E64.63723
G1 X137.062 Y144.593 E64.66698
G1 X136.521 Y144.769 E64.70953
G1 X136.049 Y144.887 E64.74595
G1 X135.185 Y145.024 E64.81148
G1 X134.698 Y145.057 E64.84797
G1 X134.128 Y145.057 E64.89062
G1 X133.253 Y144.974 E64.95641
G1 X132.776 Y144.886 E64.99270
G1 X132.224 Y144.745 E65.03532
G1 X131.397 Y144.447 E65.10116
G1 X130.956 Y144.242 E65.13751
G1 X130.458 Y143.968 E65.18006
G1 X129.998 Y143.669 E65.22110
G1 X129.355 Y143.167 E65.28218
G1 X128.939 Y142.777 E65.32484
G1 X128.519 Y142.322 E65.37117
G1 X47.828 Y86.864 E72.69841
G1 X47.813 Y86.783 E72.70457
G1 X47.748 Y86.681 E72.71363
G1 X47.070 Y86.185 E72.77648
G1 X46.328 Y85.571 E72.84854
G1 X45.994 Y85.260 E72.88272
G1 X45.921 Y85.221 E72.88887
G1 X45.575 Y85.138 E72.91548
G1 X45.114 Y84.387 E72.98144
G1 X44.784 Y84.027 E73.01799
G1 X44.118 Y83.217 E73.09649
G1 X43.552 Y82.438 E73.16854
G1 X42.988 Y81.554 E73.24704
G1 X42.441 Y80.559 E73.33201
G1 X42.031 Y79.688 E73.40406
G1 X41.643 Y78.724 E73.48184
G1 X18.258 Y40.562 E76.83125
G1 X17.746 Y39.942 E76.89141
G1 X17.402 Y39.468 E76.93526
G1 X17.039 Y38.902 E76.98556
G1 X16.713 Y38.314 E77.03585
G1 X16.425 Y37.707 E77.08615
G1 X16.145 Y37.002 E77.14291
G1 X15.940 Y36.362 E77.19322
G1 X15.795 Y35.794 E77.23705
G1 X15.666 Y35.135 E77.28735
G1 X15.579 Y34.468 E77.33766
G1 X15.531 Y33.711 E77.39442
G1 X15.531 Y33.125 E77.43827
G1 X15.571 Y32.454 E77.48855
G1 X15.652 Y31.787 E77.53886
G1 X15.794 Y31.042 E77.59560
G1 X15.964 Y30.392 E77.64594
G1 X16.145 Y29.834 E77.68978
G1 X16.390 Y29.209 E77.74005
G1 X16.674 Y28.599 E77.79035
G1 X17.039 Y27.934 E77.84714
G1 X17.402 Y27.368 E77.89744
G1 X17.746 Y26.895 E77.94127
G1 X18.172 Y26.375 E77.99156
G1 X18.692 Y25.822 E78.04833
G1 X19.119 Y25.421 E78.09217
G1 X19.555 Y25.056 E78.13475
G1 X19.984 Y25.480 F30000.000
G1 F2100
G1 X20.522 Y25.084 E78.18474
G1 X21.057 Y24.743 E78.23222
G1 X21.612 Y24.435 E78.27971
G1 X22.247 Y24.136 E78.33225
G1 X22.774 Y23.927 E78.37467
G1 X23.377 Y23.729 E78.42214
G1 X23.991 Y23.569 E78.46965
G1 X24.680 Y23.438 E78.52216
G1 X25.310 Y23.361 E78.56964
G1 X25.943 Y23.323 E78.61712
G1 X26.647 Y23.329 E78.66982
G1 X27.211 Y23.367 E78.71207
G1 X27.773 Y23.438 E78.75450
G1 X28.397 Y23.555 E78.80199
G1 X29.012 Y23.710 E78.84946
G1 X29.680 Y23.927 E78.90199
G1 X30.269 Y24.163 E78.94947
G1 X30.782 Y24.404 E78.99190
G1 X31.146 Y24.602 E79.02293
G1 X31.223 Y24.622 E79.02889
G1 X31.713 Y24.622 E79.06556
G1 X141.089 Y133.998 E90.64114
G1 X141.094 Y134.840 E90.70416
G1 X141.335 Y135.782 E90.77693
G1 X141.421 Y136.219 E90.81023
G1 X141.479 Y136.661 E90.84365
G1 X141.509 Y137.105 E90.87694
G1 X141.511 Y137.552 E90.91041
G1 X141.485 Y137.997 E90.94375
G1 X141.431 Y138.441 E90.97723
G1 X141.351 Y138.877 E91.01039
G1 X141.241 Y139.312 E91.04396
G1 X141.104 Y139.738 E91.07744
G1 X140.916 Y140.215 E91.11582
G1 X140.725 Y140.615 E91.14899
G1 X140.507 Y141.008 E91.18261
G1 X140.047 Y141.685 E91.24388
G1 X139.760 Y142.035 E91.27772
G1 X139.458 Y142.359 E91.31084
G1 X139.086 Y142.709 E91.34911
G1 X138.736 Y142.996 E91.38294
G1 X138.059 Y143.456 E91.44423
G1 X137.608 Y143.703 E91.48270
G1 X136.850 Y144.031 E91.54451
G1 X136.363 Y144.190 E91.58285
G1 X135.928 Y144.299 E91.61640
G1 X135.118 Y144.428 E91.67778
G1 X134.670 Y144.458 E91.71139
G1 X134.157 Y144.458 E91.74981
G1 X133.337 Y144.380 E91.81140
G1 X132.833 Y144.284 E91.84982
G1 X132.401 Y144.171 E91.88324
G1 X131.626 Y143.892 E91.94486
G1 X131.220 Y143.703 E91.97837
G1 X130.771 Y143.456 E92.01671
G1 X130.351 Y143.183 E92.05422
G1 X129.745 Y142.711 E92.11177
G1 X129.370 Y142.359 E92.15020
G1 X128.928 Y141.875 E92.19926
G1 X48.372 Y86.510 E99.51418
G1 X48.359 Y86.438 E99.51966
G1 X48.294 Y86.336 E99.52872
G1 X47.445 Y85.717 E99.60737
G1 X46.718 Y85.115 E99.67801
G1 X46.288 Y84.714 E99.72198
G1 X46.216 Y84.675 E99.72813
G1 X45.957 Y84.613 E99.74807
G1 X45.574 Y83.996 E99.80242
G1 X45.241 Y83.638 E99.83904
G1 X44.598 Y82.857 E99.91472
G1 X44.043 Y82.093 E99.98536
G1 X43.499 Y81.241 E100.06104
G1 X42.979 Y80.295 E100.14179
G1 X42.578 Y79.441 E100.21242
G1 X42.184 Y78.457 E100.29172
G1 X18.736 Y40.194 E103.65006
G1 X18.226 Y39.582 E103.70970
G1 X17.893 Y39.123 E103.75213
G1 X17.551 Y38.588 E103.79961
G1 X17.244 Y38.033 E103.84708
G1 X16.971 Y37.460 E103.89456
G1 X16.713 Y36.808 E103.94709
G1 X16.519 Y36.203 E103.99458
G1 X16.378 Y35.654 E104.03700
G1 X16.257 Y35.032 E104.08448
G1 X16.175 Y34.402 E104.13197
G1 X16.131 Y33.702 E104.18450
G1 X16.131 Y33.135 E104.22693
G1 X16.169 Y32.501 E104.27440
G1 X16.246 Y31.872 E104.32189
G1 X16.378 Y31.182 E104.37440
G1 X16.538 Y30.568 E104.42191
G1 X16.713 Y30.029 E104.46434
G1 X16.945 Y29.438 E104.51180
G1 X17.213 Y28.863 E104.55928
G1 X17.551 Y28.248 E104.61183
G1 X17.893 Y27.714 E104.65930
G1 X18.226 Y27.255 E104.70173
G1 X18.629 Y26.765 E104.74920
G1 X19.109 Y26.253 E104.80174
G1 X19.523 Y25.865 E104.84417
G1 X19.938 Y25.519 E104.88463
G1 X20.367 Y25.943 F30000.000
G1 F2100
G1 X20.867 Y25.575 E104.93110
G1 X21.370 Y25.254 E104.97576
G1 X21.892 Y24.965 E105.02042
G1 X22.477 Y24.690 E105.06873
G1 X22.986 Y24.489 E105.10974
G1 X23.553 Y24.303 E105.15439
G1 X24.131 Y24.153 E105.19907
G1 X24.765 Y24.032 E105.24736
G1 X25.357 Y23.959 E105.29202
G1 X25.953 Y23.923 E105.33668
G1 X26.610 Y23.928 E105.38585
G1 X27.145 Y23.963 E105.42599
G1 X27.689 Y24.032 E105.46701
G1 X28.275 Y24.142 E105.51167
G1 X28.900 Y24.303 E105.55997
G1 X29.467 Y24.489 E105.60463
G1 X30.022 Y24.710 E105.64928
G1 X30.518 Y24.943 E105.69031
G1 X30.992 Y25.202 E105.73075
G1 X31.069 Y25.222 E105.73671
G1 X31.465 Y25.222 E105.76631
G1 X140.489 Y134.246 E117.30468
G1 X140.489 Y135.042 E117.36425
G1 X140.562 Y135.180 E117.37590
G1 X140.762 Y135.969 E117.43681
G1 X140.837 Y136.370 E117.46740
G1 X140.910 Y137.134 E117.52477
G1 X140.911 Y137.543 E117.55539
G1 X140.887 Y137.950 E117.58593
G1 X140.763 Y138.756 E117.64692
G1 X140.662 Y139.154 E117.67762
G1 X140.537 Y139.543 E117.70825
G1 X140.369 Y139.968 E117.74241
G1 X140.194 Y140.334 E117.77282
G1 X139.995 Y140.694 E117.80355
G1 X139.566 Y141.326 E117.86070
G1 X139.304 Y141.644 E117.89159
G1 X139.027 Y141.941 E117.92196
G1 X138.695 Y142.253 E117.95605
G1 X138.377 Y142.515 E117.98692
G1 X137.745 Y142.944 E118.04410
G1 X137.344 Y143.164 E118.07833
G1 X136.638 Y143.470 E118.13587
G1 X136.205 Y143.611 E118.17000
G1 X135.807 Y143.712 E118.20067
G1 X135.052 Y143.831 E118.25791
G1 X134.642 Y143.858 E118.28863
G1 X134.185 Y143.858 E118.32282
G1 X133.422 Y143.786 E118.38021
G1 X132.973 Y143.700 E118.41440
G1 X132.577 Y143.598 E118.44498
G1 X131.856 Y143.338 E118.50239
G1 X131.484 Y143.165 E118.53304
G1 X131.085 Y142.945 E118.56719
G1 X130.704 Y142.698 E118.60118
G1 X130.134 Y142.254 E118.65518
G1 X129.801 Y141.941 E118.68938
G1 X129.337 Y141.428 E118.74119
G1 X48.917 Y86.157 E126.04378
G1 X48.901 Y86.072 E126.05019
G1 X48.828 Y85.963 E126.06002
G1 X47.821 Y85.248 E126.15247
G1 X47.108 Y84.659 E126.22170
G1 X46.583 Y84.168 E126.27547
G1 X46.511 Y84.129 E126.28162
G1 X46.338 Y84.087 E126.29488
G1 X46.054 Y83.630 E126.33523
G1 X45.697 Y83.248 E126.37432
G1 X45.078 Y82.497 E126.44718
G1 X44.534 Y81.748 E126.51641
G1 X44.011 Y80.927 E126.58927
G1 X43.540 Y80.074 E126.66215
G1 X43.125 Y79.194 E126.73501
G1 X42.728 Y78.196 E126.81538
G1 X19.216 Y39.828 E130.18292
G1 X18.706 Y39.221 E130.24222
G1 X18.384 Y38.778 E130.28324
G1 X18.063 Y38.275 E130.32790
G1 X17.774 Y37.753 E130.37255
G1 X17.518 Y37.213 E130.41721
G1 X17.281 Y36.613 E130.46551
G1 X17.098 Y36.045 E130.51017
G1 X16.962 Y35.514 E130.55119
G1 X16.848 Y34.928 E130.59584
G1 X16.772 Y34.336 E130.64051
G1 X16.731 Y33.692 E130.68881
G1 X16.731 Y33.144 E130.72983
G1 X16.767 Y32.549 E130.77448
G1 X16.841 Y31.956 E130.81914
G1 X16.961 Y31.322 E130.86743
G1 X17.111 Y30.745 E130.91211
G1 X17.281 Y30.223 E130.95313
G1 X17.499 Y29.668 E130.99777
G1 X17.752 Y29.127 E131.04243
G1 X18.063 Y28.562 E131.09075
G1 X18.384 Y28.059 E131.13540
G1 X18.706 Y27.615 E131.17642
G1 X19.085 Y27.155 E131.22107
G1 X19.527 Y26.684 E131.26938
G1 X19.926 Y26.309 E131.31039
G1 X20.320 Y25.981 E131.34874
G1 X20.749 Y26.405 F30000.000
G1 F2100
G1 X21.212 Y26.066 E131.39169
G1 X21.709 Y25.751 E131.43576
G1 X22.200 Y25.482 E131.47761
G1 X22.679 Y25.257 E131.51721
G1 X23.198 Y25.050 E131.55905
G1 X23.730 Y24.876 E131.60088
G1 X24.300 Y24.730 E131.64496
G1 X24.820 Y24.631 E131.68456
G1 X25.374 Y24.560 E131.72640
G1 X25.932 Y24.524 E131.76824
G1 X26.491 Y24.523 E131.81007
G1 X27.049 Y24.557 E131.85191
G1 X27.604 Y24.626 E131.89375
G1 X28.183 Y24.736 E131.93782
G1 X28.772 Y24.892 E131.98347
G1 X29.255 Y25.050 E132.02149
G1 X29.747 Y25.245 E132.06110
G1 X30.280 Y25.496 E132.10517
G1 X30.819 Y25.797 E132.15136
G1 X30.905 Y25.822 E132.15807
G1 X31.216 Y25.822 E132.18136
G1 X139.889 Y134.495 E143.68253
G1 X139.889 Y135.141 E143.73093
G1 X140.026 Y135.506 E143.76005
G1 X140.168 Y136.062 E143.80299
G1 X140.243 Y136.455 E143.83295
G1 X140.289 Y136.822 E143.86064
G1 X140.310 Y137.563 E143.91610
G1 X140.239 Y138.300 E143.97151
G1 X140.075 Y139.025 E144.02711
G1 X139.834 Y139.692 E144.08020
