; generated by Slic3r 1.3.0 on 2020-08-19 at 21:24:45

; external perimeters extrusion width = 0.44mm (2.78mm^3/s)
; perimeters extrusion width = 0.40mm (7.14mm^3/s)
; infill extrusion width = 0.50mm (10.97mm^3/s)
; solid infill extrusion width = 0.60mm (6.68mm^3/s)
; top infill extrusion width = 0.40mm (2.14mm^3/s)

M107
M190 S80 ; set bed temperature and wait for it to be reached
M104 S200 ; set temperature
G28 ; home all axes
G1 Z5 F5000 ; lift nozzle

; Filament gcode

M109 S200 ; set temperature and wait for it to be reached
G21 ; set units to millimeters
G90 ; use absolute coordinates
M82 ; use absolute distances for extrusion
G92 E0
G1 Z0.300 F30000.000
G1 E-2.00000 F2400.00000
G92 E0
G1 X11.261 Y6.863 F30000.000
G1 E2.00000 F2400.00000
G1 F2100
G1 X12.219 Y5.347 E2.11982
G1 X13.735 Y4.389 E2.23964
G1 X14.948 Y4.156 E2.32212
G1 X18.721 Y4.017 E2.57439
G1 X20.422 Y4.321 E2.68981
G1 X22.812 Y5.305 E2.86245
G1 X23.520 Y5.682 E2.91605
G1 X27.887 Y8.597 E3.26683
G1 X32.238 Y11.763 E3.62633
G1 X36.176 Y15.122 E3.97206
G1 X43.528 Y21.909 E4.64055
G1 X50.799 Y28.894 E5.31410
G1 X64.999 Y43.092 E6.65558
G1 X78.915 Y57.575 E7.99735
G1 X92.660 Y72.170 E9.33674
G1 X104.588 Y84.948 E10.50449
G1 X119.753 Y101.816 E12.01985
G1 X152.987 Y139.292 E15.36608
G1 X159.328 Y146.735 E16.01927
G1 X160.162 Y148.323 E16.13909
G1 X160.232 Y150.115 E16.25891
G1 X159.525 Y151.764 E16.37874
G1 X158.179 Y152.949 E16.49856
G1 X156.454 Y153.440 E16.61838
G1 X154.036 Y152.805 E16.78542
G1 X119.714 Y130.860 E19.50694
G1 X102.789 Y119.337 E20.87477
G1 X86.258 Y107.363 E22.23842
G1 X70.265 Y94.790 E23.59744
G1 X54.927 Y81.446 E24.95561
G1 X40.788 Y67.307 E26.29147
G1 X40.567 Y67.068 E26.31317
G1 X27.560 Y51.798 E27.65322
G1 X27.271 Y51.417 E27.68518
G1 X21.617 Y42.935 E28.36620
G1 X16.161 Y34.039 E29.06335
G1 X15.948 Y33.645 E29.09326
G1 X13.687 Y28.840 E29.44803
G1 X11.509 Y23.764 E29.81701
G1 X11.333 Y23.265 E29.85234
G1 X9.780 Y17.759 E30.23456
G1 X9.629 Y16.794 E30.29979
G1 X9.488 Y12.708 E30.57290
G1 X9.720 Y11.207 E30.67442
G1 X11.241 Y6.920 E30.97828
G1 X11.766 Y7.043 F30000.000
G1 F2100
G1 X12.681 Y5.645 E31.08984
G1 X14.134 Y4.823 E31.20139
G1 X14.967 Y4.692 E31.25775
G1 X18.741 Y4.552 E31.51003
G1 X20.218 Y4.816 E31.61026
G1 X22.608 Y5.800 E31.78290
G1 X23.223 Y6.127 E31.82945
G1 X27.573 Y9.031 E32.17884
G1 X31.891 Y12.171 E32.53552
G1 X35.812 Y15.515 E32.87983
G1 X43.165 Y22.302 E33.54832
G1 X50.479 Y29.329 E34.22588
G1 X64.620 Y43.471 E35.56192
G1 X78.528 Y57.946 E36.90297
G1 X92.270 Y72.537 E38.24201
G1 X104.197 Y85.313 E39.40960
G1 X119.353 Y102.172 E40.92405
G1 X152.586 Y139.648 E44.27028
G1 X158.920 Y147.082 E44.92275
G1 X159.672 Y148.573 E45.03431
G1 X159.656 Y150.243 E45.14587
G1 X158.875 Y151.719 E45.25743
G1 X157.504 Y152.672 E45.36898
G1 X155.849 Y152.890 E45.48054
G1 X154.324 Y152.354 E45.58851
G1 X120.100 Y130.473 E48.30220
G1 X103.187 Y118.963 E49.66892
G1 X86.700 Y107.025 E51.02878
G1 X70.751 Y94.498 E52.38359
G1 X55.306 Y81.068 E53.75096
G1 X40.975 Y66.721 E55.10565
G1 X27.967 Y51.451 E56.44570
G1 X27.717 Y51.119 E56.47345
G1 X22.062 Y42.637 E57.15447
G1 X16.618 Y33.759 E57.85026
G1 X16.433 Y33.417 E57.87623
G1 X14.172 Y28.612 E58.23100
G1 X12.001 Y23.553 E58.59874
G1 X11.848 Y23.120 E58.62941
G1 X10.295 Y17.614 E59.01163
G1 X10.165 Y16.776 E59.06828
G1 X10.024 Y12.690 E59.34140
G1 X10.225 Y11.386 E59.42955
G1 X11.746 Y7.099 E59.73342
G1 E57.73342 F2400.00000
G92 E0
G1 X159.858 Y149.396 F30000.000
G1 E2.00000 F2400.00000
G1 F2100
G1 X156.744 Y152.968 E2.35463
G1 X120.474 Y129.778 E5.57627
G1 X103.613 Y118.301 E7.10262
G1 X87.096 Y106.340 E8.62878
G1 X71.158 Y93.815 E10.14572
G1 X55.896 Y80.546 E11.65919
G1 X41.609 Y66.253 E13.17153
G1 X28.513 Y50.880 E14.68280
G1 X22.702 Y42.179 E15.46577
G1 X17.248 Y33.283 E16.24664
G1 X14.873 Y28.255 E16.66282
G1 X12.689 Y23.161 E17.07759
G1 X11.007 Y17.241 E17.53817
G1 X10.956 Y16.914 E17.56293
G1 X10.801 Y12.404 E17.90062
G1 X10.880 Y11.893 E17.93936
G1 X12.790 Y6.509 E18.36684
G1 X14.152 Y5.509 E18.49332
G1 X19.065 Y5.327 E18.86124
G1 X19.646 Y5.431 E18.90540
G1 X22.434 Y6.579 E19.13103
G1 X22.674 Y6.706 E19.15135
G1 X27.090 Y9.652 E19.54864
G1 X31.340 Y12.734 E19.94150
G1 X35.259 Y16.074 E20.32686
G1 X42.642 Y22.889 E21.07877
G1 X49.893 Y29.856 E21.83131
G1 X64.074 Y44.036 E23.33206
G1 X77.966 Y58.495 E24.83261
G1 X91.703 Y73.081 E26.33201
G1 X101.860 Y84.085 E27.45268
G1 X104.362 Y86.587 E27.71745
G1 X104.362 Y86.731 E27.72827
G1 X104.405 Y86.842 E27.73716
G1 X118.760 Y102.688 E29.33723
G1 X152.007 Y140.180 E33.08720
G1 X159.819 Y149.350 E33.98874
G1 X159.066 Y149.391 F30000.000
G1 F2100
G1 X156.631 Y152.184 E34.26598
G1 X120.808 Y129.280 E37.44795
G1 X103.954 Y117.808 E38.97365
G1 X87.462 Y105.865 E40.49751
G1 X71.546 Y93.357 E42.01234
G1 X56.313 Y80.114 E43.52291
G1 X42.058 Y65.854 E45.03177
G1 X28.982 Y50.504 E46.54083
G1 X23.204 Y41.851 E47.31941
G1 X17.769 Y32.984 E48.09777
G1 X15.418 Y28.004 E48.50985
G1 X13.248 Y22.943 E48.92198
G1 X11.594 Y17.113 E49.37549
G1 X11.554 Y16.857 E49.39485
G1 X11.402 Y12.440 E49.72560
G1 X11.464 Y12.040 E49.75589
G1 X13.294 Y6.884 E50.16534
G1 X14.359 Y6.101 E50.26422
G1 X19.023 Y5.929 E50.61352
G1 X19.477 Y6.010 E50.64804
G1 X22.178 Y7.122 E50.86664
G1 X22.365 Y7.222 E50.88252
G1 X26.743 Y10.141 E51.27629
G1 X30.960 Y13.199 E51.66606
G1 X34.856 Y16.519 E52.04919
G1 X42.233 Y23.328 E52.80044
G1 X49.476 Y30.287 E53.55208
G1 X63.663 Y44.474 E55.05354
G1 X77.533 Y58.910 E56.55169
G1 X91.265 Y73.492 E58.05064
G1 X101.427 Y84.501 E59.17188
G1 X103.762 Y86.835 E59.41895
G1 X103.762 Y86.966 E59.42872
G1 X103.805 Y87.077 E59.43761
G1 X104.863 Y88.223 E59.55431
G1 X118.312 Y103.087 E61.05446
G1 X151.556 Y140.576 E64.80409
G1 X159.027 Y149.346 E65.66627
G1 X158.274 Y149.387 F30000.000
G1 F2100
G1 X156.519 Y151.400 E65.86612
G1 X121.161 Y128.794 E69.00675
G1 X104.296 Y117.314 E70.53347
G1 X87.852 Y105.407 E72.05275
G1 X71.963 Y92.924 E73.56488
G1 X56.729 Y79.682 E75.07541
G1 X42.507 Y65.456 E76.58080
G1 X29.450 Y50.128 E78.08764
G1 X23.707 Y41.523 E78.86184
G1 X18.289 Y32.685 E79.63768
G1 X15.963 Y27.754 E80.04566
G1 X13.807 Y22.724 E80.45516
G1 X12.182 Y16.985 E80.90159
G1 X12.153 Y16.800 E80.91554
G1 X12.004 Y12.476 E81.23937
G1 X12.048 Y12.187 E81.26120
G1 X13.797 Y7.258 E81.65263
G1 X14.565 Y6.694 E81.72391
G1 X18.981 Y6.531 E82.05458
G1 X19.308 Y6.589 E82.07947
G1 X21.922 Y7.666 E82.29103
G1 X22.057 Y7.737 E82.30248
G1 X26.396 Y10.631 E82.69272
G1 X30.579 Y13.663 E83.07941
G1 X34.454 Y16.964 E83.46031
G1 X41.824 Y23.767 E84.21088
G1 X49.069 Y30.728 E84.96279
G1 X63.221 Y44.881 E86.46058
G1 X77.099 Y59.325 E87.95956
G1 X90.827 Y73.902 E89.45806
G1 X100.995 Y84.917 E90.57986
G1 X103.162 Y87.084 E90.80923
G1 X103.162 Y87.201 E90.81795
G1 X103.205 Y87.311 E90.82684
G1 X104.419 Y88.626 E90.96077
G1 X117.864 Y103.487 E92.46046
G1 X151.105 Y140.971 E96.20977
G1 X158.235 Y149.341 E97.03257
G1 X157.482 Y149.382 F30000.000
G1 F2100
G1 X156.407 Y150.616 E97.15503
G1 X121.487 Y128.290 E100.25665
G1 X104.637 Y116.821 E101.78207
G1 X88.209 Y104.925 E103.29993
G1 X72.340 Y92.457 E104.81018
G1 X57.146 Y79.251 E106.31669
G1 X42.956 Y65.058 E107.81861
G1 X29.918 Y49.753 E109.32323
G1 X24.209 Y41.195 E110.09305
G1 X18.809 Y32.385 E110.86636
G1 X16.508 Y27.503 E111.27026
G1 X14.366 Y22.506 E111.67712
G1 X12.769 Y16.856 E112.11647
G1 X12.751 Y16.744 E112.12502
G1 X12.605 Y12.511 E112.44192
G1 X12.633 Y12.335 E112.45530
G1 X14.301 Y7.632 E112.82870
G1 X14.772 Y7.287 E112.87237
G1 X18.939 Y7.133 E113.18443
G1 X19.139 Y7.169 E113.19968
G1 X21.749 Y8.253 E113.41119
G1 X26.033 Y11.109 E113.79653
G1 X30.170 Y14.104 E114.17871
G1 X34.037 Y17.397 E114.55876
G1 X41.414 Y24.206 E115.31008
G1 X48.647 Y31.155 E116.06064
G1 X62.795 Y45.303 E117.55798
G1 X76.665 Y59.739 E119.05617
G1 X90.389 Y74.312 E120.55422
G1 X100.562 Y85.332 E121.67658
G1 X102.562 Y87.333 E121.88825
G1 X102.562 Y87.435 E121.89594
G1 X102.605 Y87.546 E121.90483
G1 X103.975 Y89.030 E122.05597
G1 X117.416 Y103.886 E123.55522
G1 X150.654 Y141.367 E127.30419
G1 X157.443 Y149.337 E128.08763
G1 X156.690 Y149.378 F30000.000
G1 F2100
G1 X156.294 Y149.832 E128.13269
G1 X121.814 Y127.787 E131.19529
G1 X104.974 Y116.324 E132.71980
G1 X88.566 Y104.442 E134.23586
G1 X72.716 Y91.990 E135.74423
G1 X57.563 Y78.819 E137.24672
G1 X43.414 Y64.670 E138.74412
G1 X30.386 Y49.377 E140.24757
G1 X24.712 Y40.867 E141.01301
G1 X19.329 Y32.086 E141.78380
G1 X17.053 Y27.252 E142.18360
G1 X14.926 Y22.287 E142.58783
G1 X13.356 Y16.728 E143.02010
G1 X13.217 Y12.482 E143.33803
G1 X14.805 Y8.007 E143.69341
G1 X14.978 Y7.880 E143.70948
G1 X18.896 Y7.735 E144.00291
G1 X18.970 Y7.748 E144.00853
G1 X21.441 Y8.769 E144.20858
G1 X25.701 Y11.609 E144.59178
G1 X29.809 Y14.583 E144.97126
G1 X33.643 Y17.849 E145.34822
G1 X41.005 Y24.645 E146.09797
G1 X48.225 Y31.581 E146.84718
G1 X62.368 Y45.725 E148.34407
G1 X76.231 Y60.154 E149.84148
G1 X89.951 Y74.722 E151.33908
G1 X100.129 Y85.748 E152.46200
G1 X101.962 Y87.581 E152.65597
G1 X101.962 Y87.670 E152.66261
G1 X102.005 Y87.780 E152.67150
G1 X103.531 Y89.434 E152.83987
G1 X116.968 Y104.285 E154.33867
G1 X150.203 Y141.763 E158.08730
G1 X156.651 Y149.332 E158.83137
G1 X155.939 Y149.122 F30000.000
G1 F2100
G1 X155.653 Y148.873 E158.83680
G1 F2100
G1 X155.367 Y148.624 E158.84658
G1 F2100
G1 X155.081 Y148.375 E158.86069
G1 F2100
G1 X154.796 Y148.126 E158.87915
G1 F2100
G1 X154.510 Y147.876 E158.90195
G1 F2100
G1 X154.224 Y147.627 E158.92909
G1 X154.089 Y147.326 F30000.000
G1 F2100
G1 X153.907 Y147.535 E158.94759
G1 X122.170 Y127.244 E161.46409
G1 X105.349 Y115.794 E162.82342
G1 X88.954 Y103.922 E164.17573
G1 X73.127 Y91.486 E165.52038
G1 X58.011 Y78.348 E166.85836
G1 X43.887 Y64.224 E168.19272
G1 X30.899 Y48.977 E169.53079
G1 X25.257 Y40.515 E170.21025
G1 X19.897 Y31.769 E170.89554
G1 X17.645 Y26.983 E171.24886
G1 X15.535 Y22.060 E171.60669
G1 X13.997 Y16.607 E171.98518
G1 X13.859 Y12.615 E172.25206
G1 X15.313 Y8.517 E172.54251
G1 X18.818 Y8.387 E172.77682
G1 X21.120 Y9.335 E172.94313
G1 X25.328 Y12.141 E173.28100
G1 X29.412 Y15.098 E173.61790
G1 X33.215 Y18.338 E173.95161
G1 X40.561 Y25.119 E174.61950
G1 X47.769 Y32.044 E175.28722
G1 X61.906 Y46.181 E176.62286
G1 X75.762 Y60.602 E177.95888
G1 X89.477 Y75.166 E179.29536
G1 X99.663 Y86.201 E180.29859
G1 X101.188 Y87.726 E180.44269
G1 X101.127 Y87.787 E180.44845
G1 X103.051 Y89.871 E180.63795
G1 X116.484 Y104.718 E181.97549
G1 X149.714 Y142.190 E185.32142
G1 X154.050 Y147.280 E185.76809
G1 X153.823 Y147.404 F30000.000
G1 E183.76809 F2400.00000
G92 E0
G1 X151.355 Y144.942 F30000.000
G1 E2.00000 F2400.00000
G1 F2100
G1 X151.173 Y145.151 E2.01850
G1 X122.465 Y126.797 E4.29480
G1 X105.657 Y115.356 E5.65309
G1 X89.277 Y103.494 E7.00417
G1 X73.468 Y91.073 E8.34724
G1 X58.376 Y77.956 E9.68309
G1 X44.281 Y63.861 E11.01476
G1 X31.327 Y48.654 E12.34930
G1 X25.708 Y40.226 E13.02597
G1 X20.369 Y31.514 E13.70861
G1 X18.133 Y26.764 E14.05933
G1 X16.041 Y21.881 E14.41420
G1 X14.530 Y16.524 E14.78604
G1 X14.398 Y12.698 E15.04180
G1 X15.696 Y9.039 E15.30117
G1 X18.722 Y8.927 E15.50342
G1 X20.867 Y9.810 E15.65841
G1 X25.022 Y12.581 E15.99205
G1 X29.081 Y15.520 E16.32684
G1 X32.860 Y18.738 E16.65843
G1 X40.194 Y25.509 E17.32524
G1 X47.394 Y32.426 E17.99225
G1 X61.523 Y46.556 E19.32717
G1 X75.373 Y60.971 E20.66266
G1 X89.085 Y75.531 E21.99878
G1 X99.277 Y86.572 E23.00255
G1 X100.431 Y87.726 E23.11158
G1 X100.384 Y87.772 E23.11594
G1 X102.656 Y90.232 E23.33964
G1 X116.085 Y105.075 E24.67683
G1 X149.310 Y142.542 E28.02222
G1 X151.316 Y144.896 E28.22884
G1 E26.22884 F2400.00000
G92 E0
G1 X151.124 Y144.924 F30000.000
G1 X136.370 Y132.278 F30000.000
G1 X136.367 Y129.406 F30000.000
G1 X136.106 Y128.584 F30000.000
G1 X100.019 Y87.930 F30000.000
G1 X99.353 Y87.690 F30000.000
G1 X98.202 Y87.671 F30000.000
G1 X98.223 Y86.358 F30000.000
G1 X98.048 Y85.792 F30000.000
G1 X75.138 Y61.193 F30000.000
G1 X61.313 Y46.762 F30000.000
G1 X47.190 Y32.642 F30000.000
G1 X40.969 Y26.744 F30000.000
G1 X38.962 Y26.703 F30000.000
G1 X38.936 Y25.003 F30000.000
G1 X38.774 Y24.840 F30000.000
G1 X37.742 Y24.882 F30000.000
G1 E2.00000 F2400.00000
G1 F2100
G1 X35.637 Y26.988 E2.19893
G1 X33.681 Y26.578 E2.33246
G1 X31.837 Y26.807 E2.45661
G1 X30.167 Y27.624 E2.58076
G1 X28.853 Y28.938 E2.70490
G1 X28.037 Y30.607 E2.82905
G1 X27.807 Y32.451 E2.95319
G1 X28.217 Y34.407 E3.08673
G1 X25.787 Y36.838 E3.31636
G1 X24.738 Y35.128 E3.45036
G1 X22.917 Y31.258 E3.73607
G1 X21.209 Y27.272 E4.02581
G1 X19.947 Y22.797 E4.33642
G1 X19.830 Y19.407 E4.56300
G1 X21.176 Y15.613 E4.83194
G1 X24.544 Y15.489 E5.05710
G1 X26.570 Y16.323 E5.20344
G1 X29.998 Y18.609 E5.47873
G1 X33.296 Y20.996 E5.75072
G1 X36.367 Y23.612 E6.02018
G1 X37.698 Y24.841 E6.14127
G1 X38.032 Y25.159 F30000.000
G1 X38.515 Y24.867 F30000.000
G1 F2100
G1 X35.811 Y27.571 E6.39680
G1 X33.658 Y27.120 E6.54373
G1 X31.992 Y27.328 E6.65593
G1 X30.483 Y28.065 E6.76814
G1 X29.295 Y29.253 E6.88034
G1 X28.557 Y30.762 E6.99255
G1 X28.350 Y32.429 E7.10475
G1 X28.801 Y34.581 E7.25168
G1 X25.685 Y37.697 E7.54606
G1 X24.266 Y35.383 E7.72742
G1 X22.429 Y31.478 E8.01572
G1 X20.703 Y27.451 E8.30841
G1 X19.414 Y22.880 E8.62568
G1 X19.291 Y19.324 E8.86338
G1 X20.793 Y15.092 E9.16340
G1 X24.641 Y14.949 E9.42062
G1 X26.823 Y15.848 E9.57828
G1 X30.304 Y18.169 E9.85780
G1 X33.627 Y20.575 E10.13190
G1 X36.722 Y23.211 E10.40349
G1 X38.471 Y24.826 E10.56253
G1 E8.56253 F2400.00000
G92 E0
G1 X34.976 Y29.217 F30000.000
G1 E2.00000 F2400.00000
G1 F2100
G1 X36.448 Y30.689 E2.13907
G1 X36.774 Y32.745 E2.27812
G1 X35.829 Y34.599 E2.41718
G1 X33.974 Y35.544 E2.55624
G1 X31.918 Y35.219 E2.69530
G1 X30.446 Y33.747 E2.83436
G1 X30.121 Y31.691 E2.97342
G1 X31.066 Y29.836 E3.11248
G1 X32.920 Y28.891 E3.25154
G1 X34.917 Y29.208 E3.38659
G1 X34.976 Y29.217 F30000.000
G1 X35.355 Y28.838 F30000.000
G1 F2100
G1 X36.950 Y30.433 E3.53728
G1 X37.330 Y32.833 E3.69959
G1 X36.227 Y34.998 E3.86190
G1 X34.062 Y36.101 E4.02421
G1 X31.663 Y35.721 E4.18652
G1 X29.945 Y34.003 E4.34884
G1 X29.564 Y31.603 E4.51115
G1 X30.668 Y29.438 E4.67346
G1 X32.832 Y28.335 E4.83577
G1 X35.232 Y28.715 E4.99808
G1 X35.313 Y28.796 E5.00570
G1 E3.00570 F2400.00000
G92 E0
G1 X38.600 Y30.106 F30000.000
G1 E2.00000 F2400.00000
G1 F2100
G1 X40.905 Y27.801 E2.21772
G1 X42.257 Y29.050 E2.34071
G1 X48.032 Y34.598 E2.87573
G1 X59.351 Y45.917 E3.94508
G1 X70.442 Y57.461 E5.01453
G1 X81.419 Y69.116 E6.08413
G1 X92.282 Y80.885 E7.15411
G1 X96.873 Y85.959 E7.61125
G1 X95.034 Y87.799 E7.78503
G1 X93.078 Y87.389 E7.91857
G1 X91.234 Y87.619 E8.04271
G1 X89.564 Y88.435 E8.16686
G1 X88.250 Y89.749 E8.29100
G1 X87.434 Y91.418 E8.41515
G1 X87.204 Y93.262 E8.53930
G1 X87.614 Y95.219 E8.67283
G1 X85.739 Y97.094 E8.84999
G1 X80.160 Y93.054 E9.31015
G1 X67.477 Y83.088 E10.38774
G1 X55.355 Y72.553 E11.46064
G1 X44.023 Y61.221 E12.53128
G1 X33.592 Y48.975 E13.60589
G1 X29.051 Y42.165 E14.15274
G1 X28.097 Y40.608 E14.27467
G1 X31.335 Y37.371 E14.58055
G1 X32.289 Y37.743 E14.64895
G1 X34.146 Y37.820 E14.77310
G1 X35.927 Y37.289 E14.89724
G1 X37.439 Y36.210 E15.02139
G1 X38.519 Y34.697 E15.14554
G1 X39.049 Y32.916 E15.26968
G1 X38.972 Y31.059 E15.39383
G1 X38.622 Y30.161 E15.45822
G1 X38.431 Y29.846 F30000.000
G1 X37.974 Y29.974 F30000.000
G1 F2100
G1 X40.890 Y27.058 E15.73370
G1 X42.625 Y28.660 E15.89142
G1 X48.407 Y34.216 E16.42716
G1 X59.734 Y45.542 E17.49723
G1 X70.830 Y57.092 E18.56721
G1 X81.811 Y68.751 E19.63717
G1 X92.678 Y80.524 E20.70750
G1 X97.612 Y85.978 E21.19886
G1 X95.208 Y88.383 E21.42605
G1 X93.055 Y87.931 E21.57297
G1 X91.388 Y88.139 E21.68518
G1 X89.880 Y88.877 E21.79738
G1 X88.692 Y90.064 E21.90959
G1 X87.954 Y91.573 E22.02179
G1 X87.747 Y93.240 E22.13399
G1 X88.198 Y95.392 E22.28092
G1 X85.795 Y97.796 E22.50796
G1 X79.837 Y93.482 E22.99933
G1 X67.135 Y83.501 E24.07851
G1 X54.990 Y72.945 E25.15354
G1 X43.629 Y61.584 E26.22686
G1 X33.164 Y49.299 E27.30501
G1 X28.600 Y42.453 E27.85465
G1 X27.420 Y40.528 E28.00547
G1 X31.204 Y36.745 E28.36295
G1 X32.400 Y37.211 E28.44875
G1 X34.078 Y37.281 E28.56095
G1 X35.688 Y36.802 E28.67316
