; generated by Slic3r 1.3.0 on 2020-08-19 at 19:02:22

; external perimeters extrusion width = 0.44mm (2.78mm^3/s)
; perimeters extrusion width = 0.40mm (7.14mm^3/s)
; infill extrusion width = 0.50mm (10.97mm^3/s)
; solid infill extrusion width = 0.60mm (6.68mm^3/s)
; top infill extrusion width = 0.40mm (2.14mm^3/s)

M107
M190 S80 ; set bed temperature and wait for it to be reached
M104 S200 ; set temperature
G28 ; home all axes
G1 Z5 F5000 ; lift nozzle

; Filament gcode

M109 S200 ; set temperature and wait for it to be reached
G21 ; set units to millimeters
G90 ; use absolute coordinates
M82 ; use absolute distances for extrusion
G92 E0
G1 Z0.300 F30000.000
G1 E-2.00000 F2400.00000
G92 E0
G1 X32.943 Y40.662 F30000.000
G1 E2.00000 F2400.00000
G1 F2100
G1 X33.760 Y40.068 E2.06750
G1 X34.182 Y39.800 E2.10087
G1 X34.808 Y39.447 E2.14891
G1 X35.520 Y39.100 E2.20180
G1 X36.459 Y38.728 E2.26926
G1 X37.181 Y38.502 E2.31977
G1 X37.664 Y38.378 E2.35314
G1 X38.404 Y38.229 E2.40356
G1 X39.152 Y38.126 E2.45398
G1 X40.161 Y38.063 E2.52149
G1 X40.916 Y38.071 E2.57195
G1 X41.414 Y38.102 E2.60532
G1 X42.164 Y38.189 E2.65576
G1 X42.908 Y38.323 E2.70623
G1 X43.887 Y38.574 E2.77373
G1 X44.362 Y38.728 E2.80710
G1 X45.067 Y38.999 E2.85754
G1 X46.681 Y39.723 E2.97576
G1 X47.886 Y40.555 E3.07354
G1 X156.002 Y148.671 E13.28809
G1 X157.101 Y150.680 E13.44103
G1 X157.427 Y152.181 E13.54364
G1 X157.565 Y153.050 E13.60246
G1 X157.617 Y153.871 E13.65736
G1 X157.590 Y154.744 E13.71575
G1 X157.487 Y155.557 E13.77051
G1 X157.295 Y156.418 E13.82941
G1 X157.042 Y157.197 E13.88417
G1 X156.823 Y157.729 E13.92257
G1 X156.429 Y158.502 E13.98054
G1 X155.992 Y159.191 E14.03505
G1 X155.642 Y159.660 E14.07411
G1 X155.067 Y160.311 E14.13214
G1 X154.472 Y160.870 E14.18670
G1 X154.016 Y161.237 E14.22578
G1 X153.304 Y161.720 E14.28324
G1 X152.583 Y162.117 E14.33825
G1 X152.060 Y162.354 E14.37663
G1 X151.244 Y162.649 E14.43458
G1 X150.436 Y162.856 E14.49028
G1 X149.580 Y162.992 E14.54823
G1 X149.006 Y163.036 E14.58665
G1 X148.184 Y163.036 E14.64156
G1 X147.315 Y162.953 E14.69990
G1 X146.754 Y162.854 E14.73797
G1 X145.958 Y162.650 E14.79283
G1 X145.135 Y162.354 E14.85128
G1 X144.615 Y162.118 E14.88940
G1 X143.898 Y161.724 E14.94409
G1 X143.500 Y161.468 E14.97568
G1 X62.192 Y105.254 E21.57930
G1 X60.459 Y103.903 E21.72608
G1 X59.703 Y103.279 E21.79158
G1 X58.800 Y102.441 E21.87387
G1 X58.057 Y101.654 E21.94618
G1 X57.364 Y100.823 E22.01848
G1 X56.692 Y99.912 E22.09410
G1 X56.038 Y98.895 E22.17487
G1 X30.090 Y56.243 E25.51014
G1 X29.643 Y55.423 E25.57251
G1 X29.329 Y54.736 E25.62297
G1 X29.059 Y54.031 E25.67340
G1 X28.904 Y53.556 E25.70677
G1 X28.709 Y52.827 E25.75722
G1 X28.519 Y51.834 E25.82473
G1 X28.433 Y51.084 E25.87518
G1 X28.393 Y50.330 E25.92564
G1 X28.393 Y49.830 E25.95902
G1 X28.433 Y49.077 E26.00943
G1 X28.519 Y48.326 E26.05990
G1 X28.709 Y47.334 E26.12737
G1 X28.904 Y46.604 E26.17789
G1 X29.059 Y46.129 E26.21126
G1 X29.329 Y45.424 E26.26166
G1 X29.759 Y44.510 E26.32919
G1 X30.130 Y43.852 E26.37964
G1 X30.542 Y43.219 E26.43008
G1 X30.835 Y42.814 E26.46345
G1 X31.310 Y42.228 E26.51388
G1 X32.002 Y41.491 E26.58141
G1 X32.366 Y41.149 E26.61477
G1 X32.897 Y40.700 E26.66121
G1 X33.284 Y41.074 F30000.000
G1 F2100
G1 X34.047 Y40.520 E26.72422
G1 X34.469 Y40.252 E26.75758
G1 X35.066 Y39.916 E26.80337
G1 X35.748 Y39.585 E26.85401
G1 X36.625 Y39.238 E26.91699
G1 X37.314 Y39.021 E26.96524
G1 X37.798 Y38.897 E26.99861
G1 X38.505 Y38.755 E27.04678
G1 X39.219 Y38.658 E27.09497
G1 X40.161 Y38.599 E27.15798
G1 X40.882 Y38.606 E27.20619
G1 X41.381 Y38.637 E27.23957
G1 X42.097 Y38.720 E27.28776
G1 X42.808 Y38.849 E27.33597
G1 X43.721 Y39.083 E27.39898
G1 X44.196 Y39.238 E27.43235
G1 X44.869 Y39.497 E27.48054
G1 X46.461 Y40.211 E27.59709
G1 X47.507 Y40.933 E27.68200
G1 X155.623 Y149.050 E37.89655
G1 X156.577 Y150.794 E38.02937
G1 X156.901 Y152.281 E38.13103
G1 X157.034 Y153.117 E38.18758
G1 X157.081 Y153.870 E38.23799
G1 X157.055 Y154.711 E38.29416
G1 X156.961 Y155.458 E38.34445
G1 X156.776 Y156.285 E38.40106
G1 X156.543 Y157.001 E38.45135
G1 X156.338 Y157.500 E38.48743
G1 X155.959 Y158.244 E38.54324
G1 X155.558 Y158.877 E38.59331
G1 X155.230 Y159.318 E38.62997
G1 X154.676 Y159.944 E38.68582
G1 X154.130 Y160.458 E38.73594
G1 X153.702 Y160.803 E38.77261
G1 X153.017 Y161.268 E38.82798
G1 X152.354 Y161.632 E38.87849
G1 X151.573 Y161.971 E38.93535
G1 X150.857 Y162.204 E38.98563
G1 X150.337 Y162.330 E39.02144
G1 X149.512 Y162.460 E39.07723
G1 X148.973 Y162.501 E39.11332
G1 X148.218 Y162.501 E39.16374
G1 X147.382 Y162.422 E39.21987
G1 X146.854 Y162.328 E39.25567
G1 X146.124 Y162.141 E39.30604
G1 X145.332 Y161.856 E39.36227
G1 X144.844 Y161.634 E39.39810
G1 X144.185 Y161.271 E39.44834
G1 X143.805 Y161.027 E39.47850
G1 X62.497 Y104.813 E46.08212
G1 X60.790 Y103.482 E46.22673
G1 X60.044 Y102.867 E46.29131
G1 X59.176 Y102.060 E46.37048
G1 X58.452 Y101.292 E46.44098
G1 X57.776 Y100.482 E46.51147
G1 X57.125 Y99.597 E46.58484
G1 X56.495 Y98.617 E46.66269
G1 X30.547 Y55.965 E49.99796
G1 X30.128 Y55.195 E50.05651
G1 X29.827 Y54.539 E50.10472
G1 X29.568 Y53.866 E50.15291
G1 X29.414 Y53.391 E50.18628
G1 X29.228 Y52.694 E50.23448
G1 X29.051 Y51.767 E50.29750
G1 X28.967 Y51.050 E50.34570
G1 X28.929 Y50.330 E50.39391
G1 X28.929 Y49.830 E50.42729
G1 X28.967 Y49.110 E50.47545
G1 X29.051 Y48.393 E50.52367
G1 X29.227 Y47.467 E50.58666
G1 X29.414 Y46.769 E50.63492
G1 X29.568 Y46.294 E50.66829
G1 X29.827 Y45.621 E50.71645
G1 X30.229 Y44.768 E50.77949
G1 X30.583 Y44.139 E50.82769
G1 X30.975 Y43.533 E50.87588
G1 X31.269 Y43.129 E50.90925
G1 X31.723 Y42.569 E50.95744
G1 X32.369 Y41.881 E51.02047
G1 X32.733 Y41.539 E51.05383
G1 X33.238 Y41.113 E51.09802
G1 X33.785 Y41.680 F30000.000
G1 F2100
G1 X34.361 Y41.255 E51.15154
G1 X34.927 Y40.893 E51.20184
G1 X35.515 Y40.567 E51.25215
G1 X36.201 Y40.244 E51.30892
G1 X36.746 Y40.028 E51.35275
G1 X37.384 Y39.818 E51.40304
G1 X38.035 Y39.648 E51.45338
G1 X38.779 Y39.506 E51.51011
G1 X39.447 Y39.424 E51.56042
G1 X40.118 Y39.385 E51.61071
G1 X40.790 Y39.387 E51.66100
G1 X41.460 Y39.432 E51.71131
G1 X42.127 Y39.519 E51.76162
G1 X42.787 Y39.648 E51.81192
G1 X43.354 Y39.794 E51.85576
G1 X43.994 Y39.999 E51.90606
G1 X44.699 Y40.278 E51.96282
G1 X45.484 Y40.664 E52.02826
G1 X45.561 Y40.684 E52.03422
G1 X46.146 Y40.684 E52.07796
G1 X155.873 Y150.411 E63.69073
G1 X155.878 Y151.426 E63.76670
G1 X156.103 Y152.304 E63.83450
G1 X156.196 Y152.777 E63.87059
G1 X156.259 Y153.258 E63.90685
G1 X156.292 Y153.739 E63.94293
G1 X156.295 Y154.224 E63.97925
G1 X156.268 Y154.706 E64.01540
G1 X156.209 Y155.188 E64.05173
G1 X156.122 Y155.660 E64.08764
G1 X156.004 Y156.133 E64.12409
G1 X155.856 Y156.595 E64.16043
G1 X155.646 Y157.124 E64.20302
G1 X155.439 Y157.557 E64.23896
G1 X155.202 Y157.984 E64.27547
G1 X154.711 Y158.707 E64.34085
G1 X154.399 Y159.087 E64.37765
G1 X154.073 Y159.438 E64.41351
G1 X153.660 Y159.827 E64.45597
G1 X153.280 Y160.138 E64.49275
G1 X152.556 Y160.629 E64.55816
G1 X152.056 Y160.904 E64.60087
G1 X151.616 Y161.109 E64.63723
G1 X151.246 Y161.255 E64.66698
G1 X150.705 Y161.431 E64.70953
G1 X150.233 Y161.549 E64.74595
G1 X149.368 Y161.686 E64.81148
G1 X148.882 Y161.719 E64.84797
G1 X148.312 Y161.719 E64.89062
G1 X147.437 Y161.636 E64.95641
G1 X146.960 Y161.548 E64.99270
G1 X146.408 Y161.407 E65.03532
G1 X145.580 Y161.109 E65.10116
G1 X145.140 Y160.904 E65.13751
G1 X144.642 Y160.630 E65.18006
G1 X144.182 Y160.331 E65.22110
G1 X143.539 Y159.829 E65.28218
G1 X143.123 Y159.439 E65.32484
G1 X142.703 Y158.984 E65.37117
G1 X62.012 Y103.526 E72.69841
G1 X61.997 Y103.445 E72.70457
G1 X61.932 Y103.343 E72.71363
G1 X61.254 Y102.847 E72.77648
G1 X60.512 Y102.233 E72.84854
G1 X60.177 Y101.922 E72.88272
G1 X60.105 Y101.883 E72.88887
G1 X59.759 Y101.800 E72.91548
G1 X59.298 Y101.049 E72.98144
G1 X58.968 Y100.689 E73.01799
G1 X58.302 Y99.879 E73.09649
G1 X57.736 Y99.100 E73.16854
G1 X57.171 Y98.216 E73.24704
G1 X56.624 Y97.221 E73.33201
G1 X56.215 Y96.350 E73.40406
G1 X55.827 Y95.386 E73.48184
G1 X32.442 Y57.224 E76.83125
G1 X31.930 Y56.604 E76.89141
G1 X31.586 Y56.130 E76.93526
G1 X31.223 Y55.564 E76.98556
G1 X30.897 Y54.976 E77.03585
G1 X30.608 Y54.369 E77.08615
G1 X30.329 Y53.664 E77.14291
G1 X30.124 Y53.024 E77.19322
G1 X29.978 Y52.456 E77.23705
G1 X29.850 Y51.797 E77.28735
G1 X29.763 Y51.130 E77.33766
G1 X29.715 Y50.373 E77.39442
G1 X29.715 Y49.787 E77.43827
G1 X29.755 Y49.116 E77.48855
G1 X29.836 Y48.449 E77.53886
G1 X29.978 Y47.704 E77.59560
G1 X30.148 Y47.054 E77.64594
G1 X30.329 Y46.496 E77.68978
G1 X30.574 Y45.871 E77.74005
G1 X30.858 Y45.261 E77.79035
G1 X31.223 Y44.596 E77.84714
G1 X31.586 Y44.030 E77.89744
G1 X31.930 Y43.557 E77.94127
G1 X32.356 Y43.037 E77.99156
G1 X32.876 Y42.484 E78.04833
G1 X33.303 Y42.083 E78.09217
G1 X33.739 Y41.718 E78.13475
G1 X34.168 Y42.142 F30000.000
G1 F2100
G1 X34.706 Y41.746 E78.18474
G1 X35.240 Y41.405 E78.23222
G1 X35.795 Y41.097 E78.27971
G1 X36.431 Y40.798 E78.33225
G1 X36.958 Y40.589 E78.37467
G1 X37.560 Y40.391 E78.42214
G1 X38.175 Y40.231 E78.46965
G1 X38.864 Y40.100 E78.52216
G1 X39.494 Y40.023 E78.56964
G1 X40.127 Y39.985 E78.61712
G1 X40.831 Y39.991 E78.66982
G1 X41.395 Y40.029 E78.71207
G1 X41.957 Y40.100 E78.75450
G1 X42.581 Y40.217 E78.80199
G1 X43.196 Y40.372 E78.84946
G1 X43.863 Y40.589 E78.90199
G1 X44.453 Y40.825 E78.94947
G1 X44.966 Y41.066 E78.99190
G1 X45.330 Y41.264 E79.02293
G1 X45.407 Y41.284 E79.02889
G1 X45.897 Y41.284 E79.06556
G1 X155.273 Y150.660 E90.64114
G1 X155.278 Y151.502 E90.70416
G1 X155.519 Y152.444 E90.77693
G1 X155.605 Y152.881 E90.81023
G1 X155.663 Y153.323 E90.84365
G1 X155.693 Y153.767 E90.87694
G1 X155.695 Y154.214 E90.91041
G1 X155.669 Y154.659 E90.94375
G1 X155.615 Y155.103 E90.97723
G1 X155.534 Y155.539 E91.01039
G1 X155.425 Y155.974 E91.04396
G1 X155.288 Y156.400 E91.07744
G1 X155.099 Y156.877 E91.11582
G1 X154.908 Y157.277 E91.14899
G1 X154.690 Y157.670 E91.18261
G1 X154.231 Y158.347 E91.24388
G1 X153.944 Y158.697 E91.27772
G1 X153.642 Y159.021 E91.31084
G1 X153.269 Y159.371 E91.34911
G1 X152.920 Y159.658 E91.38294
G1 X152.242 Y160.118 E91.44423
G1 X151.792 Y160.365 E91.48270
G1 X151.034 Y160.693 E91.54451
G1 X150.547 Y160.852 E91.58285
G1 X150.112 Y160.961 E91.61640
G1 X149.302 Y161.090 E91.67778
G1 X148.854 Y161.120 E91.71139
G1 X148.340 Y161.120 E91.74981
G1 X147.521 Y161.042 E91.81140
G1 X147.017 Y160.946 E91.84982
G1 X146.585 Y160.833 E91.88324
G1 X145.810 Y160.554 E91.94486
G1 X145.404 Y160.365 E91.97837
G1 X144.955 Y160.118 E92.01671
G1 X144.535 Y159.845 E92.05422
G1 X143.928 Y159.373 E92.11177
G1 X143.554 Y159.021 E92.15020
G1 X143.112 Y158.537 E92.19926
G1 X62.556 Y103.172 E99.51418
G1 X62.543 Y103.100 E99.51966
G1 X62.478 Y102.998 E99.52872
G1 X61.629 Y102.379 E99.60737
G1 X60.902 Y101.777 E99.67801
G1 X60.472 Y101.376 E99.72199
G1 X60.400 Y101.337 E99.72813
G1 X60.141 Y101.275 E99.74807
G1 X59.758 Y100.658 E99.80242
G1 X59.425 Y100.300 E99.83904
G1 X58.782 Y99.519 E99.91472
G1 X58.227 Y98.755 E99.98536
G1 X57.683 Y97.903 E100.06104
G1 X57.163 Y96.957 E100.14179
G1 X56.761 Y96.103 E100.21242
G1 X56.368 Y95.119 E100.29172
G1 X32.920 Y56.856 E103.65006
G1 X32.410 Y56.244 E103.70970
G1 X32.077 Y55.785 E103.75213
G1 X31.735 Y55.250 E103.79961
G1 X31.427 Y54.695 E103.84708
G1 X31.155 Y54.122 E103.89456
G1 X30.897 Y53.470 E103.94709
G1 X30.703 Y52.865 E103.99458
G1 X30.562 Y52.316 E104.03700
G1 X30.441 Y51.694 E104.08448
G1 X30.359 Y51.064 E104.13197
G1 X30.315 Y50.364 E104.18450
G1 X30.315 Y49.797 E104.22693
G1 X30.353 Y49.163 E104.27440
G1 X30.430 Y48.534 E104.32189
G1 X30.562 Y47.844 E104.37440
G1 X30.722 Y47.230 E104.42191
G1 X30.897 Y46.691 E104.46434
G1 X31.128 Y46.100 E104.51180
G1 X31.397 Y45.525 E104.55928
G1 X31.735 Y44.910 E104.61183
G1 X32.077 Y44.376 E104.65930
G1 X32.410 Y43.917 E104.70173
G1 X32.813 Y43.427 E104.74920
G1 X33.293 Y42.915 E104.80174
G1 X33.706 Y42.527 E104.84417
G1 X34.122 Y42.181 E104.88463
G1 X34.550 Y42.605 F30000.000
G1 F2100
G1 X35.051 Y42.237 E104.93110
G1 X35.554 Y41.916 E104.97576
G1 X36.076 Y41.627 E105.02042
G1 X36.660 Y41.352 E105.06873
G1 X37.170 Y41.151 E105.10974
G1 X37.737 Y40.965 E105.15439
G1 X38.315 Y40.815 E105.19907
G1 X38.949 Y40.694 E105.24736
G1 X39.541 Y40.621 E105.29202
G1 X40.137 Y40.585 E105.33668
G1 X40.794 Y40.590 E105.38585
G1 X41.329 Y40.625 E105.42599
G1 X41.873 Y40.694 E105.46701
G1 X42.459 Y40.804 E105.51167
G1 X43.084 Y40.965 E105.55997
G1 X43.651 Y41.151 E105.60463
G1 X44.206 Y41.372 E105.64928
G1 X44.702 Y41.605 E105.69031
G1 X45.176 Y41.864 E105.73075
G1 X45.253 Y41.884 E105.73671
G1 X45.649 Y41.884 E105.76631
G1 X154.673 Y150.908 E117.30468
G1 X154.673 Y151.704 E117.36425
G1 X154.745 Y151.842 E117.37590
G1 X154.946 Y152.631 E117.43681
G1 X155.021 Y153.032 E117.46740
G1 X155.093 Y153.796 E117.52477
G1 X155.095 Y154.205 E117.55539
G1 X155.071 Y154.612 E117.58593
G1 X154.947 Y155.418 E117.64693
G1 X154.846 Y155.816 E117.67762
G1 X154.721 Y156.205 E117.70825
G1 X154.553 Y156.630 E117.74241
G1 X154.378 Y156.996 E117.77282
G1 X154.179 Y157.356 E117.80355
G1 X153.750 Y157.988 E117.86070
G1 X153.488 Y158.306 E117.89159
G1 X153.211 Y158.603 E117.92196
G1 X152.879 Y158.915 E117.95605
G1 X152.561 Y159.177 E117.98692
G1 X151.928 Y159.606 E118.04410
G1 X151.528 Y159.826 E118.07833
G1 X150.822 Y160.132 E118.13587
G1 X150.388 Y160.273 E118.17000
G1 X149.991 Y160.374 E118.20067
G1 X149.236 Y160.493 E118.25791
G1 X148.826 Y160.520 E118.28863
G1 X148.369 Y160.520 E118.32282
G1 X147.606 Y160.448 E118.38021
G1 X147.157 Y160.362 E118.41440
G1 X146.761 Y160.260 E118.44498
G1 X146.040 Y160.000 E118.50239
G1 X145.668 Y159.827 E118.53304
G1 X145.269 Y159.607 E118.56719
G1 X144.887 Y159.360 E118.60118
G1 X144.318 Y158.916 E118.65518
G1 X143.985 Y158.603 E118.68938
G1 X143.521 Y158.090 E118.74119
G1 X63.101 Y102.819 E126.04378
G1 X63.085 Y102.734 E126.05019
G1 X63.012 Y102.625 E126.06002
G1 X62.004 Y101.910 E126.15247
G1 X61.292 Y101.321 E126.22170
G1 X60.767 Y100.830 E126.27547
G1 X60.695 Y100.791 E126.28162
G1 X60.522 Y100.749 E126.29488
G1 X60.237 Y100.292 E126.33523
G1 X59.881 Y99.910 E126.37432
G1 X59.261 Y99.159 E126.44718
G1 X58.718 Y98.410 E126.51641
G1 X58.195 Y97.589 E126.58927
G1 X57.724 Y96.736 E126.66215
G1 X57.308 Y95.856 E126.73501
G1 X56.911 Y94.858 E126.81538
G1 X33.399 Y56.490 E130.18292
G1 X32.890 Y55.883 E130.24222
G1 X32.567 Y55.440 E130.28324
G1 X32.246 Y54.937 E130.32790
G1 X31.958 Y54.415 E130.37255
G1 X31.702 Y53.875 E130.41721
G1 X31.465 Y53.275 E130.46551
G1 X31.282 Y52.707 E130.51017
G1 X31.145 Y52.176 E130.55119
G1 X31.032 Y51.590 E130.59584
G1 X30.956 Y50.998 E130.64051
G1 X30.915 Y50.354 E130.68881
G1 X30.915 Y49.806 E130.72983
G1 X30.951 Y49.211 E130.77448
G1 X31.024 Y48.618 E130.81914
G1 X31.145 Y47.984 E130.86743
G1 X31.295 Y47.407 E130.91211
G1 X31.465 Y46.885 E130.95313
G1 X31.683 Y46.330 E130.99777
G1 X31.935 Y45.789 E131.04243
G1 X32.246 Y45.224 E131.09075
G1 X32.568 Y44.721 E131.13540
G1 X32.890 Y44.277 E131.17642
G1 X33.269 Y43.817 E131.22107
G1 X33.711 Y43.346 E131.26938
G1 X34.110 Y42.971 E131.31039
G1 X34.504 Y42.643 E131.34874
G1 X34.933 Y43.067 F30000.000
G1 F2100
G1 X35.396 Y42.728 E131.39169
G1 X35.893 Y42.413 E131.43576
G1 X36.384 Y42.144 E131.47761
G1 X36.863 Y41.919 E131.51721
G1 X37.382 Y41.712 E131.55905
G1 X37.913 Y41.538 E131.60088
G1 X38.484 Y41.392 E131.64496
G1 X39.004 Y41.293 E131.68456
G1 X39.558 Y41.222 E131.72640
G1 X40.116 Y41.186 E131.76824
G1 X40.675 Y41.185 E131.81007
G1 X41.233 Y41.219 E131.85191
G1 X41.788 Y41.288 E131.89375
G1 X42.366 Y41.398 E131.93782
G1 X42.956 Y41.554 E131.98347
G1 X43.439 Y41.712 E132.02149
G1 X43.931 Y41.907 E132.06110
G1 X44.464 Y42.158 E132.10517
G1 X45.003 Y42.459 E132.15136
G1 X45.089 Y42.484 E132.15807
G1 X45.400 Y42.484 E132.18136
G1 X154.073 Y151.157 E143.68253
G1 X154.073 Y151.803 E143.73093
G1 X154.210 Y152.168 E143.76005
G1 X154.352 Y152.724 E143.80299
G1 X154.427 Y153.117 E143.83295
G1 X154.472 Y153.484 E143.86064
G1 X154.494 Y154.225 E143.91610
G1 X154.422 Y154.962 E143.97151
G1 X154.259 Y155.687 E144.02711
