; generated by Slic3r 1.3.0 on 2020-08-19 at 18:59:26

; external perimeters extrusion width = 0.44mm (2.78mm^3/s)
; perimeters extrusion width = 0.40mm (7.14mm^3/s)
; infill extrusion width = 0.50mm (10.97mm^3/s)
; solid infill extrusion width = 0.60mm (6.68mm^3/s)
; top infill extrusion width = 0.40mm (2.14mm^3/s)

M107
M190 S80 ; set bed temperature and wait for it to be reached
M104 S200 ; set temperature
G28 ; home all axes
G1 Z5 F5000 ; lift nozzle

; Filament gcode

M109 S200 ; set temperature and wait for it to be reached
G21 ; set units to millimeters
G90 ; use absolute coordinates
M82 ; use absolute distances for extrusion
G92 E0
G1 Z0.300 F30000.000
G1 E-2.00000 F2400.00000
G92 E0
G1 X32.807 Y63.445 F30000.000
G1 E2.00000 F2400.00000
G1 F2100
G1 X33.483 Y63.110 E2.05044
G1 X33.941 Y62.911 E2.08380
G1 X35.595 Y62.281 E2.20203
G1 X37.035 Y62.018 E2.29981
G1 X189.935 Y62.018 E12.51436
G1 X192.132 Y62.662 E12.66730
G1 X193.424 Y63.492 E12.76988
G1 X194.137 Y64.009 E12.82872
G1 X194.753 Y64.553 E12.88364
G1 X195.146 Y64.957 E12.92125
G1 X195.520 Y65.393 E12.95964
G1 X196.029 Y66.095 E13.01758
G1 X196.454 Y66.813 E13.07329
G1 X196.823 Y67.598 E13.13124
G1 X197.101 Y68.369 E13.18605
G1 X197.321 Y69.230 E13.24541
G1 X197.450 Y70.043 E13.30040
G1 X197.504 Y70.910 E13.35839
G1 X197.494 Y71.480 E13.39652
G1 X197.416 Y72.307 E13.45202
G1 X197.254 Y73.153 E13.50952
G1 X197.101 Y73.709 E13.54809
G1 X196.823 Y74.481 E13.60291
G1 X196.453 Y75.267 E13.66091
G1 X196.168 Y75.765 E13.69925
G1 X195.710 Y76.440 E13.75376
G1 X195.352 Y76.889 E13.79213
G1 X194.753 Y77.526 E13.85054
G1 X194.330 Y77.910 E13.88867
G1 X193.682 Y78.412 E13.94345
G1 X193.212 Y78.722 E13.98108
G1 X192.718 Y79.005 E14.01908
G1 X191.926 Y79.378 E14.07757
G1 X191.392 Y79.578 E14.11570
G1 X190.605 Y79.807 E14.17039
G1 X190.143 Y79.907 E14.20197
G1 X92.901 Y97.651 E20.80559
G1 X90.720 Y97.921 E20.95237
G1 X89.744 Y98.015 E21.01786
G1 X88.300 Y98.062 E21.11442
G1 X87.431 Y98.029 E21.17248
G1 X86.100 Y97.901 E21.26185
G1 X84.983 Y97.716 E21.33745
G1 X84.053 Y97.507 E21.40116
G1 X35.545 Y85.695 E24.73643
G1 X34.649 Y85.431 E24.79880
G1 X33.942 Y85.168 E24.84926
G1 X33.252 Y84.860 E24.89970
G1 X32.583 Y84.510 E24.95014
G1 X32.153 Y84.256 E24.98351
G1 X31.524 Y83.838 E25.03395
G1 X30.922 Y83.382 E25.08441
G1 X30.350 Y82.889 E25.13485
G1 X29.811 Y82.360 E25.18532
G1 X29.306 Y81.799 E25.23573
G1 X28.836 Y81.207 E25.28620
G1 X28.405 Y80.588 E25.33662
G1 X28.014 Y79.942 E25.38705
G1 X27.664 Y79.272 E25.43755
G1 X27.357 Y78.583 E25.48796
G1 X27.094 Y77.876 E25.53838
G1 X26.875 Y77.152 E25.58887
G1 X26.703 Y76.417 E25.63933
G1 X26.545 Y75.419 E25.70682
G1 X26.481 Y74.667 E25.75726
G1 X26.466 Y73.911 E25.80772
G1 X26.498 Y73.157 E25.85816
G1 X26.545 Y72.660 E25.89153
G1 X26.655 Y71.913 E25.94196
G1 X26.811 Y71.174 E25.99240
G1 X27.014 Y70.447 E26.04286
G1 X27.263 Y69.733 E26.09335
G1 X27.555 Y69.038 E26.14375
G1 X27.891 Y68.362 E26.19417
G1 X28.269 Y67.707 E26.24468
G1 X28.686 Y67.078 E26.29509
G1 X29.142 Y66.477 E26.34552
G1 X29.636 Y65.905 E26.39599
G1 X30.164 Y65.366 E26.44639
G1 X30.725 Y64.860 E26.49687
G1 X31.317 Y64.391 E26.54731
G1 X31.937 Y63.960 E26.59777
G1 X32.754 Y63.474 E26.66127
G1 X33.050 Y63.923 F30000.000
G1 F2100
G1 X33.696 Y63.601 E26.70946
G1 X34.154 Y63.403 E26.74283
G1 X35.785 Y62.782 E26.85937
G1 X37.035 Y62.554 E26.94429
G1 X189.935 Y62.554 E37.15884
G1 X191.843 Y63.113 E37.29166
G1 X193.123 Y63.935 E37.39329
G1 X193.808 Y64.433 E37.44986
G1 X194.374 Y64.932 E37.50029
G1 X194.744 Y65.311 E37.53568
G1 X195.096 Y65.721 E37.57175
G1 X195.587 Y66.396 E37.62754
G1 X195.976 Y67.055 E37.67865
G1 X196.331 Y67.811 E37.73444
G1 X196.586 Y68.520 E37.78476
G1 X196.799 Y69.346 E37.84178
G1 X196.917 Y70.093 E37.89227
G1 X196.969 Y70.927 E37.94809
G1 X196.959 Y71.463 E37.98394
G1 X196.887 Y72.222 E38.03488
G1 X196.731 Y73.037 E38.09027
G1 X196.587 Y73.559 E38.12650
G1 X196.331 Y74.268 E38.17684
G1 X195.976 Y75.025 E38.23267
G1 X195.707 Y75.493 E38.26870
G1 X195.286 Y76.112 E38.31877
G1 X194.950 Y76.535 E38.35482
G1 X194.374 Y77.148 E38.41102
G1 X193.976 Y77.508 E38.44687
G1 X193.381 Y77.969 E38.49717
G1 X192.939 Y78.261 E38.53258
G1 X192.475 Y78.527 E38.56831
G1 X191.713 Y78.886 E38.62457
G1 X191.210 Y79.074 E38.66042
G1 X190.488 Y79.284 E38.71065
G1 X190.047 Y79.380 E38.74081
G1 X92.804 Y97.124 E45.34443
G1 X90.656 Y97.390 E45.48904
G1 X89.694 Y97.482 E45.55362
G1 X88.296 Y97.526 E45.64705
G1 X87.455 Y97.494 E45.70330
G1 X86.183 Y97.371 E45.78861
G1 X85.100 Y97.193 E45.86197
G1 X84.179 Y96.986 E45.92500
G1 X35.671 Y85.175 E49.26027
G1 X34.831 Y84.927 E49.31883
G1 X34.154 Y84.676 E49.36703
G1 X33.495 Y84.383 E49.41523
G1 X32.855 Y84.049 E49.46342
G1 X32.425 Y83.795 E49.49679
G1 X31.825 Y83.395 E49.54498
G1 X31.250 Y82.959 E49.59319
G1 X30.705 Y82.487 E49.64139
G1 X30.189 Y81.981 E49.68961
G1 X29.707 Y81.445 E49.73777
G1 X29.260 Y80.879 E49.78599
G1 X28.848 Y80.287 E49.83417
G1 X28.475 Y79.669 E49.88235
G1 X28.141 Y79.029 E49.93060
G1 X27.848 Y78.370 E49.97877
G1 X27.598 Y77.694 E50.02694
G1 X27.389 Y77.003 E50.07518
G1 X27.225 Y76.300 E50.12339
G1 X27.078 Y75.369 E50.18639
G1 X27.017 Y74.650 E50.23458
G1 X27.001 Y73.928 E50.28279
G1 X27.031 Y73.208 E50.33099
G1 X27.078 Y72.710 E50.36435
G1 X27.184 Y71.997 E50.41254
G1 X27.334 Y71.291 E50.46074
G1 X27.529 Y70.596 E50.50894
G1 X27.767 Y69.915 E50.55718
G1 X28.047 Y69.250 E50.60534
G1 X28.368 Y68.605 E50.65352
G1 X28.730 Y67.979 E50.70177
G1 X29.129 Y67.379 E50.74994
G1 X29.566 Y66.805 E50.79812
G1 X30.038 Y66.259 E50.84635
G1 X30.543 Y65.744 E50.89450
G1 X31.079 Y65.262 E50.94273
G1 X31.645 Y64.814 E50.99092
G1 X32.238 Y64.403 E51.03913
G1 X32.997 Y63.951 E51.09814
G1 X33.407 Y64.623 F30000.000
G1 F2100
G1 X33.968 Y64.340 E51.14521
G1 X34.506 Y64.107 E51.18905
G1 X35.414 Y63.794 E51.26095
G1 X35.483 Y63.753 E51.26691
G1 X35.896 Y63.340 E51.31065
G1 X191.074 Y63.340 E62.92342
G1 X191.831 Y64.097 E63.00352
G1 X192.575 Y64.516 E63.06741
G1 X192.975 Y64.785 E63.10352
G1 X193.360 Y65.080 E63.13977
G1 X193.723 Y65.396 E63.17585
G1 X194.068 Y65.737 E63.21213
G1 X194.390 Y66.098 E63.24834
G1 X194.690 Y66.480 E63.28469
G1 X195.008 Y66.949 E63.32711
G1 X195.255 Y67.371 E63.36367
G1 X195.628 Y68.164 E63.42927
G1 X195.794 Y68.621 E63.46562
G1 X195.932 Y69.082 E63.50167
G1 X196.055 Y69.635 E63.54402
G1 X196.130 Y70.119 E63.58072
G1 X196.184 Y70.996 E63.64642
G1 X196.172 Y71.480 E63.68266
G1 X196.118 Y72.052 E63.72564
G1 X195.954 Y72.910 E63.79107
G1 X195.794 Y73.458 E63.83375
G1 X195.628 Y73.915 E63.87015
G1 X195.255 Y74.708 E63.93577
G1 X195.008 Y75.130 E63.97229
G1 X194.689 Y75.599 E64.01473
G1 X194.390 Y75.981 E64.05107
G1 X193.787 Y76.623 E64.11697
G1 X193.425 Y76.945 E64.15329
G1 X192.975 Y77.294 E64.19586
G1 X192.574 Y77.563 E64.23197
G1 X192.157 Y77.807 E64.26817
G1 X191.360 Y78.182 E64.33407
G1 X190.904 Y78.349 E64.37042
G1 X190.358 Y78.507 E64.41295
G1 X189.886 Y78.610 E64.44913
G1 X189.493 Y78.673 E64.47887
G1 X189.011 Y78.721 E64.51512
G1 X188.442 Y78.739 E64.55776
G1 X187.823 Y78.714 E64.60410
G1 X91.551 Y96.557 E71.93134
G1 X91.483 Y96.511 E71.93750
G1 X91.365 Y96.484 E71.94656
G1 X90.535 Y96.613 E72.00941
G1 X89.577 Y96.703 E72.08146
G1 X89.120 Y96.720 E72.11563
G1 X89.042 Y96.744 E72.12178
G1 X88.739 Y96.930 E72.14839
G1 X87.881 Y96.724 E72.21437
G1 X87.393 Y96.703 E72.25092
G1 X86.349 Y96.602 E72.32942
G1 X85.398 Y96.451 E72.40147
G1 X84.374 Y96.225 E72.47997
G1 X83.284 Y95.908 E72.56494
G1 X82.378 Y95.582 E72.63699
G1 X81.422 Y95.174 E72.71477
G1 X37.901 Y84.726 E76.06418
G1 X37.101 Y84.649 E76.12434
G1 X36.522 Y84.557 E76.16819
G1 X35.866 Y84.413 E76.21849
G1 X35.220 Y84.228 E76.26878
G1 X34.506 Y83.972 E76.32554
G1 X33.890 Y83.702 E76.37585
G1 X33.293 Y83.395 E76.42614
G1 X32.716 Y83.050 E76.47644
G1 X32.161 Y82.670 E76.52675
G1 X31.632 Y82.256 E76.57705
G1 X31.129 Y81.809 E76.62737
G1 X30.656 Y81.332 E76.67764
G1 X30.213 Y80.826 E76.72796
G1 X29.804 Y80.293 E76.77825
G1 X29.428 Y79.736 E76.82853
G1 X29.130 Y79.232 E76.87238
G1 X28.822 Y78.634 E76.92271
G1 X28.553 Y78.018 E76.97299
G1 X28.323 Y77.387 E77.02327
G1 X28.132 Y76.742 E77.07360
G1 X27.983 Y76.087 E77.12391
G1 X27.875 Y75.423 E77.17420
G1 X27.809 Y74.754 E77.22450
G1 X27.786 Y73.996 E77.28126
G1 X27.809 Y73.325 E77.33156
G1 X27.875 Y72.656 E77.38186
G1 X27.967 Y72.077 E77.42569
G1 X28.111 Y71.421 E77.47599
G1 X28.296 Y70.774 E77.52631
G1 X28.521 Y70.141 E77.57663
G1 X28.785 Y69.523 E77.62690
G1 X29.088 Y68.923 E77.67720
G1 X29.428 Y68.343 E77.72753
G1 X29.804 Y67.785 E77.77781
G1 X30.213 Y67.253 E77.82810
G1 X30.656 Y66.747 E77.87842
G1 X31.129 Y66.270 E77.92870
G1 X31.632 Y65.823 E77.97901
G1 X32.161 Y65.409 E78.02931
G1 X32.716 Y65.029 E78.07962
G1 X33.354 Y64.651 E78.13512
G1 X33.679 Y65.158 F30000.000
G1 F2100
G1 X34.215 Y64.887 E78.18007
G1 X34.736 Y64.662 E78.22250
G1 X35.332 Y64.445 E78.26999
G1 X35.730 Y64.327 E78.30102
G1 X35.798 Y64.287 E78.30697
G1 X36.145 Y63.940 E78.34365
G1 X190.825 Y63.940 E89.91922
G1 X191.474 Y64.588 E89.98784
G1 X192.317 Y65.063 E90.06026
G1 X192.685 Y65.316 E90.09369
G1 X193.320 Y65.840 E90.15528
G1 X193.637 Y66.155 E90.18872
G1 X193.934 Y66.488 E90.22210
G1 X194.209 Y66.840 E90.25559
G1 X194.497 Y67.263 E90.29384
G1 X194.724 Y67.651 E90.32750
G1 X195.073 Y68.394 E90.38893
G1 X195.227 Y68.815 E90.42243
G1 X195.353 Y69.241 E90.45569
G1 X195.464 Y69.739 E90.49388
G1 X195.533 Y70.185 E90.52764
G1 X195.584 Y71.005 E90.58916
G1 X195.572 Y71.451 E90.62257
G1 X195.524 Y71.966 E90.66125
G1 X195.370 Y72.771 E90.72255
G1 X195.227 Y73.264 E90.76100
G1 X195.073 Y73.685 E90.79453
G1 X194.724 Y74.428 E90.85598
G1 X194.497 Y74.816 E90.88961
G1 X194.209 Y75.239 E90.92787
G1 X193.934 Y75.591 E90.96135
G1 X193.370 Y76.192 E91.02302
G1 X193.035 Y76.489 E91.05650
G1 X192.630 Y76.803 E91.09486
G1 X192.261 Y77.051 E91.12817
G1 X191.876 Y77.277 E91.16155
G1 X191.130 Y77.628 E91.22321
G1 X190.710 Y77.781 E91.25671
G1 X190.218 Y77.924 E91.29505
G1 X189.727 Y78.028 E91.33257
G1 X188.964 Y78.123 E91.39011
G1 X188.451 Y78.139 E91.42853
G1 X187.796 Y78.109 E91.47761
G1 X91.686 Y95.922 E98.79252
G1 X91.626 Y95.880 E98.79800
G1 X91.508 Y95.854 E98.80706
G1 X90.469 Y96.016 E98.88571
G1 X89.530 Y96.105 E98.95635
G1 X88.942 Y96.125 E99.00031
G1 X88.864 Y96.149 E99.00646
G1 X88.637 Y96.288 E99.02640
G1 X87.929 Y96.122 E99.08076
G1 X87.440 Y96.105 E99.11739
G1 X86.434 Y96.008 E99.19307
G1 X85.435 Y95.847 E99.26875
G1 X84.514 Y95.641 E99.33938
G1 X83.478 Y95.340 E99.42013
G1 X82.590 Y95.021 E99.49076
G1 X81.616 Y94.603 E99.57007
G1 X37.979 Y84.127 E102.92840
G1 X37.186 Y84.055 E102.98804
G1 X36.626 Y83.966 E103.03047
G1 X36.006 Y83.830 E103.07795
G1 X35.396 Y83.655 E103.12543
G1 X34.736 Y83.417 E103.17796
G1 X34.154 Y83.163 E103.22544
G1 X33.590 Y82.873 E103.27292
G1 X33.045 Y82.549 E103.32040
G1 X32.521 Y82.190 E103.36788
G1 X32.021 Y81.800 E103.41536
G1 X31.547 Y81.378 E103.46285
G1 X31.100 Y80.928 E103.51031
G1 X30.682 Y80.451 E103.55780
G1 X30.295 Y79.948 E103.60528
G1 X29.940 Y79.423 E103.65274
G1 X29.651 Y78.935 E103.69518
G1 X29.361 Y78.370 E103.74268
G1 X29.107 Y77.789 E103.79014
G1 X28.890 Y77.193 E103.83761
G1 X28.711 Y76.584 E103.88511
G1 X28.571 Y75.965 E103.93260
G1 X28.469 Y75.339 E103.98007
G1 X28.408 Y74.707 E104.02755
G1 X28.386 Y74.006 E104.08008
G1 X28.408 Y73.372 E104.12756
G1 X28.461 Y72.807 E104.16999
G1 X28.558 Y72.180 E104.21746
G1 X28.694 Y71.561 E104.26494
G1 X28.869 Y70.951 E104.31243
G1 X29.082 Y70.353 E104.35993
G1 X29.332 Y69.770 E104.40739
G1 X29.618 Y69.204 E104.45486
G1 X29.940 Y68.656 E104.50237
G1 X30.295 Y68.131 E104.54983
G1 X30.682 Y67.628 E104.59731
G1 X31.100 Y67.151 E104.64479
G1 X31.547 Y66.701 E104.69226
G1 X32.021 Y66.279 E104.73975
G1 X32.521 Y65.889 E104.78723
G1 X33.045 Y65.530 E104.83472
G1 X33.626 Y65.186 E104.88528
G1 X33.952 Y65.692 F30000.000
G1 F2100
G1 X34.462 Y65.434 E104.92811
G1 X34.965 Y65.216 E104.96913
G1 X35.526 Y65.013 E105.01380
G1 X36.045 Y64.860 E105.05424
G1 X36.113 Y64.820 E105.06020
G1 X36.393 Y64.540 E105.08980
G1 X190.577 Y64.540 E116.62817
G1 X191.129 Y65.092 E116.68661
G1 X191.638 Y65.356 E116.72952
G1 X191.988 Y65.565 E116.75999
G1 X192.325 Y65.796 E116.79059
G1 X192.916 Y66.284 E116.84798
G1 X193.206 Y66.572 E116.87857
G1 X193.478 Y66.878 E116.90914
G1 X193.959 Y67.535 E116.97012
G1 X194.169 Y67.887 E117.00082
G1 X194.376 Y68.294 E117.03495
G1 X194.537 Y68.671 E117.06562
G1 X194.774 Y69.399 E117.12296
G1 X194.873 Y69.843 E117.15698
G1 X194.937 Y70.250 E117.18782
G1 X194.984 Y71.015 E117.24514
G1 X194.973 Y71.423 E117.27573
G1 X194.930 Y71.881 E117.31010
G1 X194.787 Y72.631 E117.36728
G1 X194.659 Y73.070 E117.40149
G1 X194.519 Y73.455 E117.43216
G1 X194.193 Y74.148 E117.48944
G1 X193.986 Y74.502 E117.52017
G1 X193.757 Y74.841 E117.55077
G1 X193.478 Y75.201 E117.58488
G1 X192.952 Y75.761 E117.64233
G1 X192.646 Y76.032 E117.67296
G1 X192.285 Y76.312 E117.70710
G1 X191.947 Y76.540 E117.73761
G1 X191.595 Y76.747 E117.76816
G1 X190.901 Y77.073 E117.82560
G1 X190.516 Y77.213 E117.85625
G1 X190.078 Y77.341 E117.89039
G1 X189.324 Y77.484 E117.94780
G1 X188.917 Y77.524 E117.97839
G1 X188.461 Y77.539 E118.01258
G1 X187.769 Y77.504 E118.06440
G1 X91.821 Y95.287 E125.36698
G1 X91.750 Y95.238 E125.37340
G1 X91.621 Y95.213 E125.38323
G1 X90.403 Y95.420 E125.47568
G1 X89.482 Y95.507 E125.54491
G1 X88.765 Y95.531 E125.59867
G1 X88.686 Y95.554 E125.60482
G1 X88.535 Y95.647 E125.61808
G1 X88.009 Y95.525 E125.65844
G1 X87.487 Y95.507 E125.69753
G1 X86.518 Y95.414 E125.77040
G1 X85.605 Y95.269 E125.83962
G1 X84.654 Y95.058 E125.91248
G1 X83.719 Y94.788 E125.98536
G1 X82.802 Y94.459 E126.05822
G1 X81.816 Y94.034 E126.13859
G1 X38.060 Y83.529 E129.50613
G1 X37.270 Y83.461 E129.56543
G1 X36.729 Y83.375 E129.60645
G1 X36.146 Y83.246 E129.65111
G1 X35.573 Y83.081 E129.69576
G1 X35.011 Y82.881 E129.74042
G1 X34.462 Y82.645 E129.78508
G1 X33.930 Y82.376 E129.82974
G1 X33.416 Y82.073 E129.87440
G1 X32.921 Y81.739 E129.91905
G1 X32.449 Y81.374 E129.96372
G1 X32.000 Y80.981 E130.00838
G1 X31.577 Y80.560 E130.05304
G1 X31.150 Y80.076 E130.10134
G1 X30.786 Y79.603 E130.14599
G1 X30.451 Y79.109 E130.19064
G1 X30.149 Y78.594 E130.23532
G1 X29.879 Y78.062 E130.27997
G1 X29.644 Y77.514 E130.32462
G1 X29.443 Y76.952 E130.36929
G1 X29.278 Y76.378 E130.41396
G1 X29.149 Y75.795 E130.45861
G1 X29.064 Y75.254 E130.49963
G1 X29.012 Y74.720 E130.53976
G1 X28.986 Y74.064 E130.58894
G1 X29.006 Y73.419 E130.63724
G1 X29.064 Y72.825 E130.68189
G1 X29.158 Y72.236 E130.72655
G1 X29.290 Y71.654 E130.77121
G1 X29.458 Y71.081 E130.81588
G1 X29.662 Y70.520 E130.86054
G1 X29.900 Y69.973 E130.90518
G1 X30.172 Y69.442 E130.94986
G1 X30.451 Y68.970 E130.99088
G1 X30.786 Y68.476 E131.03553
G1 X31.150 Y68.003 E131.08019
G1 X31.544 Y67.554 E131.12485
G1 X31.964 Y67.131 E131.16950
G1 X32.411 Y66.736 E131.21417
G1 X32.882 Y66.369 E131.25882
G1 X33.374 Y66.032 E131.30349
G1 X33.899 Y65.721 E131.34912
G1 X34.224 Y66.227 F30000.000
G1 F2100
G1 X34.709 Y65.981 E131.38984
G1 X35.223 Y65.760 E131.43168
G1 X35.749 Y65.571 E131.47352
G1 X36.343 Y65.403 E131.51971
G1 X36.422 Y65.360 E131.52642
G1 X36.642 Y65.140 E131.54970
G1 X190.328 Y65.140 E143.05088
G1 X190.785 Y65.597 E143.09928
G1 X191.314 Y65.863 E143.14354
G1 X191.634 Y66.051 E143.17127
G1 X191.965 Y66.276 E143.20123
G1 X192.256 Y66.503 E143.22892
G1 X192.795 Y67.012 E143.28438
G1 X193.266 Y67.584 E143.33980
G1 X193.648 Y68.184 E143.39309
G1 X193.817 Y68.515 E143.42086
G1 X193.965 Y68.854 E143.44851
G1 X194.100 Y69.230 E143.47845
G1 X194.203 Y69.588 E143.50630
G1 X194.336 Y70.284 E143.55935
G1 X194.384 Y71.055 E143.61713
G1 X194.340 Y71.763 E143.67028
G1 X194.282 Y72.132 E143.69817
G1 X194.195 Y72.521 E143.72806
G1 X193.976 Y73.197 E143.78120
G1 X193.648 Y73.894 E143.83889
G1 X193.458 Y74.214 E143.86670
G1 X193.041 Y74.788 E143.91979
G1 X192.512 Y75.350 E143.97756
G1 X191.965 Y75.803 E144.03074
G1 X191.633 Y76.028 E144.06071
G1 X191.314 Y76.216 E144.08843
G1 X190.671 Y76.519 E144.14163
G1 X190.322 Y76.646 E144.16944
G1 X189.937 Y76.757 E144.19939
