; generated by Slic3r 1.3.0 on 2020-04-11 at 10:16:09

; external perimeters extrusion width = 0.44mm (2.78mm^3/s)
; perimeters extrusion width = 0.40mm (7.14mm^3/s)
; infill extrusion width = 0.50mm (10.97mm^3/s)
; solid infill extrusion width = 0.60mm (6.68mm^3/s)
; top infill extrusion width = 0.40mm (2.14mm^3/s)

M107
M190 S80 ; set bed temperature and wait for it to be reached
M104 S200 ; set temperature
G28 ; home all axes
G1 Z5 F5000 ; lift nozzle

; Filament gcode

M109 S200 ; set temperature and wait for it to be reached
G21 ; set units to millimeters
G90 ; use absolute coordinates
M82 ; use absolute distances for extrusion
G92 E0
G1 Z0.300 F30000.000
G1 E-2.00000 F2400.00000
G92 E0
G1 X91.311 Y91.063 F30000.000
G1 E2.00000 F2400.00000
G1 F2100
G1 X93.085 Y89.439 E2.16072
G1 X95.292 Y88.480 E2.32144
G1 X97.050 Y88.265 E2.43977
G1 X102.950 Y88.265 E2.83392
G1 X105.323 Y88.662 E2.99465
G1 X107.437 Y89.811 E3.15537
G1 X109.061 Y91.585 E3.31609
G1 X110.020 Y93.792 E3.47681
G1 X110.235 Y95.550 E3.59514
G1 X110.235 Y104.450 E4.18971
G1 X109.838 Y106.823 E4.35043
G1 X108.689 Y108.937 E4.51115
G1 X106.915 Y110.561 E4.67187
G1 X104.708 Y111.520 E4.83259
G1 X102.950 Y111.735 E4.95092
G1 X97.050 Y111.735 E5.34507
G1 X94.677 Y111.338 E5.50580
G1 X92.563 Y110.189 E5.66652
G1 X90.939 Y108.415 E5.82724
G1 X89.980 Y106.208 E5.98796
G1 X89.765 Y104.450 E6.10629
G1 X89.765 Y95.550 E6.70086
G1 X90.162 Y93.177 E6.86158
G1 X91.282 Y91.116 E7.01829
G1 X91.842 Y91.257 F30000.000
G1 F2100
G1 X93.599 Y89.750 E7.17295
G1 X95.762 Y88.925 E7.32761
G1 X97.050 Y88.801 E7.41403
G1 X102.950 Y88.801 E7.80818
G1 X105.231 Y89.198 E7.96284
G1 X107.243 Y90.342 E8.11750
G1 X108.750 Y92.099 E8.27216
G1 X109.575 Y94.262 E8.42681
G1 X109.699 Y95.550 E8.51324
G1 X109.699 Y104.450 E9.10780
G1 X109.302 Y106.731 E9.26246
G1 X108.158 Y108.743 E9.41712
G1 X106.401 Y110.250 E9.57178
G1 X104.238 Y111.075 E9.72644
G1 X102.950 Y111.199 E9.81286
G1 X97.050 Y111.199 E10.20701
G1 X94.769 Y110.802 E10.36167
G1 X92.757 Y109.658 E10.51632
G1 X91.250 Y107.901 E10.67098
G1 X90.425 Y105.738 E10.82564
G1 X90.301 Y104.450 E10.91206
G1 X90.301 Y95.550 E11.50663
G1 X90.698 Y93.269 E11.66129
G1 X91.812 Y91.309 E11.81194
G1 X92.373 Y91.459 F30000.000
G1 F2100
G1 X94.110 Y90.076 E11.96028
G1 X97.050 Y89.336 E12.16283
G1 X102.950 Y89.336 E12.55698
G1 X105.135 Y89.733 E12.70533
G1 X107.041 Y90.873 E12.85368
G1 X108.424 Y92.610 E13.00202
G1 X109.164 Y95.550 E13.20457
G1 X109.164 Y104.450 E13.79914
G1 X108.767 Y106.635 E13.94748
G1 X107.627 Y108.541 E14.09583
G1 X105.890 Y109.924 E14.24418
G1 X102.950 Y110.664 E14.44672
G1 X97.050 Y110.664 E14.84087
G1 X94.865 Y110.267 E14.98922
G1 X92.959 Y109.127 E15.13757
G1 X91.576 Y107.390 E15.28591
G1 X90.836 Y104.450 E15.48846
G1 X90.836 Y95.550 E16.08303
G1 X91.233 Y93.365 E16.23137
G1 X92.342 Y91.511 E16.37571
G1 X92.902 Y91.672 F30000.000
G1 F2100
G1 X94.616 Y90.420 E16.51747
G1 X97.050 Y89.872 E16.68416
G1 X102.950 Y89.872 E17.07831
G1 X105.035 Y90.268 E17.22007
G1 X106.828 Y91.402 E17.36182
G1 X108.080 Y93.116 E17.50358
G1 X108.628 Y95.550 E17.67028
G1 X108.628 Y104.450 E18.26484
G1 X108.232 Y106.535 E18.40660
G1 X107.098 Y108.328 E18.54835
G1 X105.384 Y109.580 E18.69011
G1 X102.950 Y110.128 E18.85680
G1 X97.050 Y110.128 E19.25096
G1 X94.965 Y109.732 E19.39271
G1 X93.172 Y108.598 E19.53447
G1 X91.920 Y106.884 E19.67622
G1 X91.372 Y104.450 E19.84292
G1 X91.372 Y95.550 E20.43749
G1 X91.768 Y93.465 E20.57924
G1 X92.870 Y91.723 E20.71699
G1 X93.431 Y91.897 F30000.000
G1 F2100
G1 X95.116 Y90.785 E20.85183
G1 X97.050 Y90.408 E20.98348
G1 X102.950 Y90.408 E21.37763
G1 X104.929 Y90.804 E21.51248
G1 X106.603 Y91.931 E21.64732
G1 X107.715 Y93.616 E21.78216
G1 X108.092 Y95.550 E21.91381
G1 X108.092 Y104.450 E22.50838
G1 X107.696 Y106.429 E22.64322
G1 X106.569 Y108.103 E22.77806
G1 X104.884 Y109.215 E22.91290
G1 X102.950 Y109.592 E23.04456
G1 X97.050 Y109.592 E23.43871
G1 X95.071 Y109.196 E23.57355
G1 X93.397 Y108.069 E23.70839
G1 X92.285 Y106.384 E23.84323
G1 X91.908 Y104.450 E23.97489
G1 X91.908 Y95.550 E24.56946
G1 X92.304 Y93.571 E24.70430
G1 X93.397 Y91.946 E24.83513
G1 X93.958 Y92.135 F30000.000
G1 F2100
G1 X95.608 Y91.175 E24.96268
G1 X97.050 Y90.943 E25.06025
G1 X102.950 Y90.943 E25.45440
G1 X104.818 Y91.339 E25.58196
G1 X106.365 Y92.458 E25.70951
G1 X107.325 Y94.108 E25.83706
G1 X107.557 Y95.550 E25.93463
G1 X107.557 Y104.450 E26.52920
G1 X107.161 Y106.318 E26.65675
G1 X106.042 Y107.865 E26.78430
G1 X104.392 Y108.825 E26.91186
G1 X102.950 Y109.057 E27.00942
G1 X97.050 Y109.057 E27.40358
G1 X95.182 Y108.661 E27.53113
G1 X93.635 Y107.542 E27.65868
G1 X92.675 Y105.892 E27.78623
G1 X92.443 Y104.450 E27.88380
G1 X92.443 Y95.550 E28.47837
G1 X92.839 Y93.682 E28.60592
G1 X93.923 Y92.184 E28.72947
G1 X94.482 Y92.390 F30000.000
G1 F2100
G1 X96.089 Y91.594 E28.84929
G1 X97.050 Y91.479 E28.91393
G1 X102.950 Y91.479 E29.30808
G1 X104.700 Y91.874 E29.42790
G1 X106.110 Y92.982 E29.54772
G1 X106.906 Y94.589 E29.66754
G1 X107.021 Y95.550 E29.73218
G1 X107.021 Y104.450 E30.32675
G1 X106.626 Y106.200 E30.44657
G1 X105.518 Y107.610 E30.56639
G1 X103.911 Y108.406 E30.68621
G1 X102.950 Y108.521 E30.75085
G1 X97.050 Y108.521 E31.14500
G1 X95.300 Y108.126 E31.26482
G1 X93.890 Y107.018 E31.38464
G1 X93.094 Y105.411 E31.50447
G1 X92.979 Y104.450 E31.56910
G1 X92.979 Y95.550 E32.16367
G1 X93.374 Y93.800 E32.28349
G1 X94.445 Y92.438 E32.39930
G1 X95.004 Y92.667 F30000.000
G1 F2100
G1 X97.050 Y92.014 E32.54278
G1 X102.950 Y92.014 E32.93693
G1 X104.573 Y92.409 E33.04849
G1 X105.833 Y93.504 E33.16005
G1 X106.486 Y95.550 E33.30352
G1 X106.486 Y104.450 E33.89809
G1 X106.091 Y106.073 E34.00965
G1 X104.996 Y107.333 E34.12120
G1 X102.950 Y107.986 E34.26468
G1 X97.050 Y107.986 E34.65883
G1 X95.427 Y107.591 E34.77039
G1 X94.167 Y106.496 E34.88194
G1 X93.514 Y104.450 E35.02542
G1 X93.514 Y95.550 E35.61999
G1 X93.909 Y93.927 E35.73155
G1 X94.964 Y92.712 E35.83909
G1 X95.524 Y93.187 F30000.000
G1 F2100
G1 X95.911 Y92.801 E35.88002
G1 X104.089 Y92.801 E36.49200
G1 X105.699 Y94.411 E36.66245
G1 X105.699 Y105.589 E37.49893
G1 X104.089 Y107.199 E37.66938
G1 X95.911 Y107.199 E38.28136
G1 X94.301 Y105.589 E38.45181
G1 X94.301 Y94.411 E39.28829
G1 X95.482 Y93.230 E39.41332
G1 X95.949 Y93.612 F30000.000
G1 F2100
G1 X96.160 Y93.401 E39.43565
G1 X103.840 Y93.401 E40.01043
G1 X105.099 Y94.660 E40.14369
G1 X105.099 Y105.340 E40.94297
G1 X103.840 Y106.599 E41.07622
G1 X96.160 Y106.599 E41.65100
G1 X94.901 Y105.340 E41.78426
G1 X94.901 Y94.660 E42.58354
G1 X95.906 Y93.654 E42.68998
G1 X96.373 Y94.036 F30000.000
G1 F2100
G1 X96.408 Y94.001 E42.69371
G1 X103.592 Y94.001 E43.23129
G1 X104.499 Y94.908 E43.32734
G1 X104.499 Y105.092 E44.08943
G1 X103.592 Y105.999 E44.18549
G1 X96.408 Y105.999 E44.72307
G1 X95.501 Y105.092 E44.81913
G1 X95.501 Y94.908 E45.58121
G1 X96.331 Y94.078 E45.66905
G1 X96.657 Y94.601 F30000.000
G1 F2100
G1 X103.343 Y94.601 E46.16944
G1 X103.899 Y95.157 E46.22829
G1 X103.899 Y104.843 E46.95318
G1 X103.343 Y105.399 E47.01204
G1 X96.657 Y105.399 E47.51243
G1 X96.101 Y104.843 E47.57128
G1 X96.101 Y95.157 E48.29618
G1 X96.614 Y94.643 E48.35054
G1 E46.35054 F2400.00000
G92 E0
G1 X104.950 Y93.550 F30000.000
G1 X103.299 Y95.405 F30000.000
G1 E2.00000 F2400.00000
G1 F2100
G1 X103.299 Y104.595 E2.68769
G1 X103.095 Y104.799 E2.70935
G1 X96.905 Y104.799 E3.17254
G1 X96.701 Y104.595 E3.19420
G1 X96.701 Y95.405 E3.88190
G1 X96.905 Y95.201 E3.90356
G1 X103.095 Y95.201 E4.36675
G1 X103.257 Y95.363 E4.38392
G1 E2.38392 F2400.00000
G92 E0
G1 X102.650 Y104.150 F30000.000
G1 E2.00000 F2400.00000
G1 F2100
G1 X97.350 Y104.150 E2.35407
G1 X97.350 Y95.850 E2.90855
G1 X102.650 Y95.850 E3.26262
G1 X102.650 Y104.090 E3.81310
G1 X102.272 Y104.019 F30000.000
G1 X102.114 Y103.614 F30000.000
G1 F2100
G1 X97.886 Y103.614 E4.09560
G1 X97.886 Y96.386 E4.57852
G1 X102.114 Y96.386 E4.86103
G1 X102.114 Y103.554 E5.33994
G1 X101.522 Y103.136 F30000.000
G1 F2100
G1 X101.636 Y103.022 E5.35095
G1 X101.636 Y102.246 E5.40409
G1 X100.746 Y103.136 E5.49026
G1 X99.969 Y103.136 E5.54340
G1 X101.636 Y101.469 E5.70472
G1 X101.636 Y100.693 E5.75786
G1 X99.193 Y103.136 E5.99433
G1 X98.417 Y103.136 E6.04747
G1 X101.636 Y99.917 E6.35910
G1 X101.636 Y99.141 E6.41224
G1 X98.364 Y102.412 E6.72894
G1 X98.364 Y101.636 E6.78208
G1 X101.636 Y98.364 E7.09879
G1 X101.636 Y97.588 E7.15193
G1 X98.364 Y100.859 E7.46863
G1 X98.364 Y100.083 E7.52178
G1 X101.583 Y96.864 E7.83340
G1 X100.807 Y96.864 E7.88654
G1 X98.364 Y99.307 E8.12301
G1 X98.364 Y98.531 E8.17615
G1 X100.031 Y96.864 E8.33748
G1 X99.254 Y96.864 E8.39062
G1 X98.364 Y97.754 E8.47678
G1 X98.364 Y96.978 E8.52992
G1 X98.478 Y96.864 E8.54094
G1 Z0.500 F30000.000
G1 X102.353 Y103.853 F30000.000
G1 F748.38
G1 X97.647 Y103.853 E8.68066
G1 X97.647 Y96.147 E8.90946
G1 X102.353 Y96.147 E9.04918
G1 X102.353 Y103.793 E9.27620
G1 X102.730 Y104.230 F30000.000
G1 F1500
G1 X97.270 Y104.230 E9.45647
G1 X97.270 Y95.770 E9.73580
G1 X102.730 Y95.770 E9.91607
G1 X102.730 Y104.170 E10.19342
G1 X102.352 Y104.099 F30000.000
G1 X98.153 Y103.444 F30000.000
G1 F1796.11
G1 X98.056 Y103.347 E10.19998
G1 X98.056 Y102.533 E10.23895
G1 X98.967 Y103.444 E10.30063
G1 X99.781 Y103.444 E10.33960
G1 X98.056 Y101.719 E10.45638
G1 X98.056 Y100.905 E10.49535
G1 X100.595 Y103.444 E10.66725
G1 X101.409 Y103.444 E10.70621
G1 X98.056 Y100.091 E10.93322
G1 X98.056 Y99.277 E10.97218
G1 X101.944 Y103.165 E11.23541
G1 X101.944 Y102.351 E11.27438
G1 X98.056 Y98.463 E11.53761
G1 X98.056 Y97.649 E11.57658
G1 X101.944 Y101.537 E11.83981
G1 X101.944 Y100.723 E11.87878
G1 X98.056 Y96.835 E12.14201
G1 X98.056 Y96.556 E12.15536
G1 X98.591 Y96.556 E12.18098
G1 X101.944 Y99.909 E12.40798
G1 X101.944 Y99.095 E12.44695
G1 X99.405 Y96.556 E12.61884
G1 X100.219 Y96.556 E12.65781
G1 X101.944 Y98.281 E12.77460
G1 X101.944 Y97.467 E12.81356
G1 X101.033 Y96.556 E12.87524
G1 X101.847 Y96.556 E12.91421
G1 X101.944 Y96.653 E12.92078
G1 Z0.700 F30000.000
G1 X102.353 Y103.853 F30000.000
G1 F748.38
G1 X97.647 Y103.853 E13.06050
G1 X97.647 Y96.147 E13.28930
G1 X102.353 Y96.147 E13.42902
G1 X102.353 Y103.793 E13.65604
G1 X102.730 Y104.230 F30000.000
G1 F1500
G1 X97.270 Y104.230 E13.83631
G1 X97.270 Y95.770 E14.11564
G1 X102.730 Y95.770 E14.29591
G1 X102.730 Y104.170 E14.57326
G1 X102.352 Y104.099 F30000.000
G1 X101.847 Y103.444 F30000.000
G1 F1796.11
G1 X101.944 Y103.347 E14.57983
G1 X101.944 Y102.533 E14.61880
G1 X101.033 Y103.444 E14.68048
G1 X100.219 Y103.444 E14.71945
G1 X101.944 Y101.719 E14.83623
G1 X101.944 Y100.905 E14.87520
G1 X99.405 Y103.444 E15.04710
G1 X98.591 Y103.444 E15.08606
G1 X101.944 Y100.091 E15.31306
G1 X101.944 Y99.277 E15.35203
G1 X98.056 Y103.165 E15.61526
G1 X98.056 Y102.351 E15.65423
G1 X101.944 Y98.463 E15.91746
G1 X101.944 Y97.649 E15.95643
G1 X98.056 Y101.537 E16.21966
G1 X98.056 Y100.723 E16.25863
G1 X101.944 Y96.835 E16.52186
G1 X101.944 Y96.556 E16.53521
G1 X101.409 Y96.556 E16.56083
G1 X98.056 Y99.909 E16.78783
G1 X98.056 Y99.095 E16.82679
G1 X100.595 Y96.556 E16.99869
G1 X99.781 Y96.556 E17.03766
G1 X98.056 Y98.281 E17.15445
G1 X98.056 Y97.467 E17.19341
G1 X98.967 Y96.556 E17.25509
G1 X98.153 Y96.556 E17.29406
G1 X98.056 Y96.653 E17.30062
M106 S255
G1 Z0.900 F30000.000
G1 X102.353 Y103.853 F30000.000
G1 F748.38
G1 X97.647 Y103.853 E17.44035
G1 X97.647 Y96.147 E17.66914
G1 X102.353 Y96.147 E17.80886
G1 X102.353 Y103.793 E18.03588
G1 X102.730 Y104.230 F30000.000
G1 F1500
G1 X97.270 Y104.230 E18.21615
G1 X97.270 Y95.770 E18.49548
G1 X102.730 Y95.770 E18.67576
G1 X102.730 Y104.170 E18.95310
G1 X102.352 Y104.099 F30000.000
G1 X98.153 Y103.444 F30000.000
G1 F1796.11
G1 X98.056 Y103.347 E18.95966
G1 X98.056 Y102.533 E18.99863
G1 X98.967 Y103.444 E19.06031
G1 X99.781 Y103.444 E19.09928
G1 X98.056 Y101.719 E19.21607
G1 X98.056 Y100.905 E19.25503
G1 X100.595 Y103.444 E19.42693
G1 X101.409 Y103.444 E19.46590
G1 X98.056 Y100.091 E19.69290
G1 X98.056 Y99.277 E19.73187
G1 X101.944 Y103.165 E19.99510
G1 X101.944 Y102.351 E20.03406
G1 X98.056 Y98.463 E20.29730
G1 X98.056 Y97.649 E20.33626
G1 X101.944 Y101.537 E20.59950
G1 X101.944 Y100.723 E20.63846
G1 X98.056 Y96.835 E20.90169
G1 X98.056 Y96.556 E20.91504
G1 X98.591 Y96.556 E20.94066
G1 X101.944 Y99.909 E21.16766
G1 X101.944 Y99.095 E21.20663
G1 X99.405 Y96.556 E21.37852
G1 X100.219 Y96.556 E21.41749
G1 X101.944 Y98.281 E21.53428
G1 X101.944 Y97.467 E21.57324
G1 X101.033 Y96.556 E21.63493
G1 X101.847 Y96.556 E21.67389
G1 X101.944 Y96.653 E21.68046
M106 S252.45
G1 Z1.100 F30000.000
G1 X102.353 Y103.853 F30000.000
G1 F1500
G1 X97.647 Y103.853 E21.82019
G1 X97.647 Y96.147 E22.04898
G1 X102.353 Y96.147 E22.18871
G1 X102.353 Y103.793 E22.41572
G1 X102.730 Y104.230 F30000.000
G1 F1500
G1 X97.270 Y104.230 E22.59600
G1 X97.270 Y95.770 E22.87532
G1 X102.730 Y95.770 E23.05560
G1 X102.730 Y104.170 E23.33294
G1 X102.352 Y104.099 F30000.000
G1 X101.958 Y103.534 F30000.000
G1 F1800
G1 X102.034 Y103.458 E23.33624
G1 X102.034 Y102.935 E23.35233
G1 X101.435 Y103.534 E23.37837
G1 X100.912 Y103.534 E23.39445
G1 X102.034 Y102.412 E23.44324
G1 X102.034 Y101.889 E23.45933
G1 X100.389 Y103.534 E23.53086
G1 X99.866 Y103.534 E23.54694
G1 X102.034 Y101.366 E23.64122
G1 X102.034 Y100.843 E23.65730
G1 X99.343 Y103.534 E23.77433
G1 X98.820 Y103.534 E23.79041
G1 X102.034 Y100.320 E23.93018
G1 X102.034 Y99.797 E23.94626
G1 X98.297 Y103.534 E24.10878
G1 X97.966 Y103.534 E24.11894
G1 X97.966 Y103.341 E24.12486
G1 X102.034 Y99.274 E24.30175
G1 X102.034 Y98.751 E24.31783
G1 X97.966 Y102.818 E24.49472
G1 X97.966 Y102.295 E24.51080
G1 X102.034 Y98.228 E24.68769
G1 X102.034 Y97.705 E24.70377
G1 X97.966 Y101.772 E24.88066
G1 X97.966 Y101.249 E24.89674
G1 X102.034 Y97.182 E25.07363
G1 X102.034 Y96.659 E25.08971
G1 X97.966 Y100.726 E25.26660
G1 X97.966 Y100.203 E25.28268
G1 X101.703 Y96.466 E25.44519
G1 X101.180 Y96.466 E25.46128
G1 X97.966 Y99.680 E25.60104
G1 X97.966 Y99.157 E25.61713
G1 X100.657 Y96.466 E25.73415
G1 X100.134 Y96.466 E25.75024
G1 X97.966 Y98.634 E25.84451
G1 X97.966 Y98.111 E25.86060
G1 X99.611 Y96.466 E25.93213
G1 X99.088 Y96.466 E25.94822
G1 X97.966 Y97.588 E25.99701
G1 X97.966 Y97.065 E26.01309
G1 X98.565 Y96.466 E26.03913
G1 X98.042 Y96.466 E26.05522
G1 X97.966 Y96.542 E26.05851
M106 S255
G1 Z1.300 F30000.000
G1 E24.05851 F2400.00000
G92 E0
G1 X102.353 Y103.853 F30000.000
G1 E2.00000 F2400.00000
G1 F740.807
G1 X101.390 Y103.853 E2.02859
G1 X101.390 Y96.147 E2.25739
G1 X102.353 Y96.147 E2.28599
G1 X102.353 Y103.793 E2.51300
G1 X102.730 Y104.230 F30000.000
G1 F1500
G1 X101.013 Y104.230 E2.56970
G1 X101.013 Y95.770 E2.84902
G1 X102.730 Y95.770 E2.90572
G1 X102.730 Y104.170 E3.18307
G1 X102.371 Y104.054 F30000.000
G1 X101.798 Y103.347 F30000.000
G1 F1777.94
G1 X101.896 Y103.444 E3.18997
G1 X101.944 Y103.444 E3.19242
G1 X101.944 Y102.638 E3.23296
G1 X101.798 Y102.492 E3.24333
G1 X101.798 Y101.637 E3.28632
G1 X101.944 Y101.783 E3.29669
G1 X101.944 Y100.928 E3.33967
G1 X101.798 Y100.782 E3.35005
G1 X101.798 Y99.927 E3.39303
G1 X101.944 Y100.073 E3.40340
G1 X101.944 Y99.218 E3.44639
G1 X101.798 Y99.072 E3.45676
G1 X101.798 Y98.217 E3.49975
G1 X101.944 Y98.363 E3.51012
G1 X101.944 Y97.508 E3.55310
G1 X101.798 Y97.362 E3.56348
G1 X101.798 Y96.556 E3.60401
G1 X101.847 Y96.556 E3.60646
G1 X101.944 Y96.653 E3.61337
G1 E1.61337 F2400.00000
G92 E0
G1 X104.950 Y106.450 F30000.000
G1 X98.610 Y103.853 F30000.000
G1 E2.00000 F2400.00000
G1 F740.807
G1 X97.647 Y103.853 E2.02859
G1 X97.647 Y96.147 E2.25739
G1 X98.610 Y96.147 E2.28599
G1 X98.610 Y103.793 E2.51300
G1 X98.987 Y104.230 F30000.000
G1 F1500
G1 X97.270 Y104.230 E2.56970
G1 X97.270 Y95.770 E2.84902
G1 X98.987 Y95.770 E2.90572
G1 X98.987 Y104.170 E3.18307
G1 X98.628 Y104.054 F30000.000
G1 X98.056 Y103.347 F30000.000
G1 F1777.94
G1 X98.153 Y103.444 E3.18997
G1 X98.202 Y103.444 E3.19242
G1 X98.202 Y102.638 E3.23296
G1 X98.056 Y102.492 E3.24333
G1 X98.056 Y101.637 E3.28632
G1 X98.202 Y101.783 E3.29669
G1 X98.202 Y100.928 E3.33967
G1 X98.056 Y100.782 E3.35004
G1 X98.056 Y99.927 E3.39303
G1 X98.202 Y100.073 E3.40340
