; generated by Slic3r 1.3.0 on 2020-04-11 at 09:50:32

; external perimeters extrusion width = 0.44mm (2.78mm^3/s)
; perimeters extrusion width = 0.40mm (7.14mm^3/s)
; infill extrusion width = 0.50mm (10.97mm^3/s)
; solid infill extrusion width = 0.60mm (6.68mm^3/s)
; top infill extrusion width = 0.40mm (2.14mm^3/s)

M107
M190 S80 ; set bed temperature and wait for it to be reached
M104 S200 ; set temperature
G28 ; home all axes
G1 Z5 F5000 ; lift nozzle

; Filament gcode

M109 S200 ; set temperature and wait for it to be reached
G21 ; set units to millimeters
G90 ; use absolute coordinates
M82 ; use absolute distances for extrusion
G92 E0
G1 Z0.300 F30000.000
G1 E-2.00000 F2400.00000
G92 E0
G1 X91.811 Y91.563 F30000.000
G1 E2.00000 F2400.00000
G1 F2100
G1 X93.585 Y89.939 E2.16072
G1 X95.792 Y88.980 E2.32144
G1 X97.550 Y88.765 E2.43977
G1 X102.450 Y88.765 E2.76712
G1 X104.823 Y89.162 E2.92784
G1 X106.937 Y90.311 E3.08856
G1 X108.561 Y92.085 E3.24928
G1 X109.520 Y94.292 E3.41001
G1 X109.735 Y96.050 E3.52833
G1 X109.735 Y103.950 E4.05610
G1 X109.338 Y106.323 E4.21682
G1 X108.189 Y108.437 E4.37754
G1 X106.415 Y110.061 E4.53826
G1 X104.208 Y111.020 E4.69898
G1 X102.450 Y111.235 E4.81731
G1 X97.550 Y111.235 E5.14466
G1 X95.177 Y110.838 E5.30538
G1 X93.063 Y109.689 E5.46610
G1 X91.439 Y107.915 E5.62682
G1 X90.480 Y105.708 E5.78754
G1 X90.265 Y103.950 E5.90587
G1 X90.265 Y96.050 E6.43364
G1 X90.662 Y93.677 E6.59436
G1 X91.782 Y91.616 E6.75107
G1 X92.342 Y91.757 F30000.000
G1 F2100
G1 X94.099 Y90.250 E6.90573
G1 X96.262 Y89.425 E7.06039
G1 X97.550 Y89.301 E7.14681
G1 X102.450 Y89.301 E7.47415
G1 X104.731 Y89.698 E7.62881
G1 X106.743 Y90.842 E7.78347
G1 X108.250 Y92.599 E7.93813
G1 X109.075 Y94.762 E8.09279
G1 X109.199 Y96.050 E8.17921
G1 X109.199 Y103.950 E8.70697
G1 X108.802 Y106.231 E8.86163
G1 X107.658 Y108.243 E9.01629
G1 X105.901 Y109.750 E9.17095
G1 X103.738 Y110.575 E9.32560
G1 X102.450 Y110.699 E9.41202
G1 X97.550 Y110.699 E9.73937
G1 X95.269 Y110.302 E9.89403
G1 X93.257 Y109.158 E10.04869
G1 X91.750 Y107.401 E10.20335
G1 X90.925 Y105.238 E10.35800
G1 X90.801 Y103.950 E10.44442
G1 X90.801 Y96.050 E10.97219
G1 X91.198 Y93.769 E11.12685
G1 X92.312 Y91.809 E11.27750
G1 X92.873 Y91.959 F30000.000
G1 F2100
G1 X94.610 Y90.576 E11.42584
G1 X97.550 Y89.836 E11.62839
G1 X102.450 Y89.836 E11.95573
G1 X104.635 Y90.233 E12.10408
G1 X106.541 Y91.373 E12.25243
G1 X107.924 Y93.110 E12.40077
G1 X108.664 Y96.050 E12.60332
G1 X108.664 Y103.950 E13.13108
G1 X108.267 Y106.135 E13.27943
G1 X107.127 Y108.041 E13.42777
G1 X105.390 Y109.424 E13.57612
G1 X102.450 Y110.164 E13.77867
G1 X97.550 Y110.164 E14.10601
G1 X95.365 Y109.767 E14.25436
G1 X93.459 Y108.627 E14.40271
G1 X92.076 Y106.890 E14.55105
G1 X91.336 Y103.950 E14.75360
G1 X91.336 Y96.050 E15.28136
G1 X91.733 Y93.865 E15.42971
G1 X92.842 Y92.011 E15.57405
G1 X93.402 Y92.172 F30000.000
G1 F2100
G1 X95.116 Y90.920 E15.71580
G1 X97.550 Y90.372 E15.88250
G1 X102.450 Y90.372 E16.20984
G1 X104.535 Y90.768 E16.35160
G1 X106.328 Y91.902 E16.49335
G1 X107.580 Y93.616 E16.63511
G1 X108.128 Y96.050 E16.80180
G1 X108.128 Y103.950 E17.32957
G1 X107.732 Y106.035 E17.47132
G1 X106.598 Y107.828 E17.61308
G1 X104.884 Y109.080 E17.75483
G1 X102.450 Y109.628 E17.92153
G1 X97.550 Y109.628 E18.24887
G1 X95.465 Y109.232 E18.39063
G1 X93.672 Y108.098 E18.53238
G1 X92.420 Y106.384 E18.67414
G1 X91.872 Y103.950 E18.84084
G1 X91.872 Y96.050 E19.36860
G1 X92.268 Y93.965 E19.51035
G1 X93.370 Y92.223 E19.64810
G1 X93.931 Y92.397 F30000.000
G1 F2100
G1 X95.616 Y91.285 E19.78294
G1 X97.550 Y90.908 E19.91460
G1 X102.450 Y90.908 E20.24194
G1 X104.429 Y91.304 E20.37678
G1 X106.103 Y92.431 E20.51162
G1 X107.215 Y94.116 E20.64646
G1 X107.592 Y96.050 E20.77812
G1 X107.592 Y103.950 E21.30588
G1 X107.196 Y105.929 E21.44072
G1 X106.069 Y107.603 E21.57556
G1 X104.384 Y108.715 E21.71041
G1 X102.450 Y109.092 E21.84206
G1 X97.550 Y109.092 E22.16941
G1 X95.571 Y108.696 E22.30425
G1 X93.897 Y107.569 E22.43909
G1 X92.785 Y105.884 E22.57393
G1 X92.408 Y103.950 E22.70559
G1 X92.408 Y96.050 E23.23335
G1 X92.804 Y94.071 E23.36819
G1 X93.897 Y92.446 E23.49902
G1 X94.458 Y92.635 F30000.000
G1 F2100
G1 X96.108 Y91.675 E23.62657
G1 X97.550 Y91.443 E23.72414
G1 X102.450 Y91.443 E24.05149
G1 X104.318 Y91.839 E24.17904
G1 X105.865 Y92.958 E24.30659
G1 X106.825 Y94.608 E24.43415
G1 X107.057 Y96.050 E24.53172
G1 X107.057 Y103.950 E25.05948
G1 X106.661 Y105.818 E25.18703
G1 X105.542 Y107.365 E25.31458
G1 X103.892 Y108.325 E25.44214
G1 X102.450 Y108.557 E25.53971
G1 X97.550 Y108.557 E25.86705
G1 X95.682 Y108.161 E25.99460
G1 X94.135 Y107.042 E26.12216
G1 X93.175 Y105.392 E26.24971
G1 X92.943 Y103.950 E26.34728
G1 X92.943 Y96.050 E26.87504
G1 X93.339 Y94.182 E27.00259
G1 X94.423 Y92.684 E27.12614
G1 X94.982 Y92.890 F30000.000
G1 F2100
G1 X96.589 Y92.094 E27.24596
G1 X97.550 Y91.979 E27.31060
G1 X102.450 Y91.979 E27.63794
G1 X104.200 Y92.374 E27.75776
G1 X105.610 Y93.482 E27.87759
G1 X106.406 Y95.089 E27.99741
G1 X106.521 Y96.050 E28.06204
G1 X106.521 Y103.950 E28.58981
G1 X106.126 Y105.700 E28.70963
G1 X105.018 Y107.110 E28.82945
G1 X103.411 Y107.906 E28.94927
G1 X102.450 Y108.021 E29.01391
G1 X97.550 Y108.021 E29.34125
G1 X95.800 Y107.626 E29.46108
G1 X94.390 Y106.518 E29.58090
G1 X93.594 Y104.911 E29.70072
G1 X93.479 Y103.950 E29.76535
G1 X93.479 Y96.050 E30.29312
G1 X93.874 Y94.300 E30.41294
G1 X94.945 Y92.938 E30.52875
G1 X95.504 Y93.167 F30000.000
G1 F2100
G1 X97.550 Y92.514 E30.67223
G1 X102.450 Y92.514 E30.99957
G1 X104.073 Y92.909 E31.11113
G1 X105.333 Y94.004 E31.22269
G1 X105.986 Y96.050 E31.36616
G1 X105.986 Y103.950 E31.89393
G1 X105.591 Y105.573 E32.00548
G1 X104.496 Y106.833 E32.11704
G1 X102.450 Y107.486 E32.26052
G1 X97.550 Y107.486 E32.58786
G1 X95.927 Y107.091 E32.69942
G1 X94.667 Y105.996 E32.81098
G1 X94.014 Y103.950 E32.95445
G1 X94.014 Y96.050 E33.48222
G1 X94.409 Y94.427 E33.59377
G1 X95.464 Y93.212 E33.70132
G1 X96.024 Y93.687 F30000.000
G1 F2100
G1 X96.411 Y93.301 E33.74225
G1 X103.589 Y93.301 E34.27939
G1 X105.199 Y94.911 E34.44984
G1 X105.199 Y105.089 E35.21149
G1 X103.589 Y106.699 E35.38194
G1 X96.411 Y106.699 E35.91908
G1 X94.801 Y105.089 E36.08953
G1 X94.801 Y94.911 E36.85118
G1 X95.982 Y93.730 E36.97621
G1 X96.449 Y94.112 F30000.000
G1 F2100
G1 X96.660 Y93.901 E36.99854
G1 X103.340 Y93.901 E37.49848
G1 X104.599 Y95.160 E37.63174
G1 X104.599 Y104.840 E38.35619
G1 X103.340 Y106.099 E38.48944
G1 X96.660 Y106.099 E38.98938
G1 X95.401 Y104.840 E39.12264
G1 X95.401 Y95.160 E39.84709
G1 X96.406 Y94.154 E39.95352
G1 X96.873 Y94.536 F30000.000
G1 F2100
G1 X96.908 Y94.501 E39.95725
G1 X103.092 Y94.501 E40.42000
G1 X103.999 Y95.408 E40.51605
G1 X103.999 Y104.592 E41.20331
G1 X103.092 Y105.499 E41.29936
G1 X96.908 Y105.499 E41.76211
G1 X96.001 Y104.592 E41.85816
G1 X96.001 Y95.408 E42.54542
G1 X96.831 Y94.578 E42.63325
G1 X97.157 Y95.101 F30000.000
G1 F2100
G1 X102.843 Y95.101 E43.05880
G1 X103.399 Y95.657 E43.11766
G1 X103.399 Y104.343 E43.76772
G1 X102.843 Y104.899 E43.82657
G1 X97.157 Y104.899 E44.25212
G1 X96.601 Y104.343 E44.31098
G1 X96.601 Y95.657 E44.96104
G1 X97.114 Y95.143 E45.01541
G1 E43.01541 F2400.00000
G92 E0
G1 X104.450 Y94.050 F30000.000
G1 X102.799 Y95.905 F30000.000
G1 E2.00000 F2400.00000
G1 F2100
G1 X102.799 Y104.095 E2.61286
G1 X102.595 Y104.299 E2.63452
G1 X97.405 Y104.299 E3.02287
G1 X97.201 Y104.095 E3.04453
G1 X97.201 Y95.905 E3.65739
G1 X97.405 Y95.701 E3.67905
G1 X102.595 Y95.701 E4.06740
G1 X102.757 Y95.863 E4.08457
G1 E2.08457 F2400.00000
G92 E0
G1 X102.150 Y103.650 F30000.000
G1 E2.00000 F2400.00000
G1 F2100
G1 X97.850 Y103.650 E2.28726
G1 X97.850 Y96.350 E2.77494
G1 X102.150 Y96.350 E3.06221
G1 X102.150 Y103.590 E3.54588
G1 X101.774 Y103.514 F30000.000
G1 X101.614 Y103.114 F30000.000
G1 F2100
G1 X98.386 Y103.114 E3.76158
G1 X98.386 Y96.886 E4.17769
G1 X101.614 Y96.886 E4.39339
G1 X101.614 Y103.054 E4.80550
G1 X101.022 Y102.636 F30000.000
G1 F2100
G1 X101.136 Y102.522 E4.81703
G1 X101.136 Y101.709 E4.87529
G1 X100.209 Y102.636 E4.96921
G1 X99.396 Y102.636 E5.02747
G1 X101.136 Y100.896 E5.20378
G1 X101.136 Y100.084 E5.26204
G1 X98.864 Y102.355 E5.49228
G1 X98.864 Y101.542 E5.55054
G1 X101.136 Y99.271 E5.78077
G1 X101.136 Y98.458 E5.83903
G1 X98.864 Y100.729 E6.06927
G1 X98.864 Y99.916 E6.12753
G1 X101.136 Y97.645 E6.35776
G1 X101.136 Y97.364 E6.37789
G1 X100.604 Y97.364 E6.41602
G1 X98.864 Y99.104 E6.59233
G1 X98.864 Y98.291 E6.65059
G1 X99.791 Y97.364 E6.74452
G1 X98.978 Y97.364 E6.80278
G1 X98.865 Y97.478 E6.81429
G1 Z0.500 F30000.000
G1 X101.853 Y103.353 F30000.000
G1 F600
G1 X98.147 Y103.353 E6.92433
G1 X98.147 Y96.647 E7.12343
G1 X101.853 Y96.647 E7.23346
G1 X101.853 Y103.293 E7.43079
G1 X102.230 Y103.730 F30000.000
G1 F1500
G1 X97.770 Y103.730 E7.57804
G1 X97.770 Y96.270 E7.82435
G1 X102.230 Y96.270 E7.97161
G1 X102.230 Y103.670 E8.21594
G1 X101.853 Y103.595 F30000.000
G1 X98.556 Y102.847 F30000.000
G1 F1279.43
G1 X98.653 Y102.944 E8.22287
G1 X99.511 Y102.944 E8.26618
G1 X98.556 Y101.989 E8.33437
G1 X98.556 Y101.131 E8.37769
G1 X100.369 Y102.944 E8.50713
G1 X101.228 Y102.944 E8.55045
G1 X98.556 Y100.272 E8.74115
G1 X98.556 Y99.414 E8.78447
G1 X101.444 Y102.303 E8.99063
G1 X101.444 Y101.444 E9.03395
G1 X98.556 Y98.556 E9.24011
G1 X98.556 Y97.697 E9.28343
G1 X101.444 Y100.586 E9.48959
G1 X101.444 Y99.728 E9.53291
G1 X98.772 Y97.056 E9.72361
G1 X99.631 Y97.056 E9.76692
G1 X101.444 Y98.869 E9.89637
G1 X101.444 Y98.011 E9.93969
G1 X100.489 Y97.056 E10.00787
G1 X101.347 Y97.056 E10.05119
G1 X101.444 Y97.153 E10.05812
G1 Z0.700 F30000.000
G1 X101.853 Y103.353 F30000.000
G1 F600
G1 X98.147 Y103.353 E10.16815
G1 X98.147 Y96.647 E10.36725
G1 X101.853 Y96.647 E10.47729
G1 X101.853 Y103.293 E10.67461
G1 X102.230 Y103.730 F30000.000
G1 F1500
G1 X97.770 Y103.730 E10.82187
G1 X97.770 Y96.270 E11.06818
G1 X102.230 Y96.270 E11.21543
G1 X102.230 Y103.670 E11.45976
G1 X101.853 Y103.595 F30000.000
G1 X101.347 Y102.944 F30000.000
G1 F1279.43
G1 X101.444 Y102.847 E11.46669
G1 X101.444 Y101.989 E11.51001
G1 X100.489 Y102.944 E11.57820
G1 X99.631 Y102.944 E11.62151
G1 X101.444 Y101.131 E11.75096
G1 X101.444 Y100.272 E11.79427
G1 X98.772 Y102.944 E11.98497
G1 X98.556 Y102.944 E11.99591
G1 X98.556 Y102.303 E12.02829
G1 X101.444 Y99.414 E12.23445
G1 X101.444 Y98.556 E12.27777
G1 X98.556 Y101.444 E12.48393
G1 X98.556 Y100.586 E12.52725
G1 X101.444 Y97.697 E12.73341
G1 X101.444 Y97.056 E12.76580
G1 X101.228 Y97.056 E12.77673
G1 X98.556 Y99.728 E12.96743
G1 X98.556 Y98.869 E13.01075
G1 X100.369 Y97.056 E13.14019
G1 X99.511 Y97.056 E13.18351
G1 X98.556 Y98.011 E13.25170
G1 X98.556 Y97.153 E13.29501
G1 X98.653 Y97.056 E13.30194
M106 S255
G1 Z0.900 F30000.000
G1 X101.853 Y103.353 F30000.000
G1 F600
G1 X98.147 Y103.353 E13.41197
G1 X98.147 Y96.647 E13.61108
G1 X101.853 Y96.647 E13.72111
G1 X101.853 Y103.293 E13.91843
G1 X102.230 Y103.730 F30000.000
G1 F1500
G1 X97.770 Y103.730 E14.06569
G1 X97.770 Y96.270 E14.31200
G1 X102.230 Y96.270 E14.45926
G1 X102.230 Y103.670 E14.70358
G1 X101.853 Y103.595 F30000.000
G1 X98.556 Y102.847 F30000.000
G1 F1279.43
G1 X98.653 Y102.944 E14.71051
G1 X99.511 Y102.944 E14.75383
G1 X98.556 Y101.989 E14.82202
G1 X98.556 Y101.131 E14.86533
G1 X100.369 Y102.944 E14.99478
G1 X101.228 Y102.944 E15.03809
G1 X98.556 Y100.272 E15.22880
G1 X98.556 Y99.414 E15.27211
G1 X101.444 Y102.303 E15.47828
G1 X101.444 Y101.444 E15.52159
G1 X98.556 Y98.556 E15.72776
G1 X98.556 Y97.697 E15.77107
G1 X101.444 Y100.586 E15.97724
G1 X101.444 Y99.728 E16.02055
G1 X98.772 Y97.056 E16.21125
G1 X99.631 Y97.056 E16.25457
G1 X101.444 Y98.869 E16.38402
G1 X101.444 Y98.011 E16.42733
G1 X100.489 Y97.056 E16.49552
G1 X101.347 Y97.056 E16.53883
G1 X101.444 Y97.153 E16.54576
G1 Z1.100 F30000.000
G1 X101.853 Y103.353 F30000.000
G1 F1032.83
G1 X98.147 Y103.353 E16.65580
G1 X98.147 Y96.647 E16.85490
G1 X101.853 Y96.647 E16.96493
G1 X101.853 Y103.293 E17.16226
G1 X102.230 Y103.730 F30000.000
G1 F1500
G1 X97.770 Y103.730 E17.30951
G1 X97.770 Y96.270 E17.55582
G1 X102.230 Y96.270 E17.70308
G1 X102.230 Y103.670 E17.94741
G1 X101.853 Y103.595 F30000.000
G1 X101.458 Y103.034 F30000.000
G1 F1239.4
G1 X101.534 Y102.958 E17.95074
G1 X101.534 Y102.429 E17.96716
G1 X100.929 Y103.034 E17.99371
G1 X100.401 Y103.034 E18.01013
G1 X101.534 Y101.901 E18.05990
G1 X101.534 Y101.373 E18.07632
G1 X99.873 Y103.034 E18.14931
G1 X99.344 Y103.034 E18.16572
G1 X101.534 Y100.844 E18.26193
G1 X101.534 Y100.316 E18.27835
G1 X98.816 Y103.034 E18.39777
G1 X98.466 Y103.034 E18.40863
G1 X98.466 Y102.855 E18.41419
G1 X101.534 Y99.787 E18.54897
G1 X101.534 Y99.259 E18.56539
G1 X98.466 Y102.326 E18.70017
G1 X98.466 Y101.798 E18.71658
G1 X101.534 Y98.730 E18.85136
G1 X101.534 Y98.202 E18.86778
G1 X98.466 Y101.270 E19.00256
G1 X98.466 Y100.741 E19.01898
G1 X101.534 Y97.674 E19.15376
G1 X101.534 Y97.145 E19.17018
G1 X98.466 Y100.213 E19.30496
G1 X98.466 Y99.684 E19.32137
G1 X101.184 Y96.966 E19.44080
G1 X100.656 Y96.966 E19.45722
G1 X98.466 Y99.156 E19.55342
G1 X98.466 Y98.627 E19.56984
G1 X100.127 Y96.966 E19.64283
G1 X99.599 Y96.966 E19.65925
G1 X98.466 Y98.099 E19.70902
G1 X98.466 Y97.571 E19.72544
G1 X99.071 Y96.966 E19.75199
G1 X98.542 Y96.966 E19.76841
G1 X98.466 Y97.042 E19.77174
G1 Z1.300 F30000.000
G1 E17.77174 F2400.00000
G92 E0
G1 X101.853 Y103.353 F30000.000
G1 E2.00000 F2400.00000
G1 F760.156
G1 X101.159 Y103.353 E2.02060
G1 X101.159 Y96.647 E2.21970
G1 X101.853 Y96.647 E2.24030
G1 X101.853 Y103.293 E2.43762
G1 X102.230 Y103.730 F30000.000
G1 F1500
G1 X100.782 Y103.730 E2.48543
G1 X100.782 Y96.270 E2.73174
G1 X102.230 Y96.270 E2.77954
G1 X102.230 Y103.670 E3.02387
G1 X101.872 Y103.553 F30000.000
G1 X101.506 Y103.174 F30000.000
G1 F608.125
G1 X101.506 Y96.826 E3.17892
G1 E1.17892 F2400.00000
G92 E0
G1 X104.450 Y105.950 F30000.000
G1 X98.841 Y103.353 F30000.000
G1 E2.00000 F2400.00000
G1 F760.156
G1 X98.147 Y103.353 E2.02060
G1 X98.147 Y96.647 E2.21970
G1 X98.841 Y96.647 E2.24030
G1 X98.841 Y103.293 E2.43762
G1 X99.218 Y103.730 F30000.000
G1 F1500
G1 X97.770 Y103.730 E2.48543
G1 X97.770 Y96.270 E2.73174
G1 X99.218 Y96.270 E2.77954
G1 X99.218 Y103.670 E3.02387
G1 X98.859 Y103.553 F30000.000
G1 X98.494 Y103.174 F30000.000
G1 F608.125
G1 X98.494 Y96.826 E3.17892
G1 Z1.500 F30000.000
G1 E1.17892 F2400.00000
G92 E0
G1 X101.510 Y103.353 F30000.000
G1 E2.00000 F2400.00000
G1 F746.183
G1 X101.510 Y96.647 E2.19911
G1 X101.853 Y96.647 E2.20928
G1 X101.853 Y103.353 E2.40839
G1 X101.570 Y103.353 E2.41678
G1 X101.133 Y103.730 F30000.000
G1 F746.183
G1 X101.133 Y96.270 E2.66309
G1 X102.230 Y96.270 E2.69931
G1 X102.230 Y103.730 E2.94562
G1 X101.193 Y103.730 E2.97985
G1 X101.153 Y103.330 F30000.000
G1 E0.97985 F2400.00000
G92 E0
G1 X95.550 Y105.950 F30000.000
G1 X98.490 Y103.353 F30000.000
G1 E2.00000 F2400.00000
G1 F746.183
G1 X98.147 Y103.353 E2.01018
G1 X98.147 Y96.647 E2.20928
G1 X98.490 Y96.647 E2.21946
G1 X98.490 Y103.293 E2.41678
G1 X98.867 Y103.730 F30000.000
G1 F746.183
G1 X97.770 Y103.730 E2.45300
G1 X97.770 Y96.270 E2.69931
G1 X98.867 Y96.270 E2.73552
G1 X98.867 Y103.670 E2.97985
G1 X98.511 Y103.547 F30000.000
G1 Z1.700 F30000.000
G1 E0.97985 F2400.00000
G92 E0
G1 X101.339 Y103.730 F30000.000
G1 E2.00000 F2400.00000
G1 F611.904
G1 X101.339 Y96.270 E2.24631
G1 X102.230 Y96.270 E2.27573
G1 X102.230 Y103.730 E2.52204
G1 X101.399 Y103.730 E2.54948
G1 X101.355 Y103.330 F30000.000
G1 X101.784 Y103.541 F30000.000
G1 F600
G1 X101.784 Y96.459 E2.82698
G1 E0.82698 F2400.00000
G92 E0
G1 X104.450 Y105.950 F30000.000
G1 X98.661 Y103.730 F30000.000
G1 E2.00000 F2400.00000
G1 F611.904
G1 X97.770 Y103.730 E2.02942
G1 X97.770 Y96.270 E2.27573
G1 X98.661 Y96.270 E2.30516
G1 X98.661 Y103.670 E2.54948
G1 X98.307 Y103.544 F30000.000
G1 X98.216 Y103.541 F30000.000
G1 F600
G1 X98.216 Y96.459 E2.82697
G1 Z1.900 F30000.000
G1 E0.82697 F2400.00000
G92 E0
G1 X101.481 Y103.730 F30000.000
G1 E2.00000 F2400.00000
G1 F605.098
G1 X101.481 Y96.270 E2.24631
G1 X102.230 Y96.270 E2.27105
G1 X102.230 Y103.730 E2.51736
G1 X101.541 Y103.730 E2.54012
