; generated by Slic3r 1.3.0 on 2020-04-11 at 09:59:40

; external perimeters extrusion width = 0.44mm (2.78mm^3/s)
; perimeters extrusion width = 0.40mm (7.14mm^3/s)
; infill extrusion width = 0.50mm (10.97mm^3/s)
; solid infill extrusion width = 0.60mm (6.68mm^3/s)
; top infill extrusion width = 0.40mm (2.14mm^3/s)

M107
M190 S80 ; set bed temperature and wait for it to be reached
M104 S200 ; set temperature
G28 ; home all axes
G1 Z5 F5000 ; lift nozzle

; Filament gcode

M109 S200 ; set temperature and wait for it to be reached
G21 ; set units to millimeters
G90 ; use absolute coordinates
M82 ; use absolute distances for extrusion
G92 E0
G1 Z0.300 F30000.000
G1 E-2.00000 F2400.00000
G92 E0
G1 X91.811 Y91.063 F30000.000
G1 E2.00000 F2400.00000
G1 F2100
G1 X93.585 Y89.439 E2.16072
G1 X95.792 Y88.480 E2.32144
G1 X97.550 Y88.265 E2.43977
G1 X102.450 Y88.265 E2.76712
G1 X104.823 Y88.662 E2.92784
G1 X106.937 Y89.811 E3.08856
G1 X108.561 Y91.585 E3.24928
G1 X109.520 Y93.792 E3.41001
G1 X109.735 Y95.550 E3.52833
G1 X109.735 Y104.450 E4.12290
G1 X109.338 Y106.823 E4.28362
G1 X108.189 Y108.937 E4.44435
G1 X106.415 Y110.561 E4.60507
G1 X104.208 Y111.520 E4.76579
G1 X102.450 Y111.735 E4.88412
G1 X97.550 Y111.735 E5.21146
G1 X95.177 Y111.338 E5.37218
G1 X93.063 Y110.189 E5.53291
G1 X91.439 Y108.415 E5.69363
G1 X90.480 Y106.208 E5.85435
G1 X90.265 Y104.450 E5.97268
G1 X90.265 Y95.550 E6.56725
G1 X90.662 Y93.177 E6.72797
G1 X91.782 Y91.116 E6.88468
G1 X92.342 Y91.257 F30000.000
G1 F2100
G1 X94.099 Y89.750 E7.03934
G1 X96.262 Y88.925 E7.19400
G1 X97.550 Y88.801 E7.28042
G1 X102.450 Y88.801 E7.60777
G1 X104.731 Y89.198 E7.76242
G1 X106.743 Y90.342 E7.91708
G1 X108.250 Y92.099 E8.07174
G1 X109.075 Y94.262 E8.22640
G1 X109.199 Y95.550 E8.31282
G1 X109.199 Y104.450 E8.90739
G1 X108.802 Y106.731 E9.06205
G1 X107.658 Y108.743 E9.21670
G1 X105.901 Y110.250 E9.37136
G1 X103.738 Y111.075 E9.52602
G1 X102.450 Y111.199 E9.61244
G1 X97.550 Y111.199 E9.93979
G1 X95.269 Y110.802 E10.09445
G1 X93.257 Y109.658 E10.24910
G1 X91.750 Y107.901 E10.40376
G1 X90.925 Y105.738 E10.55842
G1 X90.801 Y104.450 E10.64484
G1 X90.801 Y95.550 E11.23941
G1 X91.198 Y93.269 E11.39407
G1 X92.312 Y91.309 E11.54472
G1 X92.873 Y91.459 F30000.000
G1 F2100
G1 X94.610 Y90.076 E11.69306
G1 X97.550 Y89.336 E11.89561
G1 X102.450 Y89.336 E12.22295
G1 X104.635 Y89.733 E12.37130
G1 X106.541 Y90.873 E12.51965
G1 X107.924 Y92.610 E12.66800
G1 X108.664 Y95.550 E12.87054
G1 X108.664 Y104.450 E13.46511
G1 X108.267 Y106.635 E13.61346
G1 X107.127 Y108.541 E13.76180
G1 X105.390 Y109.924 E13.91015
G1 X102.450 Y110.664 E14.11269
G1 X97.550 Y110.664 E14.44004
G1 X95.365 Y110.267 E14.58839
G1 X93.459 Y109.127 E14.73673
G1 X92.076 Y107.390 E14.88508
G1 X91.336 Y104.450 E15.08763
G1 X91.336 Y95.550 E15.68219
G1 X91.733 Y93.365 E15.83054
G1 X92.842 Y91.511 E15.97488
G1 X93.402 Y91.672 F30000.000
G1 F2100
G1 X95.116 Y90.420 E16.11663
G1 X97.550 Y89.872 E16.28333
G1 X102.450 Y89.872 E16.61068
G1 X104.535 Y90.268 E16.75243
G1 X106.328 Y91.402 E16.89419
G1 X107.580 Y93.116 E17.03594
G1 X108.128 Y95.550 E17.20264
G1 X108.128 Y104.450 E17.79721
G1 X107.732 Y106.535 E17.93896
G1 X106.598 Y108.328 E18.08071
G1 X104.884 Y109.580 E18.22247
G1 X102.450 Y110.128 E18.38917
G1 X97.550 Y110.128 E18.71651
G1 X95.465 Y109.732 E18.85827
G1 X93.672 Y108.598 E19.00002
G1 X92.420 Y106.884 E19.14178
G1 X91.872 Y104.450 E19.30847
G1 X91.872 Y95.550 E19.90304
G1 X92.268 Y93.465 E20.04480
G1 X93.370 Y91.723 E20.18254
G1 X93.931 Y91.897 F30000.000
G1 F2100
G1 X95.616 Y90.785 E20.31738
G1 X97.550 Y90.408 E20.44904
G1 X102.450 Y90.408 E20.77639
G1 X104.429 Y90.804 E20.91123
G1 X106.103 Y91.931 E21.04607
G1 X107.215 Y93.616 E21.18091
G1 X107.592 Y95.550 E21.31256
G1 X107.592 Y104.450 E21.90713
G1 X107.196 Y106.429 E22.04197
G1 X106.069 Y108.103 E22.17681
G1 X104.384 Y109.215 E22.31165
G1 X102.450 Y109.592 E22.44331
G1 X97.550 Y109.592 E22.77066
G1 X95.571 Y109.196 E22.90550
G1 X93.897 Y108.069 E23.04034
G1 X92.785 Y106.384 E23.17518
G1 X92.408 Y104.450 E23.30683
G1 X92.408 Y95.550 E23.90140
G1 X92.804 Y93.571 E24.03624
G1 X93.897 Y91.946 E24.16708
G1 X94.458 Y92.135 F30000.000
G1 F2100
G1 X96.108 Y91.175 E24.29463
G1 X97.550 Y90.943 E24.39220
G1 X102.450 Y90.943 E24.71954
G1 X104.318 Y91.339 E24.84710
G1 X105.865 Y92.458 E24.97465
G1 X106.825 Y94.108 E25.10220
G1 X107.057 Y95.550 E25.19977
G1 X107.057 Y104.450 E25.79434
G1 X106.661 Y106.318 E25.92189
G1 X105.542 Y107.865 E26.04944
G1 X103.892 Y108.825 E26.17700
G1 X102.450 Y109.057 E26.27457
G1 X97.550 Y109.057 E26.60191
G1 X95.682 Y108.661 E26.72946
G1 X94.135 Y107.542 E26.85702
G1 X93.175 Y105.892 E26.98457
G1 X92.943 Y104.450 E27.08214
G1 X92.943 Y95.550 E27.67671
G1 X93.339 Y93.682 E27.80426
G1 X94.423 Y92.184 E27.92780
G1 X94.982 Y92.390 F30000.000
G1 F2100
G1 X96.589 Y91.594 E28.04763
G1 X97.550 Y91.479 E28.11226
G1 X102.450 Y91.479 E28.43961
G1 X104.200 Y91.874 E28.55943
G1 X105.610 Y92.982 E28.67925
G1 X106.406 Y94.589 E28.79907
G1 X106.521 Y95.550 E28.86371
G1 X106.521 Y104.450 E29.45828
G1 X106.126 Y106.200 E29.57810
G1 X105.018 Y107.610 E29.69792
G1 X103.411 Y108.406 E29.81774
G1 X102.450 Y108.521 E29.88238
G1 X97.550 Y108.521 E30.20972
G1 X95.800 Y108.126 E30.32955
G1 X94.390 Y107.018 E30.44937
G1 X93.594 Y105.411 E30.56919
G1 X93.479 Y104.450 E30.63382
G1 X93.479 Y95.550 E31.22839
G1 X93.874 Y93.800 E31.34821
G1 X94.945 Y92.438 E31.46403
G1 X95.504 Y92.667 F30000.000
G1 F2100
G1 X97.550 Y92.014 E31.60750
G1 X102.450 Y92.014 E31.93485
G1 X104.073 Y92.409 E32.04641
G1 X105.333 Y93.504 E32.15796
G1 X105.986 Y95.550 E32.30144
G1 X105.986 Y104.450 E32.89601
G1 X105.591 Y106.073 E33.00757
G1 X104.496 Y107.333 E33.11912
G1 X102.450 Y107.986 E33.26260
G1 X97.550 Y107.986 E33.58994
G1 X95.927 Y107.591 E33.70150
G1 X94.667 Y106.496 E33.81306
G1 X94.014 Y104.450 E33.95653
G1 X94.014 Y95.550 E34.55110
G1 X94.409 Y93.927 E34.66266
G1 X95.464 Y92.712 E34.77021
G1 X96.024 Y93.187 F30000.000
G1 F2100
G1 X96.411 Y92.801 E34.81113
G1 X103.589 Y92.801 E35.34828
G1 X105.199 Y94.411 E35.51873
G1 X105.199 Y105.589 E36.35521
G1 X103.589 Y107.199 E36.52566
G1 X96.411 Y107.199 E37.06280
G1 X94.801 Y105.589 E37.23325
G1 X94.801 Y94.411 E38.06974
G1 X95.982 Y93.230 E38.19477
G1 X96.449 Y93.612 F30000.000
G1 F2100
G1 X96.660 Y93.401 E38.21710
G1 X103.340 Y93.401 E38.71704
G1 X104.599 Y94.660 E38.85029
G1 X104.599 Y105.340 E39.64958
G1 X103.340 Y106.599 E39.78283
G1 X96.660 Y106.599 E40.28278
G1 X95.401 Y105.340 E40.41603
G1 X95.401 Y94.660 E41.21531
G1 X96.406 Y93.654 E41.32175
G1 X96.873 Y94.036 F30000.000
G1 F2100
G1 X96.908 Y94.001 E41.32548
G1 X103.092 Y94.001 E41.78823
G1 X103.999 Y94.908 E41.88428
G1 X103.999 Y105.092 E42.64637
G1 X103.092 Y105.999 E42.74242
G1 X96.908 Y105.999 E43.20517
G1 X96.001 Y105.092 E43.30123
G1 X96.001 Y94.908 E44.06332
G1 X96.831 Y94.078 E44.15115
G1 X97.157 Y94.601 F30000.000
G1 F2100
G1 X102.843 Y94.601 E44.57670
G1 X103.399 Y95.157 E44.63556
G1 X103.399 Y104.843 E45.36045
G1 X102.843 Y105.399 E45.41931
G1 X97.157 Y105.399 E45.84486
G1 X96.601 Y104.843 E45.90372
G1 X96.601 Y95.157 E46.62861
G1 X97.114 Y94.643 E46.68297
G1 E44.68297 F2400.00000
G92 E0
G1 X104.450 Y93.550 F30000.000
G1 X102.799 Y95.405 F30000.000
G1 E2.00000 F2400.00000
G1 F2100
G1 X102.799 Y104.595 E2.68769
G1 X102.595 Y104.799 E2.70935
G1 X97.405 Y104.799 E3.09771
G1 X97.201 Y104.595 E3.11937
G1 X97.201 Y95.405 E3.80706
G1 X97.405 Y95.201 E3.82872
G1 X102.595 Y95.201 E4.21707
G1 X102.757 Y95.363 E4.23424
G1 E2.23424 F2400.00000
G92 E0
G1 X102.150 Y104.150 F30000.000
G1 E2.00000 F2400.00000
G1 F2100
G1 X97.850 Y104.150 E2.28726
G1 X97.850 Y95.850 E2.84175
G1 X102.150 Y95.850 E3.12901
G1 X102.150 Y104.090 E3.67949
G1 X101.776 Y104.007 F30000.000
G1 X101.614 Y103.614 F30000.000
G1 F2100
G1 X98.386 Y103.614 E3.89519
G1 X98.386 Y96.386 E4.37811
G1 X101.614 Y96.386 E4.59381
G1 X101.614 Y103.554 E5.07272
G1 X101.022 Y103.136 F30000.000
G1 F2100
G1 X101.136 Y103.022 E5.08452
G1 X101.136 Y102.190 E5.14549
G1 X100.190 Y103.136 E5.24352
G1 X99.359 Y103.136 E5.30449
G1 X101.136 Y101.359 E5.48875
G1 X101.136 Y100.527 E5.54973
G1 X98.864 Y102.799 E5.78527
G1 X98.864 Y101.967 E5.84624
G1 X101.136 Y99.696 E6.08178
G1 X101.136 Y98.864 E6.14275
G1 X98.864 Y101.136 E6.37829
G1 X98.864 Y100.304 E6.43927
G1 X101.136 Y98.033 E6.67481
G1 X101.136 Y97.201 E6.73578
G1 X98.864 Y99.473 E6.97132
G1 X98.864 Y98.641 E7.03229
G1 X100.641 Y96.864 E7.21655
G1 X99.810 Y96.864 E7.27753
G1 X98.864 Y97.810 E7.37556
G1 X98.864 Y96.978 E7.43653
G1 X98.978 Y96.864 E7.44833
G1 Z0.500 F30000.000
G1 X101.853 Y103.853 F30000.000
G1 F625.458
G1 X98.147 Y103.853 E7.55836
G1 X98.147 Y96.147 E7.78716
G1 X101.853 Y96.147 E7.89719
G1 X101.853 Y103.793 E8.12421
G1 X102.230 Y104.230 F30000.000
G1 F1500
G1 X97.770 Y104.230 E8.27146
G1 X97.770 Y95.770 E8.55079
G1 X102.230 Y95.770 E8.69805
G1 X102.230 Y104.170 E8.97539
G1 X101.856 Y104.088 F30000.000
G1 X98.556 Y103.347 F30000.000
G1 F1501.1
G1 X98.653 Y103.444 E8.98184
G1 X99.451 Y103.444 E9.01934
G1 X98.556 Y102.549 E9.07882
G1 X98.556 Y101.750 E9.11632
G1 X100.250 Y103.444 E9.22882
G1 X101.049 Y103.444 E9.26632
G1 X98.556 Y100.951 E9.43186
G1 X98.556 Y100.153 E9.46936
G1 X101.444 Y103.042 E9.66118
G1 X101.444 Y102.243 E9.69867
G1 X98.556 Y99.354 E9.89049
G1 X98.556 Y98.556 E9.92799
G1 X101.444 Y101.444 E10.11981
G1 X101.444 Y100.646 E10.15731
G1 X98.556 Y97.757 E10.34913
G1 X98.556 Y96.958 E10.38662
G1 X101.444 Y99.847 E10.57844
G1 X101.444 Y99.049 E10.61594
G1 X98.951 Y96.556 E10.78148
G1 X99.750 Y96.556 E10.81898
G1 X101.444 Y98.250 E10.93148
G1 X101.444 Y97.451 E10.96898
G1 X100.549 Y96.556 E11.02846
G1 X101.347 Y96.556 E11.06596
G1 X101.444 Y96.653 E11.07240
G1 Z0.700 F30000.000
G1 X101.853 Y103.853 F30000.000
G1 F625.458
G1 X98.147 Y103.853 E11.18244
G1 X98.147 Y96.147 E11.41123
G1 X101.853 Y96.147 E11.52126
G1 X101.853 Y103.793 E11.74828
G1 X102.230 Y104.230 F30000.000
G1 F1500
G1 X97.770 Y104.230 E11.89554
G1 X97.770 Y95.770 E12.17486
G1 X102.230 Y95.770 E12.32212
G1 X102.230 Y104.170 E12.59946
G1 X101.856 Y104.088 F30000.000
G1 X101.347 Y103.444 F30000.000
G1 F1501.1
G1 X101.444 Y103.347 E12.60591
G1 X101.444 Y102.549 E12.64341
G1 X100.549 Y103.444 E12.70289
G1 X99.750 Y103.444 E12.74039
G1 X101.444 Y101.750 E12.85289
G1 X101.444 Y100.951 E12.89039
G1 X98.951 Y103.444 E13.05593
G1 X98.556 Y103.444 E13.07451
G1 X98.556 Y103.042 E13.09342
G1 X101.444 Y100.153 E13.28524
G1 X101.444 Y99.354 E13.32274
G1 X98.556 Y102.243 E13.51456
G1 X98.556 Y101.444 E13.55206
G1 X101.444 Y98.556 E13.74388
G1 X101.444 Y97.757 E13.78138
G1 X98.556 Y100.646 E13.97319
G1 X98.556 Y99.847 E14.01069
G1 X101.444 Y96.958 E14.20251
G1 X101.444 Y96.556 E14.22142
G1 X101.049 Y96.556 E14.24001
G1 X98.556 Y99.049 E14.40555
G1 X98.556 Y98.250 E14.44304
G1 X100.250 Y96.556 E14.55555
G1 X99.451 Y96.556 E14.59305
G1 X98.556 Y97.451 E14.65253
G1 X98.556 Y96.653 E14.69003
G1 X98.653 Y96.556 E14.69647
M106 S255
G1 Z0.900 F30000.000
G1 X101.853 Y103.853 F30000.000
G1 F625.458
G1 X98.147 Y103.853 E14.80651
G1 X98.147 Y96.147 E15.03530
G1 X101.853 Y96.147 E15.14533
G1 X101.853 Y103.793 E15.37235
G1 X102.230 Y104.230 F30000.000
G1 F1500
G1 X97.770 Y104.230 E15.51961
G1 X97.770 Y95.770 E15.79893
G1 X102.230 Y95.770 E15.94619
G1 X102.230 Y104.170 E16.22354
G1 X101.856 Y104.088 F30000.000
G1 X98.556 Y103.347 F30000.000
G1 F1501.1
G1 X98.653 Y103.444 E16.22998
G1 X99.451 Y103.444 E16.26748
G1 X98.556 Y102.549 E16.32696
G1 X98.556 Y101.750 E16.36446
G1 X100.250 Y103.444 E16.47697
G1 X101.049 Y103.444 E16.51446
G1 X98.556 Y100.951 E16.68000
G1 X98.556 Y100.153 E16.71750
G1 X101.444 Y103.042 E16.90932
G1 X101.444 Y102.243 E16.94682
G1 X98.556 Y99.354 E17.13864
G1 X98.556 Y98.556 E17.17613
G1 X101.444 Y101.444 E17.36795
G1 X101.444 Y100.646 E17.40545
G1 X98.556 Y97.757 E17.59727
G1 X98.556 Y96.958 E17.63477
G1 X101.444 Y99.847 E17.82659
G1 X101.444 Y99.049 E17.86408
G1 X98.951 Y96.556 E18.02962
G1 X99.750 Y96.556 E18.06712
G1 X101.444 Y98.250 E18.17963
G1 X101.444 Y97.451 E18.21712
G1 X100.549 Y96.556 E18.27660
G1 X101.347 Y96.556 E18.31410
G1 X101.444 Y96.653 E18.32055
G1 Z1.100 F30000.000
G1 X101.853 Y103.853 F30000.000
G1 F1204.19
G1 X98.147 Y103.853 E18.43058
G1 X98.147 Y96.147 E18.65938
G1 X101.853 Y96.147 E18.76941
G1 X101.853 Y103.793 E18.99642
G1 X102.230 Y104.230 F30000.000
G1 F1500
G1 X97.770 Y104.230 E19.14368
G1 X97.770 Y95.770 E19.42301
G1 X102.230 Y95.770 E19.57026
G1 X102.230 Y104.170 E19.84761
G1 X101.856 Y104.088 F30000.000
G1 X101.458 Y103.534 F30000.000
G1 F1445.02
G1 X101.534 Y103.458 E19.85092
G1 X101.534 Y102.932 E19.86716
G1 X100.932 Y103.534 E19.89343
G1 X100.407 Y103.534 E19.90966
G1 X101.534 Y102.407 E19.95889
G1 X101.534 Y101.882 E19.97512
G1 X99.882 Y103.534 E20.04730
G1 X99.356 Y103.534 E20.06353
G1 X101.534 Y101.356 E20.15867
G1 X101.534 Y100.831 E20.17491
G1 X98.831 Y103.534 E20.29300
G1 X98.466 Y103.534 E20.30426
G1 X98.466 Y103.373 E20.30923
G1 X101.534 Y100.305 E20.44325
G1 X101.534 Y99.780 E20.45948
G1 X98.466 Y102.847 E20.59350
G1 X98.466 Y102.322 E20.60973
G1 X101.534 Y99.254 E20.74375
G1 X101.534 Y98.729 E20.75998
G1 X98.466 Y101.796 E20.89400
G1 X98.466 Y101.271 E20.91023
G1 X101.534 Y98.204 E21.04425
G1 X101.534 Y97.678 E21.06048
G1 X98.466 Y100.746 E21.19450
G1 X98.466 Y100.220 E21.21073
G1 X101.534 Y97.153 E21.34474
G1 X101.534 Y96.627 E21.36098
G1 X98.466 Y99.695 E21.49499
G1 X98.466 Y99.169 E21.51123
G1 X101.169 Y96.466 E21.62932
G1 X100.644 Y96.466 E21.64555
G1 X98.466 Y98.644 E21.74069
G1 X98.466 Y98.118 E21.75692
G1 X100.118 Y96.466 E21.82911
G1 X99.593 Y96.466 E21.84534
G1 X98.466 Y97.593 E21.89457
G1 X98.466 Y97.068 E21.91080
G1 X99.068 Y96.466 E21.93707
G1 X98.542 Y96.466 E21.95330
G1 X98.466 Y96.542 E21.95661
G1 Z1.300 F30000.000
G1 E19.95661 F2400.00000
G92 E0
G1 X101.853 Y103.853 F30000.000
G1 E2.00000 F2400.00000
G1 F884.044
G1 X101.390 Y103.853 E2.01375
G1 X101.390 Y96.147 E2.24255
G1 X101.853 Y96.147 E2.25629
G1 X101.853 Y103.793 E2.48331
G1 X102.230 Y104.230 F30000.000
G1 F1500
G1 X101.013 Y104.230 E2.52350
G1 X101.013 Y95.770 E2.80282
G1 X102.230 Y95.770 E2.84301
G1 X102.230 Y104.170 E3.12036
G1 X101.874 Y104.047 F30000.000
G1 X101.621 Y103.674 F30000.000
G1 F707.236
G1 X101.621 Y96.326 E3.15889
G1 E1.15889 F2400.00000
G92 E0
G1 X104.450 Y106.450 F30000.000
G1 X98.610 Y103.853 F30000.000
G1 E2.00000 F2400.00000
G1 F884.044
G1 X98.147 Y103.853 E2.01375
G1 X98.147 Y96.147 E2.24255
G1 X98.610 Y96.147 E2.25629
G1 X98.610 Y103.793 E2.48331
G1 X98.987 Y104.230 F30000.000
G1 F1500
G1 X97.770 Y104.230 E2.52350
G1 X97.770 Y95.770 E2.80282
G1 X98.987 Y95.770 E2.84301
G1 X98.987 Y104.170 E3.12036
G1 X98.632 Y104.047 F30000.000
G1 X98.379 Y103.674 F30000.000
G1 F707.236
G1 X98.379 Y96.326 E3.15889
G1 Z1.500 F30000.000
G1 E1.15889 F2400.00000
G92 E0
G1 X101.286 Y104.230 F30000.000
G1 E2.00000 F2400.00000
G1 F692.463
G1 X101.286 Y95.770 E2.27933
G1 X102.230 Y95.770 E2.31051
G1 X102.230 Y104.230 E2.58984
G1 X101.346 Y104.230 E2.61904
G1 X101.300 Y103.830 F30000.000
G1 X101.758 Y104.041 F30000.000
G1 F600
G1 X101.758 Y95.959 E2.97154
G1 E0.97154 F2400.00000
G92 E0
G1 X104.450 Y106.450 F30000.000
G1 X98.714 Y104.230 F30000.000
G1 E2.00000 F2400.00000
G1 F692.463
G1 X97.770 Y104.230 E2.03118
G1 X97.770 Y95.770 E2.31051
G1 X98.714 Y95.770 E2.34169
G1 X98.714 Y104.170 E2.61904
G1 X98.361 Y104.043 F30000.000
G1 X98.242 Y104.041 F30000.000
G1 F600
G1 X98.242 Y95.959 E2.97154
G1 Z1.700 F30000.000
G1 E0.97154 F2400.00000
G92 E0
G1 X101.468 Y104.230 F30000.000
G1 E2.00000 F2400.00000
G1 F683.687
G1 X101.468 Y95.770 E2.27933
G1 X102.230 Y95.770 E2.30447
G1 X102.230 Y104.230 E2.58380
G1 X101.528 Y104.230 E2.60697
G1 X101.480 Y103.830 F30000.000
G1 X101.849 Y104.041 F30000.000
G1 F600
G1 X101.849 Y95.959 E2.83658
G1 E0.83658 F2400.00000
G92 E0
G1 X104.450 Y106.450 F30000.000
G1 X98.532 Y104.230 F30000.000
G1 E2.00000 F2400.00000
G1 F683.687
G1 X97.770 Y104.230 E2.02515
G1 X97.770 Y95.770 E2.30447
G1 X98.532 Y95.770 E2.32962
G1 X98.532 Y104.170 E2.60697
