; generated by Slic3r 1.3.0 on 2020-04-10 at 18:49:36

; external perimeters extrusion width = 0.44mm (2.78mm^3/s)
; perimeters extrusion width = 0.40mm (7.14mm^3/s)
; infill extrusion width = 0.50mm (10.97mm^3/s)
; solid infill extrusion width = 0.60mm (6.68mm^3/s)
; top infill extrusion width = 0.40mm (2.14mm^3/s)

M107
M190 S80 ; set bed temperature and wait for it to be reached
M104 S200 ; set temperature
G28 ; home all axes
G1 Z5 F5000 ; lift nozzle

; Filament gcode

M109 S200 ; set temperature and wait for it to be reached
G21 ; set units to millimeters
G90 ; use absolute coordinates
M82 ; use absolute distances for extrusion
G92 E0
G1 Z0.300 F30000.000
G1 E-2.00000 F2400.00000
G92 E0
G1 X90.811 Y92.063 F30000.000
G1 E2.00000 F2400.00000
G1 F2100
G1 X92.585 Y90.439 E2.16072
G1 X94.792 Y89.480 E2.32144
G1 X96.550 Y89.265 E2.43977
G1 X103.450 Y89.265 E2.90073
G1 X105.823 Y89.662 E3.06145
G1 X107.937 Y90.811 E3.22217
G1 X109.561 Y92.585 E3.38289
G1 X110.520 Y94.792 E3.54362
G1 X110.735 Y96.550 E3.66194
G1 X110.735 Y103.450 E4.12290
G1 X110.338 Y105.823 E4.28362
G1 X109.189 Y107.937 E4.44435
G1 X107.415 Y109.561 E4.60507
G1 X105.208 Y110.520 E4.76579
G1 X103.450 Y110.735 E4.88412
G1 X96.550 Y110.735 E5.34507
G1 X94.177 Y110.338 E5.50580
G1 X92.063 Y109.189 E5.66652
G1 X90.439 Y107.415 E5.82724
G1 X89.480 Y105.208 E5.98796
G1 X89.265 Y103.450 E6.10629
G1 X89.265 Y96.550 E6.56725
G1 X89.662 Y94.177 E6.72797
G1 X90.782 Y92.116 E6.88468
G1 X91.342 Y92.257 F30000.000
G1 F2100
G1 X93.099 Y90.750 E7.03934
G1 X95.262 Y89.925 E7.19400
G1 X96.550 Y89.801 E7.28042
G1 X103.450 Y89.801 E7.74138
G1 X105.731 Y90.198 E7.89603
G1 X107.743 Y91.342 E8.05069
G1 X109.250 Y93.099 E8.20535
G1 X110.075 Y95.262 E8.36001
G1 X110.199 Y96.550 E8.44643
G1 X110.199 Y103.450 E8.90739
G1 X109.802 Y105.731 E9.06205
G1 X108.658 Y107.743 E9.21670
G1 X106.901 Y109.250 E9.37136
G1 X104.738 Y110.075 E9.52602
G1 X103.450 Y110.199 E9.61244
G1 X96.550 Y110.199 E10.07340
G1 X94.269 Y109.802 E10.22806
G1 X92.257 Y108.658 E10.38271
G1 X90.750 Y106.901 E10.53737
G1 X89.925 Y104.738 E10.69203
G1 X89.801 Y103.450 E10.77845
G1 X89.801 Y96.550 E11.23941
G1 X90.198 Y94.269 E11.39407
G1 X91.312 Y92.309 E11.54472
G1 X91.873 Y92.459 F30000.000
G1 F2100
G1 X93.610 Y91.076 E11.69306
G1 X96.550 Y90.336 E11.89561
G1 X103.450 Y90.336 E12.35657
G1 X105.635 Y90.733 E12.50491
G1 X107.541 Y91.873 E12.65326
G1 X108.924 Y93.610 E12.80161
G1 X109.664 Y96.550 E13.00415
G1 X109.664 Y103.450 E13.46511
G1 X109.267 Y105.635 E13.61346
G1 X108.127 Y107.541 E13.76180
G1 X106.390 Y108.924 E13.91015
G1 X103.450 Y109.664 E14.11269
G1 X96.550 Y109.664 E14.57365
G1 X94.365 Y109.267 E14.72200
G1 X92.459 Y108.127 E14.87034
G1 X91.076 Y106.390 E15.01869
G1 X90.336 Y103.450 E15.22124
G1 X90.336 Y96.550 E15.68219
G1 X90.733 Y94.365 E15.83054
G1 X91.842 Y92.511 E15.97488
G1 X92.402 Y92.672 F30000.000
G1 F2100
G1 X94.116 Y91.420 E16.11663
G1 X96.550 Y90.872 E16.28333
G1 X103.450 Y90.872 E16.74429
G1 X105.535 Y91.268 E16.88604
G1 X107.328 Y92.402 E17.02780
G1 X108.580 Y94.116 E17.16955
G1 X109.128 Y96.550 E17.33625
G1 X109.128 Y103.450 E17.79721
G1 X108.732 Y105.535 E17.93896
G1 X107.598 Y107.328 E18.08071
G1 X105.884 Y108.580 E18.22247
G1 X103.450 Y109.128 E18.38917
G1 X96.550 Y109.128 E18.85012
G1 X94.465 Y108.732 E18.99188
G1 X92.672 Y107.598 E19.13363
G1 X91.420 Y105.884 E19.27539
G1 X90.872 Y103.450 E19.44208
G1 X90.872 Y96.550 E19.90304
G1 X91.268 Y94.465 E20.04480
G1 X92.370 Y92.723 E20.18254
G1 X92.931 Y92.897 F30000.000
G1 F2100
G1 X94.616 Y91.785 E20.31738
G1 X96.550 Y91.408 E20.44904
G1 X103.450 Y91.408 E20.91000
G1 X105.429 Y91.804 E21.04484
G1 X107.103 Y92.931 E21.17968
G1 X108.215 Y94.616 E21.31452
G1 X108.592 Y96.550 E21.44617
G1 X108.592 Y103.450 E21.90713
G1 X108.196 Y105.429 E22.04197
G1 X107.069 Y107.103 E22.17681
G1 X105.384 Y108.215 E22.31165
G1 X103.450 Y108.592 E22.44331
G1 X96.550 Y108.592 E22.90427
G1 X94.571 Y108.196 E23.03911
G1 X92.897 Y107.069 E23.17395
G1 X91.785 Y105.384 E23.30879
G1 X91.408 Y103.450 E23.44044
G1 X91.408 Y96.550 E23.90140
G1 X91.804 Y94.571 E24.03624
G1 X92.897 Y92.946 E24.16708
G1 X93.458 Y93.135 F30000.000
G1 F2100
G1 X95.108 Y92.175 E24.29463
G1 X96.550 Y91.943 E24.39220
G1 X103.450 Y91.943 E24.85315
G1 X105.318 Y92.339 E24.98071
G1 X106.865 Y93.458 E25.10826
G1 X107.825 Y95.108 E25.23581
G1 X108.057 Y96.550 E25.33338
G1 X108.057 Y103.450 E25.79434
G1 X107.661 Y105.318 E25.92189
G1 X106.542 Y106.865 E26.04944
G1 X104.892 Y107.825 E26.17700
G1 X103.450 Y108.057 E26.27457
G1 X96.550 Y108.057 E26.73552
G1 X94.682 Y107.661 E26.86308
G1 X93.135 Y106.542 E26.99063
G1 X92.175 Y104.892 E27.11818
G1 X91.943 Y103.450 E27.21575
G1 X91.943 Y96.550 E27.67671
G1 X92.339 Y94.682 E27.80426
G1 X93.423 Y93.184 E27.92780
G1 X93.982 Y93.390 F30000.000
G1 F2100
G1 X95.589 Y92.594 E28.04763
G1 X96.550 Y92.479 E28.11226
G1 X103.450 Y92.479 E28.57322
G1 X105.200 Y92.874 E28.69304
G1 X106.610 Y93.982 E28.81286
G1 X107.406 Y95.589 E28.93268
G1 X107.521 Y96.550 E28.99732
G1 X107.521 Y103.450 E29.45828
G1 X107.126 Y105.200 E29.57810
G1 X106.018 Y106.610 E29.69792
G1 X104.411 Y107.406 E29.81774
G1 X103.450 Y107.521 E29.88238
G1 X96.550 Y107.521 E30.34333
G1 X94.800 Y107.126 E30.46316
G1 X93.390 Y106.018 E30.58298
G1 X92.594 Y104.411 E30.70280
G1 X92.479 Y103.450 E30.76744
G1 X92.479 Y96.550 E31.22839
G1 X92.874 Y94.800 E31.34821
G1 X93.945 Y93.438 E31.46403
G1 X94.504 Y93.667 F30000.000
G1 F2100
G1 X96.550 Y93.014 E31.60750
G1 X103.450 Y93.014 E32.06846
G1 X105.073 Y93.409 E32.18002
G1 X106.333 Y94.504 E32.29158
G1 X106.986 Y96.550 E32.43505
G1 X106.986 Y103.450 E32.89601
G1 X106.591 Y105.073 E33.00757
G1 X105.496 Y106.333 E33.11912
G1 X103.450 Y106.986 E33.26260
G1 X96.550 Y106.986 E33.72355
G1 X94.927 Y106.591 E33.83511
G1 X93.667 Y105.496 E33.94667
G1 X93.014 Y103.450 E34.09014
G1 X93.014 Y96.550 E34.55110
G1 X93.409 Y94.927 E34.66266
G1 X94.464 Y93.712 E34.77021
G1 X95.024 Y94.187 F30000.000
G1 F2100
G1 X95.411 Y93.801 E34.81113
G1 X104.589 Y93.801 E35.49795
G1 X106.199 Y95.411 E35.66840
G1 X106.199 Y104.589 E36.35521
G1 X104.589 Y106.199 E36.52566
G1 X95.411 Y106.199 E37.21247
G1 X93.801 Y104.589 E37.38292
G1 X93.801 Y95.411 E38.06974
G1 X94.982 Y94.230 E38.19477
G1 X95.449 Y94.612 F30000.000
G1 F2100
G1 X95.660 Y94.401 E38.21710
G1 X104.340 Y94.401 E38.86671
G1 X105.599 Y95.660 E38.99996
G1 X105.599 Y104.340 E39.64958
G1 X104.340 Y105.599 E39.78283
G1 X95.660 Y105.599 E40.43245
G1 X94.401 Y104.340 E40.56570
G1 X94.401 Y95.660 E41.21531
G1 X95.406 Y94.654 E41.32175
G1 X95.873 Y95.036 F30000.000
G1 F2100
G1 X95.908 Y95.001 E41.32548
G1 X104.092 Y95.001 E41.93790
G1 X104.999 Y95.908 E42.03395
G1 X104.999 Y104.092 E42.64637
G1 X104.092 Y104.999 E42.74242
G1 X95.908 Y104.999 E43.35484
G1 X95.001 Y104.092 E43.45090
G1 X95.001 Y95.908 E44.06332
G1 X95.831 Y95.078 E44.15115
G1 X96.157 Y95.601 F30000.000
G1 F2100
G1 X103.843 Y95.601 E44.72637
G1 X104.399 Y96.157 E44.78523
G1 X104.399 Y103.843 E45.36045
G1 X103.843 Y104.399 E45.41931
G1 X96.157 Y104.399 E45.99453
G1 X95.601 Y103.843 E46.05339
G1 X95.601 Y96.157 E46.62861
G1 X96.114 Y95.643 E46.68297
G1 X96.405 Y96.201 F30000.000
G1 F2100
G1 X103.595 Y96.201 E47.22100
G1 X103.799 Y96.405 E47.24266
G1 X103.799 Y103.595 E47.78068
G1 X103.595 Y103.799 E47.80234
G1 X96.405 Y103.799 E48.34037
G1 X96.201 Y103.595 E48.36203
G1 X96.201 Y96.405 E48.90005
G1 X96.363 Y96.243 E48.91722
G1 E46.91722 F2400.00000
G92 E0
G1 X103.150 Y103.150 F30000.000
G1 E2.00000 F2400.00000
G1 F2100
G1 X96.850 Y103.150 E2.42087
G1 X96.850 Y96.850 E2.84175
G1 X103.150 Y96.850 E3.26262
G1 X103.150 Y103.090 E3.67949
G1 X102.764 Y103.046 F30000.000
G1 E1.67949 F2400.00000
G92 E0
G1 X98.318 Y102.614 F30000.000
G1 E2.00000 F2400.00000
G1 F2100
G1 X97.386 Y102.614 E2.06229
G1 X97.386 Y101.361 E2.14605
G1 X97.895 Y101.977 E2.19946
G1 X98.160 Y102.225 E2.22368
G1 X98.390 Y102.392 E2.24273
G1 X98.337 Y102.557 E2.25432
G1 E0.25432 F2400.00000
G92 E0
G1 X101.610 Y102.392 F30000.000
G1 E2.00000 F2400.00000
G1 F2100
G1 X101.840 Y102.225 E2.01904
G1 X102.105 Y101.977 E2.04327
G1 X102.614 Y101.361 E2.09668
G1 X102.614 Y102.614 E2.18044
G1 X101.682 Y102.614 E2.24273
G1 X101.628 Y102.449 E2.25432
G1 E0.25432 F2400.00000
G92 E0
G1 X102.614 Y98.639 F30000.000
G1 E2.00000 F2400.00000
G1 F2100
G1 X102.105 Y98.023 E2.05341
G1 X101.840 Y97.775 E2.07763
G1 X101.610 Y97.608 E2.09668
G1 X101.682 Y97.386 E2.11227
G1 X102.614 Y97.386 E2.17456
G1 X102.614 Y98.579 E2.25432
G1 E0.25432 F2400.00000
G92 E0
G1 X102.450 Y98.233 F30000.000
G1 X98.245 Y97.550 F30000.000
G1 X98.390 Y97.608 F30000.000
G1 E2.00000 F2400.00000
G1 F2100
G1 X98.160 Y97.775 E2.01904
G1 X97.895 Y98.023 E2.04327
G1 X97.386 Y98.639 E2.09668
G1 X97.386 Y97.386 E2.18044
G1 X98.318 Y97.386 E2.24273
G1 X98.372 Y97.551 E2.25432
G1 X98.705 Y98.041 F30000.000
G1 F2100
G1 X98.999 Y97.873 E2.27695
G1 X99.274 Y97.764 E2.29667
G1 X99.560 Y97.691 E2.31639
G1 X99.852 Y97.654 E2.33611
G1 X100.148 Y97.654 E2.35583
G1 X100.440 Y97.691 E2.37555
G1 X100.726 Y97.764 E2.39527
G1 X101.001 Y97.873 E2.41500
G1 X101.260 Y98.015 E2.43472
G1 X101.498 Y98.189 E2.45444
G1 X101.714 Y98.391 E2.47416
G1 X101.902 Y98.618 E2.49388
G1 X102.060 Y98.868 E2.51360
G1 X102.186 Y99.135 E2.53332
G1 X102.277 Y99.415 E2.55304
G1 X102.332 Y99.705 E2.57276
G1 X102.351 Y100.000 E2.59248
G1 X102.332 Y100.295 E2.61221
G1 X102.277 Y100.585 E2.63193
G1 X102.186 Y100.865 E2.65165
G1 X102.060 Y101.132 E2.67137
G1 X101.902 Y101.382 E2.69109
G1 X101.714 Y101.609 E2.71081
G1 X101.498 Y101.811 E2.73053
G1 X101.260 Y101.985 E2.75025
G1 X101.000 Y102.128 E2.77007
G1 X100.704 Y102.241 E2.79122
G1 X100.440 Y102.309 E2.80941
G1 X100.148 Y102.346 E2.82913
G1 X99.852 Y102.346 E2.84885
G1 X99.560 Y102.309 E2.86857
G1 X99.274 Y102.236 E2.88829
G1 X98.999 Y102.127 E2.90801
G1 X98.740 Y101.985 E2.92773
G1 X98.502 Y101.811 E2.94745
G1 X98.286 Y101.609 E2.96718
G1 X98.098 Y101.382 E2.98690
G1 X97.940 Y101.132 E3.00662
G1 X97.814 Y100.865 E3.02634
G1 X97.723 Y100.584 E3.04610
G1 X97.667 Y100.286 E3.06639
G1 X97.649 Y100.000 E3.08550
G1 X97.668 Y99.705 E3.10522
G1 X97.723 Y99.415 E3.12494
G1 X97.815 Y99.134 E3.14470
G1 X97.945 Y98.860 E3.16499
G1 X98.098 Y98.618 E3.18410
G1 X98.286 Y98.391 E3.20382
G1 X98.502 Y98.189 E3.22354
G1 X98.656 Y98.076 E3.23632
G1 X98.699 Y97.998 F30000.000
G1 X98.610 Y97.417 F30000.000
G1 F2100
G1 X99.116 Y97.321 E3.26140
G1 F2100
G1 X99.306 Y97.296 E3.26935
G1 F2100
G1 X99.836 Y97.252 E3.28594
G1 X100.530 Y97.275 E3.30761
G1 F2100
G1 X100.884 Y97.321 E3.32280
G1 F2100
G1 X101.390 Y97.417 E3.35103
G1 X102.359 Y98.800 F30000.000
G1 F2100
G1 X102.425 Y98.905 E3.35156
G1 F2100
G1 X102.549 Y99.114 E3.35474
G1 F2100
G1 X102.882 Y99.752 E3.37230
G1 X102.739 Y99.645 F30000.000
G1 F2100
G1 X102.693 Y99.154 E3.38831
G1 X102.739 Y99.645 F30000.000
G1 F2100
G1 X102.750 Y100.008 E3.39733
G1 F2100
G1 X102.693 Y100.846 E3.42460
G1 X102.549 Y100.886 F30000.000
G1 F2100
G1 X102.425 Y101.095 E3.42778
G1 F2100
G1 X102.359 Y101.200 E3.42830
G1 X102.549 Y100.886 F30000.000
G1 F2100
G1 X102.882 Y100.248 E3.44587
G1 E1.44587 F2400.00000
G92 E0
G1 X101.390 Y102.584 F30000.000
G1 E2.00000 F2400.00000
G1 F2100
G1 X101.035 Y102.650 E2.01981
G1 F2100
G1 X100.682 Y102.706 E2.03627
G1 F2100
G1 X100.181 Y102.747 E2.05436
G1 F2100
G1 X99.470 Y102.725 E2.07256
G1 F2100
G1 X99.116 Y102.679 E2.08554
G1 F2100
G1 X98.610 Y102.583 E2.11062
G1 X97.641 Y101.200 F30000.000
G1 F2100
G1 X97.504 Y100.984 E2.11171
G1 F2100
G1 X97.396 Y100.788 E2.11464
G1 F2100
G1 X97.118 Y100.247 E2.12897
G1 X97.261 Y100.345 F30000.000
G1 F2100
G1 X97.307 Y100.845 E2.14532
G1 X97.261 Y100.345 F30000.000
G1 F2100
G1 X97.250 Y99.992 E2.15408
G1 F2100
G1 X97.307 Y99.154 E2.18135
G1 X97.397 Y99.211 F30000.000
G1 F2100
G1 X97.118 Y99.752 E2.19565
G1 X97.397 Y99.211 F30000.000
G1 F2100
G1 X97.505 Y99.015 E2.19857
G1 F2100
G1 X97.643 Y98.798 E2.19966
G1 Z0.500 F30000.000
G1 X98.752 Y98.106 F30000.000
G1 F1500
G1 X99.033 Y97.946 E2.21034
G1 X99.298 Y97.841 E2.21976
G1 X99.575 Y97.770 E2.22917
G1 X99.857 Y97.734 E2.23859
G1 X100.143 Y97.734 E2.24800
G1 X100.425 Y97.770 E2.25742
G1 X100.702 Y97.841 E2.26683
G1 X100.967 Y97.946 E2.27625
G1 X101.217 Y98.083 E2.28566
G1 X101.447 Y98.251 E2.29507
G1 X101.655 Y98.446 E2.30449
G1 X101.837 Y98.665 E2.31390
G1 X101.990 Y98.906 E2.32332
G1 X102.111 Y99.164 E2.33273
G1 X102.199 Y99.436 E2.34218
G1 X102.254 Y99.734 E2.35216
G1 X102.271 Y100.000 E2.36097
G1 X102.253 Y100.285 E2.37038
G1 X102.199 Y100.565 E2.37980
G1 X102.111 Y100.836 E2.38921
G1 X101.990 Y101.094 E2.39863
G1 X101.837 Y101.335 E2.40804
G1 X101.654 Y101.556 E2.41752
G1 X101.414 Y101.774 E2.42822
G1 X101.217 Y101.917 E2.43628
G1 X100.967 Y102.054 E2.44569
G1 X100.702 Y102.159 E2.45511
G1 X100.425 Y102.230 E2.46452
G1 X100.143 Y102.266 E2.47393
G1 X99.857 Y102.266 E2.48335
G1 X99.575 Y102.230 E2.49276
G1 X99.298 Y102.159 E2.50218
G1 X99.033 Y102.054 E2.51159
G1 X98.783 Y101.917 E2.52101
G1 X98.553 Y101.749 E2.53042
G1 X98.345 Y101.554 E2.53984
G1 X98.163 Y101.335 E2.54925
G1 X98.010 Y101.094 E2.55866
G1 X97.889 Y100.836 E2.56808
G1 X97.801 Y100.564 E2.57752
G1 X97.746 Y100.266 E2.58751
G1 X97.729 Y100.000 E2.59632
G1 X97.747 Y99.715 E2.60573
G1 X97.801 Y99.435 E2.61515
G1 X97.889 Y99.163 E2.62459
G1 X98.020 Y98.891 E2.63458
G1 X98.163 Y98.665 E2.64339
G1 X98.345 Y98.446 E2.65280
G1 X98.553 Y98.251 E2.66221
G1 X98.703 Y98.141 E2.66837
G1 X98.747 Y98.067 F30000.000
G1 X99.905 Y97.348 F30000.000
G1 F786.932
G1 X99.504 Y97.399 E2.68037
G1 X99.182 Y97.481 E2.69025
G1 X98.872 Y97.604 E2.70012
G1 X98.581 Y97.764 E2.71000
G1 X98.312 Y97.959 E2.71987
G1 X98.069 Y98.187 E2.72975
G1 X97.857 Y98.443 E2.73962
G1 X97.690 Y98.707 E2.74891
G1 X97.538 Y99.023 E2.75930
G1 X97.435 Y99.341 E2.76924
G1 X97.373 Y99.668 E2.77912
G1 X97.355 Y99.953 E2.78760
G1 X97.147 Y99.947 E2.79376
G1 X97.147 Y97.147 E2.87688
G1 X99.892 Y97.147 E2.95839
G1 X99.901 Y97.288 E2.96258
G1 X98.245 Y97.550 F30000.000
G1 X97.550 Y101.766 F30000.000
G1 X97.147 Y100.053 F30000.000
G1 F786.932
G1 X97.355 Y100.047 E2.96875
G1 X97.371 Y100.312 E2.97664
G1 X97.434 Y100.656 E2.98703
G1 X97.538 Y100.975 E2.99697
G1 X97.679 Y101.276 E3.00685
G1 X97.857 Y101.557 E3.01672
G1 X98.069 Y101.813 E3.02660
G1 X98.312 Y102.041 E3.03647
G1 X98.581 Y102.236 E3.04635
G1 X98.872 Y102.396 E3.05622
G1 X99.182 Y102.519 E3.06610
G1 X99.504 Y102.601 E3.07597
G1 X99.905 Y102.652 E3.08798
G1 X99.892 Y102.853 E3.09395
G1 X97.147 Y102.853 E3.17546
G1 X97.147 Y100.113 E3.25680
G1 X97.550 Y101.766 F30000.000
G1 X101.755 Y102.450 F30000.000
G1 X100.108 Y102.853 F30000.000
G1 F786.932
G1 X100.095 Y102.652 E3.26278
G1 X100.496 Y102.601 E3.27478
G1 X100.818 Y102.519 E3.28466
G1 X101.128 Y102.396 E3.29453
G1 X101.419 Y102.236 E3.30441
G1 X101.652 Y102.067 E3.31296
G1 X101.927 Y101.817 E3.32400
G1 X102.143 Y101.557 E3.33403
G1 X102.321 Y101.276 E3.34390
G1 X102.462 Y100.975 E3.35377
G1 X102.565 Y100.659 E3.36365
G1 X102.627 Y100.332 E3.37352
G1 X102.645 Y100.047 E3.38200
G1 X102.853 Y100.053 E3.38817
G1 X102.853 Y102.853 E3.47129
G1 X100.168 Y102.853 E3.55102
G1 X102.853 Y99.947 F30000.000
G1 F786.932
G1 X102.645 Y99.953 E3.55718
G1 X102.629 Y99.688 E3.56507
G1 X102.566 Y99.344 E3.57547
G1 X102.462 Y99.025 E3.58541
G1 X102.321 Y98.724 E3.59529
G1 X102.143 Y98.443 E3.60516
G1 X101.931 Y98.187 E3.61504
G1 X101.688 Y97.959 E3.62491
G1 X101.419 Y97.764 E3.63479
G1 X101.128 Y97.604 E3.64466
G1 X100.818 Y97.481 E3.65453
G1 X100.496 Y97.399 E3.66441
G1 X100.095 Y97.348 E3.67642
G1 X100.108 Y97.147 E3.68239
G1 X102.853 Y97.147 E3.76390
G1 X102.853 Y99.887 E3.84524
G1 X103.230 Y96.770 F30000.000
G1 F1500
G1 X103.230 Y103.230 E4.05853
G1 X96.770 Y103.230 E4.27183
G1 X96.770 Y96.770 E4.48512
G1 X103.170 Y96.770 E4.69643
G1 X103.126 Y97.156 F30000.000
G1 X101.536 Y97.601 F30000.000
G1 F629.546
G1 X101.248 Y97.391 E4.69781
G1 X101.013 Y97.345 E4.69874
G1 X102.491 Y98.618 F30000.000
G1 F629.546
G1 X102.674 Y98.906 E4.70047
G1 X102.674 Y101.094 F30000.000
G1 F629.546
G1 X102.491 Y101.382 E4.70219
