; generated by Slic3r 1.3.0 on 2020-04-11 at 10:26:23

; external perimeters extrusion width = 0.44mm (2.78mm^3/s)
; perimeters extrusion width = 0.40mm (7.14mm^3/s)
; infill extrusion width = 0.50mm (10.97mm^3/s)
; solid infill extrusion width = 0.60mm (6.68mm^3/s)
; top infill extrusion width = 0.40mm (2.14mm^3/s)

M107
M190 S80 ; set bed temperature and wait for it to be reached
M104 S200 ; set temperature
G28 ; home all axes
G1 Z5 F5000 ; lift nozzle

; Filament gcode

M109 S200 ; set temperature and wait for it to be reached
G21 ; set units to millimeters
G90 ; use absolute coordinates
M82 ; use absolute distances for extrusion
G92 E0
G1 Z0.300 F30000.000
G1 E-2.00000 F2400.00000
G92 E0
G1 X91.842 Y89.757 F30000.000
G1 E2.00000 F2400.00000
G1 F2100
G1 X93.599 Y88.250 E2.15466
G1 X95.762 Y87.425 E2.30932
G1 X97.050 Y87.301 E2.39574
G1 X102.950 Y87.301 E2.78989
G1 X105.231 Y87.698 E2.94455
G1 X107.243 Y88.842 E3.09921
G1 X108.750 Y90.599 E3.25386
G1 X109.575 Y92.762 E3.40852
G1 X109.699 Y94.050 E3.49494
G1 X109.699 Y105.950 E4.28993
G1 X109.302 Y108.231 E4.44459
G1 X108.158 Y110.243 E4.59924
G1 X106.401 Y111.750 E4.75390
G1 X104.238 Y112.575 E4.90856
G1 X102.950 Y112.699 E4.99498
G1 X97.050 Y112.699 E5.38913
G1 X94.769 Y112.302 E5.54379
G1 X92.757 Y111.158 E5.69845
G1 X91.250 Y109.401 E5.85311
G1 X90.425 Y107.238 E6.00776
G1 X90.301 Y105.950 E6.09419
G1 X90.301 Y94.050 E6.88917
G1 X90.698 Y91.769 E7.04383
G1 X91.812 Y89.809 E7.19448
G1 X92.373 Y89.959 F30000.000
G1 F2100
G1 X94.110 Y88.576 E7.34282
G1 X97.050 Y87.836 E7.54537
G1 X102.950 Y87.836 E7.93952
G1 X105.135 Y88.233 E8.08787
G1 X107.041 Y89.373 E8.23622
G1 X108.424 Y91.110 E8.38456
G1 X109.164 Y94.050 E8.58711
G1 X109.164 Y105.950 E9.38209
G1 X108.767 Y108.135 E9.53044
G1 X107.627 Y110.041 E9.67878
G1 X105.890 Y111.424 E9.82713
G1 X102.950 Y112.164 E10.02968
G1 X97.050 Y112.164 E10.42383
G1 X94.865 Y111.767 E10.57218
G1 X92.959 Y110.627 E10.72052
G1 X91.576 Y108.890 E10.86887
G1 X90.836 Y105.950 E11.07141
G1 X90.836 Y94.050 E11.86640
G1 X91.233 Y91.865 E12.01474
G1 X92.342 Y90.011 E12.15908
G1 X92.902 Y90.172 F30000.000
G1 F2100
G1 X94.616 Y88.920 E12.30084
G1 X97.050 Y88.372 E12.46753
G1 X102.950 Y88.372 E12.86169
G1 X105.035 Y88.768 E13.00344
G1 X106.828 Y89.902 E13.14520
G1 X108.080 Y91.616 E13.28695
G1 X108.628 Y94.050 E13.45365
G1 X108.628 Y105.950 E14.24863
G1 X108.232 Y108.035 E14.39039
G1 X107.098 Y109.828 E14.53214
G1 X105.384 Y111.080 E14.67390
G1 X102.950 Y111.628 E14.84059
G1 X97.050 Y111.628 E15.23474
G1 X94.965 Y111.232 E15.37650
G1 X93.172 Y110.098 E15.51825
G1 X91.920 Y108.384 E15.66001
G1 X91.372 Y105.950 E15.82671
G1 X91.372 Y94.050 E16.62169
G1 X91.768 Y91.965 E16.76344
G1 X92.870 Y90.223 E16.90119
G1 X93.431 Y90.397 F30000.000
G1 F2100
G1 X95.116 Y89.285 E17.03603
G1 X97.050 Y88.908 E17.16769
G1 X102.950 Y88.908 E17.56184
G1 X104.929 Y89.304 E17.69668
G1 X106.603 Y90.431 E17.83152
G1 X107.715 Y92.116 E17.96636
G1 X108.092 Y94.050 E18.09802
G1 X108.092 Y105.950 E18.89300
G1 X107.696 Y107.929 E19.02784
G1 X106.569 Y109.603 E19.16268
G1 X104.884 Y110.715 E19.29752
G1 X102.950 Y111.092 E19.42918
G1 X97.050 Y111.092 E19.82333
G1 X95.071 Y110.696 E19.95817
G1 X93.397 Y109.569 E20.09301
G1 X92.285 Y107.884 E20.22785
G1 X91.908 Y105.950 E20.35951
G1 X91.908 Y94.050 E21.15449
G1 X92.304 Y92.071 E21.28933
G1 X93.397 Y90.446 E21.42017
G1 X93.958 Y90.635 F30000.000
G1 F2100
G1 X95.608 Y89.675 E21.54772
G1 X97.050 Y89.443 E21.64529
G1 X102.950 Y89.443 E22.03944
G1 X104.818 Y89.839 E22.16699
G1 X106.365 Y90.958 E22.29455
G1 X107.325 Y92.608 E22.42210
G1 X107.557 Y94.050 E22.51967
G1 X107.557 Y105.950 E23.31465
G1 X107.161 Y107.818 E23.44220
G1 X106.042 Y109.365 E23.56976
G1 X104.392 Y110.325 E23.69731
G1 X102.950 Y110.557 E23.79488
G1 X97.050 Y110.557 E24.18903
G1 X95.182 Y110.161 E24.31658
G1 X93.635 Y109.042 E24.44414
G1 X92.675 Y107.392 E24.57169
G1 X92.443 Y105.950 E24.66926
G1 X92.443 Y94.050 E25.46424
G1 X92.839 Y92.182 E25.59179
G1 X93.923 Y90.684 E25.71534
G1 X94.482 Y90.890 F30000.000
G1 F2100
G1 X96.089 Y90.094 E25.83516
G1 X97.050 Y89.979 E25.89980
G1 X102.950 Y89.979 E26.29395
G1 X104.700 Y90.374 E26.41377
G1 X106.110 Y91.482 E26.53359
G1 X106.906 Y93.089 E26.65341
G1 X107.021 Y94.050 E26.71805
G1 X107.021 Y105.950 E27.51303
G1 X106.626 Y107.700 E27.63285
G1 X105.518 Y109.110 E27.75268
G1 X103.911 Y109.906 E27.87250
G1 X102.950 Y110.021 E27.93713
G1 X97.050 Y110.021 E28.33129
G1 X95.300 Y109.626 E28.45111
G1 X93.890 Y108.518 E28.57093
G1 X93.094 Y106.911 E28.69075
G1 X92.979 Y105.950 E28.75539
G1 X92.979 Y94.050 E29.55037
G1 X93.374 Y92.300 E29.67019
G1 X94.445 Y90.938 E29.78601
G1 X95.004 Y91.167 F30000.000
G1 F2100
G1 X97.050 Y90.514 E29.92948
G1 X102.950 Y90.514 E30.32363
G1 X104.573 Y90.909 E30.43519
G1 X105.833 Y92.004 E30.54675
G1 X106.486 Y94.050 E30.69022
G1 X106.486 Y105.950 E31.48521
G1 X106.091 Y107.573 E31.59676
G1 X104.996 Y108.833 E31.70832
G1 X102.950 Y109.486 E31.85180
G1 X97.050 Y109.486 E32.24595
G1 X95.427 Y109.091 E32.35751
G1 X94.167 Y107.996 E32.46906
G1 X93.514 Y105.950 E32.61254
G1 X93.514 Y94.050 E33.40752
G1 X93.909 Y92.427 E33.51908
G1 X94.964 Y91.212 E33.62663
G1 X95.524 Y91.687 F30000.000
G1 F2100
G1 X95.911 Y91.301 E33.66756
G1 X104.089 Y91.301 E34.27953
G1 X105.699 Y92.911 E34.44998
G1 X105.699 Y107.089 E35.51097
G1 X104.089 Y108.699 E35.68142
G1 X95.911 Y108.699 E36.29340
G1 X94.301 Y107.089 E36.46385
G1 X94.301 Y92.911 E37.52484
G1 X95.482 Y91.730 E37.64987
G1 X95.949 Y92.112 F30000.000
G1 F2100
G1 X96.160 Y91.901 E37.67220
G1 X103.840 Y91.901 E38.24698
G1 X105.099 Y93.160 E38.38023
G1 X105.099 Y106.840 E39.40402
G1 X103.840 Y108.099 E39.53728
G1 X96.160 Y108.099 E40.11206
G1 X94.901 Y106.840 E40.24531
G1 X94.901 Y93.160 E41.26910
G1 X95.906 Y92.154 E41.37553
G1 X96.373 Y92.536 F30000.000
G1 F2100
G1 X96.408 Y92.501 E41.37926
G1 X103.592 Y92.501 E41.91685
G1 X104.499 Y93.408 E42.01290
G1 X104.499 Y106.592 E42.99950
G1 X103.592 Y107.499 E43.09555
G1 X96.408 Y107.499 E43.63313
G1 X95.501 Y106.592 E43.72919
G1 X95.501 Y93.408 E44.71578
G1 X96.331 Y92.578 E44.80362
G1 X96.657 Y93.101 F30000.000
G1 F2100
G1 X103.343 Y93.101 E45.30401
G1 X103.899 Y93.657 E45.36286
G1 X103.899 Y106.343 E46.31226
G1 X103.343 Y106.899 E46.37112
G1 X96.657 Y106.899 E46.87150
G1 X96.101 Y106.343 E46.93036
G1 X96.101 Y93.657 E47.87976
G1 X96.614 Y93.143 E47.93413
G1 E45.93413 F2400.00000
G92 E0
G1 X104.950 Y92.050 F30000.000
G1 X103.299 Y93.905 F30000.000
G1 E2.00000 F2400.00000
G1 F2100
G1 X103.299 Y106.095 E2.91220
G1 X103.095 Y106.299 E2.93386
G1 X96.905 Y106.299 E3.39705
G1 X96.701 Y106.095 E3.41871
G1 X96.701 Y93.905 E4.33091
G1 X96.905 Y93.701 E4.35257
G1 X103.095 Y93.701 E4.81576
G1 X103.257 Y93.863 E4.83293
G1 E2.83293 F2400.00000
G92 E0
G1 X102.650 Y105.650 F30000.000
G1 E2.00000 F2400.00000
G1 F2100
G1 X97.350 Y105.650 E2.35407
G1 X97.350 Y94.350 E3.10897
G1 X102.650 Y94.350 E3.46304
G1 X102.650 Y105.590 E4.21393
G1 X102.278 Y105.503 F30000.000
G1 X102.114 Y105.114 F30000.000
G1 F2100
G1 X97.886 Y105.114 E4.49644
G1 X97.886 Y94.886 E5.17977
G1 X102.114 Y94.886 E5.46228
G1 X102.114 Y105.054 E6.14160
G1 X101.522 Y104.636 F30000.000
G1 F2100
G1 X101.636 Y104.522 E6.15253
G1 X101.636 Y103.752 E6.20477
G1 X100.752 Y104.636 E6.28958
G1 X99.982 Y104.636 E6.34183
G1 X101.636 Y102.982 E6.50052
G1 X101.636 Y102.213 E6.55277
G1 X99.213 Y104.636 E6.78536
G1 X98.443 Y104.636 E6.83760
G1 X101.636 Y101.443 E7.14407
G1 X101.636 Y100.673 E7.19632
G1 X98.364 Y103.945 E7.51035
G1 X98.364 Y103.175 E7.56260
G1 X101.636 Y99.904 E7.87662
G1 X101.636 Y99.134 E7.92887
G1 X98.364 Y102.405 E8.24290
G1 X98.364 Y101.636 E8.29515
G1 X101.636 Y98.364 E8.60917
G1 X101.636 Y97.595 E8.66142
G1 X98.364 Y100.866 E8.97545
G1 X98.364 Y100.096 E9.02770
G1 X101.636 Y96.825 E9.34172
G1 X101.636 Y96.055 E9.39397
G1 X98.364 Y99.327 E9.70800
G1 X98.364 Y98.557 E9.76025
G1 X101.557 Y95.364 E10.06672
G1 X100.787 Y95.364 E10.11897
G1 X98.364 Y97.787 E10.35155
G1 X98.364 Y97.018 E10.40380
G1 X100.018 Y95.364 E10.56250
G1 X99.248 Y95.364 E10.61474
G1 X98.364 Y96.248 E10.69955
G1 X98.364 Y95.478 E10.75180
G1 X98.478 Y95.364 E10.76272
G1 Z0.500 F30000.000
G1 X102.353 Y105.353 F30000.000
G1 F1064.62
G1 X97.647 Y105.353 E10.90244
G1 X97.647 Y94.647 E11.22031
G1 X102.353 Y94.647 E11.36004
G1 X102.353 Y105.293 E11.67613
G1 X102.730 Y105.730 F30000.000
G1 F1500
G1 X97.270 Y105.730 E11.85640
G1 X97.270 Y94.270 E12.23478
G1 X102.730 Y94.270 E12.41505
G1 X102.730 Y105.670 E12.79145
G1 X102.358 Y105.583 F30000.000
G1 X98.153 Y104.944 F30000.000
G1 F2555.09
G1 X98.056 Y104.847 E12.79789
G1 X98.056 Y104.048 E12.83543
G1 X98.952 Y104.944 E12.89497
G1 X99.751 Y104.944 E12.93250
G1 X98.056 Y103.249 E13.04512
G1 X98.056 Y102.450 E13.08266
G1 X100.550 Y104.944 E13.24837
G1 X101.349 Y104.944 E13.28590
G1 X98.056 Y101.651 E13.50469
G1 X98.056 Y100.852 E13.54223
G1 X101.944 Y104.741 E13.80059
G1 X101.944 Y103.942 E13.83812
G1 X98.056 Y100.053 E14.09648
G1 X98.056 Y99.254 E14.13401
G1 X101.944 Y103.143 E14.39237
G1 X101.944 Y102.344 E14.42991
G1 X98.056 Y98.455 E14.68826
G1 X98.056 Y97.656 E14.72580
G1 X101.944 Y101.545 E14.98416
G1 X101.944 Y100.746 E15.02169
G1 X98.056 Y96.857 E15.28005
G1 X98.056 Y96.058 E15.31759
G1 X101.944 Y99.947 E15.57594
G1 X101.944 Y99.148 E15.61348
G1 X98.056 Y95.259 E15.87183
G1 X98.056 Y95.056 E15.88139
G1 X98.651 Y95.056 E15.90937
G1 X101.944 Y98.349 E16.12816
G1 X101.944 Y97.550 E16.16570
G1 X99.450 Y95.056 E16.33140
G1 X100.249 Y95.056 E16.36894
G1 X101.944 Y96.751 E16.48156
G1 X101.944 Y95.952 E16.51909
G1 X101.048 Y95.056 E16.57863
G1 X101.847 Y95.056 E16.61617
G1 X101.944 Y95.153 E16.62262
G1 Z0.700 F30000.000
G1 X102.353 Y105.353 F30000.000
G1 F1064.62
G1 X97.647 Y105.353 E16.76234
G1 X97.647 Y94.647 E17.08021
G1 X102.353 Y94.647 E17.21993
G1 X102.353 Y105.293 E17.53602
G1 X102.730 Y105.730 F30000.000
G1 F1500
G1 X97.270 Y105.730 E17.71630
G1 X97.270 Y94.270 E18.09468
G1 X102.730 Y94.270 E18.27495
G1 X102.730 Y105.670 E18.65135
G1 X102.358 Y105.583 F30000.000
G1 X101.847 Y104.944 F30000.000
G1 F2555.09
G1 X101.944 Y104.847 E18.65780
G1 X101.944 Y104.048 E18.69533
G1 X101.048 Y104.944 E18.75487
G1 X100.249 Y104.944 E18.79241
G1 X101.944 Y103.249 E18.90503
G1 X101.944 Y102.450 E18.94256
G1 X99.450 Y104.944 E19.10827
G1 X98.651 Y104.944 E19.14581
G1 X101.944 Y101.651 E19.36459
G1 X101.944 Y100.852 E19.40213
G1 X98.056 Y104.741 E19.66049
G1 X98.056 Y103.942 E19.69802
G1 X101.944 Y100.053 E19.95638
G1 X101.944 Y99.254 E19.99392
G1 X98.056 Y103.143 E20.25227
G1 X98.056 Y102.344 E20.28981
G1 X101.944 Y98.455 E20.54817
G1 X101.944 Y97.656 E20.58570
G1 X98.056 Y101.545 E20.84406
G1 X98.056 Y100.746 E20.88159
G1 X101.944 Y96.857 E21.13995
G1 X101.944 Y96.058 E21.17749
G1 X98.056 Y99.947 E21.43584
G1 X98.056 Y99.148 E21.47338
G1 X101.944 Y95.259 E21.73174
G1 X101.944 Y95.056 E21.74129
G1 X101.349 Y95.056 E21.76927
G1 X98.056 Y98.349 E21.98806
G1 X98.056 Y97.550 E22.02560
G1 X100.550 Y95.056 E22.19130
G1 X99.751 Y95.056 E22.22884
G1 X98.056 Y96.751 E22.34146
G1 X98.056 Y95.952 E22.37900
G1 X98.952 Y95.056 E22.43854
G1 X98.153 Y95.056 E22.47607
G1 X98.056 Y95.153 E22.48251
M106 S255
G1 Z0.900 F30000.000
G1 X102.353 Y105.353 F30000.000
G1 F1064.62
G1 X97.647 Y105.353 E22.62224
G1 X97.647 Y94.647 E22.94011
G1 X102.353 Y94.647 E23.07983
G1 X102.353 Y105.293 E23.39592
G1 X102.730 Y105.730 F30000.000
G1 F1500
G1 X97.270 Y105.730 E23.57619
G1 X97.270 Y94.270 E23.95457
G1 X102.730 Y94.270 E24.13485
G1 X102.730 Y105.670 E24.51124
G1 X102.358 Y105.583 F30000.000
G1 X98.153 Y104.944 F30000.000
G1 F2555.08
G1 X98.056 Y104.847 E24.51768
G1 X98.056 Y104.048 E24.55522
G1 X98.952 Y104.944 E24.61476
G1 X99.751 Y104.944 E24.65229
G1 X98.056 Y103.249 E24.76491
G1 X98.056 Y102.450 E24.80245
G1 X100.550 Y104.944 E24.96816
G1 X101.349 Y104.944 E25.00569
G1 X98.056 Y101.651 E25.22448
G1 X98.056 Y100.852 E25.26202
G1 X101.944 Y104.741 E25.52037
G1 X101.944 Y103.942 E25.55791
G1 X98.056 Y100.053 E25.81626
G1 X98.056 Y99.254 E25.85380
G1 X101.944 Y103.143 E26.11215
G1 X101.944 Y102.344 E26.14969
G1 X98.056 Y98.455 E26.40804
G1 X98.056 Y97.656 E26.44558
G1 X101.944 Y101.545 E26.70393
G1 X101.944 Y100.746 E26.74147
G1 X98.056 Y96.857 E26.99982
G1 X98.056 Y96.058 E27.03736
G1 X101.944 Y99.947 E27.29571
G1 X101.944 Y99.148 E27.33325
G1 X98.056 Y95.259 E27.59160
G1 X98.056 Y95.056 E27.60116
G1 X98.651 Y95.056 E27.62914
G1 X101.944 Y98.349 E27.84793
G1 X101.944 Y97.550 E27.88546
G1 X99.450 Y95.056 E28.05117
G1 X100.249 Y95.056 E28.08870
G1 X101.944 Y96.751 E28.20132
G1 X101.944 Y95.952 E28.23886
G1 X101.048 Y95.056 E28.29839
G1 X101.847 Y95.056 E28.33593
G1 X101.944 Y95.153 E28.34238
G1 Z1.100 F30000.000
G1 X102.353 Y105.353 F30000.000
G1 F1064.62
G1 X97.647 Y105.353 E28.48211
G1 X97.647 Y94.647 E28.79998
G1 X102.353 Y94.647 E28.93970
G1 X102.353 Y105.293 E29.25579
G1 X102.730 Y105.730 F30000.000
G1 F1500
G1 X97.270 Y105.730 E29.43606
G1 X97.270 Y94.270 E29.81444
G1 X102.730 Y94.270 E29.99471
G1 X102.730 Y105.670 E30.37111
G1 X102.358 Y105.583 F30000.000
G1 X101.847 Y104.944 F30000.000
G1 F2555.09
G1 X101.944 Y104.847 E30.37756
G1 X101.944 Y104.048 E30.41510
G1 X101.048 Y104.944 E30.47464
G1 X100.249 Y104.944 E30.51217
G1 X101.944 Y103.249 E30.62479
G1 X101.944 Y102.450 E30.66233
G1 X99.450 Y104.944 E30.82803
G1 X98.651 Y104.944 E30.86557
G1 X101.944 Y101.651 E31.08436
G1 X101.944 Y100.852 E31.12190
G1 X98.056 Y104.741 E31.38025
G1 X98.056 Y103.942 E31.41779
G1 X101.944 Y100.053 E31.67614
G1 X101.944 Y99.254 E31.71368
G1 X98.056 Y103.143 E31.97204
G1 X98.056 Y102.344 E32.00957
G1 X101.944 Y98.455 E32.26793
G1 X101.944 Y97.656 E32.30547
G1 X98.056 Y101.545 E32.56382
G1 X98.056 Y100.746 E32.60136
G1 X101.944 Y96.857 E32.85972
G1 X101.944 Y96.058 E32.89725
G1 X98.056 Y99.947 E33.15561
G1 X98.056 Y99.148 E33.19314
G1 X101.944 Y95.259 E33.45150
G1 X101.944 Y95.056 E33.46106
G1 X101.349 Y95.056 E33.48904
G1 X98.056 Y98.349 E33.70783
G1 X98.056 Y97.550 E33.74536
G1 X100.550 Y95.056 E33.91107
G1 X99.751 Y95.056 E33.94861
G1 X98.056 Y96.751 E34.06123
G1 X98.056 Y95.952 E34.09876
G1 X98.952 Y95.056 E34.15830
G1 X98.153 Y95.056 E34.19584
G1 X98.056 Y95.153 E34.20228
G1 Z1.300 F30000.000
G1 X102.353 Y105.353 F30000.000
G1 F1064.62
G1 X97.647 Y105.353 E34.34200
G1 X97.647 Y94.647 E34.65987
G1 X102.353 Y94.647 E34.79959
G1 X102.353 Y105.293 E35.11568
G1 X102.730 Y105.730 F30000.000
G1 F1500
G1 X97.270 Y105.730 E35.29596
G1 X97.270 Y94.270 E35.67434
G1 X102.730 Y94.270 E35.85461
G1 X102.730 Y105.670 E36.23101
G1 X102.358 Y105.583 F30000.000
G1 X98.153 Y104.944 F30000.000
G1 F2555.09
G1 X98.056 Y104.847 E36.23745
G1 X98.056 Y104.048 E36.27499
G1 X98.952 Y104.944 E36.33452
G1 X99.751 Y104.944 E36.37206
G1 X98.056 Y103.249 E36.48468
G1 X98.056 Y102.450 E36.52222
G1 X100.550 Y104.944 E36.68792
G1 X101.349 Y104.944 E36.72546
G1 X98.056 Y101.651 E36.94425
G1 X98.056 Y100.852 E36.98179
G1 X101.944 Y104.741 E37.24014
G1 X101.944 Y103.942 E37.27768
G1 X98.056 Y100.053 E37.53603
G1 X98.056 Y99.254 E37.57357
G1 X101.944 Y103.143 E37.83193
G1 X101.944 Y102.344 E37.86946
G1 X98.056 Y98.455 E38.12782
G1 X98.056 Y97.656 E38.16536
G1 X101.944 Y101.545 E38.42371
G1 X101.944 Y100.746 E38.46125
G1 X98.056 Y96.857 E38.71961
G1 X98.056 Y96.058 E38.75714
G1 X101.944 Y99.947 E39.01550
G1 X101.944 Y99.148 E39.05303
G1 X98.056 Y95.259 E39.31139
G1 X98.056 Y95.056 E39.32095
G1 X98.651 Y95.056 E39.34893
G1 X101.944 Y98.349 E39.56772
G1 X101.944 Y97.550 E39.60525
G1 X99.450 Y95.056 E39.77096
G1 X100.249 Y95.056 E39.80849
G1 X101.944 Y96.751 E39.92111
G1 X101.944 Y95.952 E39.95865
G1 X101.048 Y95.056 E40.01819
G1 X101.847 Y95.056 E40.05572
G1 X101.944 Y95.153 E40.06217
M106 S247.35
G1 Z1.500 F30000.000
G1 X102.353 Y105.353 F30000.000
G1 F1500
G1 X97.647 Y105.353 E40.20190
G1 X97.647 Y94.647 E40.51977
G1 X102.353 Y94.647 E40.65949
G1 X102.353 Y105.293 E40.97558
G1 X102.730 Y105.730 F30000.000
G1 F1500
G1 X97.270 Y105.730 E41.15585
G1 X97.270 Y94.270 E41.53423
G1 X102.730 Y94.270 E41.71451
G1 X102.730 Y105.670 E42.09090
