; generated by Slic3r 1.3.0 on 2022-08-20 at 03:12:50

; external perimeters extrusion width = 0.44mm (3.38mm^3/s)
; perimeters extrusion width = 0.48mm (7.54mm^3/s)
; infill extrusion width = 0.48mm (10.05mm^3/s)
; solid infill extrusion width = 0.48mm (2.51mm^3/s)
; top infill extrusion width = 0.48mm (1.88mm^3/s)

M107
M104 S210 ; set temperature
G28 ; home all axes
G1 Z5 F5000 ; lift nozzle

; Filament gcode

M109 S210 ; set temperature and wait for it to be reached
G21 ; set units to millimeters
G90 ; use absolute coordinates
M82 ; use absolute distances for extrusion
G92 E0
G1 Z0.350 F7800.000
G1 E-2.00000 F2400.00000
G92 E0
G1 X47.288 Y42.284 F7800.000
G1 E2.00000 F2400.00000
G1 F1800
G1 X48.289 Y41.284 E2.12603
G1 X49.628 Y40.250 E2.27679
G1 X59.830 Y34.282 E3.33003
G1 X61.980 Y33.484 E3.53440
G1 X63.175 Y33.375 E3.64133
G1 X102.589 Y33.375 E7.15357
G1 X104.403 Y33.628 E7.31679
G1 X114.846 Y36.601 E8.28432
G1 X117.716 Y38.288 E8.58102
G1 X118.716 Y39.288 E8.70705
G1 X119.512 Y40.251 E8.81835
G1 X125.480 Y49.039 E9.76495
G1 X126.421 Y51.130 E9.96933
G1 X126.625 Y52.761 E10.11574
G1 X126.625 Y92.175 E13.62798
G1 X126.380 Y93.958 E13.78838
G1 X123.269 Y105.091 E14.81843
G1 X121.573 Y107.992 E15.11788
G1 X120.573 Y108.992 E15.24391
G1 X119.531 Y109.841 E15.36372
G1 X110.881 Y115.534 E16.28642
G1 X108.776 Y116.444 E16.49079
G1 X107.239 Y116.625 E16.62870
G1 X67.825 Y116.625 E20.14094
G1 X66.590 Y116.509 E20.25144
G1 X55.458 Y114.397 E21.26115
G1 X53.313 Y113.586 E21.46552
G1 X52.008 Y112.573 E21.61273
G1 X51.008 Y111.573 E21.73876
G1 X49.926 Y110.150 E21.89802
G1 X44.234 Y100.087 E22.92832
G1 X43.375 Y96.825 E23.22888
G1 X43.375 Y57.411 E26.74112
G1 X43.490 Y56.181 E26.85119
G1 X45.463 Y45.738 E27.79821
G1 X46.273 Y43.592 E28.00258
G1 X47.252 Y42.331 E28.14487
G1 E26.14487 F2400.00000
G92 E0
G1 X71.003 Y61.292 F7800.000
G1 E2.00000 F2400.00000
G1 F1800
G1 X70.659 Y61.659 E2.04479
G1 X70.292 Y62.003 E2.08958
G1 X69.578 Y62.557 E2.17017
G1 X69.139 Y62.835 E2.21648
G1 X68.411 Y63.216 E2.28967
G1 X67.448 Y63.462 E2.37821
G1 X66.947 Y63.542 E2.42349
G1 X66.391 Y63.590 E2.47314
G1 X65.521 Y63.588 E2.55073
G1 X64.594 Y63.471 E2.63394
G1 X64.027 Y63.339 E2.68584
G1 X63.199 Y63.068 E2.76343
G1 X62.337 Y62.663 E2.84834
G1 X61.552 Y62.164 E2.93117
G1 X61.155 Y61.856 E2.97597
G1 X60.778 Y61.524 E3.02076
G1 X60.159 Y60.865 E3.10135
G1 X59.836 Y60.448 E3.14838
G1 X59.339 Y59.664 E3.23105
G1 X58.966 Y58.877 E3.30863
G1 X58.773 Y58.355 E3.35829
G1 X58.631 Y57.866 E3.40363
G1 X58.462 Y56.978 E3.48422
G1 X58.412 Y56.450 E3.53145
G1 X58.412 Y55.522 E3.61411
G1 X58.529 Y54.600 E3.69692
G1 X58.644 Y54.085 E3.74396
G1 X58.931 Y53.201 E3.82679
G1 X59.337 Y52.337 E3.91188
G1 X59.836 Y51.552 E3.99471
G1 X60.144 Y51.155 E4.03950
G1 X60.471 Y50.783 E4.08367
G1 X61.048 Y50.285 E4.15157
G1 X61.515 Y49.951 E4.20279
G1 X62.266 Y49.509 E4.28038
G1 X63.117 Y49.141 E4.36304
G1 X63.619 Y48.978 E4.41008
G1 X64.507 Y48.779 E4.49118
G1 X65.055 Y48.714 E4.54033
G1 X65.526 Y48.684 E4.58239
G1 X66.475 Y48.775 E4.66729
G1 X67.381 Y48.978 E4.75004
G1 X67.883 Y49.141 E4.79708
G1 X68.713 Y49.500 E4.87767
G1 X69.159 Y49.745 E4.92301
G1 X69.627 Y50.047 E4.97266
G1 X70.314 Y50.583 E5.05025
G1 X70.969 Y51.239 E5.13291
G1 X71.290 Y51.626 E5.17770
G1 X71.585 Y52.032 E5.22250
G1 X72.059 Y52.833 E5.30533
G1 X72.428 Y53.686 E5.38817
G1 X72.591 Y54.188 E5.43520
G1 X72.794 Y55.095 E5.51804
G1 X72.881 Y56.021 E5.60091
G1 X72.881 Y56.546 E5.64774
G1 X72.804 Y57.388 E5.72308
G1 X72.699 Y57.961 E5.77498
G1 X72.445 Y58.835 E5.85612
G1 X72.260 Y59.303 E5.90091
G1 X72.046 Y59.758 E5.94570
G1 X71.573 Y60.558 E6.02853
G1 X71.040 Y61.245 E6.10602
G1 X70.527 Y60.886 F7800.000
G1 F1800
G1 X70.217 Y61.217 E6.14644
G1 X69.886 Y61.527 E6.18685
G1 X69.218 Y62.045 E6.26219
G1 X68.826 Y62.294 E6.30353
G1 X68.186 Y62.628 E6.36792
G1 X67.322 Y62.849 E6.44740
G1 X66.871 Y62.921 E6.48811
G1 X66.365 Y62.965 E6.53332
G1 X65.561 Y62.963 E6.60499
G1 X64.704 Y62.855 E6.68193
G1 X64.195 Y62.737 E6.72851
G1 X63.431 Y62.486 E6.80018
G1 X62.639 Y62.114 E6.87815
G1 X61.912 Y61.653 E6.95486
G1 X61.554 Y61.375 E6.99528
G1 X61.214 Y61.075 E7.03569
G1 X60.635 Y60.458 E7.11103
G1 X60.347 Y60.088 E7.15281
G1 X59.887 Y59.362 E7.22941
G1 X59.543 Y58.635 E7.30108
G1 X59.367 Y58.159 E7.34630
G1 X59.239 Y57.720 E7.38705
G1 X59.081 Y56.890 E7.46239
G1 X59.037 Y56.421 E7.50436
G1 X59.037 Y55.562 E7.58089
G1 X59.145 Y54.708 E7.65758
G1 X59.247 Y54.250 E7.69936
G1 X59.513 Y53.432 E7.77607
G1 X59.886 Y52.639 E7.85414
G1 X60.347 Y51.912 E7.93085
G1 X60.625 Y51.554 E7.97127
G1 X60.912 Y51.228 E8.00991
G1 X61.435 Y50.776 E8.07147
G1 X61.856 Y50.475 E8.11764
G1 X62.549 Y50.067 E8.18931
G1 X63.338 Y49.726 E8.26591
G1 X63.784 Y49.581 E8.30769
G1 X64.613 Y49.396 E8.38335
G1 X65.516 Y49.311 E8.46418
G1 X66.376 Y49.393 E8.54120
G1 X67.216 Y49.581 E8.61785
G1 X67.662 Y49.726 E8.65963
G1 X68.438 Y50.062 E8.73497
G1 X68.838 Y50.282 E8.77572
G1 X69.265 Y50.557 E8.82093
G1 X69.899 Y51.052 E8.89261
G1 X70.507 Y51.660 E8.96921
G1 X70.796 Y52.009 E9.00962
G1 X71.062 Y52.376 E9.05004
G1 X71.501 Y53.117 E9.12675
G1 X71.843 Y53.907 E9.20345
G1 X71.987 Y54.353 E9.24523
G1 X72.175 Y55.193 E9.32194
G1 X72.256 Y56.050 E9.39868
G1 X72.256 Y56.518 E9.44033
G1 X72.184 Y57.303 E9.51063
G1 X72.090 Y57.817 E9.55721
G1 X71.853 Y58.633 E9.63288
G1 X71.686 Y59.055 E9.67330
G1 X71.493 Y59.465 E9.71371
G1 X71.055 Y60.206 E9.79042
G1 X70.564 Y60.839 E9.86178
G1 X70.051 Y60.480 F7800.000
G1 F1800
G1 X69.775 Y60.775 E9.89782
G1 X69.480 Y61.051 E9.93386
G1 X68.858 Y61.533 E10.00394
G1 X68.514 Y61.752 E10.04031
G1 X67.961 Y62.041 E10.09591
G1 X67.195 Y62.237 E10.16632
G1 X66.795 Y62.300 E10.20246
G1 X66.339 Y62.340 E10.24323
G1 X65.601 Y62.338 E10.30899
G1 X64.814 Y62.239 E10.37965
G1 X64.363 Y62.134 E10.42091
G1 X63.662 Y61.905 E10.48667
G1 X62.941 Y61.565 E10.55770
G1 X62.272 Y61.141 E10.62828
G1 X61.952 Y60.893 E10.66432
G1 X61.649 Y60.625 E10.70036
G1 X61.110 Y60.052 E10.77044
G1 X60.859 Y59.728 E10.80697
G1 X60.435 Y59.060 E10.87751
G1 X60.119 Y58.393 E10.94327
G1 X59.961 Y57.964 E10.98404
G1 X59.848 Y57.574 E11.02020
G1 X59.700 Y56.801 E11.09029
G1 X59.662 Y56.391 E11.12700
G1 X59.662 Y55.601 E11.19740
G1 X59.761 Y54.815 E11.26797
G1 X59.851 Y54.415 E11.30450
G1 X60.095 Y53.662 E11.37508
G1 X60.435 Y52.941 E11.44615
G1 X60.859 Y52.272 E11.51672
G1 X61.353 Y51.673 E11.58586
G1 X61.822 Y51.268 E11.64107
G1 X62.197 Y51.000 E11.68218
G1 X62.833 Y50.626 E11.74794
G1 X63.559 Y50.311 E11.81848
G1 X63.949 Y50.185 E11.85501
G1 X64.718 Y50.013 E11.92521
G1 X65.506 Y49.938 E11.99571
G1 X66.278 Y50.012 E12.06484
G1 X67.051 Y50.185 E12.13539
G1 X67.441 Y50.311 E12.17192
G1 X68.162 Y50.624 E12.24201
G1 X68.518 Y50.819 E12.27817
G1 X68.902 Y51.067 E12.31894
G1 X69.484 Y51.521 E12.38470
G1 X70.044 Y52.081 E12.45524
G1 X70.302 Y52.392 E12.49128
G1 X70.540 Y52.719 E12.52732
G1 X70.943 Y53.401 E12.59789
G1 X71.257 Y54.128 E12.66847
G1 X71.384 Y54.518 E12.70500
G1 X71.557 Y55.291 E12.77558
G1 X71.631 Y56.080 E12.84619
G1 X71.631 Y56.489 E12.88265
G1 X71.564 Y57.218 E12.94791
G1 X71.481 Y57.674 E12.98917
G1 X71.261 Y58.430 E13.05938
G1 X71.112 Y58.806 E13.09542
G1 X70.940 Y59.172 E13.13146
G1 X70.537 Y59.854 E13.20204
G1 X70.088 Y60.432 E13.26727
G1 X70.051 Y60.480 F7800.000
G1 E11.26727 F2400.00000
G92 E0
G1 X73.163 Y63.544 F7800.000
G1 E2.00000 F2400.00000
G1 F1800
G1 X72.593 Y64.085 E2.07000
G1 X72.090 Y64.501 E2.12822
G1 X71.561 Y64.885 E2.18644
G1 X71.009 Y65.235 E2.24466
G1 X70.437 Y65.550 E2.30287
G1 X69.846 Y65.828 E2.36109
G1 X69.238 Y66.069 E2.41931
G1 X68.107 Y66.437 E2.52536
G1 X66.682 Y66.638 E2.65353
G1 X66.042 Y66.679 E2.71068
G1 X64.958 Y66.679 E2.80734
G1 X64.306 Y66.638 E2.86556
G1 X63.657 Y66.556 E2.92377
G1 X63.016 Y66.433 E2.98199
G1 X62.383 Y66.271 E3.04021
G1 X61.762 Y66.069 E3.09843
G1 X61.163 Y65.832 E3.15582
G1 X59.897 Y65.218 E3.28121
G1 X58.910 Y64.501 E3.38984
G1 X58.407 Y64.085 E3.44805
G1 X57.931 Y63.638 E3.50627
G1 X57.484 Y63.162 E3.56449
G1 X57.067 Y62.658 E3.62270
G1 X56.683 Y62.130 E3.68092
G1 X56.333 Y61.578 E3.73914
G1 X56.018 Y61.006 E3.79736
G1 X55.740 Y60.414 E3.85557
G1 X55.500 Y59.807 E3.91379
G1 X55.299 Y59.190 E3.97158
G1 X54.969 Y57.873 E4.09256
G1 X54.890 Y56.611 E4.20527
G1 X54.890 Y55.958 E4.26348
G1 X54.931 Y55.306 E4.32170
G1 X55.013 Y54.657 E4.37992
G1 X55.135 Y54.016 E4.43813
G1 X55.298 Y53.383 E4.49635
G1 X55.491 Y52.787 E4.55220
G1 X55.741 Y52.153 E4.61294
G1 X56.014 Y51.571 E4.67020
G1 X56.704 Y50.349 E4.79526
G1 X57.484 Y49.407 E4.90419
G1 X57.931 Y48.931 E4.96241
G1 X58.407 Y48.484 E5.02063
G1 X58.910 Y48.067 E5.07885
G1 X59.407 Y47.707 E5.13350
G1 X59.993 Y47.332 E5.19551
G1 X60.563 Y47.018 E5.25349
G1 X61.158 Y46.738 E5.31213
G1 X62.152 Y46.338 E5.40762
G1 X62.778 Y46.113 E5.46686
G1 X64.130 Y45.736 E5.59192
G1 X65.347 Y45.621 E5.70086
G1 X66.000 Y45.601 E5.75908
G1 X66.653 Y45.621 E5.81729
G1 X67.303 Y45.683 E5.87551
G1 X67.949 Y45.785 E5.93373
G1 X68.586 Y45.927 E5.99194
G1 X69.188 Y46.102 E6.04775
G1 X69.830 Y46.332 E6.10854
G1 X70.428 Y46.590 E6.16659
G1 X71.010 Y46.887 E6.22481
G1 X71.854 Y47.386 E6.31220
G1 X72.629 Y47.987 E6.39957
G1 X73.119 Y48.419 E6.45779
G1 X73.581 Y48.881 E6.51601
G1 X74.013 Y49.371 E6.57422
G1 X74.385 Y49.851 E6.62838
G1 X74.782 Y50.430 E6.69092
G1 X75.113 Y50.990 E6.74887
G1 X75.410 Y51.572 E6.80708
G1 X75.669 Y52.172 E6.86530
G1 X75.890 Y52.786 E6.92352
G1 X76.164 Y53.728 E7.01090
G1 X76.317 Y54.697 E7.09828
G1 X76.379 Y55.347 E7.15650
G1 X76.399 Y56.000 E7.21472
G1 X76.379 Y56.653 E7.27293
G1 X76.317 Y57.303 E7.33115
G1 X76.215 Y57.949 E7.38937
G1 X76.073 Y58.586 E7.44758
G1 X75.890 Y59.214 E7.50580
G1 X75.669 Y59.828 E7.56402
G1 X75.410 Y60.428 E7.62224
G1 X75.115 Y61.005 E7.67999
G1 X74.414 Y62.174 E7.80141
G1 X73.577 Y63.123 E7.91425
G1 X73.205 Y63.501 E7.96150
G1 X73.608 Y63.983 F7800.000
G1 F1800
G1 X73.006 Y64.554 E8.03543
G1 X72.473 Y64.995 E8.09715
G1 X71.912 Y65.403 E8.15886
G1 X71.328 Y65.774 E8.22058
G1 X70.721 Y66.107 E8.28230
G1 X70.094 Y66.402 E8.34401
G1 X69.450 Y66.657 E8.40573
G1 X68.248 Y67.048 E8.51838
G1 X66.746 Y67.260 E8.65356
G1 X66.062 Y67.303 E8.71462
G1 X64.938 Y67.303 E8.81479
G1 X64.247 Y67.260 E8.87650
G1 X63.560 Y67.173 E8.93822
G1 X62.879 Y67.043 E8.99994
G1 X62.208 Y66.871 E9.06165
G1 X61.550 Y66.657 E9.12337
G1 X60.911 Y66.404 E9.18458
G1 X59.574 Y65.756 E9.31699
G1 X58.527 Y64.995 E9.43230
G1 X57.994 Y64.554 E9.49402
G1 X57.489 Y64.080 E9.55574
G1 X57.015 Y63.575 E9.61745
G1 X56.573 Y63.041 E9.67917
G1 X56.166 Y62.481 E9.74089
G1 X55.795 Y61.896 E9.80260
G1 X55.461 Y61.289 E9.86432
G1 X55.166 Y60.663 E9.92604
G1 X54.911 Y60.019 E9.98775
G1 X54.698 Y59.363 E10.04921
G1 X54.349 Y57.970 E10.17720
G1 X54.265 Y56.631 E10.29676
G1 X54.265 Y55.938 E10.35847
G1 X54.309 Y55.247 E10.42019
G1 X54.395 Y54.560 E10.48191
G1 X54.525 Y53.879 E10.54362
G1 X54.697 Y53.208 E10.60534
G1 X54.903 Y52.576 E10.66463
G1 X55.167 Y51.905 E10.72887
G1 X55.459 Y51.284 E10.79000
G1 X56.187 Y49.993 E10.92207
G1 X57.015 Y48.994 E11.03771
G1 X57.489 Y48.489 E11.09942
G1 X57.994 Y48.015 E11.16114
G1 X58.527 Y47.573 E11.22286
G1 X59.054 Y47.190 E11.28092
G1 X59.674 Y46.794 E11.34643
G1 X60.279 Y46.461 E11.40800
G1 X60.908 Y46.165 E11.46997
G1 X61.930 Y45.754 E11.56810
G1 X62.588 Y45.517 E11.63044
G1 X64.016 Y45.119 E11.76251
G1 X65.308 Y44.997 E11.87814
G1 X66.000 Y44.975 E11.93986
G1 X66.692 Y44.997 E12.00158
G1 X67.382 Y45.062 E12.06329
G1 X68.066 Y45.171 E12.12501
G1 X68.742 Y45.322 E12.18673
G1 X69.380 Y45.507 E12.24597
G1 X70.059 Y45.750 E12.31026
G1 X70.694 Y46.025 E12.37187
G1 X71.311 Y46.339 E12.43359
G1 X72.206 Y46.868 E12.52623
G1 X73.027 Y47.505 E12.61886
G1 X73.547 Y47.963 E12.68058
G1 X74.037 Y48.453 E12.74230
G1 X74.495 Y48.973 E12.80401
G1 X74.890 Y49.483 E12.86157
G1 X75.309 Y50.094 E12.92760
G1 X75.661 Y50.689 E12.98916
G1 X75.975 Y51.306 E13.05087
G1 X76.250 Y51.942 E13.11259
G1 X76.485 Y52.593 E13.17431
G1 X76.775 Y53.591 E13.26694
G1 X76.938 Y54.618 E13.35958
G1 X77.003 Y55.308 E13.42130
G1 X77.025 Y56.000 E13.48301
G1 X77.003 Y56.692 E13.54473
G1 X76.938 Y57.382 E13.60645
G1 X76.829 Y58.066 E13.66816
G1 X76.678 Y58.742 E13.72988
G1 X76.485 Y59.407 E13.79160
G1 X76.250 Y60.058 E13.85331
G1 X75.975 Y60.694 E13.91503
G1 X75.662 Y61.308 E13.97646
G1 X74.921 Y62.544 E14.10490
G1 X74.034 Y63.550 E14.22436
G1 X73.650 Y63.940 E14.27315
G1 X75.223 Y63.147 F7800.000
G1 F1800
G1 X74.491 Y63.976 E14.37166
G1 X73.956 Y64.519 E14.43960
G1 X73.420 Y65.023 E14.50519
G1 X72.856 Y65.489 E14.57041
G1 X72.264 Y65.920 E14.63562
G1 X71.646 Y66.312 E14.70084
G1 X71.005 Y66.664 E14.76606
G1 X70.342 Y66.976 E14.83127
G1 X69.662 Y67.245 E14.89649
G1 X68.889 Y67.496 E14.96890
G1 X68.889 Y71.650 E15.33902
G1 X68.175 Y71.650 E15.40267
G1 X68.175 Y67.689 E15.75562
G1 X66.809 Y67.883 E15.87851
G1 X66.082 Y67.928 E15.94350
G1 X64.918 Y67.928 E16.04716
G1 X64.188 Y67.882 E16.11238
G1 X63.462 Y67.791 E16.17760
G1 X62.743 Y67.654 E16.24281
G1 X62.034 Y67.472 E16.30803
G1 X61.338 Y67.245 E16.37325
G1 X60.659 Y66.977 E16.43828
G1 X59.615 Y66.471 E16.54167
G1 X56.692 Y69.393 E16.91003
G1 X56.187 Y68.888 E16.97367
G1 X58.979 Y66.096 E17.32553
G1 X58.144 Y65.489 E17.41755
G1 X57.580 Y65.023 E17.48277
G1 X57.047 Y64.522 E17.54798
G1 X56.546 Y63.988 E17.61320
G1 X56.079 Y63.425 E17.67842
G1 X55.649 Y62.832 E17.74363
G1 X55.257 Y62.215 E17.80885
G1 X54.904 Y61.573 E17.87407
G1 X54.593 Y60.911 E17.93928
G1 X54.323 Y60.231 E18.00450
G1 X54.097 Y59.535 E18.06962
G1 X53.832 Y58.475 E18.16704
G1 X50.350 Y58.475 E18.47730
G1 X50.350 Y57.761 E18.54095
G1 X53.710 Y57.761 E18.84037
G1 X53.640 Y56.650 E18.93953
G1 X53.640 Y55.918 E19.00474
G1 X53.686 Y55.188 E19.06996
G1 X53.778 Y54.462 E19.13518
G1 X53.915 Y53.743 E19.20039
G1 X54.097 Y53.034 E19.26561
G1 X54.315 Y52.365 E19.32833
G1 X54.593 Y51.657 E19.39607
G1 X54.903 Y50.997 E19.46108
G1 X55.478 Y49.978 E19.56531
G1 X52.468 Y46.968 E19.94468
G1 X52.973 Y46.463 E20.00833
G1 X55.887 Y49.377 E20.37551
G1 X56.546 Y48.580 E20.46764
G1 X57.047 Y48.047 E20.53285
G1 X57.580 Y47.546 E20.59807
G1 X58.144 Y47.079 E20.66329
G1 X58.702 Y46.674 E20.72475
G1 X59.355 Y46.256 E20.79376
G1 X59.995 Y45.904 E20.85893
G1 X60.658 Y45.592 E20.92424
G1 X61.707 Y45.170 E21.02498
G1 X62.398 Y44.921 E21.09042
G1 X63.525 Y44.607 E21.19466
G1 X63.525 Y40.350 E21.57403
G1 X64.239 Y40.350 E21.63767
G1 X64.239 Y44.470 E22.00485
G1 X65.269 Y44.373 E22.09698
G1 X66.000 Y44.350 E22.16219
G1 X66.731 Y44.373 E22.22741
G1 X67.460 Y44.442 E22.29263
G1 X68.183 Y44.557 E22.35784
G1 X68.897 Y44.716 E22.42306
G1 X69.573 Y44.912 E22.48574
G1 X70.289 Y45.168 E22.55353
G1 X70.960 Y45.459 E22.61871
G1 X71.612 Y45.791 E22.68392
G1 X72.301 Y46.199 E22.75524
G1 X75.032 Y43.468 E23.09936
G1 X75.537 Y43.973 E23.16301
G1 X72.897 Y46.613 E23.49573
G1 X73.426 Y47.024 E23.55541
G1 X73.975 Y47.508 E23.62062
G1 X74.492 Y48.025 E23.68584
G1 X74.976 Y48.574 E23.75106
G1 X75.396 Y49.115 E23.81200
G1 X75.837 Y49.758 E23.88154
G1 X76.209 Y50.388 E23.94670
G1 X76.541 Y51.040 E24.01192
G1 X76.832 Y51.711 E24.07713
G1 X77.080 Y52.400 E24.14235
G1 X77.286 Y53.111 E24.20831
G1 X81.650 Y53.111 E24.59718
G1 X81.650 Y53.825 E24.66082
G1 X77.445 Y53.825 E25.03555
G1 X77.558 Y54.540 E25.10005
G1 X77.627 Y55.268 E25.16527
G1 X77.650 Y56.000 E25.23049
G1 X77.627 Y56.731 E25.29570
G1 X77.558 Y57.460 E25.36092
G1 X77.443 Y58.183 E25.42614
G1 X77.284 Y58.897 E25.49135
G1 X77.080 Y59.600 E25.55657
G1 X76.832 Y60.289 E25.62179
G1 X76.541 Y60.960 E25.68700
G1 X76.209 Y61.611 E25.75212
G1 X75.642 Y62.556 E25.85032
G1 X78.393 Y65.308 E26.19704
G1 X77.888 Y65.813 E26.26069
G1 X75.265 Y63.189 E26.59131
G1 X74.912 Y62.895 F7800.000
G1 X75.225 Y62.644 F7800.000
G1 F1800
G1 X77.920 Y65.339 E26.59903
G1 E24.59903 F2400.00000
G92 E0
G1 X72.401 Y63.423 F7800.000
G1 E2.00000 F2400.00000
G1 F1800
G1 X73.363 Y62.454 E2.12464
G1 X74.151 Y61.560 E2.23350
G1 X74.812 Y60.459 E2.35076
G1 X75.154 Y59.764 E2.42151
G1 X69.479 Y65.439 E3.15446
G1 X68.784 Y65.724 E3.22310
G1 X68.051 Y65.962 E3.29350
G1 X75.663 Y58.349 E4.27678
