; generated by Slic3r 1.3.0 on 2022-08-18 at 19:43:28

; external perimeters extrusion width = 0.44mm (3.38mm^3/s)
; perimeters extrusion width = 0.48mm (7.54mm^3/s)
; infill extrusion width = 0.48mm (10.05mm^3/s)
; solid infill extrusion width = 0.48mm (2.51mm^3/s)
; top infill extrusion width = 0.48mm (1.88mm^3/s)

M107
M104 S210 ; set temperature
G28 ; home all axes
G1 Z5 F5000 ; lift nozzle

; Filament gcode

M109 S210 ; set temperature and wait for it to be reached
G21 ; set units to millimeters
G90 ; use absolute coordinates
M82 ; use absolute distances for extrusion
G92 E0
G1 Z0.350 F7800.000
G1 E-2.00000 F2400.00000
G92 E0
G1 X48.467 Y42.356 F7800.000
G1 E2.00000 F2400.00000
G1 F1800
G1 X52.356 Y38.467 E2.49011
G1 X53.231 Y37.731 E2.59199
G1 X53.438 Y37.586 E2.61447
G1 X54.205 Y37.082 E2.69631
G1 X55.250 Y36.465 E2.80442
G1 X56.062 Y36.035 E2.88630
G1 X57.160 Y35.518 E2.99442
G1 X58.479 Y34.989 E3.12107
G1 X59.348 Y34.691 E3.20294
G1 X60.714 Y34.301 E3.32960
G1 X61.899 Y34.036 E3.43774
G1 X62.354 Y33.954 E3.47894
G1 X63.490 Y33.855 E3.58058
G1 X106.510 Y33.855 E7.41412
G1 X107.649 Y33.954 E7.51599
G1 X108.594 Y34.138 E7.60177
G1 X109.487 Y34.353 E7.68364
G1 X110.850 Y34.755 E7.81029
G1 X111.521 Y34.989 E7.87363
G1 X112.641 Y35.432 E7.98096
G1 X113.938 Y36.035 E8.10840
G1 X114.568 Y36.364 E8.17173
G1 X115.366 Y36.820 E8.25361
G1 X115.970 Y37.194 E8.31694
G1 X116.770 Y37.732 E8.40282
G1 X117.644 Y38.467 E8.50459
G1 X121.533 Y42.356 E8.99470
G1 X122.269 Y43.231 E9.09658
G1 X122.413 Y43.437 E9.11903
G1 X122.918 Y44.205 E9.20090
G1 X123.535 Y45.250 E9.30902
G1 X123.965 Y46.062 E9.39089
G1 X124.482 Y47.160 E9.49901
G1 X125.011 Y48.479 E9.62566
G1 X125.309 Y49.348 E9.70754
G1 X125.699 Y50.714 E9.83415
G1 X125.964 Y51.899 E9.94231
G1 X126.046 Y52.351 E9.98329
G1 X126.145 Y53.490 E10.08517
G1 X126.145 Y96.510 E13.91871
G1 X126.046 Y97.648 E14.02050
G1 X125.862 Y98.594 E14.10635
G1 X125.647 Y99.487 E14.18823
G1 X125.245 Y100.850 E14.31489
G1 X125.011 Y101.521 E14.37822
G1 X124.565 Y102.649 E14.48633
G1 X123.965 Y103.938 E14.61299
G1 X123.535 Y104.750 E14.69485
G1 X123.180 Y105.366 E14.75820
G1 X122.806 Y105.970 E14.82153
G1 X122.269 Y106.769 E14.90730
G1 X121.533 Y107.644 E15.00918
G1 X117.644 Y111.533 E15.49929
G1 X116.769 Y112.269 E15.60118
G1 X116.563 Y112.413 E15.62362
G1 X115.795 Y112.918 E15.70549
G1 X114.750 Y113.535 E15.81360
G1 X113.938 Y113.965 E15.89548
G1 X112.840 Y114.482 E16.00360
G1 X111.992 Y114.834 E16.08547
G1 X110.652 Y115.309 E16.21212
G1 X109.487 Y115.647 E16.32025
G1 X108.101 Y115.964 E16.44690
G1 X107.648 Y116.046 E16.48797
G1 X106.510 Y116.145 E16.58976
G1 X63.490 Y116.145 E20.42330
G1 X62.351 Y116.046 E20.52518
G1 X61.406 Y115.862 E20.61102
G1 X60.513 Y115.647 E20.69282
G1 X59.150 Y115.245 E20.81948
G1 X58.479 Y115.011 E20.88281
G1 X57.351 Y114.565 E20.99092
G1 X56.062 Y113.965 E21.11760
G1 X55.432 Y113.636 E21.18094
G1 X54.634 Y113.180 E21.26279
G1 X54.030 Y112.806 E21.32612
G1 X53.231 Y112.269 E21.41190
G1 X52.356 Y111.533 E21.51377
G1 X48.467 Y107.644 E22.00388
G1 X47.732 Y106.769 E22.10569
G1 X47.587 Y106.563 E22.12820
G1 X47.082 Y105.795 E22.21006
G1 X46.465 Y104.750 E22.31820
G1 X46.035 Y103.938 E22.40007
G1 X45.435 Y102.650 E22.52672
G1 X44.989 Y101.521 E22.63484
G1 X44.691 Y100.652 E22.71672
G1 X44.353 Y99.487 E22.82484
G1 X44.036 Y98.101 E22.95149
G1 X43.954 Y97.649 E22.99248
G1 X43.855 Y96.510 E23.09435
G1 X43.855 Y53.490 E26.92789
G1 X43.954 Y52.354 E27.02953
G1 X44.138 Y51.406 E27.11554
G1 X44.301 Y50.714 E27.17888
G1 X44.485 Y50.028 E27.24221
G1 X44.755 Y49.151 E27.32403
G1 X45.243 Y47.816 E27.45066
G1 X45.813 Y46.513 E27.57738
G1 X46.129 Y45.876 E27.64072
G1 X46.714 Y44.813 E27.74884
G1 X47.194 Y44.030 E27.83070
G1 X47.732 Y43.231 E27.91649
G1 X48.429 Y42.402 E28.01302
G1 E26.01302 F2400.00000
G92 E0
G1 X72.247 Y60.899 F7800.000
G1 E2.00000 F2400.00000
G1 F1800
G1 X71.781 Y61.444 E2.06382
G1 X71.267 Y61.942 E2.12764
G1 X70.708 Y62.390 E2.19145
G1 X70.110 Y62.783 E2.25527
G1 X69.477 Y63.118 E2.31909
G1 X68.813 Y63.393 E2.38311
G1 X68.089 Y63.614 E2.45052
G1 X67.204 Y63.781 E2.53080
G1 X66.479 Y63.838 E2.59562
G1 X65.763 Y63.827 E2.65944
G1 X65.051 Y63.748 E2.72326
G1 X64.347 Y63.602 E2.78728
G1 X63.625 Y63.378 E2.85469
G1 X62.799 Y63.019 E2.93497
G1 X62.167 Y62.658 E2.99979
G1 X61.581 Y62.247 E3.06361
G1 X61.036 Y61.781 E3.12743
G1 X60.530 Y61.259 E3.19225
G1 X59.977 Y60.548 E3.27253
G1 X59.580 Y59.904 E3.33994
G1 X59.264 Y59.259 E3.40396
G1 X59.011 Y58.589 E3.46778
G1 X58.822 Y57.898 E3.53160
G1 X58.698 Y57.193 E3.59541
G1 X58.642 Y56.479 E3.65923
G1 X58.654 Y55.763 E3.72305
G1 X58.732 Y55.051 E3.78687
G1 X58.877 Y54.350 E3.85069
G1 X59.088 Y53.665 E3.91450
G1 X59.367 Y52.992 E3.97945
G1 X59.815 Y52.177 E4.06228
G1 X60.234 Y51.581 E4.12722
G1 X60.700 Y51.035 E4.19124
G1 X61.245 Y50.510 E4.25865
G1 X61.958 Y49.959 E4.33893
G1 X62.578 Y49.579 E4.40375
G1 X63.221 Y49.264 E4.46757
G1 X63.891 Y49.011 E4.53139
G1 X64.582 Y48.822 E4.59521
G1 X65.290 Y48.698 E4.65923
G1 X66.044 Y48.641 E4.72664
G1 X66.944 Y48.671 E4.80692
G1 X67.664 Y48.773 E4.87174
G1 X68.361 Y48.940 E4.93556
G1 X69.038 Y49.172 E4.99938
G1 X69.691 Y49.467 E5.06319
G1 X70.313 Y49.822 E5.12701
G1 X70.899 Y50.234 E5.19083
G1 X71.444 Y50.699 E5.25465
G1 X71.942 Y51.213 E5.31847
G1 X72.390 Y51.772 E5.38228
G1 X72.789 Y52.380 E5.44710
G1 X73.200 Y53.182 E5.52739
G1 X73.469 Y53.889 E5.59480
G1 X73.659 Y54.582 E5.65882
G1 X73.782 Y55.287 E5.72263
G1 X73.839 Y56.014 E5.78758
G1 X73.810 Y56.943 E5.87041
G1 X73.707 Y57.664 E5.93535
G1 X73.540 Y58.361 E5.99917
G1 X73.308 Y59.038 E6.06299
G1 X73.013 Y59.691 E6.12681
G1 X72.658 Y60.313 E6.19062
G1 X72.281 Y60.850 E6.24910
G1 X71.752 Y60.516 F7800.000
G1 F1800
G1 X71.325 Y61.015 E6.30766
G1 X70.853 Y61.473 E6.36623
G1 X70.340 Y61.884 E6.42479
G1 X69.791 Y62.245 E6.48336
G1 X69.210 Y62.552 E6.54193
G1 X68.602 Y62.804 E6.60061
G1 X67.940 Y63.006 E6.66229
G1 X67.121 Y63.161 E6.73652
G1 X66.459 Y63.213 E6.79570
G1 X65.802 Y63.202 E6.85426
G1 X65.149 Y63.130 E6.91283
G1 X64.504 Y62.997 E6.97152
G1 X63.843 Y62.791 E7.03319
G1 X63.079 Y62.459 E7.10742
G1 X62.502 Y62.130 E7.16660
G1 X61.964 Y61.752 E7.22516
G1 X61.465 Y61.325 E7.28373
G1 X61.003 Y60.848 E7.34291
G1 X60.491 Y60.191 E7.41714
G1 X60.128 Y59.602 E7.47881
G1 X59.838 Y59.011 E7.53750
G1 X59.606 Y58.396 E7.59607
G1 X59.432 Y57.762 E7.65463
G1 X59.319 Y57.114 E7.71320
G1 X59.268 Y56.459 E7.77177
G1 X59.278 Y55.802 E7.83033
G1 X59.350 Y55.149 E7.88890
G1 X59.483 Y54.505 E7.94746
G1 X59.677 Y53.877 E8.00603
G1 X59.931 Y53.263 E8.06528
G1 X60.346 Y52.508 E8.14199
G1 X60.728 Y51.964 E8.20124
G1 X61.156 Y51.464 E8.25992
G1 X61.654 Y50.983 E8.32160
G1 X62.313 Y50.474 E8.39583
G1 X62.879 Y50.127 E8.45501
G1 X63.470 Y49.838 E8.51357
G1 X64.084 Y49.606 E8.57214
G1 X64.718 Y49.432 E8.63070
G1 X65.367 Y49.319 E8.68939
G1 X66.057 Y49.267 E8.75106
G1 X66.890 Y49.294 E8.82530
G1 X67.547 Y49.388 E8.88448
G1 X68.186 Y49.541 E8.94304
G1 X68.808 Y49.754 E9.00161
G1 X69.407 Y50.024 E9.06017
G1 X69.978 Y50.350 E9.11874
G1 X70.516 Y50.728 E9.17731
G1 X71.015 Y51.155 E9.23587
G1 X71.473 Y51.627 E9.29444
G1 X71.884 Y52.140 E9.35300
G1 X72.248 Y52.695 E9.41218
G1 X72.628 Y53.436 E9.48641
G1 X72.874 Y54.083 E9.54809
G1 X73.048 Y54.718 E9.60677
G1 X73.161 Y55.366 E9.66534
G1 X73.213 Y56.029 E9.72459
G1 X73.186 Y56.889 E9.80130
G1 X73.093 Y57.547 E9.86055
G1 X72.939 Y58.186 E9.91911
G1 X72.726 Y58.808 E9.97768
G1 X72.456 Y59.407 E10.03624
G1 X72.130 Y59.978 E10.09481
G1 X71.787 Y60.467 E10.14803
G1 X71.258 Y60.132 F7800.000
G1 F1800
G1 X70.869 Y60.587 E10.20134
G1 X70.440 Y61.004 E10.25466
G1 X69.973 Y61.378 E10.30797
G1 X69.473 Y61.706 E10.36129
G1 X68.944 Y61.986 E10.41460
G1 X68.391 Y62.215 E10.46796
G1 X67.790 Y62.398 E10.52389
G1 X67.038 Y62.540 E10.59208
G1 X66.440 Y62.587 E10.64561
G1 X65.841 Y62.578 E10.69892
G1 X65.247 Y62.512 E10.75224
G1 X64.660 Y62.391 E10.80560
G1 X64.061 Y62.205 E10.86153
G1 X63.359 Y61.900 E10.92971
G1 X62.837 Y61.602 E10.98325
G1 X62.348 Y61.258 E11.03656
G1 X61.893 Y60.869 E11.08987
G1 X61.475 Y60.438 E11.14341
G1 X61.005 Y59.834 E11.21159
G1 X60.675 Y59.300 E11.26752
G1 X60.412 Y58.762 E11.32088
G1 X60.201 Y58.202 E11.37420
G1 X60.043 Y57.625 E11.42751
G1 X59.940 Y57.036 E11.48082
G1 X59.893 Y56.440 E11.53414
G1 X59.902 Y55.841 E11.58745
G1 X59.968 Y55.247 E11.64077
G1 X60.089 Y54.661 E11.69408
G1 X60.265 Y54.089 E11.74740
G1 X60.495 Y53.534 E11.80095
G1 X60.877 Y52.840 E11.87153
G1 X61.222 Y52.348 E11.92509
G1 X61.611 Y51.893 E11.97845
G1 X62.063 Y51.457 E12.03438
G1 X62.669 Y50.989 E12.10257
G1 X63.181 Y50.675 E12.15610
G1 X63.718 Y50.412 E12.20941
G1 X64.278 Y50.201 E12.26273
G1 X64.855 Y50.043 E12.31604
G1 X65.445 Y49.940 E12.36940
G1 X66.071 Y49.892 E12.42533
G1 X66.835 Y49.918 E12.49352
G1 X67.430 Y50.002 E12.54705
G1 X68.012 Y50.142 E12.60036
G1 X68.578 Y50.336 E12.65368
G1 X69.123 Y50.582 E12.70699
G1 X69.643 Y50.878 E12.76031
G1 X70.132 Y51.222 E12.81362
G1 X70.587 Y51.611 E12.86693
G1 X71.004 Y52.041 E12.92025
G1 X71.378 Y52.507 E12.97356
G1 X71.707 Y53.010 E13.02710
G1 X72.056 Y53.691 E13.09528
G1 X72.280 Y54.277 E13.15121
G1 X72.438 Y54.855 E13.20457
G1 X72.540 Y55.444 E13.25788
G1 X72.588 Y56.043 E13.31144
G1 X72.563 Y56.835 E13.38202
G1 X72.478 Y57.430 E13.43558
G1 X72.338 Y58.012 E13.48890
G1 X72.145 Y58.578 E13.54221
G1 X71.898 Y59.123 E13.59552
G1 X71.602 Y59.643 E13.64884
G1 X71.292 Y60.083 E13.69680
G1 X71.258 Y60.132 F7800.000
G1 E11.69680 F2400.00000
G92 E0
G1 X77.766 Y61.614 F7800.000
G1 E2.00000 F2400.00000
G1 F1800
G1 X71.614 Y67.766 E2.77523
G1 X72.866 Y69.017 E2.93290
G1 X72.371 Y69.269 E2.98236
G1 X71.529 Y69.633 E3.06409
G1 X70.590 Y69.960 E3.15272
G1 X70.590 Y68.190 E3.31039
G1 X61.890 Y68.190 E4.08562
G1 X61.890 Y69.960 E4.24330
G1 X61.362 Y69.788 E4.29275
G1 X60.510 Y69.451 E4.37448
G1 X60.120 Y69.275 E4.41255
G1 X59.615 Y69.017 E4.46313
G1 X60.866 Y67.766 E4.62081
G1 X54.714 Y61.614 E5.39604
G1 X53.463 Y62.866 E5.55371
G1 X53.211 Y62.371 E5.60317
G1 X52.847 Y61.529 E5.68490
G1 X52.696 Y61.130 E5.72297
G1 X52.520 Y60.590 E5.77355
G1 X54.290 Y60.590 E5.93123
G1 X54.290 Y51.890 E6.70645
G1 X52.520 Y51.890 E6.86413
G1 X52.692 Y51.362 E6.91359
G1 X53.030 Y50.510 E6.99532
G1 X53.205 Y50.120 E7.03339
G1 X53.463 Y49.615 E7.08397
G1 X54.714 Y50.866 E7.24165
G1 X60.866 Y44.714 E8.01687
G1 X59.615 Y43.463 E8.17455
G1 X60.109 Y43.211 E8.22401
G1 X60.951 Y42.847 E8.30574
G1 X61.351 Y42.696 E8.34381
G1 X61.890 Y42.520 E8.39439
G1 X61.890 Y44.290 E8.55206
G1 X70.590 Y44.290 E9.32729
G1 X70.590 Y42.520 E9.48497
G1 X71.118 Y42.692 E9.53442
G1 X71.970 Y43.030 E9.61615
G1 X72.360 Y43.205 E9.65423
G1 X72.866 Y43.463 E9.70480
G1 X71.614 Y44.714 E9.86248
G1 X77.766 Y50.866 E10.63771
G1 X79.017 Y49.615 E10.79539
G1 X79.269 Y50.109 E10.84484
G1 X79.633 Y50.950 E10.92654
G1 X79.960 Y51.890 E11.01521
G1 X78.190 Y51.890 E11.17289
G1 X78.190 Y60.590 E11.94812
G1 X79.960 Y60.590 E12.10579
G1 X79.788 Y61.118 E12.15525
G1 X79.451 Y61.970 E12.23698
G1 X79.017 Y62.866 E12.32561
G1 X77.808 Y61.657 E12.47794
G1 X77.766 Y62.498 F7800.000
G1 F1800
G1 X72.498 Y67.766 E13.14179
G1 X73.893 Y69.161 E13.31759
G1 X73.478 Y69.406 E13.36054
G1 X72.637 Y69.835 E13.44465
G1 X71.764 Y70.213 E13.52945
G1 X71.337 Y70.374 E13.57014
G1 X70.432 Y70.668 E13.65493
G1 X69.965 Y70.788 E13.69788
G1 X69.965 Y68.815 E13.87368
G1 X62.515 Y68.815 E14.53754
G1 X62.515 Y70.788 E14.71334
G1 X62.048 Y70.668 E14.75629
G1 X61.151 Y70.376 E14.84040
G1 X60.266 Y70.026 E14.92519
G1 X59.850 Y69.838 E14.96589
G1 X59.002 Y69.406 E15.05068
G1 X58.587 Y69.161 E15.09363
G1 X59.982 Y67.766 E15.26943
G1 X54.714 Y62.498 E15.93329
G1 X53.319 Y63.893 E16.10909
G1 X53.074 Y63.478 E16.15204
G1 X52.645 Y62.637 E16.23615
G1 X52.268 Y61.764 E16.32094
G1 X52.106 Y61.337 E16.36163
G1 X51.812 Y60.432 E16.44643
G1 X51.692 Y59.965 E16.48938
G1 X53.665 Y59.965 E16.66518
G1 X53.665 Y52.515 E17.32903
G1 X51.692 Y52.515 E17.50484
G1 X51.812 Y52.048 E17.54779
G1 X52.104 Y51.151 E17.63190
G1 X52.454 Y50.266 E17.71669
G1 X52.642 Y49.850 E17.75739
G1 X53.074 Y49.002 E17.84218
G1 X53.319 Y48.587 E17.88513
G1 X54.714 Y49.982 E18.06093
G1 X59.982 Y44.714 E18.72479
G1 X58.581 Y43.314 E18.90130
G1 X58.995 Y43.077 E18.94377
G1 X59.843 Y42.645 E19.02854
G1 X60.716 Y42.268 E19.11333
G1 X61.143 Y42.106 E19.15403
G1 X62.048 Y41.812 E19.23882
G1 X62.515 Y41.692 E19.28177
G1 X62.515 Y43.665 E19.45757
G1 X69.965 Y43.665 E20.12143
G1 X69.965 Y41.692 E20.29722
G1 X70.432 Y41.812 E20.34018
G1 X71.330 Y42.104 E20.42428
G1 X72.214 Y42.454 E20.50908
G1 X72.630 Y42.642 E20.54977
G1 X73.478 Y43.074 E20.63456
G1 X73.893 Y43.319 E20.67752
G1 X72.498 Y44.714 E20.85331
G1 X77.766 Y49.982 E21.51717
G1 X79.167 Y48.581 E21.69370
G1 X79.407 Y49.003 E21.73691
G1 X79.835 Y49.843 E21.82095
G1 X80.213 Y50.716 E21.90572
G1 X80.377 Y51.151 E21.94719
G1 X80.668 Y52.048 E22.03123
G1 X80.788 Y52.515 E22.07418
G1 X78.815 Y52.515 E22.24998
G1 X78.815 Y59.965 E22.91384
G1 X80.788 Y59.965 E23.08964
G1 X80.668 Y60.432 E23.13259
G1 X80.376 Y61.330 E23.21670
G1 X80.026 Y62.214 E23.30149
G1 X79.838 Y62.630 E23.34219
G1 X79.406 Y63.478 E23.42698
G1 X79.161 Y63.893 E23.46993
G1 X77.808 Y62.541 E23.64038
G1 X77.766 Y63.382 F7800.000
G1 F1800
G1 X73.382 Y67.766 E24.19287
G1 X74.894 Y69.278 E24.38339
G1 X73.779 Y69.954 E24.49955
G1 X72.903 Y70.400 E24.58716
G1 X71.999 Y70.792 E24.67501
G1 X71.544 Y70.964 E24.71833
G1 X70.606 Y71.269 E24.80619
G1 X69.653 Y71.513 E24.89388
G1 X69.340 Y71.575 E24.92230
G1 X69.340 Y69.440 E25.11252
G1 X63.140 Y69.440 E25.66500
G1 X63.140 Y71.578 E25.85553
G1 X61.874 Y71.269 E25.97168
G1 X60.939 Y70.965 E26.05929
G1 X60.022 Y70.602 E26.14715
G1 X59.579 Y70.402 E26.19047
G1 X58.701 Y69.954 E26.27832
G1 X57.854 Y69.453 E26.36601
G1 X57.589 Y69.275 E26.39444
G1 X59.098 Y67.766 E26.58465
G1 X54.714 Y63.382 E27.13714
G1 X53.202 Y64.894 E27.32766
G1 X52.526 Y63.779 E27.44382
G1 X52.080 Y62.903 E27.53143
G1 X51.688 Y61.999 E27.61928
G1 X51.516 Y61.544 E27.66260
G1 X51.212 Y60.606 E27.75045
G1 X50.967 Y59.653 E27.83815
G1 X50.906 Y59.340 E27.86657
G1 X53.040 Y59.340 E28.05678
G1 X53.040 Y53.140 E28.60927
G1 X50.902 Y53.140 E28.79979
G1 X51.212 Y51.874 E28.91594
G1 X51.515 Y50.939 E29.00355
G1 X51.878 Y50.022 E29.09140
G1 X52.078 Y49.579 E29.13472
G1 X52.526 Y48.701 E29.22258
G1 X53.027 Y47.854 E29.31027
G1 X53.205 Y47.589 E29.33869
G1 X54.714 Y49.098 E29.52891
G1 X59.098 Y44.714 E30.08139
G1 X57.589 Y43.204 E30.27167
G1 X58.269 Y42.773 E30.34345
G1 X58.698 Y42.527 E30.38755
G1 X59.577 Y42.080 E30.47540
G1 X60.482 Y41.688 E30.56325
G1 X60.936 Y41.516 E30.60657
G1 X61.874 Y41.212 E30.69443
G1 X62.827 Y40.967 E30.78212
G1 X63.140 Y40.906 E30.81054
G1 X63.140 Y43.040 E31.00076
G1 X69.340 Y43.040 E31.55324
G1 X69.340 Y40.902 E31.74376
G1 X70.606 Y41.212 E31.85991
G1 X71.541 Y41.515 E31.94752
G1 X72.458 Y41.878 E32.03538
G1 X72.901 Y42.078 E32.07870
G1 X73.779 Y42.526 E32.16655
G1 X74.626 Y43.027 E32.25424
G1 X74.891 Y43.205 E32.28267
G1 X73.382 Y44.714 E32.47288
G1 X77.766 Y49.098 E33.02537
G1 X79.276 Y47.589 E33.21564
G1 X79.712 Y48.276 E33.28819
G1 X79.957 Y48.706 E33.33229
G1 X80.400 Y49.577 E33.41937
G1 X80.792 Y50.481 E33.50722
G1 X80.967 Y50.945 E33.55132
G1 X81.269 Y51.874 E33.63840
G1 X81.513 Y52.827 E33.72609
G1 X81.575 Y53.140 E33.75451
G1 X79.440 Y53.140 E33.94473
G1 X79.440 Y59.340 E34.49721
G1 X81.578 Y59.340 E34.68774
G1 X81.269 Y60.606 E34.80389
G1 X80.965 Y61.541 E34.89150
G1 X80.602 Y62.458 E34.97936
G1 X80.402 Y62.901 E35.02268
G1 X79.954 Y63.779 E35.11053
G1 X79.453 Y64.626 E35.19822
G1 X79.275 Y64.891 E35.22665
G1 X77.808 Y63.424 E35.41151
G1 X77.469 Y63.114 F7800.000
G1 X78.597 Y62.048 F7800.000
G1 F1800
G1 X79.083 Y61.562 E35.48502
G1 X78.612 Y60.972 F7800.000
G1 F1800
G1 X78.067 Y61.517 E35.56754
G1 E33.56754 F2400.00000
G92 E0
G1 X70.688 Y67.808 F7800.000
G1 E2.00000 F2400.00000
G1 F1800
G1 X77.808 Y60.688 E3.07680
G1 X77.808 Y59.798 E3.17194
G1 X69.798 Y67.808 E4.38330
G1 X68.908 Y67.808 E4.47845
G1 X77.808 Y58.908 E5.82437
G1 X77.808 Y58.019 E5.91952
