; generated by Slic3r 1.3.0 on 2022-08-17 at 18:47:10

; external perimeters extrusion width = 0.44mm (3.38mm^3/s)
; perimeters extrusion width = 0.48mm (7.54mm^3/s)
; infill extrusion width = 0.48mm (10.05mm^3/s)
; solid infill extrusion width = 0.48mm (2.51mm^3/s)
; top infill extrusion width = 0.48mm (1.88mm^3/s)

M107
M104 S205 ; set temperature
G28 ; home all axes
G1 Z5 F5000 ; lift nozzle

; Filament gcode

M109 S205 ; set temperature and wait for it to be reached
G21 ; set units to millimeters
G90 ; use absolute coordinates
M82 ; use absolute distances for extrusion
G92 E0
G1 Z0.350 F7800.000
G1 E-2.00000 F2400.00000
G92 E0
G1 X67.227 Y61.116 F7800.000
G1 E2.00000 F2400.00000
G1 F1800
G1 X71.116 Y57.227 E2.50011
G1 X71.991 Y56.491 E2.60407
G1 X72.790 Y55.953 E2.69163
G1 X73.394 Y55.579 E2.75622
G1 X74.192 Y55.124 E2.83977
G1 X75.273 Y54.573 E2.95009
G1 X76.110 Y54.195 E3.03364
G1 X77.238 Y53.749 E3.14396
G1 X78.108 Y53.451 E3.22750
G1 X79.273 Y53.113 E3.33783
G1 X80.166 Y52.898 E3.42138
G1 X81.114 Y52.713 E3.50914
G1 X82.250 Y52.615 E3.61285
G1 X87.750 Y52.615 E4.11297
G1 X88.889 Y52.714 E4.21692
G1 X90.037 Y52.943 E4.32337
G1 X91.213 Y53.245 E4.43374
G1 X92.090 Y53.515 E4.51723
G1 X93.232 Y53.926 E4.62756
G1 X94.081 Y54.278 E4.71110
G1 X95.178 Y54.795 E4.82143
G1 X95.990 Y55.225 E4.90497
G1 X97.035 Y55.842 E5.01530
G1 X98.010 Y56.492 E5.12184
G1 X98.884 Y57.227 E5.22569
G1 X102.773 Y61.116 E5.72580
G1 X103.509 Y61.991 E5.82976
G1 X104.158 Y62.965 E5.93620
G1 X104.776 Y64.010 E6.04653
G1 X105.205 Y64.822 E6.13007
G1 X105.722 Y65.919 E6.24039
G1 X106.074 Y66.768 E6.32392
G1 X106.485 Y67.910 E6.43426
G1 X106.755 Y68.787 E6.51774
G1 X107.057 Y69.963 E6.62813
G1 X107.286 Y71.111 E6.73457
G1 X107.385 Y72.250 E6.83853
G1 X107.385 Y77.750 E7.33864
G1 X107.286 Y78.888 E7.44251
G1 X107.057 Y80.037 E7.54901
G1 X106.755 Y81.212 E7.65936
G1 X106.485 Y82.090 E7.74291
G1 X106.074 Y83.232 E7.85323
G1 X105.722 Y84.081 E7.93678
G1 X105.205 Y85.178 E8.04710
G1 X104.776 Y85.990 E8.13063
G1 X104.158 Y87.035 E8.24097
G1 X103.509 Y88.009 E8.34741
G1 X102.773 Y88.884 E8.45137
G1 X98.884 Y92.773 E8.95148
G1 X98.009 Y93.509 E9.05544
G1 X97.210 Y94.046 E9.14296
G1 X96.427 Y94.526 E9.22650
G1 X95.364 Y95.111 E9.33683
G1 X94.539 Y95.515 E9.42037
G1 X93.232 Y96.074 E9.54961
G1 X92.090 Y96.485 E9.65993
G1 X91.212 Y96.755 E9.74348
G1 X90.037 Y97.057 E9.85380
G1 X88.893 Y97.285 E9.95984
G1 X87.750 Y97.385 E10.06420
G1 X82.250 Y97.385 E10.56431
G1 X81.111 Y97.286 E10.66827
G1 X80.165 Y97.102 E10.75587
G1 X78.797 Y96.757 E10.88423
G1 X77.910 Y96.485 E10.96857
G1 X76.768 Y96.074 E11.07891
G1 X75.919 Y95.722 E11.16244
G1 X74.821 Y95.205 E11.27279
G1 X74.010 Y94.775 E11.35632
G1 X72.965 Y94.158 E11.46664
G1 X71.991 Y93.509 E11.57307
G1 X71.116 Y92.773 E11.67703
G1 X67.227 Y88.884 E12.17715
G1 X66.492 Y88.009 E12.28103
G1 X65.842 Y87.035 E12.38752
G1 X65.225 Y85.990 E12.49786
G1 X64.795 Y85.178 E12.58141
G1 X64.278 Y84.081 E12.69173
G1 X63.926 Y83.232 E12.77528
G1 X63.515 Y82.090 E12.88561
G1 X63.245 Y81.212 E12.96915
G1 X62.943 Y80.037 E13.07947
G1 X62.714 Y78.889 E13.18592
G1 X62.615 Y77.750 E13.28987
G1 X62.615 Y72.250 E13.78998
G1 X62.713 Y71.114 E13.89370
G1 X62.898 Y70.166 E13.98146
G1 X63.061 Y69.474 E14.04609
G1 X63.303 Y68.588 E14.12964
G1 X63.749 Y67.238 E14.25888
G1 X64.195 Y66.110 E14.36920
G1 X64.795 Y64.822 E14.49843
G1 X65.225 Y64.010 E14.58198
G1 X65.953 Y62.790 E14.71120
G1 X66.491 Y61.991 E14.79875
G1 X67.188 Y61.162 E14.89724
G1 E12.89724 F2400.00000
G92 E0
G1 X90.541 Y80.204 F7800.000
G1 E2.00000 F2400.00000
G1 F1800
G1 X90.027 Y80.702 E2.06512
G1 X89.468 Y81.150 E2.13024
G1 X88.870 Y81.543 E2.19536
G1 X88.237 Y81.878 E2.26048
G1 X87.573 Y82.153 E2.32581
G1 X86.849 Y82.373 E2.39459
G1 X85.964 Y82.541 E2.47652
G1 X85.239 Y82.598 E2.54266
G1 X84.523 Y82.587 E2.60778
G1 X83.811 Y82.508 E2.67290
G1 X83.107 Y82.362 E2.73822
G1 X82.385 Y82.138 E2.80701
G1 X81.559 Y81.779 E2.88893
G1 X80.927 Y81.418 E2.95508
G1 X80.341 Y81.006 E3.02020
G1 X79.796 Y80.541 E3.08532
G1 X79.290 Y80.019 E3.15146
G1 X78.737 Y79.308 E3.23338
G1 X78.340 Y78.664 E3.30217
G1 X78.024 Y78.019 E3.36749
G1 X77.770 Y77.349 E3.43261
G1 X77.582 Y76.658 E3.49773
G1 X77.458 Y75.953 E3.56285
G1 X77.402 Y75.239 E3.62797
G1 X77.413 Y74.523 E3.69309
G1 X77.492 Y73.811 E3.75821
G1 X77.637 Y73.110 E3.82334
G1 X77.848 Y72.425 E3.88846
G1 X78.127 Y71.752 E3.95472
G1 X78.575 Y70.937 E4.03925
G1 X78.994 Y70.341 E4.10551
G1 X79.460 Y69.795 E4.17084
G1 X80.005 Y69.270 E4.23962
G1 X80.718 Y68.719 E4.32155
G1 X81.338 Y68.339 E4.38769
G1 X81.981 Y68.024 E4.45281
G1 X82.651 Y67.770 E4.51793
G1 X83.342 Y67.582 E4.58305
G1 X84.049 Y67.458 E4.64838
G1 X84.804 Y67.401 E4.71716
G1 X85.704 Y67.431 E4.79909
G1 X86.424 Y67.533 E4.86523
G1 X87.121 Y67.700 E4.93035
G1 X87.798 Y67.932 E4.99547
G1 X88.451 Y68.227 E5.06059
G1 X89.073 Y68.582 E5.12571
G1 X89.659 Y68.994 E5.19083
G1 X90.204 Y69.459 E5.25595
G1 X90.702 Y69.973 E5.32107
G1 X91.150 Y70.532 E5.38619
G1 X91.549 Y71.140 E5.45233
G1 X91.960 Y71.942 E5.53426
G1 X92.229 Y72.649 E5.60304
G1 X92.418 Y73.342 E5.66837
G1 X92.542 Y74.047 E5.73349
G1 X92.599 Y74.774 E5.79975
G1 X92.570 Y75.703 E5.88428
G1 X92.467 Y76.424 E5.95055
G1 X92.300 Y77.121 E6.01567
G1 X92.068 Y77.798 E6.08079
G1 X91.773 Y78.451 E6.14591
G1 X91.418 Y79.073 E6.21103
G1 X91.006 Y79.659 E6.27615
G1 X90.580 Y80.158 E6.33581
G1 X90.085 Y79.775 F7800.000
G1 F1800
G1 X89.613 Y80.233 E6.39557
G1 X89.100 Y80.644 E6.45533
G1 X88.551 Y81.005 E6.51510
G1 X87.970 Y81.312 E6.57486
G1 X87.362 Y81.564 E6.63474
G1 X86.700 Y81.766 E6.69767
G1 X85.881 Y81.920 E6.77342
G1 X85.219 Y81.973 E6.83381
G1 X84.562 Y81.962 E6.89357
G1 X83.909 Y81.890 E6.95333
G1 X83.264 Y81.757 E7.01322
G1 X82.603 Y81.551 E7.07615
G1 X81.839 Y81.219 E7.15190
G1 X81.262 Y80.890 E7.21228
G1 X80.724 Y80.512 E7.27204
G1 X80.225 Y80.085 E7.33180
G1 X79.762 Y79.608 E7.39218
G1 X79.251 Y78.951 E7.46793
G1 X78.888 Y78.362 E7.53086
G1 X78.598 Y77.770 E7.59075
G1 X78.365 Y77.156 E7.65051
G1 X78.192 Y76.522 E7.71027
G1 X78.079 Y75.874 E7.77003
G1 X78.027 Y75.219 E7.82980
G1 X78.038 Y74.562 E7.88956
G1 X78.110 Y73.909 E7.94932
G1 X78.243 Y73.265 E8.00908
G1 X78.436 Y72.637 E8.06884
G1 X78.691 Y72.023 E8.12930
G1 X79.106 Y71.268 E8.20757
G1 X79.488 Y70.724 E8.26803
G1 X79.916 Y70.224 E8.32792
G1 X80.414 Y69.743 E8.39085
G1 X81.073 Y69.234 E8.46660
G1 X81.639 Y68.887 E8.52698
G1 X82.230 Y68.598 E8.58674
G1 X82.844 Y68.365 E8.64650
G1 X83.478 Y68.192 E8.70626
G1 X84.127 Y68.079 E8.76615
G1 X84.817 Y68.026 E8.82908
G1 X85.650 Y68.054 E8.90483
G1 X86.307 Y68.148 E8.96521
G1 X86.946 Y68.301 E9.02497
G1 X87.568 Y68.514 E9.08474
G1 X88.167 Y68.784 E9.14450
G1 X88.738 Y69.110 E9.20426
G1 X89.276 Y69.488 E9.26402
G1 X89.775 Y69.915 E9.32378
G1 X90.233 Y70.387 E9.38354
G1 X90.644 Y70.900 E9.44330
G1 X91.008 Y71.455 E9.50369
G1 X91.388 Y72.196 E9.57944
G1 X91.634 Y72.843 E9.64237
G1 X91.808 Y73.478 E9.70225
G1 X91.921 Y74.126 E9.76201
G1 X91.973 Y74.789 E9.82247
G1 X91.946 Y75.649 E9.90075
G1 X91.852 Y76.307 E9.96121
G1 X91.699 Y76.946 E10.02097
G1 X91.486 Y77.568 E10.08073
G1 X91.216 Y78.167 E10.14049
G1 X90.890 Y78.738 E10.20025
G1 X90.512 Y79.276 E10.26001
G1 X90.124 Y79.730 E10.31432
G1 X89.629 Y79.347 F7800.000
G1 F1800
G1 X89.200 Y79.763 E10.36872
G1 X88.733 Y80.138 E10.42312
G1 X88.233 Y80.466 E10.47752
G1 X87.704 Y80.746 E10.53193
G1 X87.151 Y80.975 E10.58637
G1 X86.550 Y81.158 E10.64345
G1 X85.798 Y81.300 E10.71302
G1 X85.199 Y81.347 E10.76765
G1 X84.601 Y81.338 E10.82205
G1 X84.007 Y81.272 E10.87645
G1 X83.420 Y81.151 E10.93090
G1 X82.821 Y80.965 E10.98797
G1 X82.119 Y80.659 E11.05755
G1 X81.597 Y80.362 E11.11218
G1 X81.108 Y80.018 E11.16658
G1 X80.653 Y79.629 E11.22098
G1 X80.235 Y79.198 E11.27560
G1 X79.765 Y78.594 E11.34518
G1 X79.435 Y78.060 E11.40226
G1 X79.172 Y77.522 E11.45670
G1 X78.960 Y76.962 E11.51110
G1 X78.803 Y76.385 E11.56551
G1 X78.700 Y75.796 E11.61991
G1 X78.653 Y75.199 E11.67431
G1 X78.662 Y74.601 E11.72871
G1 X78.728 Y74.007 E11.78311
G1 X78.849 Y73.421 E11.83752
G1 X79.025 Y72.849 E11.89192
G1 X79.255 Y72.294 E11.94657
G1 X79.637 Y71.600 E12.01859
G1 X79.982 Y71.108 E12.07324
G1 X80.371 Y70.652 E12.12769
G1 X80.823 Y70.217 E12.18476
G1 X81.428 Y69.749 E12.25434
G1 X81.941 Y69.435 E12.30896
G1 X82.478 Y69.172 E12.36337
G1 X83.038 Y68.960 E12.41777
G1 X83.615 Y68.803 E12.47217
G1 X84.205 Y68.700 E12.52662
G1 X84.830 Y68.652 E12.58369
G1 X85.595 Y68.677 E12.65327
G1 X86.190 Y68.762 E12.70789
G1 X86.772 Y68.902 E12.76230
G1 X87.338 Y69.096 E12.81670
G1 X87.883 Y69.342 E12.87110
G1 X88.403 Y69.638 E12.92550
G1 X88.892 Y69.982 E12.97990
G1 X89.347 Y70.371 E13.03431
G1 X89.763 Y70.800 E13.08871
G1 X90.138 Y71.267 E13.14311
G1 X90.467 Y71.769 E13.19774
G1 X90.816 Y72.451 E13.26731
G1 X91.039 Y73.037 E13.32439
G1 X91.197 Y73.615 E13.37883
G1 X91.300 Y74.204 E13.43324
G1 X91.347 Y74.803 E13.48789
G1 X91.323 Y75.595 E13.55991
G1 X91.238 Y76.190 E13.61456
G1 X91.098 Y76.772 E13.66896
G1 X90.904 Y77.338 E13.72336
G1 X90.658 Y77.883 E13.77776
G1 X90.362 Y78.403 E13.83217
G1 X90.018 Y78.892 E13.88657
G1 X89.668 Y79.302 E13.93552
G1 X89.629 Y79.347 F7800.000
G1 E11.93552 F2400.00000
G92 E0
G1 X96.526 Y80.374 F7800.000
G1 E2.00000 F2400.00000
G1 F1800
G1 X90.374 Y86.526 E2.79105
G1 X91.626 Y87.777 E2.95194
G1 X91.131 Y88.029 E3.00241
G1 X90.289 Y88.393 E3.08581
G1 X89.350 Y88.720 E3.17624
G1 X89.350 Y86.950 E3.33714
G1 X80.650 Y86.950 E4.12818
G1 X80.650 Y88.720 E4.28908
G1 X80.122 Y88.548 E4.33954
G1 X79.270 Y88.211 E4.42294
G1 X78.880 Y88.035 E4.46179
G1 X78.374 Y87.777 E4.51340
G1 X79.626 Y86.526 E4.67430
G1 X73.474 Y80.374 E5.46534
G1 X72.223 Y81.626 E5.62624
G1 X71.971 Y81.131 E5.67671
G1 X71.607 Y80.289 E5.76010
G1 X71.456 Y79.890 E5.79895
G1 X71.280 Y79.350 E5.85056
G1 X73.050 Y79.350 E6.01146
G1 X73.050 Y70.650 E6.80250
G1 X71.280 Y70.650 E6.96340
G1 X71.452 Y70.122 E7.01387
G1 X71.789 Y69.270 E7.09726
G1 X71.965 Y68.880 E7.13611
G1 X72.223 Y68.374 E7.18772
G1 X73.474 Y69.626 E7.34862
G1 X79.626 Y63.474 E8.13966
G1 X78.374 Y62.223 E8.30056
G1 X78.869 Y61.971 E8.35103
G1 X79.711 Y61.607 E8.43443
G1 X80.110 Y61.456 E8.47327
G1 X80.650 Y61.280 E8.52488
G1 X80.650 Y63.050 E8.68578
G1 X89.350 Y63.050 E9.47683
G1 X89.350 Y61.280 E9.63772
G1 X89.878 Y61.452 E9.68819
G1 X90.730 Y61.789 E9.77159
G1 X91.120 Y61.965 E9.81043
G1 X91.626 Y62.223 E9.86205
G1 X90.374 Y63.474 E10.02294
G1 X96.526 Y69.626 E10.81399
G1 X97.777 Y68.374 E10.97489
G1 X98.029 Y68.869 E11.02535
G1 X98.393 Y69.710 E11.10872
G1 X98.720 Y70.650 E11.19919
G1 X96.950 Y70.650 E11.36009
G1 X96.950 Y79.350 E12.15114
G1 X98.720 Y79.350 E12.31203
G1 X98.548 Y79.878 E12.36250
G1 X98.211 Y80.730 E12.44590
G1 X97.777 Y81.626 E12.53633
G1 X96.568 Y80.417 E12.69177
G1 X96.526 Y81.258 F7800.000
G1 F1800
G1 X91.258 Y86.526 E13.36918
G1 X92.653 Y87.921 E13.54856
G1 X92.238 Y88.166 E13.59239
G1 X91.397 Y88.595 E13.67822
G1 X90.524 Y88.973 E13.76474
G1 X90.097 Y89.134 E13.80627
G1 X89.192 Y89.428 E13.89279
G1 X88.725 Y89.548 E13.93662
G1 X88.725 Y87.575 E14.11600
G1 X81.275 Y87.575 E14.79341
G1 X81.275 Y89.548 E14.97280
G1 X80.808 Y89.428 E15.01662
G1 X79.911 Y89.136 E15.10245
G1 X79.026 Y88.786 E15.18897
G1 X78.610 Y88.598 E15.23050
G1 X77.762 Y88.166 E15.31702
G1 X77.347 Y87.921 E15.36085
G1 X78.742 Y86.526 E15.54023
G1 X73.474 Y81.258 E16.21764
G1 X72.079 Y82.653 E16.39703
G1 X71.834 Y82.238 E16.44085
G1 X71.405 Y81.397 E16.52668
G1 X71.027 Y80.524 E16.61320
G1 X70.866 Y80.097 E16.65473
G1 X70.572 Y79.192 E16.74125
G1 X70.452 Y78.725 E16.78508
G1 X72.425 Y78.725 E16.96447
G1 X72.425 Y71.275 E17.64187
G1 X70.452 Y71.275 E17.82126
G1 X70.572 Y70.808 E17.86509
G1 X70.864 Y69.911 E17.95092
G1 X71.214 Y69.026 E18.03744
G1 X71.402 Y68.610 E18.07897
G1 X71.834 Y67.762 E18.16549
G1 X72.079 Y67.347 E18.20932
G1 X73.474 Y68.742 E18.38871
G1 X78.742 Y63.474 E19.06611
G1 X77.341 Y62.074 E19.24622
G1 X77.755 Y61.837 E19.28956
G1 X78.603 Y61.405 E19.37606
G1 X79.476 Y61.027 E19.46258
G1 X79.903 Y60.866 E19.50411
G1 X80.808 Y60.572 E19.59063
G1 X81.275 Y60.452 E19.63446
G1 X81.275 Y62.425 E19.81385
G1 X88.725 Y62.425 E20.49125
G1 X88.725 Y60.452 E20.67064
G1 X89.192 Y60.572 E20.71447
G1 X90.089 Y60.864 E20.80029
G1 X90.974 Y61.214 E20.88681
G1 X91.390 Y61.402 E20.92834
G1 X92.238 Y61.834 E21.01486
G1 X92.653 Y62.079 E21.05869
G1 X91.258 Y63.474 E21.23808
G1 X96.526 Y68.742 E21.91548
G1 X97.927 Y67.341 E22.09562
G1 X98.167 Y67.762 E22.13971
G1 X98.595 Y68.603 E22.22546
G1 X98.972 Y69.476 E22.31196
G1 X99.137 Y69.911 E22.35428
G1 X99.428 Y70.808 E22.44003
G1 X99.548 Y71.275 E22.48386
G1 X97.575 Y71.275 E22.66325
G1 X97.575 Y78.725 E23.34065
G1 X99.548 Y78.725 E23.52004
G1 X99.428 Y79.192 E23.56387
G1 X99.136 Y80.089 E23.64969
G1 X98.786 Y80.974 E23.73621
G1 X98.598 Y81.390 E23.77774
G1 X98.166 Y82.238 E23.86426
G1 X97.921 Y82.653 E23.90809
G1 X96.568 Y81.300 E24.08202
G1 X96.526 Y82.142 F7800.000
G1 F1800
G1 X92.142 Y86.526 E24.64579
G1 X93.654 Y88.038 E24.84020
G1 X92.539 Y88.714 E24.95872
G1 X91.663 Y89.160 E25.04812
G1 X90.759 Y89.552 E25.13777
G1 X90.304 Y89.724 E25.18197
G1 X89.366 Y90.028 E25.27162
G1 X88.413 Y90.273 E25.36110
G1 X88.100 Y90.335 E25.39010
G1 X88.100 Y88.200 E25.58420
G1 X81.900 Y88.200 E26.14796
G1 X81.900 Y90.338 E26.34238
G1 X80.634 Y90.028 E26.46090
G1 X79.699 Y89.725 E26.55030
G1 X78.782 Y89.362 E26.63995
G1 X78.339 Y89.162 E26.68415
G1 X77.461 Y88.714 E26.77380
G1 X76.614 Y88.213 E26.86328
G1 X76.349 Y88.035 E26.89228
G1 X77.858 Y86.526 E27.08638
G1 X73.474 Y82.142 E27.65014
G1 X71.962 Y83.654 E27.84455
G1 X71.286 Y82.539 E27.96308
G1 X70.840 Y81.663 E28.05248
G1 X70.448 Y80.759 E28.14212
G1 X70.276 Y80.304 E28.18633
G1 X69.972 Y79.366 E28.27597
G1 X69.727 Y78.413 E28.36545
G1 X69.665 Y78.100 E28.39446
G1 X71.800 Y78.100 E28.58855
G1 X71.800 Y71.900 E29.15232
G1 X69.662 Y71.900 E29.34672
G1 X69.972 Y70.634 E29.46524
G1 X70.275 Y69.699 E29.55464
G1 X70.638 Y68.782 E29.64429
G1 X70.838 Y68.339 E29.68849
G1 X71.286 Y67.461 E29.77814
G1 X71.787 Y66.614 E29.86762
G1 X71.965 Y66.349 E29.89663
G1 X73.474 Y67.858 E30.09072
G1 X77.858 Y63.474 E30.65448
G1 X76.348 Y61.964 E30.84864
G1 X77.029 Y61.533 E30.92189
G1 X77.458 Y61.287 E30.96689
G1 X78.337 Y60.840 E31.05653
G1 X79.241 Y60.448 E31.14618
G1 X79.696 Y60.276 E31.19038
G1 X80.634 Y59.972 E31.28003
G1 X81.587 Y59.727 E31.36951
G1 X81.900 Y59.665 E31.39851
G1 X81.900 Y61.800 E31.59261
G1 X88.100 Y61.800 E32.15637
G1 X88.100 Y59.662 E32.35078
G1 X89.366 Y59.972 E32.46930
G1 X90.301 Y60.275 E32.55870
G1 X91.218 Y60.638 E32.64834
G1 X91.661 Y60.838 E32.69255
G1 X92.539 Y61.286 E32.78220
G1 X93.386 Y61.787 E32.87168
G1 X93.651 Y61.965 E32.90068
G1 X92.142 Y63.474 E33.09478
G1 X96.526 Y67.858 E33.65854
G1 X98.036 Y66.348 E33.85269
G1 X98.472 Y67.036 E33.92672
G1 X98.717 Y67.466 E33.97172
G1 X99.160 Y68.337 E34.06058
G1 X99.552 Y69.241 E34.15022
G1 X99.727 Y69.704 E34.19522
G1 X100.028 Y70.634 E34.28408
G1 X100.273 Y71.587 E34.37356
G1 X100.335 Y71.900 E34.40257
G1 X98.200 Y71.900 E34.59666
G1 X98.200 Y78.100 E35.16042
G1 X100.338 Y78.100 E35.35484
G1 X100.028 Y79.366 E35.47336
G1 X99.725 Y80.301 E35.56276
G1 X99.362 Y81.218 E35.65241
G1 X99.162 Y81.661 E35.69661
G1 X98.714 Y82.539 E35.78626
G1 X98.213 Y83.386 E35.87574
G1 X98.035 Y83.651 E35.90474
G1 X96.568 Y82.184 E36.09338
G1 X96.229 Y81.873 F7800.000
G1 X97.357 Y80.808 F7800.000
G1 F1800
G1 X97.843 Y80.321 E36.16839
G1 X97.372 Y79.732 F7800.000
G1 F1800
G1 X96.826 Y80.277 E36.25259
G1 E34.25259 F2400.00000
G92 E0
G1 X89.448 Y86.568 F7800.000
G1 E2.00000 F2400.00000
G1 F1800
G1 X96.568 Y79.448 E3.09877
G1 X96.568 Y78.558 E3.19586
G1 X88.558 Y86.568 E4.43194
G1 X87.668 Y86.568 E4.52903
G1 X96.568 Y77.668 E5.90242
G1 X96.568 Y76.779 E5.99951
G1 X86.779 Y86.568 E7.51020
G1 X85.889 Y86.568 E7.60729
G1 X96.568 Y75.889 E9.25529
G1 X96.568 Y74.999 E9.35238
G1 X91.116 Y80.451 E10.19375
G1 X91.258 Y80.285 E10.21755
G1 X91.703 Y79.651 E10.30212
G1 X92.087 Y78.978 E10.38670
G1 X92.407 Y78.271 E10.47135
G1 X96.568 Y74.109 E11.11357
