; generated by Slic3r 1.3.0 on 2022-08-27 at 04:12:20

; external perimeters extrusion width = 0.44mm (3.38mm^3/s)
; perimeters extrusion width = 0.48mm (7.54mm^3/s)
; infill extrusion width = 0.48mm (10.05mm^3/s)
; solid infill extrusion width = 0.48mm (2.51mm^3/s)
; top infill extrusion width = 0.48mm (1.88mm^3/s)

M107
M104 S210 ; set temperature
G28 ; home all axes
G1 Z5 F5000 ; lift nozzle

; Filament gcode

M109 S210 ; set temperature and wait for it to be reached
G21 ; set units to millimeters
G90 ; use absolute coordinates
M82 ; use absolute distances for extrusion
G92 E0
G1 Z0.350 F7800.000
G1 E-2.00000 F2400.00000
G92 E0
G1 X41.970 Y38.232 F7800.000
G1 E2.00000 F2400.00000
G1 F1800
G1 X43.873 Y36.094 E2.25507
G1 X46.397 Y33.588 E2.57200
G1 X49.074 Y31.246 E2.88893
G1 X51.555 Y29.321 E3.16879
G1 X51.892 Y29.076 E3.20588
G1 X54.841 Y27.088 E3.52281
G1 X57.909 Y25.289 E3.83974
G1 X60.707 Y23.863 E4.11960
G1 X61.083 Y23.686 E4.15668
G1 X64.353 Y22.285 E4.47361
G1 X67.308 Y21.222 E4.75347
G1 X70.719 Y20.217 E5.07040
G1 X71.122 Y20.113 E5.10749
G1 X74.596 Y19.350 E5.42442
G1 X77.698 Y18.859 E5.70428
G1 X81.238 Y18.511 E6.02121
G1 X81.653 Y18.485 E6.05829
G1 X85.208 Y18.386 E6.37522
G1 X88.347 Y18.485 E6.65508
G1 X91.889 Y18.807 E6.97201
G1 X92.302 Y18.859 E7.00910
G1 X95.813 Y19.428 E7.32603
G1 X98.878 Y20.113 E7.60589
G1 X102.297 Y21.093 E7.92282
G1 X102.692 Y21.222 E7.95990
G1 X106.034 Y22.439 E8.27683
G1 X109.293 Y23.863 E8.59376
G1 X112.091 Y25.289 E8.87362
G1 X115.159 Y27.088 E9.19055
G1 X118.108 Y29.076 E9.50748
G1 X118.445 Y29.321 E9.54456
G1 X121.247 Y31.511 E9.86149
G1 X123.906 Y33.873 E10.17842
G1 X126.127 Y36.094 E10.45828
G1 X128.489 Y38.753 E10.77521
G1 X128.754 Y39.074 E10.81230
G1 X130.679 Y41.555 E11.09216
G1 X132.689 Y44.489 E11.40909
G1 X134.511 Y47.544 E11.72602
G1 X134.711 Y47.909 E11.76310
G1 X136.314 Y51.083 E12.08003
G1 X137.715 Y54.353 E12.39696
G1 X138.778 Y57.308 E12.67682
G1 X139.783 Y60.719 E12.99375
G1 X140.337 Y63.139 E13.21494
G1 X140.650 Y64.596 E13.34775
G1 X141.141 Y67.698 E13.62762
G1 X141.489 Y71.238 E13.94454
G1 X141.537 Y72.347 E14.04347
G1 X141.614 Y75.208 E14.29855
G1 X141.515 Y78.347 E14.57841
G1 X141.193 Y81.889 E14.89534
G1 X140.650 Y85.404 E15.21227
G1 X140.572 Y85.813 E15.24935
G1 X139.887 Y88.878 E15.52921
G1 X138.907 Y92.297 E15.84614
G1 X137.715 Y95.647 E16.16307
G1 X137.561 Y96.034 E16.20016
G1 X136.137 Y99.293 E16.51708
G1 X134.711 Y102.091 E16.79695
G1 X132.912 Y105.159 E17.11388
G1 X131.527 Y107.220 E17.33507
G1 X130.679 Y108.445 E17.46788
G1 X128.489 Y111.247 E17.78481
G1 X126.412 Y113.603 E18.06467
G1 X123.906 Y116.127 E18.38160
G1 X121.247 Y118.489 E18.69853
G1 X120.926 Y118.754 E18.73562
G1 X118.108 Y120.924 E19.05254
G1 X115.511 Y122.689 E19.33240
G1 X115.159 Y122.912 E19.36949
G1 X112.091 Y124.711 E19.68642
G1 X109.293 Y126.137 E19.96628
G1 X106.034 Y127.561 E20.28321
G1 X102.692 Y128.778 E20.60014
G1 X100.312 Y129.483 E20.82133
G1 X98.878 Y129.887 E20.95414
G1 X95.404 Y130.650 E21.27107
G1 X92.302 Y131.141 E21.55093
G1 X88.762 Y131.489 E21.86786
G1 X87.653 Y131.537 E21.96679
G1 X84.792 Y131.614 E22.22186
G1 X81.653 Y131.515 E22.50173
G1 X78.111 Y131.193 E22.81865
G1 X74.596 Y130.650 E23.13558
G1 X74.187 Y130.572 E23.17267
G1 X70.719 Y129.783 E23.48960
G1 X67.703 Y128.907 E23.76946
G1 X64.353 Y127.715 E24.08639
G1 X63.966 Y127.561 E24.12347
G1 X61.083 Y126.314 E24.40333
G1 X57.909 Y124.711 E24.72026
G1 X56.946 Y124.157 E24.81919
G1 X54.489 Y122.689 E25.07427
G1 X51.555 Y120.679 E25.39119
G1 X48.753 Y118.489 E25.70813
G1 X46.094 Y116.127 E26.02506
G1 X43.873 Y113.906 E26.30492
G1 X43.129 Y113.082 E26.40384
G1 X41.246 Y110.926 E26.65892
G1 X39.321 Y108.445 E26.93878
G1 X37.311 Y105.511 E27.25571
G1 X35.489 Y102.456 E27.57264
G1 X34.974 Y101.473 E27.67157
G1 X33.686 Y98.917 E27.92664
G1 X32.285 Y95.647 E28.24357
G1 X31.222 Y92.692 E28.52343
G1 X30.217 Y89.281 E28.84036
G1 X30.113 Y88.878 E28.87745
G1 X29.350 Y85.404 E29.19438
G1 X28.859 Y82.302 E29.47424
G1 X28.511 Y78.762 E29.79117
G1 X28.485 Y78.347 E29.82825
G1 X28.386 Y74.792 E30.14518
G1 X28.485 Y71.653 E30.42504
G1 X28.807 Y68.111 E30.74197
G1 X29.350 Y64.596 E31.05890
G1 X30.113 Y61.122 E31.37583
G1 X30.217 Y60.719 E31.41292
G1 X31.222 Y57.308 E31.72984
G1 X32.285 Y54.353 E32.00970
G1 X33.686 Y51.083 E32.32663
G1 X34.801 Y48.866 E32.54783
G1 X35.489 Y47.544 E32.68064
G1 X37.088 Y44.841 E32.96050
G1 X39.076 Y41.892 E33.27743
G1 X41.246 Y39.074 E33.59436
G1 X41.931 Y38.277 E33.68794
G1 E31.68794 F2400.00000
G92 E0
G1 X67.738 Y54.774 F7800.000
G1 E2.00000 F2400.00000
G1 F1800
G1 X68.009 Y54.535 E2.03220
G1 X69.363 Y53.480 E2.18518
G1 X70.747 Y52.540 E2.33422
G1 X72.144 Y51.714 E2.47893
G1 X73.673 Y50.932 E2.63191
G1 X75.208 Y50.267 E2.78095
G1 X76.736 Y49.717 E2.92565
G1 X78.383 Y49.235 E3.07864
G1 X80.016 Y48.871 E3.22768
G1 X81.666 Y48.609 E3.37659
G1 X83.330 Y48.452 E3.52550
G1 X84.953 Y48.401 E3.67021
G1 X86.669 Y48.452 E3.82319
G1 X88.334 Y48.609 E3.97223
G1 X89.984 Y48.871 E4.12115
G1 X91.615 Y49.235 E4.27006
G1 X93.220 Y49.701 E4.41897
G1 X94.792 Y50.267 E4.56788
G1 X96.326 Y50.931 E4.71680
G1 X97.815 Y51.690 E4.86571
G1 X99.253 Y52.540 E5.01462
G1 X100.635 Y53.480 E5.16353
G1 X101.919 Y54.475 E5.30824
G1 X103.208 Y55.608 E5.46122
G1 X104.391 Y56.791 E5.61026
G1 X105.496 Y58.044 E5.75917
G1 X106.520 Y59.365 E5.90809
G1 X107.460 Y60.747 E6.05700
G1 X108.310 Y62.185 E6.20591
G1 X109.069 Y63.674 E6.35482
G1 X109.733 Y65.208 E6.50374
G1 X110.299 Y66.780 E6.65265
G1 X110.765 Y68.385 E6.80156
G1 X111.129 Y70.016 E6.95047
G1 X111.391 Y71.666 E7.09938
G1 X111.548 Y73.330 E7.24830
G1 X111.601 Y75.000 E7.39721
G1 X111.548 Y76.670 E7.54612
G1 X111.391 Y78.334 E7.69503
G1 X111.129 Y79.984 E7.84395
G1 X110.765 Y81.615 E7.99286
G1 X110.299 Y83.219 E8.14168
G1 X109.745 Y84.764 E8.28791
G1 X109.069 Y86.326 E8.43960
G1 X108.310 Y87.815 E8.58851
G1 X107.460 Y89.253 E8.73743
G1 X106.520 Y90.635 E8.88634
G1 X105.496 Y91.956 E9.03525
G1 X104.391 Y93.209 E9.18416
G1 X103.209 Y94.391 E9.33307
G1 X101.956 Y95.496 E9.48199
G1 X100.673 Y96.491 E9.62669
G1 X99.255 Y97.459 E9.77968
G1 X97.815 Y98.310 E9.92872
G1 X96.326 Y99.069 E10.07763
G1 X94.764 Y99.745 E10.22932
G1 X93.219 Y100.299 E10.37555
G1 X91.615 Y100.765 E10.52437
G1 X89.984 Y101.129 E10.67328
G1 X88.334 Y101.391 E10.82220
G1 X86.670 Y101.548 E10.97111
G1 X85.000 Y101.601 E11.12002
G1 X83.330 Y101.548 E11.26893
G1 X81.666 Y101.391 E11.41784
G1 X80.016 Y101.129 E11.56676
G1 X78.385 Y100.765 E11.71567
G1 X76.780 Y100.299 E11.86458
G1 X75.208 Y99.733 E12.01349
G1 X73.674 Y99.069 E12.16241
G1 X72.185 Y98.310 E12.31132
G1 X70.747 Y97.460 E12.46023
G1 X69.365 Y96.520 E12.60914
G1 X68.044 Y95.496 E12.75805
G1 X66.791 Y94.391 E12.90697
G1 X65.608 Y93.208 E13.05601
G1 X64.475 Y91.919 E13.20899
G1 X63.480 Y90.635 E13.35370
G1 X62.540 Y89.253 E13.50261
G1 X61.690 Y87.815 E13.65152
G1 X60.931 Y86.326 E13.80043
G1 X60.267 Y84.792 E13.94935
G1 X59.701 Y83.220 E14.09826
G1 X59.235 Y81.615 E14.24717
G1 X58.871 Y79.984 E14.39608
G1 X58.609 Y78.334 E14.54500
G1 X58.452 Y76.670 E14.69391
G1 X58.399 Y75.000 E14.84282
G1 X58.452 Y73.330 E14.99173
G1 X58.609 Y71.666 E15.14064
G1 X58.871 Y70.016 E15.28956
G1 X59.235 Y68.385 E15.43847
G1 X59.701 Y66.780 E15.58738
G1 X60.268 Y65.206 E15.73642
G1 X60.953 Y63.632 E15.88941
G1 X61.690 Y62.185 E16.03411
G1 X62.540 Y60.747 E16.18302
G1 X63.480 Y59.365 E16.33193
G1 X64.504 Y58.044 E16.48085
G1 X65.609 Y56.791 E16.62976
G1 X66.791 Y55.609 E16.77867
G1 X67.693 Y54.814 E16.88583
G1 X68.151 Y55.243 F7800.000
G1 F1800
G1 X68.408 Y55.016 E16.91633
G1 X69.731 Y53.986 E17.06581
G1 X71.082 Y53.068 E17.21130
G1 X72.446 Y52.261 E17.35256
G1 X73.939 Y51.497 E17.50204
G1 X75.438 Y50.849 E17.64753
G1 X76.929 Y50.312 E17.78879
G1 X78.539 Y49.841 E17.93827
G1 X80.133 Y49.485 E18.08376
G1 X81.744 Y49.229 E18.22918
G1 X83.369 Y49.076 E18.37459
G1 X84.953 Y49.026 E18.51584
G1 X86.630 Y49.076 E18.66533
G1 X88.256 Y49.229 E18.81082
G1 X89.867 Y49.485 E18.95623
G1 X91.460 Y49.841 E19.10164
G1 X93.027 Y50.296 E19.24705
G1 X94.562 Y50.849 E19.39247
G1 X96.060 Y51.497 E19.53788
G1 X97.514 Y52.238 E19.68329
G1 X98.918 Y53.068 E19.82870
G1 X100.268 Y53.985 E19.97412
G1 X101.520 Y54.957 E20.11537
G1 X102.781 Y56.064 E20.26486
G1 X103.935 Y57.219 E20.41035
G1 X105.014 Y58.443 E20.55576
G1 X106.015 Y59.732 E20.70117
G1 X106.932 Y61.082 E20.84658
G1 X107.762 Y62.486 E20.99200
G1 X108.503 Y63.940 E21.13741
G1 X109.151 Y65.438 E21.28282
G1 X109.704 Y66.973 E21.42823
G1 X110.159 Y68.540 E21.57364
G1 X110.515 Y70.133 E21.71906
G1 X110.771 Y71.744 E21.86447
G1 X110.924 Y73.369 E22.00988
G1 X110.975 Y75.000 E22.15529
G1 X110.924 Y76.631 E22.30071
G1 X110.771 Y78.256 E22.44612
G1 X110.515 Y79.867 E22.59153
G1 X110.159 Y81.460 E22.73694
G1 X109.704 Y83.026 E22.88230
G1 X109.164 Y84.534 E23.02503
G1 X108.503 Y86.060 E23.17319
G1 X107.762 Y87.514 E23.31860
G1 X106.932 Y88.918 E23.46401
G1 X106.015 Y90.268 E23.60942
G1 X105.014 Y91.557 E23.75484
G1 X103.935 Y92.781 E23.90025
G1 X102.781 Y93.935 E24.04566
G1 X101.557 Y95.014 E24.19107
G1 X100.305 Y95.986 E24.33233
G1 X98.919 Y96.931 E24.48181
G1 X97.514 Y97.762 E24.62730
G1 X96.060 Y98.503 E24.77271
G1 X94.534 Y99.164 E24.92087
G1 X93.026 Y99.704 E25.06360
G1 X91.460 Y100.159 E25.20896
G1 X89.867 Y100.515 E25.35437
G1 X88.256 Y100.771 E25.49978
G1 X86.631 Y100.924 E25.64519
G1 X85.000 Y100.975 E25.79061
G1 X83.369 Y100.924 E25.93602
G1 X81.744 Y100.771 E26.08143
G1 X80.133 Y100.515 E26.22684
G1 X78.540 Y100.159 E26.37226
G1 X76.973 Y99.704 E26.51767
G1 X75.438 Y99.151 E26.66308
G1 X73.940 Y98.503 E26.80849
G1 X72.486 Y97.762 E26.95391
G1 X71.082 Y96.932 E27.09932
G1 X69.732 Y96.015 E27.24473
G1 X68.443 Y95.014 E27.39014
G1 X67.219 Y93.935 E27.53556
G1 X66.064 Y92.781 E27.68105
G1 X64.957 Y91.520 E27.83053
G1 X63.985 Y90.268 E27.97179
G1 X63.068 Y88.918 E28.11720
G1 X62.238 Y87.514 E28.26261
G1 X61.497 Y86.060 E28.40802
G1 X60.849 Y84.562 E28.55344
G1 X60.296 Y83.027 E28.69885
G1 X59.841 Y81.460 E28.84426
G1 X59.485 Y79.867 E28.98967
G1 X59.229 Y78.256 E29.13508
G1 X59.076 Y76.631 E29.28050
G1 X59.025 Y75.000 E29.42591
G1 X59.076 Y73.369 E29.57132
G1 X59.229 Y71.744 E29.71673
G1 X59.485 Y70.133 E29.86215
G1 X59.841 Y68.540 E30.00756
G1 X60.296 Y66.973 E30.15297
G1 X60.849 Y65.437 E30.29846
G1 X61.518 Y63.899 E30.44795
G1 X62.238 Y62.486 E30.58920
G1 X63.068 Y61.082 E30.73461
G1 X63.985 Y59.732 E30.88002
G1 X64.986 Y58.443 E31.02544
G1 X66.065 Y57.219 E31.17085
G1 X67.219 Y56.065 E31.31626
G1 X68.106 Y55.282 E31.42167
G1 X68.564 Y55.712 F7800.000
G1 F1800
G1 X68.807 Y55.498 E31.45047
G1 X70.099 Y54.491 E31.59646
G1 X71.417 Y53.596 E31.73840
G1 X72.748 Y52.809 E31.87620
G1 X74.206 Y52.063 E32.02218
G1 X75.668 Y51.430 E32.16413
G1 X77.123 Y50.906 E32.30193
G1 X78.695 Y50.446 E32.44791
G1 X80.250 Y50.099 E32.58985
G1 X81.823 Y49.850 E32.73177
G1 X83.408 Y49.700 E32.87368
G1 X84.954 Y49.651 E33.01148
G1 X86.591 Y49.700 E33.15747
G1 X88.177 Y49.850 E33.29941
G1 X89.750 Y50.099 E33.44132
G1 X91.304 Y50.446 E33.58323
G1 X92.834 Y50.891 E33.72515
G1 X94.332 Y51.430 E33.86706
G1 X95.794 Y52.062 E34.00897
G1 X97.213 Y52.785 E34.15088
G1 X98.583 Y53.596 E34.29280
G1 X99.900 Y54.491 E34.43471
G1 X101.122 Y55.439 E34.57251
G1 X102.353 Y56.520 E34.71850
G1 X103.479 Y57.647 E34.86044
G1 X104.533 Y58.841 E35.00235
G1 X105.509 Y60.100 E35.14426
G1 X106.404 Y61.417 E35.28618
G1 X107.215 Y62.787 E35.42809
G1 X107.938 Y64.206 E35.57000
G1 X108.570 Y65.668 E35.71191
G1 X109.109 Y67.166 E35.85383
G1 X109.554 Y68.696 E35.99574
G1 X109.901 Y70.250 E36.13765
G1 X110.150 Y71.823 E36.27956
G1 X110.300 Y73.408 E36.42148
G1 X110.350 Y75.000 E36.56339
G1 X110.300 Y76.592 E36.70530
G1 X110.150 Y78.177 E36.84721
G1 X109.901 Y79.750 E36.98913
G1 X109.554 Y81.304 E37.13104
G1 X109.110 Y82.833 E37.27293
G1 X108.582 Y84.304 E37.41216
G1 X107.938 Y85.794 E37.55678
G1 X107.215 Y87.213 E37.69869
G1 X106.404 Y88.583 E37.84061
G1 X105.509 Y89.900 E37.98252
G1 X104.533 Y91.159 E38.12443
G1 X103.479 Y92.353 E38.26634
G1 X102.353 Y93.479 E38.40826
G1 X101.159 Y94.533 E38.55017
G1 X99.937 Y95.480 E38.68797
G1 X98.584 Y96.404 E38.83396
G1 X97.213 Y97.215 E38.97590
G1 X95.794 Y97.938 E39.11781
G1 X94.304 Y98.582 E39.26243
G1 X92.833 Y99.110 E39.40166
G1 X91.304 Y99.554 E39.54355
G1 X89.750 Y99.901 E39.68547
G1 X88.177 Y100.150 E39.82738
G1 X86.592 Y100.300 E39.96929
G1 X85.000 Y100.350 E40.11120
G1 X83.408 Y100.300 E40.25312
G1 X81.823 Y100.150 E40.39503
G1 X80.250 Y99.901 E40.53694
G1 X78.696 Y99.554 E40.67885
G1 X77.166 Y99.109 E40.82077
G1 X75.668 Y98.570 E40.96268
G1 X74.206 Y97.938 E41.10459
G1 X72.787 Y97.215 E41.24650
G1 X71.417 Y96.404 E41.38842
G1 X70.100 Y95.509 E41.53033
G1 X68.841 Y94.533 E41.67224
G1 X67.647 Y93.479 E41.81415
G1 X66.520 Y92.353 E41.95609
G1 X65.439 Y91.122 E42.10208
G1 X64.491 Y89.900 E42.23988
G1 X63.596 Y88.583 E42.38180
G1 X62.785 Y87.213 E42.52371
G1 X62.062 Y85.794 E42.66562
G1 X61.430 Y84.332 E42.80753
G1 X60.891 Y82.834 E42.94945
G1 X60.446 Y81.304 E43.09136
G1 X60.099 Y79.750 E43.23327
G1 X59.850 Y78.177 E43.37518
G1 X59.700 Y76.592 E43.51710
G1 X59.650 Y75.000 E43.65901
G1 X59.700 Y73.408 E43.80092
G1 X59.850 Y71.823 E43.94283
G1 X60.099 Y70.250 E44.08475
G1 X60.446 Y68.696 E44.22666
G1 X60.891 Y67.166 E44.36857
G1 X61.430 Y65.668 E44.51051
G1 X62.083 Y64.165 E44.65650
G1 X62.785 Y62.787 E44.79430
G1 X63.596 Y61.417 E44.93621
G1 X64.491 Y60.100 E45.07812
G1 X65.467 Y58.841 E45.22004
G1 X66.521 Y57.647 E45.36195
G1 X67.647 Y56.521 E45.50386
G1 X68.519 Y55.751 E45.60752
G1 X68.497 Y55.396 F7800.000
G1 E43.60752 F2400.00000
G92 E0
G1 X53.334 Y38.437 F7800.000
G1 E2.00000 F2400.00000
G1 F1800
G1 X54.154 Y37.714 E2.09740
G1 X56.556 Y35.851 E2.36830
G1 X59.071 Y34.142 E2.63920
G1 X61.687 Y32.594 E2.91010
G1 X64.396 Y31.214 E3.18100
G1 X67.186 Y30.007 E3.45189
G1 X70.046 Y28.977 E3.72279
G1 X72.966 Y28.129 E3.99369
G1 X75.932 Y27.466 E4.26459
G1 X78.935 Y26.990 E4.53549
G1 X81.961 Y26.704 E4.80639
G1 X85.000 Y26.609 E5.07729
G1 X88.039 Y26.704 E5.34819
G1 X91.065 Y26.990 E5.61908
G1 X94.068 Y27.466 E5.88998
G1 X97.034 Y28.129 E6.16088
G1 X99.954 Y28.977 E6.43178
G1 X102.814 Y30.007 E6.70268
G1 X105.604 Y31.214 E6.97358
G1 X108.313 Y32.594 E7.24448
G1 X110.929 Y34.142 E7.51538
G1 X113.444 Y35.851 E7.78628
G1 X115.846 Y37.714 E8.05717
G1 X118.126 Y39.724 E8.32807
G1 X120.276 Y41.874 E8.59897
G1 X122.286 Y44.154 E8.86987
G1 X124.149 Y46.556 E9.14077
G1 X125.858 Y49.071 E9.41167
G1 X127.406 Y51.687 E9.68257
G1 X128.786 Y54.396 E9.95347
G1 X129.993 Y57.186 E10.22437
G1 X131.023 Y60.046 E10.49526
G1 X131.871 Y62.966 E10.76616
G1 X132.534 Y65.932 E11.03706
G1 X133.010 Y68.935 E11.30796
G1 X133.296 Y71.961 E11.57886
G1 X133.391 Y75.000 E11.84976
G1 X133.296 Y78.039 E12.12066
G1 X133.106 Y80.045 E12.30030
G1 X133.010 Y81.065 E12.39156
G1 X132.534 Y84.068 E12.66245
G1 X131.871 Y87.034 E12.93335
G1 X131.023 Y89.954 E13.20425
G1 X129.993 Y92.814 E13.47515
G1 X128.786 Y95.604 E13.74605
G1 X127.406 Y98.313 E14.01695
G1 X125.858 Y100.929 E14.28785
G1 X124.149 Y103.444 E14.55875
G1 X122.286 Y105.846 E14.82964
G1 X120.276 Y108.126 E15.10054
G1 X118.126 Y110.276 E15.37144
G1 X115.846 Y112.286 E15.64234
G1 X113.444 Y114.149 E15.91324
G1 X112.911 Y114.511 E15.97062
G1 X110.929 Y115.858 E16.18414
G1 X108.313 Y117.406 E16.45504
G1 X105.604 Y118.786 E16.72594
G1 X102.814 Y119.993 E16.99684
G1 X99.954 Y121.023 E17.26773
G1 X97.034 Y121.871 E17.53863
G1 X94.068 Y122.534 E17.80953
G1 X91.065 Y123.010 E18.08043
G1 X88.039 Y123.296 E18.35133
G1 X85.000 Y123.391 E18.62223
G1 X81.961 Y123.296 E18.89313
G1 X79.955 Y123.106 E19.07277
G1 X78.935 Y123.010 E19.16403
G1 X75.932 Y122.534 E19.43492
G1 X72.966 Y121.871 E19.70582
G1 X70.046 Y121.023 E19.97672
G1 X67.186 Y119.993 E20.24762
G1 X64.396 Y118.786 E20.51852
G1 X61.687 Y117.406 E20.78942
G1 X59.071 Y115.858 E21.06032
G1 X56.556 Y114.149 E21.33122
G1 X54.154 Y112.286 E21.60212
G1 X51.874 Y110.276 E21.87301
G1 X49.724 Y108.126 E22.14391
G1 X47.714 Y105.846 E22.41481
G1 X45.851 Y103.444 E22.68571
