; generated by Slic3r 1.3.0 on 2022-08-15 at 14:27:19

; external perimeters extrusion width = 0.44mm (3.38mm^3/s)
; perimeters extrusion width = 0.48mm (7.54mm^3/s)
; infill extrusion width = 0.48mm (10.05mm^3/s)
; solid infill extrusion width = 0.48mm (2.51mm^3/s)
; top infill extrusion width = 0.48mm (1.88mm^3/s)
; support material extrusion width = 0.44mm (6.76mm^3/s)

M107
M104 S205 ; set temperature
G28 ; home all axes
G1 Z5 F5000 ; lift nozzle

; Filament gcode

M109 S205 ; set temperature and wait for it to be reached
G21 ; set units to millimeters
G90 ; use absolute coordinates
M82 ; use absolute distances for extrusion
G92 E0
G1 Z0.350 F7800.000
G1 E-2.00000 F2400.00000
G92 E0
G1 X41.559 Y11.719 F7800.000
G1 E2.00000 F2400.00000
G1 F1800
G1 X43.171 Y10.088 E2.20854
G1 X45.243 Y9.104 E2.41708
G1 X47.006 Y8.865 E2.57891
G1 X65.541 Y8.876 E4.26424
G1 X78.940 Y9.672 E5.48481
G1 X82.165 Y10.735 E5.79356
G1 X128.805 Y41.132 E10.85567
G1 X130.480 Y42.698 E11.06422
G1 X131.521 Y44.742 E11.27276
G1 X131.812 Y46.682 E11.45120
G1 X131.806 Y65.595 E13.17091
G1 X131.241 Y79.095 E14.39954
G1 X130.749 Y81.335 E14.60808
G1 X130.075 Y82.579 E14.73674
G1 X98.954 Y127.700 E19.72087
G1 X97.443 Y129.262 E19.91847
G1 X96.671 Y129.834 E20.00579
G1 X94.620 Y130.859 E20.21433
G1 X92.728 Y131.135 E20.38815
G1 X74.099 Y131.123 E22.08211
G1 X60.984 Y130.328 E23.27683
G1 X57.764 Y129.263 E23.58522
G1 X11.192 Y98.865 E28.64223
G1 X9.517 Y97.298 E28.85077
G1 X8.477 Y95.254 E29.05931
G1 X8.188 Y93.318 E29.23736
G1 X8.194 Y74.405 E30.95707
G1 X8.759 Y60.905 E32.18569
G1 X9.251 Y58.665 E32.39423
G1 X9.931 Y57.412 E32.52388
G1 X41.525 Y11.768 E37.57149
G1 E35.57149 F2400.00000
G92 E0
G1 X65.101 Y54.923 F7800.000
G1 E2.00000 F2400.00000
G1 F1800
G1 X67.018 Y54.431 E2.17995
G1 X69.004 Y54.178 E2.36199
G1 X70.995 Y54.178 E2.54307
G1 X72.971 Y54.428 E2.72409
G1 X74.899 Y54.923 E2.90512
G1 X76.750 Y55.656 E3.08614
G1 X78.494 Y56.615 E3.26717
G1 X80.095 Y57.778 E3.44712
G1 X81.556 Y59.147 E3.62915
G1 X82.825 Y60.682 E3.81024
G1 X83.892 Y62.363 E3.99126
G1 X84.740 Y64.164 E4.17229
G1 X85.355 Y66.058 E4.35331
G1 X85.728 Y68.013 E4.53434
G1 X85.853 Y70.001 E4.71542
G1 X85.726 Y71.999 E4.89745
G1 X85.355 Y73.942 E5.07740
G1 X84.739 Y75.836 E5.25849
G1 X83.886 Y77.647 E5.44052
G1 X82.825 Y79.318 E5.62047
G1 X81.556 Y80.852 E5.80150
G1 X80.105 Y82.215 E5.98252
G1 X78.494 Y83.385 E6.16355
G1 X76.750 Y84.344 E6.34457
G1 X74.899 Y85.077 E6.52560
G1 X72.971 Y85.572 E6.70662
G1 X70.995 Y85.822 E6.88765
G1 X69.005 Y85.822 E7.06867
G1 X67.029 Y85.572 E7.24970
G1 X65.101 Y85.077 E7.43073
G1 X63.250 Y84.344 E7.61175
G1 X61.516 Y83.391 E7.79170
G1 X59.895 Y82.215 E7.97374
G1 X58.444 Y80.852 E8.15482
G1 X57.175 Y79.318 E8.33584
G1 X56.108 Y77.637 E8.51687
G1 X55.260 Y75.836 E8.69789
G1 X54.645 Y73.942 E8.87898
G1 X54.271 Y71.975 E9.06101
G1 X54.147 Y70.000 E9.24096
G1 X54.272 Y68.013 E9.42199
G1 X54.645 Y66.058 E9.60301
G1 X55.260 Y64.164 E9.78409
G1 X56.114 Y62.353 E9.96613
G1 X57.175 Y60.682 E10.14608
G1 X58.444 Y59.148 E10.32710
G1 X59.895 Y57.785 E10.50813
G1 X61.506 Y56.615 E10.68916
G1 X63.250 Y55.656 E10.87018
G1 X65.045 Y54.945 E11.04575
G1 X65.295 Y55.518 F7800.000
G1 F1800
G1 X67.136 Y55.046 E11.21857
G1 X69.044 Y54.803 E11.39346
G1 X70.956 Y54.803 E11.56737
G1 X72.853 Y55.043 E11.74124
G1 X74.705 Y55.518 E11.91512
G1 X76.483 Y56.222 E12.08899
G1 X78.159 Y57.144 E12.26287
G1 X79.697 Y58.261 E12.43569
G1 X81.100 Y59.576 E12.61058
G1 X82.319 Y61.050 E12.78449
G1 X83.343 Y62.664 E12.95836
G1 X84.158 Y64.395 E13.13224
G1 X84.748 Y66.213 E13.30612
G1 X85.107 Y68.092 E13.47999
G1 X85.227 Y70.000 E13.65390
G1 X85.105 Y71.920 E13.82879
G1 X84.748 Y73.787 E14.00161
G1 X84.157 Y75.606 E14.17552
G1 X83.337 Y77.345 E14.35040
G1 X82.319 Y78.950 E14.52323
G1 X81.100 Y80.423 E14.69710
G1 X79.706 Y81.732 E14.87098
G1 X78.159 Y82.856 E15.04485
G1 X76.483 Y83.778 E15.21873
G1 X74.705 Y84.482 E15.39261
G1 X72.853 Y84.957 E15.56648
G1 X70.956 Y85.197 E15.74036
G1 X69.044 Y85.197 E15.91423
G1 X67.147 Y84.957 E16.08811
G1 X65.295 Y84.482 E16.26198
G1 X63.517 Y83.778 E16.43586
G1 X61.851 Y82.862 E16.60868
G1 X60.294 Y81.733 E16.78357
G1 X58.900 Y80.423 E16.95748
G1 X57.681 Y78.950 E17.13135
G1 X56.657 Y77.336 E17.30523
G1 X55.842 Y75.605 E17.47910
G1 X55.251 Y73.786 E17.65301
G1 X54.893 Y71.897 E17.82790
G1 X54.773 Y70.000 E18.00072
G1 X54.893 Y68.092 E18.17460
G1 X55.252 Y66.213 E18.34847
G1 X55.843 Y64.394 E18.52238
G1 X56.663 Y62.655 E18.69727
G1 X57.681 Y61.050 E18.87009
G1 X58.900 Y59.577 E19.04397
G1 X60.294 Y58.268 E19.21784
G1 X61.841 Y57.144 E19.39172
G1 X63.517 Y56.222 E19.56559
G1 X65.239 Y55.541 E19.73401
G1 X65.488 Y56.114 F7800.000
G1 F1800
G1 X67.253 Y55.661 E19.89971
G1 X69.083 Y55.428 E20.06744
G1 X70.917 Y55.428 E20.23418
G1 X72.736 Y55.658 E20.40091
G1 X74.512 Y56.114 E20.56763
G1 X76.217 Y56.789 E20.73436
G1 X77.823 Y57.672 E20.90109
G1 X79.298 Y58.743 E21.06678
G1 X80.643 Y60.005 E21.23452
G1 X81.812 Y61.418 E21.40125
G1 X82.795 Y62.966 E21.56798
G1 X83.575 Y64.625 E21.73471
G1 X84.142 Y66.369 E21.90143
G1 X84.486 Y68.170 E22.06816
G1 X84.601 Y70.000 E22.23490
G1 X84.483 Y71.841 E22.40263
G1 X84.142 Y73.631 E22.56833
G1 X83.575 Y75.375 E22.73506
G1 X82.789 Y77.043 E22.90280
G1 X81.812 Y78.582 E23.06850
G1 X80.643 Y79.995 E23.23522
G1 X79.307 Y81.250 E23.40195
G1 X77.823 Y82.328 E23.56867
G1 X76.217 Y83.211 E23.73540
G1 X74.512 Y83.886 E23.90213
G1 X72.736 Y84.342 E24.06885
G1 X70.917 Y84.572 E24.23558
G1 X69.083 Y84.572 E24.40230
G1 X67.264 Y84.342 E24.56903
G1 X65.488 Y83.886 E24.73575
G1 X63.783 Y83.211 E24.90248
G1 X62.186 Y82.333 E25.06818
G1 X60.693 Y81.250 E25.23591
G1 X59.357 Y79.995 E25.40265
G1 X58.188 Y78.582 E25.56937
G1 X57.205 Y77.034 E25.73610
G1 X56.425 Y75.375 E25.90283
G1 X55.858 Y73.631 E26.06956
G1 X55.514 Y71.819 E26.23730
G1 X55.399 Y70.000 E26.40300
G1 X55.514 Y68.170 E26.56972
G1 X55.858 Y66.369 E26.73645
G1 X56.425 Y64.625 E26.90319
G1 X57.211 Y62.957 E27.07092
G1 X58.188 Y61.418 E27.23662
G1 X59.357 Y60.005 E27.40334
G1 X60.693 Y58.750 E27.57007
G1 X62.177 Y57.672 E27.73679
G1 X63.783 Y56.789 E27.90352
G1 X65.432 Y56.136 E28.06479
G1 X65.488 Y56.114 F7800.000
G1 E26.06479 F2400.00000
G92 E0
G1 X58.400 Y49.600 F7800.000
G1 E2.00000 F2400.00000
G1 F1800
G1 X119.830 Y49.600 E7.58578
G1 X119.830 Y58.400 E8.38600
G1 X90.400 Y58.400 E11.06204
G1 X90.400 Y119.830 E16.64782
G1 X81.600 Y119.830 E17.44804
G1 X81.600 Y90.400 E20.12408
G1 X20.170 Y90.400 E25.70986
G1 X20.170 Y81.600 E26.51008
G1 X49.600 Y81.600 E29.18611
G1 X49.600 Y20.170 E34.77190
G1 X58.400 Y20.170 E35.57212
G1 X58.400 Y49.540 E38.24270
G1 X59.025 Y48.975 F7800.000
G1 F1800
G1 X120.455 Y48.975 E43.82848
G1 X120.455 Y63.025 E45.10606
G1 X119.545 Y63.025 E45.18878
G1 X119.545 Y59.025 E45.55250
G1 X91.025 Y59.025 E48.14581
G1 X91.025 Y120.455 E53.73160
G1 X76.975 Y120.455 E55.00918
G1 X76.975 Y119.545 E55.09190
G1 X80.975 Y119.545 E55.45562
G1 X80.975 Y91.025 E58.04893
G1 X19.545 Y91.025 E63.63471
G1 X19.545 Y76.975 E64.91229
G1 X20.455 Y76.975 E64.99502
G1 X20.455 Y80.975 E65.35874
G1 X48.975 Y80.975 E67.95205
G1 X48.975 Y19.545 E73.53783
G1 X63.025 Y19.545 E74.81541
G1 X63.025 Y20.455 E74.89814
G1 X59.025 Y20.455 E75.26185
G1 X59.025 Y48.915 E77.84971
G1 X59.650 Y48.350 F7800.000
G1 F1800
G1 X121.080 Y48.350 E83.43549
G1 X121.080 Y63.650 E84.82672
G1 X118.920 Y63.650 E85.02308
G1 X118.920 Y59.650 E85.38680
G1 X91.650 Y59.650 E87.86647
G1 X91.650 Y121.080 E93.45225
G1 X76.350 Y121.080 E94.84347
G1 X76.350 Y118.920 E95.03984
G1 X80.350 Y118.920 E95.40356
G1 X80.350 Y91.650 E97.88323
G1 X18.920 Y91.650 E103.46901
G1 X18.920 Y76.350 E104.86023
G1 X21.080 Y76.350 E105.05660
G1 X21.080 Y80.350 E105.42032
G1 X48.350 Y80.350 E107.89999
G1 X48.350 Y18.920 E113.48577
G1 X63.650 Y18.920 E114.87699
G1 X63.650 Y21.080 E115.07336
G1 X59.650 Y21.080 E115.43707
G1 X59.650 Y48.290 E117.91129
G1 X59.631 Y48.750 F7800.000
G1 E115.91129 F2400.00000
G92 E0
G1 X58.713 Y20.000 F7800.000
G1 E2.00000 F2400.00000
G1 F1800
G1 X62.713 Y20.000 E2.12209
G1 E0.12209 F2400.00000
G92 E0
G1 X49.982 Y21.038 F7800.000
G1 E2.00000 F2400.00000
G1 F1800
G1 X50.468 Y20.552 E2.06255
G1 X51.352 Y20.552 E2.14302
G1 X49.982 Y21.922 E2.31940
G1 X49.982 Y22.807 E2.39987
G1 X52.237 Y20.552 E2.69006
G1 X53.121 Y20.552 E2.77053
G1 X49.982 Y23.691 E3.17452
G1 X49.982 Y24.576 E3.25499
G1 X54.005 Y20.552 E3.77279
G1 X54.890 Y20.552 E3.85326
G1 X49.982 Y25.460 E4.48486
G1 X49.982 Y26.344 E4.56533
G1 X55.774 Y20.552 E5.31074
G1 X56.658 Y20.552 E5.39121
G1 X49.982 Y27.229 E6.25042
G1 X49.982 Y28.113 E6.33090
G1 X57.543 Y20.552 E7.30391
G1 X58.018 Y20.552 E7.34719
G1 X58.018 Y20.961 E7.38438
G1 X49.982 Y28.997 E8.41861
G1 X49.982 Y29.882 E8.49908
G1 X58.018 Y21.845 E9.53330
G1 X58.018 Y22.729 E9.61377
G1 X49.982 Y30.766 E10.64799
G1 X49.982 Y31.650 E10.72847
G1 X58.018 Y23.614 E11.76269
G1 X58.018 Y24.498 E11.84316
G1 X49.982 Y32.535 E12.87738
G1 X49.982 Y33.419 E12.95785
G1 X58.018 Y25.382 E13.99207
G1 X58.018 Y26.267 E14.07255
G1 X49.982 Y34.304 E15.10677
G1 X49.982 Y35.188 E15.18724
G1 X58.018 Y27.151 E16.22146
G1 X58.018 Y28.036 E16.30193
G1 X49.982 Y36.072 E17.33616
G1 X49.982 Y36.957 E17.41663
G1 X58.018 Y28.920 E18.45085
G1 X58.018 Y29.804 E18.53132
G1 X49.982 Y37.841 E19.56554
G1 X49.982 Y38.725 E19.64601
G1 X58.018 Y30.689 E20.68024
G1 X58.018 Y31.573 E20.76071
G1 X49.982 Y39.610 E21.79493
G1 X49.982 Y40.494 E21.87540
G1 X58.018 Y32.457 E22.90962
G1 X58.018 Y33.342 E22.99010
G1 X49.982 Y41.378 E24.02432
G1 X49.982 Y42.263 E24.10479
G1 X58.018 Y34.226 E25.13901
G1 X58.018 Y35.110 E25.21948
G1 X49.982 Y43.147 E26.25370
G1 X49.982 Y44.032 E26.33418
G1 X58.018 Y35.995 E27.36840
G1 X58.018 Y36.879 E27.44887
G1 X49.982 Y44.916 E28.48309
G1 X49.982 Y45.800 E28.56356
G1 X58.018 Y37.764 E29.59779
G1 X58.018 Y38.648 E29.67826
G1 X49.982 Y46.685 E30.71248
G1 X49.982 Y47.569 E30.79295
G1 X58.018 Y39.532 E31.82717
G1 X58.018 Y40.417 E31.90765
G1 X49.982 Y48.453 E32.94187
G1 X49.982 Y49.338 E33.02234
G1 X58.018 Y41.301 E34.05656
G1 X58.018 Y42.185 E34.13703
G1 X49.982 Y50.222 E35.17125
G1 X49.982 Y51.106 E35.25173
G1 X58.018 Y43.070 E36.28595
G1 X58.018 Y43.954 E36.36642
G1 X49.982 Y51.991 E37.40064
G1 X49.982 Y52.875 E37.48111
G1 X58.018 Y44.838 E38.51533
G1 X58.018 Y45.723 E38.59581
G1 X49.982 Y53.760 E39.63003
G1 X49.982 Y54.644 E39.71050
G1 X58.018 Y46.607 E40.74472
G1 X58.018 Y47.491 E40.82519
G1 X49.982 Y55.528 E41.85942
G1 X49.982 Y56.413 E41.93989
G1 X58.018 Y48.376 E42.97411
G1 X58.018 Y49.260 E43.05458
G1 X49.982 Y57.297 E44.08880
G1 X49.982 Y58.181 E44.16928
G1 X58.181 Y49.982 E45.22447
G1 X59.066 Y49.982 E45.30494
G1 X49.982 Y59.066 E46.47394
G1 X49.982 Y59.950 E46.55441
G1 X59.950 Y49.982 E47.83721
G1 X60.834 Y49.982 E47.91769
G1 X49.982 Y60.834 E49.31430
G1 X49.982 Y61.719 E49.39477
G1 X61.719 Y49.982 E50.90518
G1 X62.603 Y49.982 E50.98566
G1 X49.982 Y62.603 E52.60987
G1 X49.982 Y63.488 E52.69035
G1 X63.488 Y49.982 E54.42837
G1 X64.372 Y49.982 E54.50885
G1 X49.982 Y64.372 E56.36068
G1 X49.982 Y65.256 E56.44115
G1 X65.256 Y49.982 E58.40678
G1 X66.141 Y49.982 E58.48726
G1 X49.982 Y66.141 E60.56670
G1 E58.56670 F2400.00000
G92 E0
G1 X56.382 Y60.624 F7800.000
G1 E2.00000 F2400.00000
G1 F1800
G1 X57.744 Y58.962 E2.19550
G1 X59.253 Y57.546 E2.38381
G1 X60.014 Y56.993 E2.46939
G1 X67.025 Y49.982 E3.37165
G1 X67.909 Y49.982 E3.45212
G1 X62.337 Y55.554 E4.16927
G1 X62.741 Y55.332 E4.21122
G1 X63.903 Y54.872 E4.32503
G1 X68.794 Y49.982 E4.95434
G1 X69.678 Y49.982 E5.03482
G1 X65.236 Y54.424 E5.60647
G1 X66.426 Y54.118 E5.71826
G1 X70.562 Y49.982 E6.25060
G1 X71.447 Y49.982 E6.33107
G1 X67.473 Y53.955 E6.84241
G1 X68.486 Y53.826 E6.93535
G1 X72.331 Y49.982 E7.43011
G1 X73.216 Y49.982 E7.51059
G1 X69.401 Y53.796 E8.00151
G1 X70.285 Y53.796 E8.08198
G1 X74.100 Y49.982 E8.57290
G1 X74.984 Y49.982 E8.65338
G1 X71.127 Y53.839 E9.14975
G1 X71.912 Y53.938 E9.22176
G1 X75.869 Y49.982 E9.73090
G1 X76.753 Y49.982 E9.81137
G1 X72.697 Y54.037 E10.33328
G1 X72.845 Y54.056 E10.34680
G1 X73.416 Y54.203 E10.40049
G1 X77.637 Y49.982 E10.94368
G1 X78.522 Y49.982 E11.02415
G1 X74.120 Y54.383 E11.59058
G1 X74.824 Y54.564 E11.65669
G1 X79.406 Y49.982 E12.24638
G1 X80.290 Y49.982 E12.32685
G1 X75.460 Y54.812 E12.94848
G1 X76.093 Y55.063 E13.01049
G1 X81.175 Y49.982 E13.66440
G1 X82.059 Y49.982 E13.74487
G1 X76.727 Y55.314 E14.43107
G1 X77.302 Y55.623 E14.49049
G1 X82.944 Y49.982 E15.21646
G1 X83.828 Y49.982 E15.29693
G1 X77.873 Y55.937 E16.06327
G1 X78.443 Y56.250 E16.12253
G1 X84.712 Y49.982 E16.92924
G1 X85.597 Y49.982 E17.00971
G1 X78.970 Y56.608 E17.86242
G1 X79.483 Y56.980 E17.92003
G1 X86.481 Y49.982 E18.82063
G1 X87.365 Y49.982 E18.90111
G1 X79.995 Y57.352 E19.84960
G1 X80.251 Y57.539 E19.87846
G1 X80.479 Y57.752 E19.90687
G1 X88.250 Y49.982 E20.90684
G1 X89.134 Y49.982 E20.98731
G1 X80.936 Y58.180 E22.04234
G1 X81.392 Y58.608 E22.09927
G1 X90.018 Y49.982 E23.20938
G1 X90.903 Y49.982 E23.28985
G1 X81.839 Y59.046 E24.45628
G1 X82.239 Y59.530 E24.51344
G1 X91.787 Y49.982 E25.74215
G1 X92.672 Y49.982 E25.82262
G1 X82.639 Y60.014 E27.11361
G1 X83.040 Y60.498 E27.17076
G1 X93.556 Y49.982 E28.52404
G1 X94.440 Y49.982 E28.60451
G1 X83.390 Y61.032 E30.02651
G1 X83.733 Y61.573 E30.08481
G1 X95.325 Y49.982 E31.57643
G1 X96.209 Y49.982 E31.65690
G1 X84.077 Y62.114 E33.21814
G1 X84.198 Y62.304 E33.23867
G1 X84.381 Y62.694 E33.27786
G1 X97.093 Y49.982 E34.91375
G1 X97.978 Y49.982 E34.99422
G1 X89.941 Y58.018 E36.02845
G1 X90.825 Y58.018 E36.10892
G1 X98.862 Y49.982 E37.14314
G1 X99.746 Y49.982 E37.22361
G1 X91.710 Y58.018 E38.25783
G1 X92.594 Y58.018 E38.33831
G1 X100.631 Y49.982 E39.37253
G1 X101.515 Y49.982 E39.45300
G1 X93.478 Y58.018 E40.48722
G1 X94.363 Y58.018 E40.56769
G1 X102.399 Y49.982 E41.60192
G1 X103.284 Y49.982 E41.68239
G1 X95.247 Y58.018 E42.71661
G1 X96.131 Y58.018 E42.79708
G1 X104.168 Y49.982 E43.83130
G1 X105.053 Y49.982 E43.91178
G1 X97.016 Y58.018 E44.94600
G1 X97.900 Y58.018 E45.02647
G1 X105.937 Y49.982 E46.06069
G1 X106.821 Y49.982 E46.14116
G1 X98.785 Y58.018 E47.17539
G1 X99.669 Y58.018 E47.25586
G1 X107.706 Y49.982 E48.29008
G1 X108.590 Y49.982 E48.37055
G1 X100.553 Y58.018 E49.40477
G1 X101.438 Y58.018 E49.48525
G1 X109.474 Y49.982 E50.51947
G1 X110.359 Y49.982 E50.59994
G1 X102.322 Y58.018 E51.63416
G1 X103.206 Y58.018 E51.71463
G1 X111.243 Y49.982 E52.74886
G1 X112.127 Y49.982 E52.82933
G1 X104.091 Y58.018 E53.86355
G1 X104.975 Y58.018 E53.94402
G1 X113.012 Y49.982 E54.97824
G1 X113.896 Y49.982 E55.05872
G1 X105.859 Y58.018 E56.09294
G1 X106.744 Y58.018 E56.17341
G1 X114.781 Y49.982 E57.20763
G1 X115.665 Y49.982 E57.28810
G1 X107.628 Y58.018 E58.32233
G1 X108.513 Y58.018 E58.40280
G1 X116.549 Y49.982 E59.43702
G1 X117.434 Y49.982 E59.51749
G1 X109.397 Y58.018 E60.55171
G1 X110.281 Y58.018 E60.63219
G1 X118.318 Y49.982 E61.66641
G1 X119.202 Y49.982 E61.74688
G1 X111.166 Y58.018 E62.78110
G1 X112.050 Y58.018 E62.86157
G1 X119.448 Y50.620 E63.81361
G1 X119.448 Y51.505 E63.89409
G1 X112.934 Y58.018 E64.73232
G1 X113.819 Y58.018 E64.81279
G1 X119.448 Y52.389 E65.53722
G1 X119.448 Y53.273 E65.61769
G1 X114.703 Y58.018 E66.22832
G1 X115.587 Y58.018 E66.30879
G1 X119.448 Y54.158 E66.80561
G1 X119.448 Y55.042 E66.88608
G1 X116.472 Y58.018 E67.26909
G1 X117.356 Y58.018 E67.34957
G1 X119.448 Y55.926 E67.61877
G1 X119.448 Y56.811 E67.69924
G1 X118.241 Y58.018 E67.85465
G1 E65.85465 F2400.00000
G92 E0
G1 X84.381 Y62.694 F7800.000
G1 E2.00000 F2400.00000
G1 F1800
G1 X84.664 Y63.295 E2.06048
G1 X90.018 Y57.941 E2.74951
G1 X90.018 Y58.825 E2.82998
G1 X84.947 Y63.897 E3.48260
G1 X85.079 Y64.177 E3.51076
G1 X85.195 Y64.533 E3.54488
G1 X90.018 Y59.710 E4.16563
G1 X90.018 Y60.594 E4.24610
G1 X85.412 Y65.201 E4.83894
G1 X85.628 Y65.868 E4.90280
G1 X90.018 Y61.478 E5.46772
G1 X90.018 Y62.363 E5.54820
G1 X85.801 Y66.580 E6.09088
G1 X85.943 Y67.323 E6.15968
G1 X90.018 Y63.247 E6.68413
G1 X90.018 Y64.131 E6.76461
G1 X86.085 Y68.065 E7.27083
G1 X86.150 Y68.884 E7.34555
G1 X90.018 Y65.016 E7.84329
G1 X90.018 Y65.900 E7.92376
