; generated by Slic3r 1.3.0 on 2023-03-07 at 20:36:59

; external perimeters extrusion width = 0.44mm (2.78mm^3/s)
; perimeters extrusion width = 0.40mm (7.14mm^3/s)
; infill extrusion width = 0.50mm (10.97mm^3/s)
; solid infill extrusion width = 0.60mm (6.68mm^3/s)
; top infill extrusion width = 0.40mm (2.14mm^3/s)

M107
M190 S80 ; set bed temperature and wait for it to be reached
M104 S210 ; set temperature
G28 ; home all axes
G1 Z5 F5000 ; lift nozzle

; Filament gcode

M109 S210 ; set temperature and wait for it to be reached
G21 ; set units to millimeters
G90 ; use absolute coordinates
M82 ; use absolute distances for extrusion
G92 E0
G1 Z0.300 F30000.000
G1 E-2.00000 F2400.00000
G92 E0
G1 X52.805 Y52.274 F30000.000
G1 E2.00000 F2400.00000
G1 F2100
G1 X53.902 Y51.306 E2.09777
G1 X54.784 Y50.636 E2.17175
G1 X55.706 Y50.023 E2.24572
G1 X56.353 Y49.641 E2.29589
G1 X57.334 Y49.128 E2.36986
G1 X58.678 Y48.547 E2.46765
G1 X59.723 Y48.182 E2.54161
G1 X60.444 Y47.973 E2.59178
G1 X61.872 Y47.654 E2.68954
G1 X62.614 Y47.536 E2.73972
G1 X63.715 Y47.421 E2.81369
G1 X65.178 Y47.375 E2.91148
G1 X65.929 Y47.398 E2.96163
G1 X67.032 Y47.491 E3.03560
G1 X68.487 Y47.722 E3.13403
G1 X69.556 Y47.973 E3.20736
G1 X70.616 Y48.292 E3.28134
G1 X71.322 Y48.547 E3.33149
G1 X72.343 Y48.976 E3.40546
G1 X73.647 Y49.641 E3.50325
G1 X74.294 Y50.023 E3.55340
G1 X75.216 Y50.636 E3.62738
G1 X76.372 Y51.533 E3.72516
G1 X76.935 Y52.030 E3.77532
G1 X77.726 Y52.805 E3.84929
G1 X78.694 Y53.903 E3.94708
G1 X79.155 Y54.496 E3.99726
G1 X79.786 Y55.406 E4.07122
G1 X80.531 Y56.665 E4.16899
G1 X80.872 Y57.334 E4.21915
G1 X81.322 Y58.346 E4.29315
G1 X81.818 Y59.723 E4.39091
G1 X82.027 Y60.444 E4.44108
G1 X82.280 Y61.522 E4.51505
G1 X82.464 Y62.615 E4.58905
G1 X82.579 Y63.715 E4.66298
G1 X82.625 Y65.178 E4.76077
G1 X82.602 Y65.929 E4.81093
G1 X82.509 Y67.032 E4.88490
G1 X82.346 Y68.127 E4.95887
G1 X82.116 Y69.210 E5.03284
G1 X81.708 Y70.616 E5.13063
G1 X81.453 Y71.322 E5.18078
G1 X81.024 Y72.343 E5.25476
G1 X80.359 Y73.647 E5.35254
G1 X79.786 Y74.595 E5.42652
G1 X79.364 Y75.216 E5.47667
G1 X78.467 Y76.372 E5.57446
G1 X77.970 Y76.935 E5.62463
G1 X77.195 Y77.726 E5.69858
G1 X76.097 Y78.694 E5.79637
G1 X75.216 Y79.364 E5.87035
G1 X74.595 Y79.786 E5.92050
G1 X73.335 Y80.531 E6.01826
G1 X72.666 Y80.872 E6.06844
G1 X71.654 Y81.322 E6.14241
G1 X70.277 Y81.818 E6.24020
G1 X69.211 Y82.116 E6.31415
G1 X68.478 Y82.280 E6.36433
G1 X67.032 Y82.509 E6.46211
G1 X65.929 Y82.602 E6.53608
G1 X64.822 Y82.625 E6.61006
G1 X64.071 Y82.602 E6.66021
G1 X62.968 Y82.509 E6.73419
G1 X61.522 Y82.280 E6.83196
G1 X60.444 Y82.027 E6.90593
G1 X59.723 Y81.818 E6.95610
G1 X58.337 Y81.318 E7.05451
G1 X57.334 Y80.872 E7.12786
G1 X56.353 Y80.359 E7.20184
G1 X55.406 Y79.786 E7.27579
G1 X54.784 Y79.364 E7.32596
G1 X53.628 Y78.467 E7.42374
G1 X53.065 Y77.970 E7.47390
G1 X52.274 Y77.195 E7.54788
G1 X51.306 Y76.097 E7.64566
G1 X50.846 Y75.504 E7.69582
G1 X50.214 Y74.595 E7.76979
G1 X49.469 Y73.335 E7.86758
G1 X48.976 Y72.343 E7.94155
G1 X48.678 Y71.654 E7.99172
G1 X48.182 Y70.277 E8.08949
G1 X47.973 Y69.556 E8.13965
G1 X47.720 Y68.478 E8.21363
G1 X47.536 Y67.385 E8.28763
G1 X47.421 Y66.285 E8.36157
G1 X47.375 Y64.822 E8.45935
G1 X47.398 Y64.071 E8.50951
G1 X47.491 Y62.968 E8.58348
G1 X47.720 Y61.522 E8.68127
G1 X47.884 Y60.789 E8.73144
G1 X48.182 Y59.723 E8.80540
G1 X48.678 Y58.346 E8.90318
G1 X48.976 Y57.656 E8.95337
G1 X49.469 Y56.665 E9.02731
G1 X50.214 Y55.405 E9.12510
G1 X50.636 Y54.784 E9.17526
G1 X51.306 Y53.902 E9.24924
G1 X52.030 Y53.065 E9.32320
G1 X52.762 Y52.316 E9.39316
G1 X53.183 Y52.653 F30000.000
G1 F2100
G1 X54.231 Y51.729 E9.48644
G1 X55.085 Y51.079 E9.55817
G1 X55.706 Y50.657 E9.60833
G1 X56.908 Y49.946 E9.70163
G1 X57.869 Y49.468 E9.77334
G1 X58.559 Y49.170 E9.82351
G1 X59.882 Y48.694 E9.91744
G1 X60.906 Y48.407 E9.98851
G1 X61.956 Y48.183 E10.06023
G1 X62.698 Y48.065 E10.11041
G1 X63.766 Y47.954 E10.18213
G1 X65.162 Y47.910 E10.27543
G1 X65.912 Y47.934 E10.32558
G1 X66.982 Y48.025 E10.39731
G1 X68.370 Y48.245 E10.49124
G1 X69.406 Y48.487 E10.56232
G1 X70.435 Y48.796 E10.63405
G1 X71.141 Y49.051 E10.68420
G1 X72.130 Y49.468 E10.75593
G1 X73.375 Y50.102 E10.84922
G1 X74.021 Y50.484 E10.89938
G1 X74.915 Y51.079 E10.97110
G1 X76.018 Y51.935 E11.06439
G1 X76.581 Y52.431 E11.11455
G1 X77.347 Y53.183 E11.18628
G1 X78.271 Y54.231 E11.27957
G1 X78.731 Y54.824 E11.32975
G1 X79.343 Y55.707 E11.40146
G1 X80.054 Y56.908 E11.49474
G1 X80.395 Y57.577 E11.54490
G1 X80.831 Y58.559 E11.61665
G1 X81.303 Y59.873 E11.70992
G1 X81.513 Y60.594 E11.76008
G1 X81.757 Y61.639 E11.83181
G1 X81.935 Y62.698 E11.90356
G1 X82.046 Y63.766 E11.97525
G1 X82.090 Y65.162 E12.06854
G1 X82.066 Y65.912 E12.11870
G1 X81.975 Y66.982 E12.19042
G1 X81.817 Y68.044 E12.26215
G1 X81.593 Y69.094 E12.33387
G1 X81.204 Y70.435 E12.42717
G1 X80.949 Y71.141 E12.47732
G1 X80.532 Y72.130 E12.54905
G1 X79.898 Y73.375 E12.64234
G1 X79.343 Y74.294 E12.71407
G1 X78.921 Y74.915 E12.76422
G1 X78.065 Y76.018 E12.85751
G1 X77.568 Y76.581 E12.90768
G1 X76.817 Y77.347 E12.97939
G1 X75.769 Y78.271 E13.07269
G1 X75.176 Y78.731 E13.12284
G1 X74.294 Y79.343 E13.19456
G1 X73.092 Y80.054 E13.28783
G1 X72.423 Y80.395 E13.33801
G1 X71.441 Y80.830 E13.40974
G1 X70.127 Y81.303 E13.50303
G1 X69.094 Y81.593 E13.57474
G1 X68.361 Y81.757 E13.62491
G1 X66.982 Y81.975 E13.71821
G1 X65.912 Y82.066 E13.78993
G1 X64.838 Y82.090 E13.86166
G1 X63.766 Y82.046 E13.93339
G1 X63.018 Y81.975 E13.98354
G1 X61.639 Y81.757 E14.07682
G1 X60.594 Y81.513 E14.14854
G1 X59.566 Y81.204 E14.22027
G1 X58.559 Y80.831 E14.29198
G1 X57.870 Y80.532 E14.34216
G1 X56.625 Y79.898 E14.43546
G1 X55.707 Y79.343 E14.50717
G1 X55.085 Y78.921 E14.55734
G1 X53.982 Y78.065 E14.65062
G1 X53.183 Y77.347 E14.72236
G1 X52.653 Y76.817 E14.77251
G1 X51.729 Y75.769 E14.86580
G1 X51.269 Y75.176 E14.91596
G1 X50.657 Y74.294 E14.98768
G1 X49.946 Y73.092 E15.08098
G1 X49.468 Y72.130 E15.15270
G1 X49.170 Y71.441 E15.20287
G1 X48.697 Y70.127 E15.29615
G1 X48.487 Y69.406 E15.34631
G1 X48.243 Y68.361 E15.41804
G1 X48.065 Y67.302 E15.48979
G1 X47.954 Y66.234 E15.56148
G1 X47.910 Y64.838 E15.65478
G1 X47.934 Y64.088 E15.70493
G1 X48.025 Y63.018 E15.77665
G1 X48.243 Y61.639 E15.86995
G1 X48.407 Y60.906 E15.92012
G1 X48.697 Y59.872 E15.99184
G1 X49.170 Y58.559 E16.08512
G1 X49.468 Y57.869 E16.13531
G1 X49.946 Y56.908 E16.20700
G1 X50.657 Y55.706 E16.30029
G1 X51.079 Y55.085 E16.35046
G1 X51.729 Y54.231 E16.42219
G1 X52.431 Y53.419 E16.49390
G1 X53.141 Y52.695 E16.56162
G1 X53.562 Y53.031 F30000.000
G1 F2100
G1 X54.559 Y52.152 E16.65040
G1 X55.386 Y51.522 E16.71988
G1 X56.007 Y51.100 E16.77005
G1 X57.152 Y50.423 E16.85885
G1 X58.082 Y49.959 E16.92832
G1 X58.771 Y49.661 E16.97848
G1 X60.031 Y49.208 E17.06792
G1 X61.023 Y48.930 E17.13674
G1 X62.040 Y48.712 E17.20622
G1 X62.782 Y48.594 E17.25639
G1 X63.816 Y48.487 E17.32587
G1 X65.145 Y48.445 E17.41467
G1 X65.895 Y48.469 E17.46482
G1 X66.931 Y48.558 E17.53430
G1 X68.244 Y48.766 E17.62309
G1 X69.257 Y49.002 E17.69258
G1 X69.978 Y49.211 E17.74273
G1 X70.960 Y49.555 E17.81221
G1 X71.918 Y49.959 E17.88169
G1 X73.102 Y50.563 E17.97050
G1 X73.993 Y51.100 E18.03997
G1 X74.613 Y51.522 E18.09012
G1 X75.664 Y52.337 E18.17892
G1 X76.227 Y52.833 E18.22908
G1 X76.969 Y53.562 E18.29856
G1 X77.848 Y54.559 E18.38736
G1 X78.308 Y55.153 E18.43753
G1 X78.900 Y56.008 E18.50700
G1 X79.577 Y57.152 E18.59579
G1 X79.917 Y57.821 E18.64595
G1 X80.339 Y58.772 E18.71545
G1 X80.789 Y60.022 E18.80422
G1 X80.999 Y60.743 E18.85439
G1 X81.234 Y61.756 E18.92387
G1 X81.406 Y62.782 E18.99337
G1 X81.513 Y63.816 E19.06281
G1 X81.555 Y65.145 E19.15161
G1 X81.531 Y65.895 E19.20177
G1 X81.442 Y66.931 E19.27124
G1 X81.288 Y67.960 E19.34072
G1 X81.070 Y68.977 E19.41020
G1 X80.700 Y70.253 E19.49900
G1 X80.445 Y70.960 E19.54916
G1 X80.041 Y71.918 E19.61863
G1 X79.437 Y73.102 E19.70743
G1 X79.055 Y73.748 E19.75759
G1 X78.478 Y74.613 E19.82707
G1 X77.663 Y75.664 E19.91587
G1 X77.167 Y76.227 E19.96603
G1 X76.438 Y76.969 E20.03550
G1 X75.441 Y77.848 E20.12430
G1 X74.613 Y78.478 E20.19378
G1 X73.993 Y78.900 E20.24393
G1 X72.849 Y79.576 E20.33271
G1 X72.180 Y79.917 E20.38288
G1 X71.229 Y80.339 E20.45236
G1 X69.978 Y80.789 E20.54116
G1 X68.977 Y81.070 E20.61062
G1 X68.244 Y81.234 E20.66079
G1 X66.931 Y81.442 E20.74960
G1 X65.895 Y81.531 E20.81907
G1 X64.855 Y81.555 E20.88855
G1 X64.105 Y81.531 E20.93871
G1 X63.069 Y81.442 E21.00819
G1 X61.756 Y81.234 E21.09697
G1 X60.743 Y80.999 E21.16645
G1 X60.022 Y80.789 E21.21662
G1 X58.763 Y80.335 E21.30604
G1 X57.821 Y79.917 E21.37489
G1 X56.898 Y79.437 E21.44437
G1 X56.008 Y78.900 E21.51384
G1 X55.387 Y78.478 E21.56401
G1 X54.336 Y77.663 E21.65280
G1 X53.773 Y77.167 E21.70296
G1 X53.031 Y76.438 E21.77244
G1 X52.152 Y75.441 E21.86124
G1 X51.692 Y74.848 E21.91139
G1 X51.100 Y73.993 E21.98087
G1 X50.423 Y72.848 E22.06967
G1 X49.959 Y71.918 E22.13915
G1 X49.661 Y71.228 E22.18932
G1 X49.211 Y69.978 E22.27810
G1 X49.002 Y69.257 E22.32826
G1 X48.766 Y68.244 E22.39775
G1 X48.594 Y67.218 E22.46725
G1 X48.487 Y66.184 E22.53669
G1 X48.445 Y64.855 E22.62549
G1 X48.469 Y64.105 E22.67565
G1 X48.558 Y63.069 E22.74512
G1 X48.766 Y61.756 E22.83393
G1 X48.930 Y61.023 E22.88410
G1 X49.211 Y60.022 E22.95357
G1 X49.661 Y58.771 E23.04236
G1 X49.960 Y58.082 E23.09254
G1 X50.423 Y57.152 E23.16199
G1 X51.100 Y56.007 E23.25079
G1 X51.522 Y55.386 E23.30096
G1 X52.152 Y54.559 E23.37044
G1 X52.833 Y53.773 E23.43990
G1 X53.520 Y53.074 E23.50537
G1 X53.941 Y53.410 F30000.000
G1 F2100
G1 X54.887 Y52.576 E23.58966
G1 X55.687 Y51.965 E23.65690
G1 X56.309 Y51.543 E23.70706
G1 X57.395 Y50.901 E23.79137
G1 X58.295 Y50.451 E23.85859
G1 X58.984 Y50.153 E23.90875
G1 X60.171 Y49.725 E23.99305
G1 X61.140 Y49.452 E24.06028
G1 X62.124 Y49.241 E24.12751
G1 X62.865 Y49.123 E24.17768
G1 X63.867 Y49.020 E24.24491
G1 X65.128 Y48.981 E24.32922
G1 X66.133 Y49.020 E24.39645
G1 X66.881 Y49.091 E24.44660
G1 X68.127 Y49.288 E24.53090
G1 X68.860 Y49.452 E24.58106
G1 X69.829 Y49.725 E24.64829
G1 X70.778 Y50.059 E24.71552
G1 X71.705 Y50.451 E24.78275
G1 X72.829 Y51.024 E24.86706
G1 X73.476 Y51.406 E24.91721
G1 X74.312 Y51.965 E24.98445
G1 X75.310 Y52.738 E25.06875
G1 X76.059 Y53.410 E25.13598
G1 X76.590 Y53.941 E25.18614
G1 X77.425 Y54.888 E25.27044
G1 X77.885 Y55.481 E25.32061
G1 X78.457 Y56.309 E25.38784
G1 X79.099 Y57.395 E25.47213
G1 X79.440 Y58.064 E25.52229
G1 X79.847 Y58.984 E25.58954
G1 X80.275 Y60.171 E25.67383
G1 X80.484 Y60.892 E25.72399
G1 X80.712 Y61.873 E25.79122
G1 X80.877 Y62.866 E25.85847
G1 X80.980 Y63.867 E25.92567
G1 X81.019 Y65.128 E26.00998
G1 X80.996 Y65.878 E26.06014
G1 X80.909 Y66.881 E26.12737
G1 X80.759 Y67.876 E26.19460
G1 X80.548 Y68.860 E26.26183
G1 X80.196 Y70.072 E26.34614
G1 X79.847 Y71.016 E26.41337
G1 X79.549 Y71.705 E26.46352
G1 X78.976 Y72.829 E26.54783
G1 X78.457 Y73.691 E26.61506
G1 X78.035 Y74.312 E26.66521
G1 X77.262 Y75.310 E26.74952
G1 X76.765 Y75.873 E26.79968
G1 X76.059 Y76.590 E26.86690
G1 X75.112 Y77.425 E26.95121
G1 X74.519 Y77.885 E27.00136
G1 X73.691 Y78.457 E27.06859
G1 X72.606 Y79.099 E27.15288
G1 X71.936 Y79.440 E27.20305
G1 X71.016 Y79.847 E27.27029
G1 X69.829 Y80.275 E27.35459
G1 X68.860 Y80.548 E27.42181
G1 X67.876 Y80.759 E27.48906
G1 X67.135 Y80.877 E27.53921
G1 X66.133 Y80.980 E27.60644
G1 X64.872 Y81.019 E27.69075
G1 X64.122 Y80.996 E27.74090
G1 X63.119 Y80.909 E27.80813
G1 X61.873 Y80.712 E27.89243
G1 X60.892 Y80.484 E27.95966
G1 X60.171 Y80.275 E28.00982
G1 X58.975 Y79.843 E28.09475
G1 X58.064 Y79.440 E28.16136
G1 X57.171 Y78.976 E28.22859
G1 X56.309 Y78.457 E28.29581
G1 X55.688 Y78.035 E28.34598
G1 X54.690 Y77.262 E28.43028
G1 X54.127 Y76.765 E28.48043
G1 X53.410 Y76.059 E28.54767
G1 X52.575 Y75.112 E28.63197
G1 X52.115 Y74.519 E28.68213
G1 X51.543 Y73.691 E28.74936
G1 X50.901 Y72.605 E28.83367
G1 X50.451 Y71.705 E28.90090
G1 X50.153 Y71.016 E28.95106
G1 X49.725 Y69.829 E29.03536
G1 X49.516 Y69.108 E29.08551
G1 X49.288 Y68.127 E29.15275
G1 X49.123 Y67.134 E29.22000
G1 X49.020 Y66.133 E29.28720
G1 X48.981 Y64.872 E29.37151
G1 X49.004 Y64.122 E29.42167
G1 X49.091 Y63.119 E29.48890
G1 X49.288 Y61.873 E29.57320
G1 X49.452 Y61.140 E29.62337
G1 X49.725 Y60.171 E29.69059
G1 X50.153 Y58.984 E29.77489
G1 X50.451 Y58.295 E29.82507
G1 X50.901 Y57.395 E29.89228
G1 X51.543 Y56.309 E29.97658
G1 X51.965 Y55.687 E30.02675
G1 X52.576 Y54.887 E30.09398
G1 X53.235 Y54.127 E30.16120
G1 X53.898 Y53.452 E30.22442
G1 X54.320 Y53.789 F30000.000
G1 F2100
G1 X55.216 Y52.999 E30.30423
G1 X55.989 Y52.408 E30.36921
G1 X56.797 Y51.867 E30.43420
G1 X57.443 Y51.485 E30.48436
G1 X58.307 Y51.037 E30.54934
G1 X59.403 Y50.563 E30.62916
G1 X60.321 Y50.240 E30.69414
G1 X61.042 Y50.030 E30.74429
G1 X62.207 Y49.770 E30.82409
G1 X62.949 Y49.652 E30.87426
G1 X63.917 Y49.554 E30.93924
G1 X65.111 Y49.516 E31.01906
G1 X65.861 Y49.540 E31.06921
G1 X66.830 Y49.624 E31.13420
G1 X68.010 Y49.811 E31.21400
G1 X68.958 Y50.030 E31.27899
G1 X69.679 Y50.240 E31.32915
G1 X70.597 Y50.563 E31.39413
G1 X71.492 Y50.943 E31.45911
G1 X72.557 Y51.485 E31.53893
G1 X73.203 Y51.867 E31.58908
G1 X74.011 Y52.408 E31.65406
G1 X74.955 Y53.140 E31.73387
G1 X75.518 Y53.637 E31.78403
G1 X76.211 Y54.320 E31.84902
G1 X77.001 Y55.216 E31.92883
G1 X77.462 Y55.809 E31.97900
G1 X78.014 Y56.610 E32.04398
G1 X78.622 Y57.638 E32.12378
G1 X78.963 Y58.307 E32.17393
G1 X79.356 Y59.197 E32.23894
G1 X79.760 Y60.321 E32.31873
G1 X79.970 Y61.042 E32.36889
G1 X80.189 Y61.990 E32.43388
G1 X80.348 Y62.950 E32.49888
G1 X80.446 Y63.917 E32.56384
G1 X80.484 Y65.111 E32.64365
G1 X80.460 Y65.861 E32.69380
G1 X80.376 Y66.830 E32.75879
G1 X80.230 Y67.792 E32.82377
G1 X80.025 Y68.743 E32.88875
G1 X79.692 Y69.890 E32.96857
G1 X79.437 Y70.597 E33.01872
G1 X79.057 Y71.492 E33.08371
G1 X78.515 Y72.557 E33.16352
G1 X78.014 Y73.390 E33.22850
G1 X77.592 Y74.011 E33.27866
G1 X76.860 Y74.955 E33.35847
G1 X76.363 Y75.519 E33.40863
G1 X75.680 Y76.211 E33.47361
G1 X74.784 Y77.001 E33.55342
G1 X74.011 Y77.592 E33.61840
G1 X73.390 Y78.014 E33.66856
G1 X72.362 Y78.622 E33.74835
G1 X71.693 Y78.963 E33.79852
G1 X70.803 Y79.356 E33.86351
G1 X69.679 Y79.760 E33.94332
G1 X68.743 Y80.025 E34.00829
G1 X67.792 Y80.230 E34.07329
G1 X67.051 Y80.348 E34.12344
G1 X66.083 Y80.446 E34.18843
G1 X64.889 Y80.484 E34.26824
G1 X64.139 Y80.460 E34.31839
G1 X63.170 Y80.376 E34.38338
G1 X61.980 Y80.187 E34.46383
G1 X61.042 Y79.970 E34.52816
G1 X60.110 Y79.692 E34.59315
G1 X59.197 Y79.356 E34.65812
G1 X58.508 Y79.057 E34.70829
G1 X57.443 Y78.515 E34.78811
G1 X56.610 Y78.014 E34.85308
G1 X55.989 Y77.592 E34.90325
G1 X55.045 Y76.860 E34.98305
G1 X54.482 Y76.363 E35.03321
G1 X53.789 Y75.680 E35.09820
G1 X52.999 Y74.784 E35.17801
G1 X52.539 Y74.191 E35.22816
G1 X51.986 Y73.390 E35.29315
G1 X51.378 Y72.362 E35.37296
G1 X50.943 Y71.492 E35.43794
G1 X50.644 Y70.803 E35.48811
G1 X50.240 Y69.679 E35.56791
G1 X50.030 Y68.958 E35.61806
G1 X49.811 Y68.010 E35.68306
G1 X49.652 Y67.050 E35.74806
G1 X49.554 Y66.083 E35.81302
G1 X49.516 Y64.889 E35.89283
G1 X49.540 Y64.139 E35.94298
G1 X49.624 Y63.170 E36.00797
G1 X49.811 Y61.990 E36.08778
G1 X49.975 Y61.257 E36.13795
G1 X50.240 Y60.321 E36.20292
G1 X50.644 Y59.197 E36.28273
G1 X50.943 Y58.507 E36.33291
G1 X51.378 Y57.638 E36.39787
G1 X51.986 Y56.610 E36.47768
G1 X52.408 Y55.989 E36.52784
G1 X52.999 Y55.216 E36.59283
G1 X53.637 Y54.482 E36.65780
G1 X54.277 Y53.831 E36.71878
G1 E34.71878 F2400.00000
G92 E0
G1 X75.675 Y66.748 F30000.000
G1 E2.00000 F2400.00000
G1 F2100
G1 X73.325 Y66.748 E2.15699
G1 X73.325 Y63.834 E2.35165
G1 X72.924 Y64.139 E2.38529
G1 X72.505 Y64.342 E2.41643
G1 X72.056 Y64.459 E2.44739
G1 X71.739 Y64.489 E2.46870
G1 X71.419 Y64.479 E2.49010
G1 X70.955 Y64.390 E2.52160
G1 X70.508 Y64.215 E2.55368
G1 X70.101 Y63.963 E2.58568
G1 X69.850 Y63.751 E2.60761
G1 X69.630 Y63.516 E2.62912
G1 X69.408 Y63.647 E2.64635
G1 X69.539 Y64.139 E2.68039
G1 X69.610 Y64.705 E2.71851
G1 X69.620 Y65.005 E2.73853
G1 X69.583 Y65.579 E2.77697
G1 X69.475 Y66.149 E2.81573
G1 X69.297 Y66.696 E2.85417
G1 X69.178 Y66.971 E2.87419
G1 X68.903 Y67.471 E2.91232
