; generated by Slic3r 1.3.0 on 2022-08-30 at 11:03:17

; external perimeters extrusion width = 0.44mm (3.38mm^3/s)
; perimeters extrusion width = 0.48mm (7.54mm^3/s)
; infill extrusion width = 0.48mm (10.05mm^3/s)
; solid infill extrusion width = 0.48mm (2.51mm^3/s)
; top infill extrusion width = 0.48mm (1.88mm^3/s)
; support material extrusion width = 0.44mm (6.76mm^3/s)

M107
M104 S210 ; set temperature
G28 ; home all axes
G1 Z5 F5000 ; lift nozzle

; Filament gcode

M109 S210 ; set temperature and wait for it to be reached
G21 ; set units to millimeters
G90 ; use absolute coordinates
M82 ; use absolute distances for extrusion
G92 E0
G1 Z0.350 F7800.000
G1 E-2.00000 F2400.00000
G92 E0
G1 X43.404 Y44.920 F7800.000
G1 E2.00000 F2400.00000
G1 F1800
G1 X47.265 Y41.069 E2.48586
G1 X53.235 Y35.632 E3.20548
G1 X53.837 Y35.145 E3.27444
G1 X67.212 Y25.558 E4.74087
G1 X69.279 Y24.565 E4.94524
G1 X71.071 Y24.318 E5.10647
G1 X81.567 Y24.318 E6.04170
G1 X82.365 Y24.366 E6.11294
G1 X107.042 Y27.360 E8.32805
G1 X109.236 Y28.026 E8.53243
G1 X110.928 Y29.252 E8.71862
G1 X119.247 Y37.571 E9.76698
G1 X124.390 Y43.258 E10.45026
G1 X124.848 Y43.826 E10.51525
G1 X134.063 Y56.630 E11.92101
G1 X134.945 Y58.329 E12.09156
G1 X135.316 Y59.400 E12.19258
G1 X135.682 Y61.571 E12.38881
G1 X135.682 Y72.178 E13.33404
G1 X135.298 Y80.383 E14.06599
G1 X135.219 Y81.137 E14.13352
G1 X132.674 Y96.699 E15.53870
G1 X132.170 Y98.363 E15.69360
G1 X131.722 Y99.353 E15.79045
G1 X130.372 Y101.304 E16.00190
G1 X122.837 Y108.839 E16.95146
G1 X116.760 Y114.373 E17.68385
G1 X116.275 Y114.774 E17.73994
G1 X103.471 Y124.361 E19.16531
G1 X101.425 Y125.397 E19.36968
G1 X99.500 Y125.682 E19.54307
G1 X87.682 Y125.682 E20.59622
G1 X86.941 Y125.641 E20.66227
G1 X63.359 Y122.990 E22.77693
G1 X61.159 Y122.343 E22.98130
G1 X59.415 Y121.091 E23.17262
G1 X50.753 Y112.429 E24.26422
G1 X45.754 Y106.884 E24.92952
G1 X45.312 Y106.337 E24.99222
G1 X35.942 Y93.383 E26.41688
G1 X35.037 Y91.632 E26.59245
G1 X34.670 Y90.553 E26.69402
G1 X34.318 Y88.421 E26.88663
G1 X34.318 Y77.822 E27.83113
G1 X34.701 Y69.617 E28.56308
G1 X34.777 Y68.890 E28.62818
G1 X37.346 Y52.762 E30.08349
G1 X38.094 Y50.594 E30.28786
G1 X39.204 Y49.120 E30.45230
G1 X43.362 Y44.962 E30.97627
G1 E28.97627 F2400.00000
G92 E0
G1 X80.910 Y76.290 F7800.000
G1 E2.00000 F2400.00000
G1 F1800
G1 X80.769 Y75.807 E2.04480
G1 X80.693 Y75.000 E2.11704
G1 X80.769 Y74.193 E2.18927
G1 X80.996 Y73.415 E2.26151
G1 X81.364 Y72.692 E2.33374
G1 X81.860 Y72.052 E2.40598
G1 X82.468 Y71.516 E2.47822
G1 X83.166 Y71.103 E2.55045
G1 X83.905 Y70.837 E2.62043
G1 X84.460 Y70.731 E2.67081
G1 X85.020 Y70.696 E2.72079
G1 X85.806 Y70.769 E2.79115
G1 X86.585 Y70.996 E2.86345
G1 X87.308 Y71.364 E2.93569
G1 X87.928 Y71.845 E3.00567
G1 X88.315 Y72.257 E3.05607
G1 X88.648 Y72.715 E3.10648
G1 X89.004 Y73.415 E3.17646
G1 X89.231 Y74.193 E3.24869
G1 X89.307 Y75.000 E3.32093
G1 X89.231 Y75.808 E3.39323
G1 X89.010 Y76.566 E3.46359
G1 X88.771 Y77.073 E3.51357
G1 X88.468 Y77.551 E3.56395
G1 X87.948 Y78.140 E3.63393
G1 X87.308 Y78.636 E3.70617
G1 X86.585 Y79.004 E3.77840
G1 X85.807 Y79.231 E3.85064
G1 X85.000 Y79.307 E3.92287
G1 X84.218 Y79.233 E3.99285
G1 X83.671 Y79.092 E4.04323
G1 X83.149 Y78.886 E4.09321
G1 X82.469 Y78.485 E4.16357
G1 X81.860 Y77.948 E4.23587
G1 X81.364 Y77.308 E4.30811
G1 X80.996 Y76.585 E4.38035
G1 X80.926 Y76.347 E4.40244
G1 X81.510 Y76.115 F7800.000
G1 F1800
G1 X81.386 Y75.689 E4.44197
G1 X81.321 Y75.000 E4.50368
G1 X81.386 Y74.311 E4.56539
G1 X81.579 Y73.646 E4.62710
G1 X81.894 Y73.029 E4.68881
G1 X82.318 Y72.481 E4.75052
G1 X82.837 Y72.023 E4.81223
G1 X83.433 Y71.671 E4.87393
G1 X84.070 Y71.442 E4.93427
G1 X84.539 Y71.352 E4.97677
G1 X85.011 Y71.322 E5.01889
G1 X85.689 Y71.386 E5.07959
G1 X86.354 Y71.579 E5.14134
G1 X86.971 Y71.894 E5.20305
G1 X87.506 Y72.308 E5.26339
G1 X87.833 Y72.656 E5.30590
G1 X88.113 Y73.042 E5.34842
G1 X88.421 Y73.646 E5.40875
G1 X88.614 Y74.311 E5.47046
G1 X88.679 Y75.000 E5.53217
G1 X88.614 Y75.690 E5.59392
G1 X88.423 Y76.344 E5.65462
G1 X88.222 Y76.771 E5.69675
G1 X87.966 Y77.174 E5.73925
G1 X87.519 Y77.682 E5.79958
G1 X86.971 Y78.106 E5.86129
G1 X86.354 Y78.421 E5.92300
G1 X85.689 Y78.614 E5.98471
G1 X85.000 Y78.679 E6.04642
G1 X84.326 Y78.616 E6.10675
G1 X83.864 Y78.497 E6.14925
G1 X83.424 Y78.323 E6.19137
G1 X82.838 Y77.977 E6.25207
G1 X82.318 Y77.519 E6.31382
G1 X81.894 Y76.971 E6.37553
G1 X81.579 Y76.354 E6.43724
G1 X81.526 Y76.173 E6.45407
G1 X82.110 Y75.941 F7800.000
G1 F1800
G1 X82.002 Y75.572 E6.48834
G1 X81.948 Y75.000 E6.53952
G1 X82.002 Y74.428 E6.59070
G1 X82.163 Y73.877 E6.64188
G1 X82.423 Y73.365 E6.69307
G1 X82.776 Y72.911 E6.74425
G1 X83.206 Y72.531 E6.79543
G1 X83.701 Y72.239 E6.84661
G1 X84.236 Y72.046 E6.89730
G1 X84.618 Y71.973 E6.93192
G1 X85.001 Y71.949 E6.96619
G1 X85.572 Y72.002 E7.01723
G1 X86.123 Y72.163 E7.06843
G1 X86.635 Y72.423 E7.11961
G1 X87.085 Y72.772 E7.17030
G1 X87.351 Y73.055 E7.20493
G1 X87.579 Y73.370 E7.23956
G1 X87.837 Y73.877 E7.29025
G1 X87.998 Y74.428 E7.34143
G1 X88.052 Y75.000 E7.39261
G1 X87.997 Y75.572 E7.44381
G1 X87.837 Y76.122 E7.49485
G1 X87.673 Y76.470 E7.52911
G1 X87.465 Y76.798 E7.56374
G1 X87.089 Y77.224 E7.61443
G1 X86.635 Y77.577 E7.66561
G1 X86.123 Y77.837 E7.71679
G1 X85.572 Y77.998 E7.76797
G1 X85.000 Y78.052 E7.81915
G1 X84.434 Y77.998 E7.86984
G1 X84.057 Y77.901 E7.90447
G1 X83.700 Y77.760 E7.93873
G1 X83.206 Y77.469 E7.98977
G1 X82.776 Y77.089 E8.04097
G1 X82.423 Y76.635 E8.09215
G1 X82.163 Y76.123 E8.14333
G1 X82.127 Y75.999 E8.15489
G1 X81.732 Y75.867 F7800.000
G1 E6.15489 F2400.00000
G92 E0
G1 X45.365 Y82.600 F7800.000
G1 E2.00000 F2400.00000
G1 F1800
G1 X62.627 Y82.600 E3.53825
G1 X65.351 Y79.876 E3.88146
G1 X65.351 Y71.473 E4.63030
G1 X48.913 Y55.035 E6.70184
G1 X51.600 Y52.348 E7.04050
G1 X63.806 Y64.554 E8.57875
G1 X67.658 Y64.554 E8.92197
G1 X73.600 Y58.612 E9.67081
G1 X73.600 Y35.365 E11.74235
G1 X77.400 Y35.365 E12.08101
G1 X77.400 Y52.627 E13.61926
G1 X80.124 Y55.351 E13.96247
G1 X88.527 Y55.351 E14.71131
G1 X104.965 Y38.913 E16.78285
G1 X107.652 Y41.600 E17.12151
G1 X95.446 Y53.806 E18.65976
G1 X95.446 Y57.658 E19.00298
G1 X101.388 Y63.600 E19.75182
G1 X124.635 Y63.600 E21.82336
G1 X124.635 Y67.400 E22.16202
G1 X107.373 Y67.400 E23.70027
G1 X104.649 Y70.124 E24.04348
G1 X104.649 Y78.527 E24.79232
G1 X121.087 Y94.965 E26.86386
G1 X118.400 Y97.652 E27.20252
G1 X106.194 Y85.446 E28.74077
G1 X102.342 Y85.446 E29.08399
G1 X96.400 Y91.388 E29.83283
G1 X96.400 Y114.635 E31.90437
G1 X92.600 Y114.635 E32.24303
G1 X92.600 Y97.373 E33.78128
G1 X89.876 Y94.649 E34.12449
G1 X81.473 Y94.649 E34.87333
G1 X65.035 Y111.087 E36.94487
G1 X62.348 Y108.400 E37.28353
G1 X74.554 Y96.194 E38.82178
G1 X74.554 Y92.342 E39.16500
G1 X68.612 Y86.400 E39.91384
G1 X45.365 Y86.400 E41.98538
G1 X45.365 Y82.660 E42.31869
G1 X45.260 Y81.975 F7800.000
G1 F1800
G1 X62.368 Y81.975 E43.84323
G1 X64.726 Y79.618 E44.14031
G1 X64.726 Y71.732 E44.84302
G1 X48.029 Y55.035 E46.94718
G1 X53.191 Y49.873 E47.59771
G1 X53.559 Y50.241 E47.64404
G1 X51.968 Y51.832 E47.84454
G1 X64.065 Y63.929 E49.36908
G1 X67.399 Y63.929 E49.66617
G1 X72.975 Y58.353 E50.36887
G1 X72.975 Y34.740 E52.47304
G1 X80.275 Y34.740 E53.12357
G1 X80.275 Y35.260 E53.16989
G1 X78.025 Y35.260 E53.37039
G1 X78.025 Y52.368 E54.89493
G1 X80.382 Y54.726 E55.19202
G1 X88.268 Y54.726 E55.89472
G1 X104.965 Y38.029 E57.99889
G1 X110.127 Y43.191 E58.64942
G1 X109.759 Y43.559 E58.69575
G1 X108.168 Y41.968 E58.89625
G1 X96.071 Y54.065 E60.42078
G1 X96.071 Y57.399 E60.71787
G1 X101.647 Y62.975 E61.42058
G1 X125.260 Y62.975 E63.52474
G1 X125.260 Y70.275 E64.17527
G1 X124.740 Y70.275 E64.22160
G1 X124.740 Y68.025 E64.42210
G1 X107.632 Y68.025 E65.94664
G1 X105.274 Y70.382 E66.24372
G1 X105.274 Y78.268 E66.94643
G1 X121.971 Y94.965 E69.05059
G1 X116.809 Y100.127 E69.70112
G1 X116.441 Y99.759 E69.74745
G1 X118.032 Y98.168 E69.94795
G1 X105.935 Y86.071 E71.47249
G1 X102.601 Y86.071 E71.76957
G1 X97.025 Y91.647 E72.47228
G1 X97.025 Y115.260 E74.57644
G1 X89.725 Y115.260 E75.22697
G1 X89.725 Y114.740 E75.27330
G1 X91.975 Y114.740 E75.47380
G1 X91.975 Y97.632 E76.99834
G1 X89.618 Y95.274 E77.29542
G1 X81.732 Y95.274 E77.99813
G1 X65.035 Y111.971 E80.10229
G1 X59.873 Y106.809 E80.75282
G1 X60.241 Y106.441 E80.79915
G1 X61.832 Y108.032 E80.99965
G1 X73.929 Y95.935 E82.52419
G1 X73.929 Y92.601 E82.82127
G1 X68.353 Y87.025 E83.52398
G1 X44.740 Y87.025 E85.62814
G1 X44.740 Y79.725 E86.27867
G1 X45.260 Y79.725 E86.32500
G1 X45.260 Y81.915 E86.52015
G1 X45.885 Y81.350 F7800.000
G1 F1800
G1 X62.109 Y81.350 E87.96594
G1 X64.101 Y79.359 E88.21689
G1 X64.101 Y71.991 E88.87347
G1 X47.145 Y55.035 E91.01025
G1 X53.191 Y48.989 E91.77215
G1 X54.442 Y50.241 E91.92985
G1 X52.851 Y51.832 E92.13035
G1 X64.324 Y63.304 E93.57614
G1 X67.140 Y63.304 E93.82709
G1 X72.350 Y58.094 E94.48367
G1 X72.350 Y34.115 E96.62045
G1 X80.900 Y34.115 E97.38235
G1 X80.900 Y35.885 E97.54005
G1 X78.650 Y35.885 E97.74055
G1 X78.650 Y52.109 E99.18634
G1 X80.641 Y54.101 E99.43729
G1 X88.009 Y54.101 E100.09387
G1 X104.965 Y37.145 E102.23065
G1 X111.011 Y43.191 E102.99255
G1 X109.759 Y44.442 E103.15024
G1 X108.168 Y42.851 E103.35074
G1 X96.696 Y54.324 E104.79653
G1 X96.696 Y57.140 E105.04749
G1 X101.906 Y62.350 E105.70406
G1 X125.885 Y62.350 E107.84084
G1 X125.885 Y70.900 E108.60274
G1 X124.115 Y70.900 E108.76044
G1 X124.115 Y68.650 E108.96094
G1 X107.891 Y68.650 E110.40673
G1 X105.899 Y70.641 E110.65768
G1 X105.899 Y78.009 E111.31426
G1 X122.855 Y94.965 E113.45104
G1 X116.809 Y101.011 E114.21294
G1 X115.558 Y99.759 E114.37064
G1 X117.149 Y98.168 E114.57114
G1 X105.676 Y86.696 E116.01693
G1 X102.860 Y86.696 E116.26788
G1 X97.650 Y91.906 E116.92446
G1 X97.650 Y115.885 E119.06124
G1 X89.100 Y115.885 E119.82314
G1 X89.100 Y114.115 E119.98084
G1 X91.350 Y114.115 E120.18134
G1 X91.350 Y97.891 E121.62713
G1 X89.359 Y95.899 E121.87808
G1 X81.991 Y95.899 E122.53466
G1 X65.035 Y112.855 E124.67144
G1 X58.989 Y106.809 E125.43334
G1 X60.241 Y105.558 E125.59103
G1 X61.832 Y107.149 E125.79153
G1 X73.304 Y95.676 E127.23732
G1 X73.304 Y92.860 E127.48827
G1 X68.094 Y87.650 E128.14485
G1 X44.115 Y87.650 E130.28163
G1 X44.115 Y79.100 E131.04353
G1 X45.885 Y79.100 E131.20123
G1 X45.885 Y81.290 E131.39638
G1 X45.973 Y81.740 F7800.000
G1 X46.765 Y82.982 F7800.000
G1 F1800
G1 X45.747 Y83.999 E131.52554
G1 X45.747 Y84.889 E131.60538
G1 X47.654 Y82.982 E131.84744
G1 X48.544 Y82.982 E131.92728
G1 X45.747 Y85.779 E132.28225
G1 X45.747 Y86.018 E132.30372
G1 X46.397 Y86.018 E132.36209
G1 X49.434 Y82.982 E132.74742
G1 X50.324 Y82.982 E132.82726
G1 X47.287 Y86.018 E133.21260
G1 X48.177 Y86.018 E133.29244
G1 X51.214 Y82.982 E133.67777
G1 X52.104 Y82.982 E133.75761
G1 X49.067 Y86.018 E134.14295
G1 X49.957 Y86.018 E134.22279
G1 X52.993 Y82.982 E134.60812
G1 X53.883 Y82.982 E134.68796
G1 X50.846 Y86.018 E135.07329
G1 X51.736 Y86.018 E135.15313
G1 X54.773 Y82.982 E135.53847
G1 X55.663 Y82.982 E135.61831
G1 X52.626 Y86.018 E136.00364
G1 X53.516 Y86.018 E136.08348
G1 X56.553 Y82.982 E136.46882
G1 X57.442 Y82.982 E136.54866
G1 X54.406 Y86.018 E136.93399
G1 X55.295 Y86.018 E137.01383
G1 X58.332 Y82.982 E137.39916
G1 X59.222 Y82.982 E137.47900
G1 X56.185 Y86.018 E137.86434
G1 X57.075 Y86.018 E137.94418
G1 X60.112 Y82.982 E138.32951
G1 X61.002 Y82.982 E138.40935
G1 X57.965 Y86.018 E138.79469
G1 X58.855 Y86.018 E138.87452
G1 X61.891 Y82.982 E139.25986
G1 X62.781 Y82.982 E139.33970
G1 X59.745 Y86.018 E139.72503
G1 X60.634 Y86.018 E139.80487
G1 X106.154 Y40.499 E145.58084
G1 X106.599 Y40.944 E145.63730
G1 X61.524 Y86.018 E151.35681
G1 X62.414 Y86.018 E151.43665
G1 X95.064 Y53.368 E155.57966
G1 X95.064 Y54.258 E155.65950
G1 X63.304 Y86.018 E159.68959
G1 X64.194 Y86.018 E159.76943
G1 X95.064 Y55.148 E163.68662
G1 X95.064 Y56.038 E163.76646
G1 X65.083 Y86.018 E167.57074
G1 X65.973 Y86.018 E167.65058
G1 X95.064 Y56.927 E171.34195
G1 X95.064 Y57.673 E171.40889
G1 X95.136 Y57.745 E171.41801
G1 X66.863 Y86.018 E175.00559
G1 X67.753 Y86.018 E175.08543
G1 X80.097 Y73.674 E176.65176
G1 X80.169 Y73.426 E176.67493
G1 X80.591 Y72.599 E176.75826
G1 X81.160 Y71.865 E176.84159
G1 X81.857 Y71.251 E176.92493
G1 X82.656 Y70.778 E177.00826
G1 X83.183 Y70.588 E177.05851
G1 X95.581 Y58.190 E178.63172
G1 X96.026 Y58.635 E178.68817
G1 X84.320 Y70.341 E180.17360
G1 X84.787 Y70.312 E180.21558
G1 X85.200 Y70.351 E180.25286
G1 X96.471 Y59.080 E181.68299
G1 X96.916 Y59.525 E181.73945
G1 X85.963 Y70.478 E183.12924
G1 X86.574 Y70.655 E183.18627
G1 X86.641 Y70.689 E183.19308
G1 X97.361 Y59.970 E184.55329
G1 X97.806 Y60.415 E184.60975
G1 X87.231 Y70.990 E185.95162
G1 X87.401 Y71.077 E185.96878
G1 X87.757 Y71.353 E186.00923
G1 X98.251 Y60.860 E187.34072
G1 X98.695 Y61.305 E187.39718
G1 X88.237 Y71.763 E188.72423
G1 X88.555 Y72.101 E188.76587
G1 X88.653 Y72.237 E188.78089
G1 X99.140 Y61.749 E190.11160
G1 X99.585 Y62.194 E190.16805
G1 X89.010 Y72.769 E191.50992
G1 X89.311 Y73.359 E191.56928
G1 X100.030 Y62.639 E192.92950
G1 X100.475 Y63.084 E192.98595
G1 X89.522 Y74.037 E194.37574
G1 X89.604 Y74.318 E194.40204
G1 X89.650 Y74.799 E194.44540
G1 X100.920 Y63.529 E195.87550
G1 X101.365 Y63.974 E195.93196
G1 X89.649 Y75.690 E197.41855
G1 X89.604 Y76.169 E197.46173
G1 X89.416 Y76.812 E197.52188
G1 X102.247 Y63.982 E199.14998
G1 X103.137 Y63.982 E199.22982
G1 X74.864 Y92.255 E202.81740
G1 X74.936 Y92.327 E202.82651
G1 X74.936 Y93.073 E202.89346
G1 X104.027 Y63.982 E206.58483
G1 X104.917 Y63.982 E206.66467
G1 X74.936 Y93.962 E210.46895
G1 X74.936 Y94.852 E210.54879
G1 X105.806 Y63.982 E214.46597
G1 X106.696 Y63.982 E214.54581
G1 X74.936 Y95.742 E218.57591
G1 X74.936 Y96.632 E218.65575
G1 X107.586 Y63.982 E222.79876
G1 X108.476 Y63.982 E222.87860
G1 X63.401 Y109.056 E228.59811
G1 X63.846 Y109.501 E228.65456
G1 X109.366 Y63.982 E234.43053
G1 X110.255 Y63.982 E234.51037
G1 X107.219 Y67.018 E234.89571
G1 X108.108 Y67.018 E234.97555
G1 X111.145 Y63.982 E235.36088
G1 X112.035 Y63.982 E235.44072
G1 X108.998 Y67.018 E235.82606
G1 X109.888 Y67.018 E235.90589
G1 X112.925 Y63.982 E236.29123
G1 X113.815 Y63.982 E236.37107
G1 X110.778 Y67.018 E236.75640
G1 X111.668 Y67.018 E236.83624
G1 X114.705 Y63.982 E237.22158
G1 X115.594 Y63.982 E237.30142
G1 X112.558 Y67.018 E237.68675
G1 X113.447 Y67.018 E237.76659
G1 X116.484 Y63.982 E238.15193
G1 X117.374 Y63.982 E238.23176
G1 X114.337 Y67.018 E238.61710
G1 X115.227 Y67.018 E238.69694
G1 X118.264 Y63.982 E239.08227
G1 X119.154 Y63.982 E239.16211
G1 X116.117 Y67.018 E239.54745
G1 X117.007 Y67.018 E239.62729
G1 X120.043 Y63.982 E240.01262
G1 X120.933 Y63.982 E240.09246
G1 X117.896 Y67.018 E240.47780
G1 X118.786 Y67.018 E240.55763
G1 X121.823 Y63.982 E240.94297
G1 X122.713 Y63.982 E241.02281
G1 X119.676 Y67.018 E241.40814
G1 X120.566 Y67.018 E241.48798
G1 X123.603 Y63.982 E241.87332
G1 X124.253 Y63.982 E241.93169
G1 X124.253 Y64.221 E241.95316
G1 X121.456 Y67.018 E242.30813
G1 X122.346 Y67.018 E242.38797
G1 X124.253 Y65.111 E242.63003
G1 X124.253 Y66.001 E242.70987
G1 X123.235 Y67.018 E242.83902
G1 E240.83902 F2400.00000
G92 E0
G1 X104.268 Y69.969 F7800.000
G1 E2.00000 F2400.00000
G1 F1800
G1 X64.291 Y109.946 E7.07263
G1 X64.736 Y110.391 E7.12908
G1 X104.268 Y70.859 E12.14525
G1 X104.268 Y71.749 E12.22509
G1 X81.749 Y94.268 E15.08247
G1 X82.639 Y94.268 E15.16231
G1 X104.268 Y72.639 E17.90679
G1 X104.268 Y73.529 E17.98662
G1 X83.529 Y94.268 E20.61819
G1 X84.419 Y94.268 E20.69803
G1 X104.268 Y74.419 E23.21668
G1 X104.268 Y75.308 E23.29652
G1 X85.308 Y94.268 E25.70227
G1 X86.198 Y94.268 E25.78211
G1 X104.268 Y76.198 E28.07494
G1 X104.268 Y77.088 E28.15478
G1 X87.088 Y94.268 E30.33471
G1 X87.978 Y94.268 E30.41455
G1 X104.268 Y77.978 E32.48157
G1 X104.268 Y78.543 E32.53227
G1 X104.430 Y78.705 E32.55287
G1 X88.868 Y94.268 E34.52758
G1 X89.757 Y94.268 E34.60742
G1 X104.875 Y79.150 E36.52568
G1 X105.320 Y79.595 E36.58213
G1 X90.270 Y94.645 E38.49184
G1 X90.715 Y95.090 E38.54830
G1 X105.765 Y80.040 E40.45801
G1 X106.210 Y80.485 E40.51446
G1 X91.160 Y95.535 E42.42417
G1 X91.604 Y95.980 E42.48063
