; generated by Slic3r 1.3.0 on 2020-04-26 at 04:12:43

; external perimeters extrusion width = 0.44mm (2.78mm^3/s)
; perimeters extrusion width = 0.40mm (7.14mm^3/s)
; infill extrusion width = 0.50mm (10.97mm^3/s)
; solid infill extrusion width = 0.60mm (6.68mm^3/s)
; top infill extrusion width = 0.40mm (2.14mm^3/s)

M107
M190 S80 ; set bed temperature and wait for it to be reached
M104 S200 ; set temperature
G28 ; home all axes
G1 Z5 F5000 ; lift nozzle

; Filament gcode

M109 S200 ; set temperature and wait for it to be reached
G21 ; set units to millimeters
G90 ; use absolute coordinates
M82 ; use absolute distances for extrusion
G92 E0
G1 Z0.300 F30000.000
G1 E-2.00000 F2400.00000
G92 E0
G1 X60.938 Y64.579 F30000.000
G1 E2.00000 F2400.00000
G1 F2100
G1 X61.822 Y64.041 E2.06912
G1 X62.833 Y63.591 E2.14305
G1 X64.489 Y63.239 E2.25615
G1 X92.048 Y63.239 E4.09729
G1 X97.828 Y63.293 E4.48338
G1 X98.258 Y63.319 E4.51217
G1 X103.829 Y63.964 E4.88685
G1 X104.268 Y64.039 E4.91661
G1 X109.564 Y65.250 E5.27953
G1 X110.002 Y65.376 E5.31000
G1 X114.929 Y67.101 E5.65871
G1 X115.356 Y67.278 E5.68959
G1 X119.835 Y69.444 E6.02195
G1 X120.247 Y69.673 E6.05345
G1 X124.246 Y72.215 E6.37001
G1 X124.623 Y72.486 E6.40106
G1 X128.101 Y75.302 E6.70001
G1 X128.431 Y75.600 E6.72969
G1 X131.354 Y78.548 E7.00700
G1 X131.633 Y78.861 E7.03505
G1 X134.023 Y81.829 E7.28963
G1 X134.243 Y82.128 E7.31443
G1 X143.571 Y96.159 E8.44001
G1 X144.247 Y98.223 E8.58512
G1 X144.309 Y99.554 E8.67413
G1 X144.289 Y100.523 E8.73888
G1 X143.694 Y102.505 E8.87712
G1 X136.449 Y114.352 E9.80484
G1 X134.520 Y117.337 E10.04226
G1 X134.295 Y117.651 E10.06805
G1 X131.938 Y120.632 E10.32195
G1 X131.658 Y120.950 E10.35025
G1 X128.772 Y123.909 E10.62639
G1 X128.442 Y124.211 E10.65628
G1 X125.005 Y127.035 E10.95341
G1 X124.633 Y127.307 E10.98422
G1 X120.652 Y129.884 E11.30100
G1 X120.247 Y130.114 E11.33217
G1 X115.755 Y132.338 E11.66701
G1 X115.327 Y132.521 E11.69810
G1 X110.382 Y134.300 E12.04920
G1 X109.942 Y134.431 E12.07986
G1 X104.622 Y135.691 E12.44512
G1 X104.181 Y135.771 E12.47504
G1 X98.580 Y136.460 E12.85202
G1 X98.148 Y136.490 E12.88094
G1 X92.308 Y136.585 E13.27118
G1 X64.230 Y136.585 E15.14695
G1 X62.573 Y136.233 E15.26005
G1 X61.563 Y135.782 E15.33398
G1 X60.125 Y134.710 E15.45380
G1 X59.491 Y133.700 E15.53349
G1 X59.199 Y133.011 E15.58345
G1 X55.887 Y123.797 E16.23758
G1 X55.647 Y122.420 E16.33095
G1 X55.647 Y77.520 E19.33051
G1 X55.913 Y76.073 E19.42878
G1 X59.447 Y66.778 E20.09311
G1 X59.817 Y65.979 E20.15190
G1 X60.900 Y64.626 E20.26771
G1 X62.040 Y64.531 F30000.000
G1 F2100
G1 X63.051 Y64.081 E20.34164
G1 X64.489 Y63.775 E20.43986
G1 X92.048 Y63.775 E22.28100
G1 X97.823 Y63.828 E22.66676
G1 X98.196 Y63.852 E22.69176
G1 X103.767 Y64.496 E23.06643
G1 X104.149 Y64.562 E23.09228
G1 X109.445 Y65.772 E23.45520
G1 X109.825 Y65.881 E23.48167
G1 X114.752 Y67.606 E23.83037
G1 X115.123 Y67.760 E23.85719
G1 X119.602 Y69.926 E24.18955
G1 X119.959 Y70.125 E24.21691
G1 X123.958 Y72.667 E24.53346
G1 X124.286 Y72.903 E24.56044
G1 X127.764 Y75.718 E24.85938
G1 X128.050 Y75.977 E24.88515
G1 X130.973 Y78.925 E25.16247
G1 X131.216 Y79.197 E25.18683
G1 X133.606 Y82.164 E25.44140
G1 X133.797 Y82.425 E25.46294
G1 X143.125 Y96.456 E26.58852
G1 X143.712 Y98.248 E26.71454
G1 X143.774 Y99.579 E26.80355
G1 X143.754 Y100.504 E26.86538
G1 X143.237 Y102.225 E26.98543
G1 X135.992 Y114.073 E27.91315
G1 X134.070 Y117.046 E28.14967
G1 X133.875 Y117.319 E28.17208
G1 X131.518 Y120.300 E28.42597
G1 X131.275 Y120.576 E28.45055
G1 X128.388 Y123.535 E28.72669
G1 X128.102 Y123.798 E28.75264
G1 X124.665 Y126.621 E29.04978
G1 X124.342 Y126.857 E29.07654
G1 X120.361 Y129.434 E29.39332
G1 X120.009 Y129.634 E29.42038
G1 X115.517 Y131.858 E29.75522
G1 X115.146 Y132.017 E29.78222
G1 X110.200 Y133.796 E30.13333
G1 X109.818 Y133.910 E30.15994
G1 X104.498 Y135.170 E30.52521
G1 X104.115 Y135.239 E30.55119
G1 X98.515 Y135.929 E30.92817
G1 X98.140 Y135.955 E30.95329
G1 X92.308 Y136.049 E31.34295
G1 X64.230 Y136.049 E33.21871
G1 X62.791 Y135.743 E33.31694
G1 X61.780 Y135.293 E33.39087
G1 X60.458 Y134.273 E33.50242
G1 X59.981 Y133.484 E33.56400
G1 X59.793 Y133.055 E33.59531
G1 X56.391 Y123.615 E34.26563
G1 X56.183 Y122.420 E34.34672
G1 X56.183 Y77.520 E37.34628
G1 X56.414 Y76.263 E37.43162
G1 X59.947 Y66.968 E38.09595
G1 X60.073 Y66.677 E38.11710
G1 X60.299 Y66.214 E38.15155
G1 X61.997 Y64.572 E38.30931
G1 E36.30931 F2400.00000
G92 E0
G1 X71.989 Y70.146 F30000.000
G1 E2.00000 F2400.00000
G1 F2100
G1 X72.192 Y70.003 E2.01857
G1 X72.435 Y68.859 E2.10611
G1 X74.345 Y67.619 E2.27655
G1 X77.636 Y68.318 E2.52835
G1 X77.849 Y68.190 E2.54692
G1 X78.164 Y67.090 E2.63256
G1 X80.157 Y65.986 E2.80301
G1 X83.472 Y66.937 E3.06113
G1 X83.693 Y66.824 E3.07970
G1 X84.053 Y65.836 E3.15842
G1 X86.117 Y64.873 E3.32888
G1 X89.406 Y66.071 E3.59076
G1 X89.634 Y65.974 E3.60933
G1 X90.000 Y65.152 E3.67665
G1 X92.126 Y64.336 E3.84710
G1 X95.335 Y65.764 E4.10993
G1 X95.569 Y65.683 E4.12850
G1 X95.897 Y65.067 E4.18069
G1 X98.075 Y64.402 E4.35114
G1 X101.151 Y66.038 E4.61186
G1 X101.391 Y65.973 E4.63044
G1 X101.633 Y65.586 E4.66467
G1 X103.852 Y65.073 E4.83512
G1 X106.747 Y66.882 E5.09056
G1 X106.991 Y66.835 E5.10913
G1 X107.102 Y66.681 E5.12334
G1 X109.352 Y66.325 E5.29380
G1 X112.041 Y68.278 E5.54252
G1 X112.150 Y68.309 E5.55104
G1 X114.478 Y68.105 E5.72592
G1 X117.137 Y70.335 E5.98562
G1 X117.244 Y70.373 E5.99414
G1 X119.153 Y70.340 E6.13702
G1 X121.772 Y72.883 E6.41013
G1 X123.343 Y72.965 E6.52787
G1 X125.596 Y75.467 E6.77986
G1 X125.593 Y75.532 E6.78475
G1 X125.752 Y75.722 E6.80332
G1 X127.005 Y75.876 E6.89778
G1 X129.038 Y78.479 E7.14498
G1 X129.030 Y78.551 E7.15038
G1 X129.175 Y78.752 E7.16895
G1 X130.105 Y78.933 E7.23983
G1 X131.920 Y81.623 E7.48269
G1 X131.915 Y81.645 E7.48439
G1 X132.047 Y81.856 E7.50296
G1 X132.665 Y82.021 E7.55081
G1 X134.294 Y84.843 E7.79467
G1 X134.382 Y84.916 E7.80319
G1 X134.730 Y85.036 E7.83073
G1 X136.024 Y87.690 E8.05176
G1 X136.107 Y87.769 E8.06029
G1 X136.373 Y87.882 E8.08190
G1 X137.333 Y90.259 E8.27380
G1 X137.410 Y90.343 E8.28232
G1 X137.682 Y90.482 E8.30516
G1 X138.329 Y92.474 E8.46191
G1 X138.400 Y92.563 E8.47044
G1 X138.762 Y92.781 E8.50206
G1 X139.138 Y94.285 E8.61810
G1 X139.202 Y94.379 E8.62663
G1 X139.726 Y94.746 E8.67451
G1 X139.862 Y95.518 E8.73319
G1 X140.045 Y95.667 E8.75082
G1 X141.223 Y95.625 E8.83900
G1 X142.889 Y97.180 E9.00952
G1 X142.936 Y98.542 E9.11152
G1 X142.979 Y98.647 E9.12005
G1 X143.030 Y98.702 E9.12559
G1 X142.928 Y101.615 E9.34375
G1 X141.262 Y103.168 E9.51420
G1 X140.658 Y103.147 E9.55943
G1 X140.550 Y103.183 E9.56795
G1 X140.050 Y103.589 E9.61617
G1 X139.992 Y103.687 E9.62469
G1 X139.818 Y104.672 E9.69952
G1 X139.340 Y105.006 E9.74320
G1 X139.276 Y105.100 E9.75172
G1 X138.887 Y106.657 E9.87180
G1 X138.572 Y106.846 E9.89930
G1 X138.501 Y106.935 E9.90782
G1 X137.839 Y108.975 E10.06830
G1 X137.615 Y109.089 E10.08711
G1 X137.538 Y109.173 E10.09563
G1 X136.559 Y111.594 E10.29109
G1 X136.343 Y111.686 E10.30863
G1 X136.260 Y111.764 E10.31716
G1 X134.946 Y114.458 E10.54141
G1 X134.649 Y114.560 E10.56495
G1 X134.561 Y114.632 E10.57348
G1 X132.913 Y117.487 E10.82017
G1 X132.441 Y117.613 E10.85669
G1 X132.348 Y117.680 E10.86522
G1 X130.387 Y120.589 E11.12781
G1 X129.566 Y120.748 E11.19042
G1 X129.420 Y120.949 E11.20899
G1 X129.422 Y120.970 E11.21052
G1 X127.323 Y123.656 E11.46566
G1 X126.137 Y123.801 E11.55506
G1 X125.978 Y123.992 E11.57364
G1 X125.980 Y124.044 E11.57756
G1 X123.702 Y126.575 E11.83243
G1 X122.150 Y126.657 E11.94875
G1 X121.977 Y126.835 E11.96732
G1 X121.977 Y126.872 E11.97012
G1 X119.531 Y129.235 E12.22457
G1 X117.677 Y129.202 E12.36334
G1 X117.569 Y129.240 E12.37186
G1 X114.843 Y131.528 E12.63820
G1 X112.566 Y131.329 E12.80924
G1 X112.457 Y131.359 E12.81776
G1 X109.699 Y133.363 E13.07289
G1 X107.448 Y133.007 E13.24337
G1 X107.354 Y132.877 E13.25538
G1 X107.110 Y132.830 E13.27395
G1 X104.174 Y134.665 E13.53306
G1 X101.955 Y134.153 E13.70353
G1 X101.727 Y133.788 E13.73574
G1 X101.487 Y133.723 E13.75431
G1 X98.367 Y135.382 E14.01873
G1 X96.189 Y134.716 E14.18916
G1 X95.873 Y134.121 E14.23960
G1 X95.638 Y134.040 E14.25817
G1 X92.385 Y135.488 E14.52464
G1 X90.259 Y134.672 E14.69508
G1 X89.901 Y133.869 E14.76089
G1 X89.673 Y133.772 E14.77946
G1 X86.339 Y134.985 E15.04495
G1 X84.275 Y134.022 E15.21540
G1 X83.921 Y133.049 E15.29288
G1 X83.700 Y132.937 E15.31146
G1 X80.338 Y133.901 E15.57319
G1 X78.346 Y132.797 E15.74362
G1 X78.034 Y131.709 E15.82826
G1 X77.821 Y131.582 E15.84683
G1 X74.484 Y132.291 E16.10219
G1 X72.573 Y131.050 E16.27264
G1 X72.332 Y129.916 E16.35944
G1 X72.129 Y129.774 E16.37801
G1 X69.201 Y130.185 E16.59930
G1 X69.091 Y130.251 E16.60889
G1 X68.584 Y130.950 E16.67352
G1 X67.020 Y133.452 E16.89429
G1 X66.347 Y134.717 E17.00151
G1 X65.434 Y134.996 E17.07295
G1 X64.152 Y135.488 E17.17578
G1 X61.060 Y134.112 E17.42903
G1 X60.629 Y132.990 E17.51899
G1 X60.057 Y131.764 E17.62019
G1 X60.120 Y131.590 E17.63404
G1 X60.110 Y131.454 E17.64428
G1 X59.845 Y130.977 E17.68507
G1 X59.979 Y130.509 E17.72153
G1 X59.959 Y130.374 E17.73177
G1 X59.508 Y129.678 E17.79383
G1 X59.659 Y128.968 E17.84815
G1 X59.629 Y128.835 E17.85839
G1 X58.957 Y127.943 E17.94190
G1 X59.082 Y127.054 E18.00914
G1 X59.044 Y126.922 E18.01937
G1 X58.126 Y125.868 E18.12398
G1 X58.197 Y124.866 E18.19912
G1 X58.149 Y124.738 E18.20936
G1 X56.969 Y123.558 E18.33418
G1 X56.969 Y76.381 E21.86473
G1 X58.193 Y75.157 E21.99422
G1 X58.241 Y75.029 E22.00446
G1 X58.174 Y74.068 E22.07653
G1 X59.132 Y72.966 E22.18583
G1 X59.171 Y72.835 E22.19606
G1 X59.051 Y71.983 E22.26048
G1 X59.760 Y71.041 E22.34869
G1 X59.790 Y70.908 E22.35892
G1 X59.646 Y70.231 E22.41066
G1 X60.132 Y69.483 E22.47745
G1 X60.152 Y69.348 E22.48768
G1 X60.027 Y68.910 E22.52178
G1 X60.322 Y68.378 E22.56731
G1 X60.332 Y68.241 E22.57755
G1 X60.279 Y68.094 E22.58924
G1 X60.987 Y66.577 E22.71453
G1 X61.319 Y65.712 E22.78388
G1 X64.411 Y64.336 E23.03713
G1 X65.059 Y64.584 E23.08907
G1 X66.640 Y65.068 E23.21283
G1 X66.985 Y65.715 E23.26771
G1 X68.532 Y68.191 E23.48622
G1 X69.680 Y69.771 E23.63232
G1 X69.789 Y69.837 E23.64191
G1 X71.929 Y70.137 E23.80361
G1 X72.168 Y71.229 F30000.000
G1 F2100
G1 X72.563 Y71.142 E23.83394
G1 X72.970 Y69.227 E23.98042
G1 X74.464 Y68.257 E24.11367
G1 X77.283 Y68.857 E24.32936
G1 X77.710 Y69.514 E24.38806
G1 X78.111 Y69.454 E24.41838
G1 X78.673 Y67.495 E24.57096
G1 X80.230 Y66.631 E24.70421
G1 X83.002 Y67.426 E24.92000
G1 X83.435 Y68.209 E24.98693
G1 X83.839 Y68.177 E25.01725
G1 X84.532 Y66.275 E25.16874
G1 X86.146 Y65.522 E25.30200
G1 X88.857 Y66.509 E25.51792
G1 X89.262 Y67.378 E25.58965
G1 X89.667 Y67.374 E25.61998
G1 X90.447 Y65.623 E25.76346
G1 X92.109 Y64.985 E25.89672
G1 X94.747 Y66.159 E26.11279
G1 X95.096 Y67.067 E26.18557
G1 X95.500 Y67.092 E26.21590
G1 X96.310 Y65.569 E26.34500
G1 X98.013 Y65.048 E26.47825
G1 X100.564 Y66.405 E26.69453
G1 X100.837 Y67.296 E26.76426
G1 X101.238 Y67.349 E26.79459
G1 X102.010 Y66.114 E26.90358
G1 X103.745 Y65.714 E27.03684
G1 X106.198 Y67.246 E27.25328
G1 X106.386 Y68.061 E27.31581
G1 X106.783 Y68.141 E27.34613
G1 X107.442 Y67.235 E27.42999
G1 X109.200 Y66.956 E27.56325
G1 X111.543 Y68.658 E27.77994
G1 X111.649 Y69.331 E27.83090
G1 X112.040 Y69.439 E27.86123
G1 X112.509 Y68.880 E27.91589
G1 X114.283 Y68.724 E28.04914
G1 X116.504 Y70.588 E28.26608
G1 X116.545 Y71.055 E28.30122
G1 X116.927 Y71.191 E28.33155
G1 X117.135 Y70.975 E28.35394
G1 X118.915 Y70.944 E28.48720
G1 X121.004 Y72.961 E28.70443
G1 X121.009 Y73.274 E28.72787
G1 X121.181 Y73.452 E28.74644
G1 X123.063 Y73.551 E28.88746
G1 X124.984 Y75.684 E29.10225
G1 X124.964 Y76.060 E29.13041
G1 X125.124 Y76.250 E29.14898
G1 X126.685 Y76.441 E29.26671
G1 X128.413 Y78.653 E29.47670
G1 X128.366 Y79.033 E29.50538
G1 X128.512 Y79.234 E29.52396
G1 X129.747 Y79.474 E29.61811
G1 X131.283 Y81.752 E29.82377
G1 X131.220 Y82.080 E29.84874
G1 X131.351 Y82.290 E29.86731
G1 X132.269 Y82.537 E29.93843
G1 X133.617 Y84.872 E30.14023
G1 X133.559 Y85.088 E30.15700
G1 X133.676 Y85.307 E30.17557
G1 X134.299 Y85.522 E30.22491
G1 X135.462 Y87.906 E30.42339
G1 X135.444 Y87.956 E30.42732
G1 X135.545 Y88.182 E30.44590
G1 X135.909 Y88.337 E30.47548
G1 X136.861 Y90.692 E30.66557
G1 X136.938 Y90.776 E30.67409
G1 X137.188 Y90.904 E30.69512
G1 X137.828 Y92.873 E30.85006
G1 X137.899 Y92.962 E30.85858
G1 X138.240 Y93.167 E30.88840
G1 X138.610 Y94.648 E31.00264
G1 X138.674 Y94.742 E31.01116
G1 X139.178 Y95.095 E31.05722
G1 X139.338 Y95.999 E31.12596
G1 X139.396 Y96.098 E31.13448
G1 X139.576 Y96.243 E31.15182
G1 X139.684 Y96.280 E31.16034
G1 X140.995 Y96.234 E31.25856
G1 X142.298 Y97.449 E31.39187
G1 X142.344 Y98.787 E31.49207
G1 X142.422 Y98.929 E31.50417
G1 X142.337 Y101.346 E31.68513
G1 X141.035 Y102.560 E31.81838
G1 X140.363 Y102.536 E31.86874
G1 X140.173 Y102.716 E31.88827
G1 X139.498 Y103.264 E31.95334
G1 X139.440 Y103.362 E31.96187
G1 X139.271 Y104.323 E32.03489
G1 X138.812 Y104.644 E32.07675
G1 X138.748 Y104.737 E32.08527
G1 X138.365 Y106.271 E32.20353
G1 X138.071 Y106.448 E32.22922
G1 X138.000 Y106.537 E32.23775
G1 X137.345 Y108.553 E32.39642
G1 X137.142 Y108.656 E32.41342
G1 X137.065 Y108.740 E32.42195
G1 X136.096 Y111.139 E32.61557
G1 X135.902 Y111.221 E32.63132
G1 X135.819 Y111.300 E32.63985
G1 X134.516 Y113.971 E32.86227
G1 X134.070 Y114.125 E32.89761
G1 X133.953 Y114.344 E32.91618
G1 X133.979 Y114.440 E32.92365
G1 X132.517 Y116.972 E33.14242
G1 X131.745 Y117.179 E33.20227
G1 X131.613 Y117.389 E33.22085
G1 X131.660 Y117.628 E33.23904
G1 X130.028 Y120.047 E33.45742
G1 X128.902 Y120.266 E33.54329
G1 X128.756 Y120.467 E33.56186
G1 X128.796 Y120.796 E33.58667
G1 X127.003 Y123.091 E33.80461
G1 X125.509 Y123.274 E33.91730
G1 X125.349 Y123.464 E33.93587
G1 X125.368 Y123.827 E33.96309
G1 X123.422 Y125.989 E34.18074
G1 X121.560 Y126.087 E34.32034
G1 X121.387 Y126.265 E34.33891
G1 X121.381 Y126.614 E34.36498
G1 X119.293 Y128.630 E34.58224
G1 X117.512 Y128.599 E34.71549
G1 X117.297 Y128.377 E34.73865
G1 X116.915 Y128.512 E34.76898
G1 X116.869 Y129.045 E34.80902
G1 X114.648 Y130.909 E35.02599
G1 X112.874 Y130.753 E35.15923
G1 X112.396 Y130.184 E35.21491
G1 X112.006 Y130.292 E35.24523
G1 X111.888 Y131.030 E35.30118
G1 X109.547 Y132.731 E35.51778
G1 X107.788 Y132.453 E35.65106
G1 X107.119 Y131.533 E35.73616
G1 X106.722 Y131.614 E35.76648
G1 X106.520 Y132.491 E35.83387
G1 X104.067 Y134.024 E36.05031
G1 X102.332 Y133.624 E36.18358
G1 X101.550 Y132.373 E36.29400
G1 X101.148 Y132.426 E36.32432
G1 X100.857 Y133.379 E36.39894
G1 X98.305 Y134.736 E36.61521
G1 X96.602 Y134.215 E36.74845
G1 X95.782 Y132.672 E36.87920
G1 X95.378 Y132.697 E36.90952
G1 X95.006 Y133.665 E36.98710
G1 X92.368 Y134.839 E37.20318
G1 X90.706 Y134.201 E37.33643
G1 X89.916 Y132.426 E37.48180
G1 X89.511 Y132.423 E37.51213
G1 X89.079 Y133.349 E37.58865
G1 X86.368 Y134.336 E37.80455
G1 X84.754 Y133.583 E37.93780
G1 X84.052 Y131.655 E38.09139
G1 X83.648 Y131.623 E38.12172
G1 X83.184 Y132.461 E38.19336
G1 X80.411 Y133.256 E38.40920
G1 X78.854 Y132.392 E38.54244
G1 X78.284 Y130.402 E38.69736
G1 X77.883 Y130.342 E38.72768
G1 X77.421 Y131.053 E38.79110
G1 X74.602 Y131.652 E39.00679
G1 X73.109 Y130.683 E39.14005
G1 X72.694 Y128.734 E39.28913
G1 X72.299 Y128.646 E39.31945
G1 X71.879 Y129.203 E39.37160
G1 X68.865 Y129.626 E39.59940
G1 X68.755 Y129.692 E39.60899
G1 X68.086 Y130.614 E39.69425
G1 X66.500 Y133.152 E39.91815
G1 X65.934 Y134.215 E40.00833
G1 X65.239 Y134.428 E40.06274
G1 X64.169 Y134.839 E40.14855
G1 X61.531 Y133.665 E40.36461
G1 X61.181 Y132.755 E40.43754
G1 X60.706 Y131.736 E40.52171
G1 X60.778 Y131.539 E40.53741
G1 X60.767 Y131.402 E40.54765
G1 X60.490 Y130.904 E40.59031
G1 X60.632 Y130.412 E40.62863
G1 X60.611 Y130.276 E40.63887
G1 X60.146 Y129.560 E40.70279
G1 X60.302 Y128.825 E40.75898
G1 X60.273 Y128.692 E40.76922
G1 X59.586 Y127.781 E40.85459
G1 X59.715 Y126.866 E40.92369
G1 X59.676 Y126.735 E40.93393
G1 X58.742 Y125.661 E41.04040
G1 X58.814 Y124.635 E41.11740
G1 X58.766 Y124.507 E41.12764
G1 X57.569 Y123.310 E41.25432
G1 X57.569 Y76.629 E44.74768
