; generated by Slic3r 1.3.0 on 2020-04-26 at 02:22:15

; external perimeters extrusion width = 0.44mm (2.78mm^3/s)
; perimeters extrusion width = 0.40mm (7.14mm^3/s)
; infill extrusion width = 0.50mm (10.97mm^3/s)
; solid infill extrusion width = 0.60mm (6.68mm^3/s)
; top infill extrusion width = 0.40mm (2.14mm^3/s)

M107
M190 S80 ; set bed temperature and wait for it to be reached
M104 S200 ; set temperature
G28 ; home all axes
G1 Z5 F5000 ; lift nozzle

; Filament gcode

M109 S200 ; set temperature and wait for it to be reached
G21 ; set units to millimeters
G90 ; use absolute coordinates
M82 ; use absolute distances for extrusion
G92 E0
G1 Z0.300 F30000.000
G1 E-2.00000 F2400.00000
G92 E0
G1 X52.841 Y59.639 F30000.000
G1 E2.00000 F2400.00000
G1 F2100
G1 X54.137 Y58.553 E2.11296
G1 X55.116 Y58.032 E2.18705
G1 X56.894 Y57.558 E2.31000
G1 X90.649 Y56.454 E4.56619
G1 X90.981 Y56.456 E4.58838
G1 X97.211 Y56.761 E5.00510
G1 X97.633 Y56.804 E5.03340
G1 X103.674 Y57.736 E5.44174
G1 X104.102 Y57.826 E5.47095
G1 X109.845 Y59.356 E5.86804
G1 X110.271 Y59.495 E5.89794
G1 X115.620 Y61.573 E6.28131
G1 X116.032 Y61.760 E6.31154
G1 X120.907 Y64.308 E6.67905
G1 X121.296 Y64.540 E6.70931
G1 X125.638 Y67.465 E7.05903
G1 X125.994 Y67.735 E7.08886
G1 X129.767 Y70.931 E7.41921
G1 X130.082 Y71.227 E7.44812
G1 X133.280 Y74.580 E7.75761
G1 X133.547 Y74.890 E7.78497
G1 X136.188 Y78.285 E8.07230
G1 X136.404 Y78.590 E8.09731
G1 X138.652 Y82.116 E8.37663
G1 X148.278 Y99.207 E9.68706
G1 X148.780 Y101.631 E9.85241
G1 X148.653 Y102.838 E9.93348
G1 X147.634 Y105.131 E10.10108
G1 X124.852 Y130.524 E12.38020
G1 X122.122 Y133.424 E12.64625
G1 X121.179 Y134.341 E12.73408
G1 X120.657 Y134.768 E12.77917
G1 X116.265 Y137.786 E13.13516
G1 X115.573 Y138.168 E13.18796
G1 X110.372 Y140.414 E13.56642
G1 X109.660 Y140.646 E13.61646
G1 X103.799 Y141.978 E14.01804
G1 X103.102 Y142.074 E14.06500
G1 X96.761 Y142.395 E14.48919
G1 X56.975 Y143.498 E17.14814
G1 X55.206 Y143.148 E17.26859
G1 X54.195 Y142.698 E17.34253
G1 X52.757 Y141.625 E17.46235
G1 X52.247 Y140.872 E17.52318
G1 X52.052 Y140.500 E17.55118
G1 X51.589 Y138.794 E17.66928
G1 X51.186 Y129.919 E18.26277
G1 X51.186 Y70.019 E22.26442
G1 X51.677 Y62.280 E22.78251
G1 X52.533 Y60.034 E22.94308
G1 X52.804 Y59.687 E22.97252
G1 X53.263 Y59.969 F30000.000
G1 F2100
G1 X54.388 Y59.026 E23.07062
G1 X55.368 Y58.505 E23.14471
G1 X56.912 Y58.093 E23.25149
G1 X90.955 Y56.991 E25.52693
G1 X97.185 Y57.296 E25.94364
G1 X97.551 Y57.334 E25.96822
G1 X103.592 Y58.265 E26.37656
G1 X103.964 Y58.343 E26.40193
G1 X109.707 Y59.874 E26.79902
G1 X110.077 Y59.995 E26.82498
G1 X115.426 Y62.072 E27.20836
G1 X115.784 Y62.234 E27.23461
G1 X120.659 Y64.783 E27.60212
G1 X120.997 Y64.984 E27.62840
G1 X125.338 Y67.910 E27.97812
G1 X125.648 Y68.144 E28.00402
G1 X129.421 Y71.339 E28.33437
G1 X129.695 Y71.597 E28.35948
G1 X132.892 Y74.949 E28.66897
G1 X133.124 Y75.219 E28.69273
G1 X135.765 Y78.614 E28.98006
G1 X135.953 Y78.879 E29.00178
G1 X138.185 Y82.379 E29.27909
G1 X147.811 Y99.470 E30.58952
G1 X148.247 Y101.575 E30.73312
G1 X148.120 Y102.782 E30.81419
G1 X147.236 Y104.773 E30.95974
G1 X124.454 Y130.166 E33.23878
G1 X121.732 Y133.057 E33.50404
G1 X120.807 Y133.955 E33.59018
G1 X120.353 Y134.326 E33.62934
G1 X115.962 Y137.344 E33.98533
G1 X115.361 Y137.676 E34.03118
G1 X110.160 Y139.922 E34.40964
G1 X109.542 Y140.124 E34.45309
G1 X103.680 Y141.456 E34.85468
G1 X103.075 Y141.539 E34.89546
G1 X96.734 Y141.860 E35.31965
G1 X56.960 Y142.963 E37.97778
G1 X55.424 Y142.659 E38.08238
G1 X54.413 Y142.209 E38.15632
G1 X52.721 Y140.623 E38.31125
G1 X52.526 Y140.251 E38.33926
G1 X52.124 Y138.770 E38.44182
G1 X51.722 Y129.919 E39.03367
G1 X51.722 Y70.019 E43.03532
G1 X52.212 Y62.314 E43.55110
G1 X52.955 Y60.364 E43.69055
G1 X53.226 Y60.017 E43.71999
G1 E41.71999 F2400.00000
G92 E0
G1 X63.418 Y64.837 F30000.000
G1 E2.00000 F2400.00000
G1 F2100
G1 X63.586 Y63.644 E2.09014
G1 X65.405 Y62.273 E2.26059
G1 X68.750 Y62.744 E2.51340
G1 X68.927 Y62.979 E2.53542
G1 X69.323 Y62.891 E2.56575
G1 X69.610 Y61.539 E2.66916
G1 X71.520 Y60.299 E2.83961
G1 X74.826 Y61.001 E3.09248
G1 X75.068 Y61.374 E3.12577
G1 X75.469 Y61.314 E3.15609
G1 X75.871 Y59.910 E3.26543
G1 X77.863 Y58.806 E3.43585
G1 X81.113 Y59.737 E3.68890
G1 X81.382 Y60.222 E3.73039
G1 X81.786 Y60.191 E3.76072
G1 X82.280 Y58.833 E3.86881
G1 X84.344 Y57.871 E4.03923
G1 X87.523 Y59.027 E4.29240
G1 X87.785 Y59.589 E4.33873
G1 X88.190 Y59.585 E4.36905
G1 X88.733 Y58.364 E4.46907
G1 X90.860 Y57.548 E4.63952
G1 X93.951 Y58.924 E4.89277
G1 X94.178 Y59.516 E4.94017
G1 X94.583 Y59.540 E4.97050
G1 X95.119 Y58.532 E5.05601
G1 X97.297 Y57.866 E5.22646
G1 X100.288 Y59.456 E5.47989
G1 X100.461 Y60.023 E5.52433
G1 X100.863 Y60.076 E5.55465
G1 X101.325 Y59.337 E5.61991
G1 X103.544 Y58.824 E5.79035
G1 X106.419 Y60.620 E6.04400
G1 X106.530 Y61.105 E6.08119
G1 X106.927 Y61.186 E6.11152
G1 X107.242 Y60.753 E6.15153
G1 X109.491 Y60.397 E6.32198
G1 X112.236 Y62.392 E6.57593
G1 X112.290 Y62.729 E6.60149
G1 X112.680 Y62.837 E6.63182
G1 X112.772 Y62.728 E6.64249
G1 X115.041 Y62.530 E6.81293
G1 X117.643 Y64.712 E7.06709
G1 X117.670 Y65.021 E7.09025
G1 X117.854 Y65.187 E7.10882
G1 X120.112 Y65.147 E7.27784
G1 X122.558 Y67.509 E7.53222
G1 X122.564 Y67.877 E7.55981
G1 X122.737 Y68.056 E7.57838
G1 X124.644 Y68.156 E7.72129
G1 X126.922 Y70.686 E7.97609
G1 X126.902 Y71.068 E8.00475
G1 X127.061 Y71.258 E8.02332
G1 X128.601 Y71.447 E8.13942
G1 X130.700 Y74.134 E8.39460
G1 X130.658 Y74.480 E8.42062
G1 X130.804 Y74.680 E8.43920
G1 X131.976 Y74.908 E8.52857
G1 X133.885 Y77.739 E8.78409
G1 X133.836 Y77.994 E8.80351
G1 X133.967 Y78.204 E8.82208
G1 X134.787 Y78.424 E8.88555
G1 X136.496 Y81.385 E9.14145
G1 X136.466 Y81.496 E9.15002
G1 X136.583 Y81.715 E9.16859
G1 X137.077 Y81.885 E9.20766
G1 X138.606 Y85.021 E9.46878
G1 X138.689 Y85.099 E9.47730
G1 X138.915 Y85.195 E9.49569
G1 X140.077 Y88.071 E9.72780
G1 X140.154 Y88.155 E9.73632
G1 X140.390 Y88.275 E9.75614
G1 X141.203 Y90.780 E9.95319
G1 X141.274 Y90.869 E9.96172
G1 X141.603 Y91.067 E9.99045
G1 X142.110 Y93.096 E10.14694
G1 X142.174 Y93.189 E10.15546
G1 X142.667 Y93.534 E10.20048
G1 X142.925 Y94.997 E10.31162
G1 X142.983 Y95.095 E10.32014
G1 X143.694 Y95.671 E10.38859
G1 X143.780 Y96.492 E10.45037
G1 X143.831 Y96.594 E10.45890
G1 X144.793 Y97.491 E10.55732
G1 X144.797 Y97.619 E10.56693
G1 X144.841 Y97.724 E10.57545
G1 X145.552 Y98.487 E10.65348
G1 X145.654 Y98.538 E10.66201
G1 X146.151 Y98.590 E10.69940
G1 X147.584 Y100.360 E10.86986
G1 X147.219 Y103.832 E11.13111
G1 X145.449 Y105.265 E11.30156
G1 X128.952 Y103.531 E12.54295
G1 X127.314 Y103.474 E12.66559
G1 X127.120 Y103.778 E12.69254
G1 X127.157 Y103.850 E12.69861
G1 X126.979 Y104.398 E12.74175
G1 X127.084 Y104.623 E12.76032
G1 X127.784 Y104.906 E12.81683
G1 X128.674 Y107.003 E12.98729
G1 X128.250 Y108.052 E13.07203
G1 X128.339 Y108.284 E13.09060
G1 X128.928 Y108.572 E13.13969
G1 X129.670 Y110.725 E13.31014
G1 X128.937 Y112.227 E13.43517
G1 X129.010 Y112.464 E13.45374
G1 X129.371 Y112.673 E13.48497
G1 X129.961 Y114.873 E13.65541
G1 X128.871 Y116.761 E13.81857
G1 X128.927 Y117.003 E13.83714
G1 X128.967 Y117.030 E13.84078
G1 X129.401 Y119.266 E14.01124
G1 X127.698 Y121.791 E14.23919
G1 X127.672 Y121.902 E14.24772
G1 X127.892 Y123.699 E14.38319
G1 X125.793 Y126.386 E14.63833
G1 X125.475 Y126.425 E14.66233
G1 X125.316 Y126.615 E14.68090
G1 X125.386 Y127.956 E14.78145
G1 X123.108 Y130.486 E15.03618
G1 X122.079 Y130.540 E15.11328
G1 X121.907 Y130.718 E15.13185
G1 X121.887 Y131.819 E15.21423
G1 X119.442 Y134.181 E15.46868
G1 X117.707 Y134.151 E15.59851
G1 X117.523 Y134.317 E15.61708
G1 X117.456 Y135.085 E15.67474
G1 X114.854 Y137.269 E15.92898
G1 X112.451 Y137.058 E16.10946
G1 X112.255 Y137.211 E16.12803
G1 X112.198 Y137.575 E16.15562
G1 X109.453 Y139.570 E16.40956
G1 X107.203 Y139.214 E16.58001
G1 X106.765 Y138.610 E16.63586
G1 X106.368 Y138.691 E16.66619
G1 X106.262 Y139.148 E16.70130
G1 X103.388 Y140.943 E16.95492
G1 X101.168 Y140.431 E17.12537
G1 X100.379 Y139.168 E17.23683
G1 X99.977 Y139.221 E17.26715
G1 X99.830 Y139.702 E17.30479
G1 X96.840 Y141.292 E17.55821
G1 X94.662 Y140.626 E17.72866
G1 X93.667 Y138.755 E17.88719
G1 X93.263 Y138.780 E17.91751
G1 X93.105 Y139.191 E17.95048
G1 X90.014 Y140.568 E18.20375
G1 X87.887 Y139.752 E18.37420
G1 X86.825 Y137.365 E18.56968
G1 X86.419 Y137.362 E18.60000
G1 X86.297 Y137.623 E18.62160
G1 X83.120 Y138.780 E18.87465
G1 X81.055 Y137.817 E19.04511
G1 X80.068 Y135.103 E19.26126
G1 X79.846 Y134.990 E19.27984
G1 X76.366 Y135.988 E19.55080
G1 X74.374 Y134.884 E19.72121
G1 X73.470 Y131.731 E19.96668
G1 X73.257 Y131.603 E19.98525
G1 X69.946 Y132.307 E20.23863
G1 X68.035 Y131.067 E20.40908
G1 X67.327 Y127.733 E20.66415
G1 X66.945 Y127.638 E20.69361
G1 X66.028 Y128.731 E20.80037
G1 X64.100 Y131.384 E21.04584
G1 X62.534 Y133.890 E21.26699
G1 X61.327 Y136.160 E21.45938
G1 X60.430 Y138.175 E21.62445
G1 X59.360 Y141.114 E21.85848
G1 X59.114 Y141.229 E21.87878
G1 X59.034 Y141.310 E21.88730
G1 X58.910 Y141.587 E21.91004
G1 X56.784 Y142.404 E22.08050
G1 X53.692 Y141.027 E22.33377
G1 X53.546 Y140.645 E22.36440
G1 X53.470 Y140.560 E22.37293
G1 X53.360 Y140.501 E22.38222
G1 X52.694 Y138.323 E22.55272
G1 X52.877 Y137.979 E22.58188
G1 X52.891 Y137.866 E22.59041
G1 X52.720 Y137.122 E22.64757
G1 X53.187 Y136.374 E22.71352
G1 X53.209 Y136.262 E22.72205
G1 X53.061 Y135.326 E22.79300
G1 X53.596 Y134.590 E22.86111
G1 X53.625 Y134.518 E22.86690
G1 X53.692 Y134.040 E22.90302
G1 X53.653 Y133.909 E22.91326
G1 X53.168 Y133.351 E22.96860
G1 X53.270 Y131.900 E23.07743
G1 X53.222 Y131.772 E23.08766
G1 X52.508 Y131.058 E23.16320
G1 X52.508 Y68.881 E27.81629
G1 X53.945 Y67.443 E27.96838
G1 X53.956 Y67.199 E27.98671
G1 X53.920 Y67.156 E27.99084
G1 X54.015 Y66.074 E28.07214
G1 X53.984 Y65.964 E28.08066
G1 X53.023 Y64.641 E28.20312
G1 X53.172 Y63.696 E28.27467
G1 X53.149 Y63.585 E28.28320
G1 X52.805 Y63.033 E28.33190
G1 X53.317 Y60.813 E28.50238
G1 X53.592 Y60.642 E28.52659
G1 X53.661 Y60.551 E28.53512
G1 X53.752 Y60.255 E28.55834
G1 X56.742 Y58.665 E28.81179
G1 X58.920 Y59.330 E28.98223
G1 X59.273 Y59.993 E29.03842
G1 X59.358 Y60.069 E29.04695
G1 X59.699 Y60.200 E29.07426
G1 X61.325 Y63.852 E29.37345
G1 X61.780 Y64.708 E29.44597
G1 X61.916 Y64.797 E29.45816
G1 X62.958 Y64.869 E29.53629
G1 X63.030 Y64.952 E29.54450
G1 X63.361 Y64.854 E29.57034
G1 X63.829 Y66.224 F30000.000
G1 F2100
G1 X64.145 Y63.974 E29.74041
G1 X65.567 Y62.902 E29.87366
G1 X68.421 Y63.303 E30.08928
G1 X69.240 Y64.391 E30.19122
G1 X69.636 Y64.303 E30.22154
G1 X70.145 Y61.907 E30.40487
G1 X71.639 Y60.937 E30.53813
G1 X74.458 Y61.536 E30.75380
G1 X75.282 Y62.805 E30.86701
G1 X75.683 Y62.745 E30.89734
G1 X76.380 Y60.314 E31.08660
G1 X77.937 Y59.451 E31.21983
G1 X80.709 Y60.246 E31.43567
G1 X81.496 Y61.665 E31.55710
G1 X81.900 Y61.633 E31.58743
G1 X82.759 Y59.272 E31.77546
G1 X84.372 Y58.519 E31.90869
G1 X87.084 Y59.506 E32.12465
G1 X87.797 Y61.035 E32.25092
G1 X88.202 Y61.032 E32.28124
G1 X89.180 Y58.835 E32.46119
G1 X90.843 Y58.197 E32.59445
G1 X93.480 Y59.371 E32.81050
G1 X94.090 Y60.960 E32.93783
G1 X94.494 Y60.985 E32.96816
G1 X95.532 Y59.033 E33.13360
G1 X97.235 Y58.512 E33.26685
G1 X99.786 Y59.869 E33.48308
G1 X100.272 Y61.458 E33.60745
G1 X100.674 Y61.511 E33.63777
G1 X101.702 Y59.866 E33.78295
G1 X103.437 Y59.465 E33.91620
G1 X105.890 Y60.998 E34.13264
G1 X106.242 Y62.523 E34.24977
G1 X106.639 Y62.603 E34.28009
G1 X107.581 Y61.307 E34.40004
G1 X109.340 Y61.028 E34.53329
G1 X111.683 Y62.731 E34.75002
G1 X111.903 Y64.124 E34.85555
G1 X112.293 Y64.232 E34.88588
G1 X113.072 Y63.304 E34.97650
G1 X114.846 Y63.149 E35.10975
G1 X117.067 Y65.012 E35.32671
G1 X117.171 Y66.207 E35.41646
G1 X117.553 Y66.342 E35.44679
G1 X118.094 Y65.783 E35.50502
G1 X119.874 Y65.752 E35.63828
G1 X121.962 Y67.768 E35.85548
G1 X121.978 Y68.699 E35.92522
G1 X122.350 Y68.861 E35.95554
G1 X122.586 Y68.649 E35.97930
G1 X124.364 Y68.742 E36.11254
G1 X126.310 Y70.903 E36.33014
G1 X126.273 Y71.596 E36.38207
G1 X126.433 Y71.786 E36.40064
G1 X128.282 Y72.012 E36.54002
G1 X130.075 Y74.308 E36.75799
G1 X129.994 Y74.962 E36.80729
G1 X130.140 Y75.163 E36.82587
G1 X131.618 Y75.450 E36.93852
G1 X133.249 Y77.868 E37.15684
G1 X133.140 Y78.428 E37.19953
G1 X133.272 Y78.639 E37.21810
G1 X134.391 Y78.939 E37.30483
G1 X135.852 Y81.470 E37.52355
G1 X135.742 Y81.881 E37.55539
G1 X135.859 Y82.100 E37.57396
G1 X136.646 Y82.371 E37.63630
G1 X137.930 Y85.004 E37.85547
G1 X137.858 Y85.215 E37.87216
G1 X137.959 Y85.441 E37.89073
G1 X138.452 Y85.651 E37.93084
G1 X139.605 Y88.504 E38.16114
G1 X139.682 Y88.588 E38.16966
G1 X139.896 Y88.697 E38.18767
G1 X140.702 Y91.178 E38.38290
G1 X140.773 Y91.268 E38.39143
G1 X141.081 Y91.453 E38.41836
G1 X141.582 Y93.458 E38.57304
G1 X141.646 Y93.552 E38.58156
G1 X142.119 Y93.883 E38.62478
G1 X142.373 Y95.322 E38.73410
G1 X142.431 Y95.420 E38.74262
G1 X143.123 Y95.980 E38.80925
G1 X143.207 Y96.777 E38.86923
G1 X143.258 Y96.879 E38.87775
G1 X144.202 Y97.760 E38.97436
G1 X144.205 Y97.864 E38.98215
G1 X144.249 Y97.969 E38.99068
G1 X145.266 Y99.060 E39.10229
G1 X145.368 Y99.111 E39.11082
G1 X145.841 Y99.161 E39.14640
G1 X146.961 Y100.544 E39.27966
G1 X146.648 Y103.522 E39.50371
G1 X145.264 Y104.643 E39.63697
G1 X128.993 Y102.933 E40.86132
G1 X126.317 Y102.839 E41.06176
G1 X126.123 Y103.142 E41.08871
G1 X126.510 Y103.901 E41.15240
G1 X126.235 Y104.745 E41.21881
G1 X126.340 Y104.970 E41.23738
G1 X127.329 Y105.369 E41.31717
G1 X128.024 Y107.008 E41.45043
G1 X127.484 Y108.346 E41.55845
G1 X127.573 Y108.578 E41.57702
G1 X128.442 Y109.002 E41.64938
G1 X129.021 Y110.686 E41.78263
G1 X128.153 Y112.467 E41.93093
G1 X128.225 Y112.704 E41.94951
G1 X128.856 Y113.068 E42.00401
G1 X129.317 Y114.788 E42.13725
G1 X128.071 Y116.945 E42.32368
G1 X128.127 Y117.187 E42.34225
G1 X128.425 Y117.388 E42.36917
G1 X128.765 Y119.136 E42.50243
G1 X127.075 Y121.642 E42.72859
G1 X127.049 Y121.753 E42.73711
G1 X127.267 Y123.525 E42.87076
G1 X125.474 Y125.820 E43.08870
G1 X124.847 Y125.897 E43.13597
G1 X124.687 Y126.087 E43.15454
G1 X124.774 Y127.740 E43.27835
G1 X122.828 Y129.900 E43.49590
G1 X121.489 Y129.970 E43.59627
G1 X121.316 Y130.148 E43.61484
G1 X121.292 Y131.560 E43.72050
G1 X119.204 Y133.577 E43.93775
G1 X117.423 Y133.546 E44.07102
G1 X117.363 Y133.484 E44.07746
G1 X116.981 Y133.619 E44.10779
G1 X116.880 Y134.785 E44.19534
G1 X114.658 Y136.649 E44.41237
G1 X112.885 Y136.494 E44.54560
G1 X112.254 Y135.742 E44.61907
G1 X111.863 Y135.850 E44.64939
G1 X111.644 Y137.236 E44.75438
G1 X109.301 Y138.939 E44.97112
G1 X107.543 Y138.660 E45.10437
G1 X106.476 Y137.192 E45.24014
G1 X106.079 Y137.273 E45.27046
G1 X105.733 Y138.771 E45.38548
G1 X103.280 Y140.303 E45.60192
G1 X101.545 Y139.902 E45.73517
G1 X100.190 Y137.734 E45.92654
G1 X99.789 Y137.787 E45.95686
G1 X99.329 Y139.289 E46.07442
G1 X96.778 Y140.645 E46.29065
G1 X95.075 Y140.125 E46.42390
G1 X93.579 Y137.311 E46.66236
G1 X93.175 Y137.336 E46.69268
G1 X92.634 Y138.744 E46.80558
G1 X89.997 Y139.919 E47.02165
G1 X88.334 Y139.281 E47.15490
G1 X86.837 Y135.919 E47.43029
G1 X86.432 Y135.915 E47.46062
G1 X85.859 Y137.145 E47.56212
G1 X83.148 Y138.131 E47.77798
G1 X81.534 Y137.378 E47.91125
G1 X80.159 Y133.600 E48.21214
G1 X79.755 Y133.568 E48.24247
G1 X79.212 Y134.548 E48.32630
G1 X76.439 Y135.343 E48.54214
G1 X74.883 Y134.480 E48.67537
G1 X73.726 Y130.448 E48.98925
G1 X73.326 Y130.388 E49.01958
G1 X72.883 Y131.069 E49.08037
G1 X70.064 Y131.669 E49.29606
G1 X68.571 Y130.699 E49.42932
G1 X67.699 Y126.597 E49.74311
G1 X67.303 Y126.510 E49.77343
G1 X67.037 Y126.863 E49.80657
G1 X66.843 Y126.891 E49.82122
G1 X66.741 Y126.947 E49.82995
G1 X65.555 Y128.361 E49.96804
G1 X63.602 Y131.049 E50.21665
G1 X62.020 Y133.581 E50.44012
G1 X60.787 Y135.897 E50.63647
G1 X59.873 Y137.950 E50.80467
G1 X58.881 Y140.675 E51.02168
G1 X58.657 Y140.780 E51.04018
G1 X58.577 Y140.861 E51.04870
G1 X58.463 Y141.116 E51.06961
G1 X56.801 Y141.754 E51.20287
G1 X54.163 Y140.580 E51.41894
G1 X54.025 Y140.220 E51.44777
G1 X53.950 Y140.135 E51.45630
G1 X53.861 Y140.088 E51.46379
