; generated by Slic3r 1.3.0 on 2020-04-26 at 02:49:47

; external perimeters extrusion width = 0.44mm (2.78mm^3/s)
; perimeters extrusion width = 0.40mm (7.14mm^3/s)
; infill extrusion width = 0.50mm (10.97mm^3/s)
; solid infill extrusion width = 0.60mm (6.68mm^3/s)
; top infill extrusion width = 0.40mm (2.14mm^3/s)

M107
M190 S80 ; set bed temperature and wait for it to be reached
M104 S200 ; set temperature
G28 ; home all axes
G1 Z5 F5000 ; lift nozzle

; Filament gcode

M109 S200 ; set temperature and wait for it to be reached
G21 ; set units to millimeters
G90 ; use absolute coordinates
M82 ; use absolute distances for extrusion
G92 E0
G1 Z0.300 F30000.000
G1 E-2.00000 F2400.00000
G92 E0
G1 X52.992 Y59.566 F30000.000
G1 E2.00000 F2400.00000
G1 F2100
G1 X54.273 Y58.497 E2.11149
G1 X55.252 Y57.976 E2.18558
G1 X57.032 Y57.502 E2.30863
G1 X90.797 Y56.422 E4.56543
G1 X97.008 Y56.705 E4.98084
G1 X97.429 Y56.746 E5.00906
G1 X103.454 Y57.653 E5.41609
G1 X103.881 Y57.740 E5.44523
G1 X109.611 Y59.243 E5.84098
G1 X110.036 Y59.380 E5.87077
G1 X115.375 Y61.427 E6.25276
G1 X115.787 Y61.612 E6.28292
G1 X120.655 Y64.128 E6.64900
G1 X121.049 Y64.361 E6.67960
G1 X125.412 Y67.279 E7.03025
G1 X125.772 Y67.550 E7.06041
G1 X129.587 Y70.767 E7.39374
G1 X129.902 Y71.063 E7.42260
G1 X133.132 Y74.434 E7.73452
G1 X133.400 Y74.743 E7.76186
G1 X136.068 Y78.155 E8.05118
G1 X136.284 Y78.460 E8.07618
G1 X138.556 Y82.004 E8.35739
G1 X148.256 Y99.167 E9.67443
G1 X148.760 Y101.595 E9.84007
G1 X148.696 Y102.204 E9.88102
G1 X147.710 Y104.461 E10.04555
G1 X125.830 Y129.439 E12.26385
G1 X124.992 Y130.369 E12.34751
G1 X122.320 Y133.236 E12.60932
G1 X121.362 Y134.169 E12.69864
G1 X120.854 Y134.586 E12.74254
G1 X116.456 Y137.637 E13.10017
G1 X115.765 Y138.022 E13.15301
G1 X110.554 Y140.298 E13.53291
G1 X109.842 Y140.534 E13.58296
G1 X103.967 Y141.894 E13.98583
G1 X103.270 Y141.993 E14.03285
G1 X96.913 Y142.339 E14.45821
G1 X56.806 Y143.465 E17.13863
G1 X55.036 Y143.115 E17.25916
G1 X54.025 Y142.665 E17.33309
G1 X52.102 Y140.886 E17.50806
G1 X51.888 Y140.493 E17.53798
G1 X51.397 Y138.663 E17.66451
G1 X51.160 Y129.950 E18.24683
G1 X51.160 Y70.050 E22.24847
G1 X51.175 Y69.697 E22.27210
G1 X51.836 Y62.107 E22.78102
G1 X52.699 Y59.935 E22.93718
G1 X52.954 Y59.613 E22.96464
G1 X53.412 Y59.898 F30000.000
G1 F2100
G1 X54.525 Y58.970 E23.06146
G1 X55.504 Y58.449 E23.13555
G1 X57.050 Y58.037 E23.24241
G1 X90.772 Y56.957 E25.49643
G1 X96.984 Y57.240 E25.91184
G1 X97.349 Y57.276 E25.93635
G1 X103.374 Y58.182 E26.34338
G1 X103.745 Y58.259 E26.36868
G1 X109.475 Y59.762 E26.76443
G1 X109.844 Y59.880 E26.79030
G1 X115.183 Y61.927 E27.17230
G1 X115.541 Y62.087 E27.19848
G1 X120.409 Y64.603 E27.56457
G1 X120.751 Y64.806 E27.59114
G1 X125.114 Y67.724 E27.94179
G1 X125.427 Y67.960 E27.96798
G1 X129.242 Y71.176 E28.30131
G1 X129.515 Y71.433 E28.32637
G1 X132.746 Y74.804 E28.63830
G1 X132.978 Y75.073 E28.66204
G1 X135.646 Y78.485 E28.95136
G1 X135.834 Y78.750 E28.97307
G1 X138.090 Y82.268 E29.25224
G1 X147.789 Y99.431 E30.56928
G1 X148.228 Y101.539 E30.71313
G1 X148.164 Y102.148 E30.75406
G1 X147.307 Y104.108 E30.89695
G1 X125.427 Y129.086 E33.11525
G1 X124.600 Y130.004 E33.19780
G1 X121.928 Y132.871 E33.45962
G1 X121.604 Y133.191 E33.49006
G1 X120.990 Y133.784 E33.54705
G1 X120.549 Y134.146 E33.58518
G1 X116.150 Y137.196 E33.94280
G1 X115.551 Y137.531 E33.98869
G1 X110.339 Y139.807 E34.36859
G1 X109.721 Y140.012 E34.41206
G1 X103.846 Y141.372 E34.81492
G1 X103.241 Y141.458 E34.85576
G1 X96.883 Y141.804 E35.28112
G1 X56.791 Y142.930 E37.96059
G1 X55.254 Y142.625 E38.06527
G1 X54.243 Y142.175 E38.13920
G1 X52.573 Y140.631 E38.29115
G1 X52.359 Y140.237 E38.32107
G1 X51.933 Y138.649 E38.43095
G1 X51.696 Y129.950 E39.01229
G1 X51.696 Y70.050 E43.01393
G1 X51.709 Y69.743 E43.03445
G1 X52.370 Y62.154 E43.54337
G1 X53.119 Y60.267 E43.67899
G1 X53.374 Y59.945 E43.70645
G1 E41.70645 F2400.00000
G92 E0
G1 X63.343 Y64.839 F30000.000
G1 E2.00000 F2400.00000
G1 F2100
G1 X63.508 Y63.668 E2.08855
G1 X65.326 Y62.297 E2.25898
G1 X68.673 Y62.768 E2.51187
G1 X68.828 Y62.974 E2.53120
G1 X69.224 Y62.886 E2.56152
G1 X69.507 Y61.554 E2.66346
G1 X71.417 Y60.313 E2.83388
G1 X74.723 Y61.015 E3.08679
G1 X74.946 Y61.359 E3.11744
G1 X75.346 Y61.299 E3.14777
G1 X75.744 Y59.911 E3.25581
G1 X77.737 Y58.807 E3.42627
G1 X80.986 Y59.739 E3.67926
G1 X81.238 Y60.193 E3.71813
G1 X81.642 Y60.161 E3.74846
G1 X82.131 Y58.819 E3.85540
G1 X84.195 Y57.856 E4.02586
G1 X87.373 Y59.012 E4.27889
G1 X87.620 Y59.542 E4.32266
G1 X88.025 Y59.539 E4.35298
G1 X88.563 Y58.331 E4.45195
G1 X90.689 Y57.514 E4.62240
G1 X93.781 Y58.891 E4.87567
G1 X93.995 Y59.449 E4.92039
G1 X94.400 Y59.474 E4.95071
G1 X94.930 Y58.476 E5.03529
G1 X97.109 Y57.810 E5.20576
G1 X100.099 Y59.400 E5.45916
G1 X100.262 Y59.933 E5.50093
G1 X100.664 Y59.986 E5.53126
G1 X101.120 Y59.256 E5.59572
G1 X103.339 Y58.743 E5.76617
G1 X106.214 Y60.540 E6.01981
G1 X106.317 Y60.989 E6.05430
G1 X106.714 Y61.069 E6.08462
G1 X107.023 Y60.644 E6.12396
G1 X109.273 Y60.288 E6.29440
G1 X112.017 Y62.281 E6.54826
G1 X112.065 Y62.584 E6.57123
G1 X112.456 Y62.693 E6.60155
G1 X112.543 Y62.589 E6.61171
G1 X114.812 Y62.390 E6.78216
G1 X117.414 Y64.574 E7.03635
G1 X117.438 Y64.849 E7.05701
G1 X117.622 Y65.015 E7.07558
G1 X119.876 Y64.976 E7.24427
G1 X122.322 Y67.337 E7.49870
G1 X122.328 Y67.697 E7.52563
G1 X122.500 Y67.876 E7.54421
G1 X124.429 Y67.977 E7.68874
G1 X126.682 Y70.479 E7.94072
G1 X126.660 Y70.902 E7.97240
G1 X126.820 Y71.092 E7.99098
G1 X128.427 Y71.289 E8.11219
G1 X130.461 Y73.892 E8.35935
G1 X130.408 Y74.319 E8.39160
G1 X130.554 Y74.520 E8.41017
G1 X131.836 Y74.769 E8.50784
G1 X133.650 Y77.459 E8.75067
G1 X133.577 Y77.833 E8.77917
G1 X133.709 Y78.044 E8.79775
G1 X134.672 Y78.301 E8.87234
G1 X136.269 Y81.067 E9.11136
G1 X136.199 Y81.329 E9.13165
G1 X136.315 Y81.548 E9.15022
G1 X136.983 Y81.778 E9.20308
G1 X138.363 Y84.609 E9.43877
G1 X138.331 Y84.703 E9.44619
G1 X138.432 Y84.930 E9.46477
G1 X138.838 Y85.102 E9.49780
G1 X140.003 Y87.984 E9.73041
G1 X140.080 Y88.068 E9.73894
G1 X140.327 Y88.195 E9.75976
G1 X141.143 Y90.704 E9.95722
G1 X141.214 Y90.793 E9.96575
G1 X141.552 Y90.997 E9.99532
G1 X142.059 Y93.029 E10.15207
G1 X142.124 Y93.123 E10.16060
G1 X142.625 Y93.474 E10.20640
G1 X142.883 Y94.938 E10.31766
G1 X142.941 Y95.037 E10.32619
G1 X143.659 Y95.618 E10.39537
G1 X143.745 Y96.441 E10.45724
G1 X143.796 Y96.543 E10.46577
G1 X144.763 Y97.445 E10.56474
G1 X144.768 Y97.573 E10.57437
G1 X144.812 Y97.678 E10.58289
G1 X145.533 Y98.452 E10.66205
G1 X145.635 Y98.503 E10.67057
G1 X146.131 Y98.555 E10.70792
G1 X147.564 Y100.325 E10.87833
G1 X147.263 Y103.199 E11.09459
G1 X145.492 Y104.632 E11.26503
G1 X129.416 Y102.942 E12.47476
G1 X127.351 Y102.870 E12.62939
G1 X127.157 Y103.173 E12.65634
G1 X127.281 Y103.417 E12.67680
G1 X127.095 Y103.991 E12.72201
G1 X127.200 Y104.216 E12.74058
G1 X127.930 Y104.511 E12.79950
G1 X128.820 Y106.608 E12.96996
G1 X128.385 Y107.683 E13.05675
G1 X128.474 Y107.915 E13.07532
G1 X129.091 Y108.216 E13.12667
G1 X129.832 Y110.369 E13.29711
G1 X129.088 Y111.895 E13.42418
G1 X129.160 Y112.133 E13.44276
G1 X129.546 Y112.355 E13.47609
G1 X130.136 Y114.555 E13.64653
G1 X129.032 Y116.467 E13.81171
G1 X129.088 Y116.709 E13.83028
G1 X129.149 Y116.750 E13.83584
G1 X129.584 Y118.985 E14.00623
G1 X127.881 Y121.512 E14.23429
G1 X127.854 Y121.623 E14.24281
G1 X128.079 Y123.457 E14.38108
G1 X125.981 Y126.143 E14.63621
G1 X125.660 Y126.182 E14.66036
G1 X125.501 Y126.373 E14.67893
G1 X125.573 Y127.750 E14.78214
G1 X123.295 Y130.280 E15.03692
G1 X122.263 Y130.334 E15.11421
G1 X122.091 Y130.512 E15.13279
G1 X122.071 Y131.646 E15.21768
G1 X119.625 Y134.009 E15.47219
G1 X117.886 Y133.979 E15.60232
G1 X117.702 Y134.145 E15.62089
G1 X117.632 Y134.947 E15.68114
G1 X115.030 Y137.129 E15.93525
G1 X112.622 Y136.919 E16.11618
G1 X112.426 Y137.071 E16.13475
G1 X112.364 Y137.467 E16.16473
G1 X109.618 Y139.461 E16.41868
G1 X107.369 Y139.104 E16.58907
G1 X106.925 Y138.494 E16.64555
G1 X106.528 Y138.575 E16.67587
G1 X106.415 Y139.066 E16.71362
G1 X103.540 Y140.862 E16.96729
G1 X101.321 Y140.350 E17.13774
G1 X100.526 Y139.078 E17.24999
G1 X100.124 Y139.131 E17.28031
G1 X99.967 Y139.646 E17.32058
G1 X96.976 Y141.236 E17.57407
G1 X94.798 Y140.570 E17.74450
G1 X93.798 Y138.689 E17.90392
G1 X93.394 Y138.714 E17.93425
G1 X93.223 Y139.158 E17.96988
G1 X90.131 Y140.534 E18.22315
G1 X88.005 Y139.718 E18.39360
G1 X86.937 Y137.319 E18.59012
G1 X86.532 Y137.316 E18.62044
G1 X86.395 Y137.609 E18.64466
G1 X83.217 Y138.765 E18.89774
G1 X81.152 Y137.803 E19.06820
G1 X80.137 Y135.014 E19.29031
G1 X79.733 Y134.982 E19.32064
G1 X79.691 Y135.058 E19.32716
G1 X76.441 Y135.990 E19.58021
G1 X74.449 Y134.886 E19.75064
G1 X73.547 Y131.740 E19.99557
G1 X73.334 Y131.612 E20.01414
G1 X69.996 Y132.321 E20.26950
G1 X68.086 Y131.081 E20.43995
G1 X67.351 Y127.623 E20.70451
G1 X67.148 Y127.481 E20.72309
G1 X66.737 Y127.538 E20.75414
G1 X66.635 Y127.595 E20.76288
G1 X66.041 Y128.303 E20.83199
G1 X64.102 Y130.972 E21.07887
G1 X62.533 Y133.482 E21.30043
G1 X61.314 Y135.775 E21.49474
G1 X60.411 Y137.801 E21.66074
G1 X59.209 Y141.101 E21.92361
G1 X58.927 Y141.233 E21.94695
G1 X58.847 Y141.314 E21.95548
G1 X58.740 Y141.554 E21.97511
G1 X56.614 Y142.370 E22.14556
G1 X53.522 Y140.994 E22.39881
G1 X53.369 Y140.595 E22.43078
G1 X53.294 Y140.510 E22.43930
G1 X53.171 Y140.445 E22.44970
G1 X52.505 Y138.266 E22.62014
G1 X52.681 Y137.936 E22.64813
G1 X52.695 Y137.823 E22.65666
G1 X52.515 Y137.040 E22.71678
G1 X52.974 Y136.305 E22.78171
G1 X52.997 Y136.193 E22.79024
G1 X52.843 Y135.217 E22.86416
G1 X53.612 Y134.159 E22.96208
G1 X53.602 Y133.939 E22.97855
G1 X53.116 Y133.380 E23.03401
G1 X53.219 Y131.906 E23.14454
G1 X53.171 Y131.778 E23.15478
G1 X52.482 Y131.089 E23.22772
G1 X52.482 Y68.911 E27.88081
G1 X54.107 Y67.286 E28.05277
G1 X54.117 Y67.042 E28.07110
G1 X54.097 Y67.017 E28.07353
G1 X54.188 Y65.975 E28.15181
G1 X54.157 Y65.865 E28.16034
G1 X53.189 Y64.531 E28.28369
G1 X53.332 Y63.627 E28.35223
G1 X53.309 Y63.515 E28.36075
G1 X52.957 Y62.952 E28.41045
G1 X53.470 Y60.732 E28.58092
G1 X53.734 Y60.567 E28.60424
G1 X53.803 Y60.477 E28.61277
G1 X53.889 Y60.198 E28.63458
G1 X56.879 Y58.608 E28.88800
G1 X59.057 Y59.275 E29.05846
G1 X59.429 Y59.975 E29.11783
G1 X59.515 Y60.051 E29.12636
G1 X59.817 Y60.167 E29.15058
G1 X61.286 Y63.466 E29.42086
G1 X61.970 Y64.754 E29.52998
G1 X62.107 Y64.842 E29.54217
G1 X62.906 Y64.898 E29.60212
G1 X62.954 Y64.954 E29.60767
G1 X63.285 Y64.856 E29.63351
G1 X63.754 Y66.227 F30000.000
G1 F2100
G1 X64.067 Y63.997 E29.80200
G1 X65.489 Y62.926 E29.93524
G1 X68.343 Y63.327 E30.15092
G1 X69.141 Y64.387 E30.25020
G1 X69.537 Y64.299 E30.28053
G1 X70.042 Y61.922 E30.46241
G1 X71.535 Y60.952 E30.59564
G1 X74.355 Y61.551 E30.81135
G1 X75.160 Y62.790 E30.92193
G1 X75.560 Y62.730 E30.95225
G1 X76.253 Y60.315 E31.14022
G1 X77.810 Y59.452 E31.27348
G1 X80.582 Y60.247 E31.48927
G1 X81.351 Y61.636 E31.60808
G1 X81.755 Y61.604 E31.63840
G1 X82.610 Y59.257 E31.82527
G1 X84.223 Y58.505 E31.95853
G1 X86.934 Y59.491 E32.17439
G1 X87.633 Y60.989 E32.29805
G1 X88.038 Y60.985 E32.32837
G1 X89.010 Y58.802 E32.50724
G1 X90.672 Y58.164 E32.64049
G1 X93.310 Y59.338 E32.85656
G1 X93.907 Y60.893 E32.98121
G1 X94.311 Y60.918 E33.01154
G1 X95.343 Y58.977 E33.17604
G1 X97.046 Y58.456 E33.30931
G1 X99.597 Y59.813 E33.52552
G1 X100.073 Y61.368 E33.64721
G1 X100.475 Y61.421 E33.67754
G1 X101.497 Y59.784 E33.82191
G1 X103.232 Y59.384 E33.95517
G1 X105.685 Y60.917 E34.17161
G1 X106.029 Y62.406 E34.28603
G1 X106.426 Y62.487 E34.31635
G1 X107.363 Y61.198 E34.43562
G1 X109.121 Y60.919 E34.56887
G1 X111.464 Y62.621 E34.78553
G1 X111.679 Y63.979 E34.88841
G1 X112.069 Y64.087 E34.91873
G1 X112.843 Y63.165 E35.00881
G1 X114.617 Y63.010 E35.14205
G1 X116.838 Y64.874 E35.35904
G1 X116.939 Y66.031 E35.44602
G1 X117.321 Y66.167 E35.47634
G1 X117.858 Y65.611 E35.53417
G1 X119.638 Y65.580 E35.66742
G1 X121.726 Y67.596 E35.88466
G1 X121.743 Y68.540 E35.95527
G1 X122.114 Y68.701 E35.98559
G1 X122.371 Y68.470 E36.01148
G1 X124.149 Y68.563 E36.14473
G1 X126.070 Y70.696 E36.35952
G1 X126.032 Y71.429 E36.41448
G1 X126.191 Y71.619 E36.43305
G1 X128.108 Y71.854 E36.57753
G1 X129.835 Y74.065 E36.78750
G1 X129.745 Y74.801 E36.84301
G1 X129.891 Y75.002 E36.86158
G1 X131.477 Y75.311 E36.98252
G1 X133.014 Y77.589 E37.18816
G1 X132.882 Y78.268 E37.23994
G1 X133.013 Y78.478 E37.25851
G1 X134.276 Y78.817 E37.35637
G1 X135.625 Y81.152 E37.55821
G1 X135.475 Y81.714 E37.60176
G1 X135.591 Y81.933 E37.62033
G1 X136.553 Y82.265 E37.69645
G1 X137.715 Y84.649 E37.89493
G1 X137.581 Y85.037 E37.92564
G1 X137.682 Y85.263 E37.94422
G1 X138.375 Y85.557 E38.00054
G1 X139.353 Y87.979 E38.19596
G1 X139.282 Y88.146 E38.20953
G1 X139.367 Y88.379 E38.22811
G1 X139.834 Y88.616 E38.26727
G1 X140.642 Y91.103 E38.46292
G1 X140.713 Y91.192 E38.47145
G1 X141.030 Y91.383 E38.49920
G1 X141.531 Y93.392 E38.65413
G1 X141.595 Y93.486 E38.66266
G1 X142.077 Y93.823 E38.70666
G1 X142.331 Y95.264 E38.81612
G1 X142.389 Y95.362 E38.82465
G1 X143.088 Y95.928 E38.89200
G1 X143.172 Y96.726 E38.95207
G1 X143.223 Y96.828 E38.96060
G1 X144.172 Y97.714 E39.05777
G1 X144.176 Y97.818 E39.06558
G1 X144.220 Y97.924 E39.07411
G1 X145.247 Y99.025 E39.18683
G1 X145.349 Y99.076 E39.19536
G1 X145.821 Y99.126 E39.23090
G1 X146.942 Y100.509 E39.36412
G1 X146.692 Y102.889 E39.54317
G1 X145.308 Y104.009 E39.67642
G1 X129.458 Y102.343 E40.86912
G1 X126.354 Y102.234 E41.10154
G1 X126.160 Y102.538 E41.12849
G1 X126.634 Y103.468 E41.20657
G1 X126.351 Y104.338 E41.27506
G1 X126.456 Y104.563 E41.29363
G1 X127.474 Y104.974 E41.37583
G1 X128.170 Y106.614 E41.50908
G1 X127.619 Y107.977 E41.61915
G1 X127.708 Y108.209 E41.63772
G1 X128.604 Y108.646 E41.71234
G1 X129.184 Y110.330 E41.84559
G1 X128.303 Y112.135 E41.99593
G1 X128.376 Y112.373 E42.01450
G1 X129.031 Y112.751 E42.07111
G1 X129.492 Y114.471 E42.20436
G1 X128.233 Y116.651 E42.39280
G1 X128.288 Y116.893 E42.41137
G1 X128.608 Y117.109 E42.44022
G1 X128.948 Y118.856 E42.57343
G1 X127.258 Y121.362 E42.79965
G1 X127.231 Y121.473 E42.80818
G1 X127.454 Y123.283 E42.94464
G1 X125.661 Y125.578 E43.16257
G1 X125.032 Y125.655 E43.20999
G1 X124.872 Y125.845 E43.22856
G1 X124.961 Y127.533 E43.35504
G1 X123.015 Y129.693 E43.57261
G1 X121.673 Y129.764 E43.67319
G1 X121.500 Y129.942 E43.69177
G1 X121.475 Y131.388 E43.79995
G1 X119.387 Y133.405 E44.01726
G1 X117.607 Y133.374 E44.15051
G1 X117.543 Y133.308 E44.15734
G1 X117.161 Y133.444 E44.18766
G1 X117.056 Y134.647 E44.27807
G1 X114.835 Y136.510 E44.49499
G1 X113.061 Y136.355 E44.62825
G1 X112.426 Y135.597 E44.70225
G1 X112.035 Y135.706 E44.73257
G1 X111.810 Y137.128 E44.84032
G1 X109.466 Y138.830 E45.05706
G1 X107.708 Y138.551 E45.19027
G1 X106.637 Y137.076 E45.32668
G1 X106.240 Y137.157 E45.35700
G1 X105.886 Y138.689 E45.47469
G1 X103.433 Y140.222 E45.69115
G1 X101.698 Y139.821 E45.82441
G1 X100.337 Y137.644 E46.01659
G1 X99.935 Y137.696 E46.04692
G1 X99.466 Y139.233 E46.16712
G1 X96.914 Y140.589 E46.38341
G1 X95.211 Y140.069 E46.51665
G1 X93.710 Y137.245 E46.75599
G1 X93.305 Y137.269 E46.78632
G1 X92.752 Y138.711 E46.90187
G1 X90.114 Y139.885 E47.11795
G1 X88.452 Y139.247 E47.25120
G1 X86.949 Y135.872 E47.52764
G1 X86.544 Y135.869 E47.55796
G1 X85.956 Y137.130 E47.66210
G1 X83.245 Y138.116 E47.87799
G1 X81.631 Y137.364 E48.01124
G1 X80.251 Y133.571 E48.31331
G1 X79.847 Y133.539 E48.34363
G1 X79.287 Y134.550 E48.43010
G1 X76.514 Y135.345 E48.64594
G1 X74.957 Y134.482 E48.77917
G1 X73.796 Y130.433 E49.09438
G1 X73.395 Y130.373 E49.12470
G1 X72.934 Y131.084 E49.18812
G1 X70.115 Y131.683 E49.40381
G1 X68.621 Y130.713 E49.53707
G1 X67.745 Y126.593 E49.85230
G1 X67.350 Y126.505 E49.88262
G1 X67.062 Y126.887 E49.91838
G1 X66.425 Y126.976 E49.96653
G1 X66.323 Y127.033 E49.97526
G1 X65.575 Y127.924 E50.06236
G1 X63.605 Y130.636 E50.31319
G1 X62.013 Y133.182 E50.53790
G1 X60.774 Y135.511 E50.73534
G1 X59.854 Y137.576 E50.90448
G1 X58.731 Y140.663 E51.15030
G1 X58.470 Y140.784 E51.17183
G1 X58.390 Y140.865 E51.18036
