; generated by Slic3r 1.3.0 on 2020-04-25 at 17:00:35

; external perimeters extrusion width = 0.44mm (2.78mm^3/s)
; perimeters extrusion width = 0.40mm (7.14mm^3/s)
; infill extrusion width = 0.50mm (10.97mm^3/s)
; solid infill extrusion width = 0.60mm (6.68mm^3/s)
; top infill extrusion width = 0.40mm (2.14mm^3/s)

M107
M190 S80 ; set bed temperature and wait for it to be reached
M104 S200 ; set temperature
G28 ; home all axes
G1 Z5 F5000 ; lift nozzle

; Filament gcode

M109 S200 ; set temperature and wait for it to be reached
G21 ; set units to millimeters
G90 ; use absolute coordinates
M82 ; use absolute distances for extrusion
G92 E0
G1 Z0.300 F30000.000
G1 E-2.00000 F2400.00000
G92 E0
G1 X74.667 Y75.814 F30000.000
G1 E2.00000 F2400.00000
G1 F2100
G1 X77.452 Y73.198 E2.25527
G1 X77.898 Y72.829 E2.29391
G1 X80.989 Y70.584 E2.54917
G1 X81.478 Y70.274 E2.58781
G1 X83.388 Y69.223 E2.73348
G1 X84.826 Y68.433 E2.84307
G1 X85.349 Y68.187 E2.88172
G1 X88.902 Y66.780 E3.13699
G1 X89.452 Y66.601 E3.17563
G1 X93.153 Y65.651 E3.43089
G1 X93.721 Y65.543 E3.46954
G1 X97.512 Y65.064 E3.72480
G1 X98.090 Y65.027 E3.76344
G1 X101.910 Y65.027 E4.01870
G1 X102.488 Y65.064 E4.05735
G1 X106.279 Y65.543 E4.31261
G1 X106.847 Y65.651 E4.35125
G1 X110.548 Y66.601 E4.60652
G1 X111.098 Y66.780 E4.64516
G1 X114.651 Y68.186 E4.90042
G1 X115.174 Y68.433 E4.93907
G1 X118.522 Y70.274 E5.19433
G1 X119.011 Y70.584 E5.23297
G1 X122.102 Y72.829 E5.48823
G1 X122.548 Y73.198 E5.52688
G1 X125.333 Y75.814 E5.78214
G1 X125.729 Y76.236 E5.82079
G1 X127.119 Y77.916 E5.96646
G1 X128.165 Y79.180 E6.07605
G1 X128.505 Y79.648 E6.11469
G1 X130.552 Y82.874 E6.36995
G1 X130.831 Y83.381 E6.40860
G1 X132.458 Y86.838 E6.66386
G1 X132.671 Y87.376 E6.70251
G1 X133.344 Y89.450 E6.84818
G1 X133.851 Y91.010 E6.95777
G1 X133.995 Y91.570 E6.99642
G1 X134.711 Y95.323 E7.25168
G1 X134.784 Y95.897 E7.29032
G1 X135.024 Y99.711 E7.54558
G1 X135.024 Y100.289 E7.58423
G1 X134.784 Y104.103 E7.83949
G1 X134.711 Y104.677 E7.87813
G1 X133.995 Y108.430 E8.13340
G1 X133.851 Y108.990 E8.17204
G1 X132.671 Y112.624 E8.42730
G1 X132.458 Y113.162 E8.46595
G1 X131.529 Y115.135 E8.61162
G1 X130.831 Y116.619 E8.72121
G1 X130.552 Y117.126 E8.75986
G1 X128.505 Y120.352 E9.01512
G1 X128.165 Y120.820 E9.05376
G1 X125.729 Y123.764 E9.30902
G1 X125.333 Y124.186 E9.34767
G1 X122.548 Y126.802 E9.60293
G1 X122.102 Y127.171 E9.64158
G1 X119.011 Y129.416 E9.89684
G1 X118.522 Y129.726 E9.93548
G1 X116.612 Y130.777 E10.08115
G1 X115.174 Y131.567 E10.19074
G1 X114.651 Y131.813 E10.22939
G1 X111.098 Y133.220 E10.48465
G1 X110.548 Y133.399 E10.52330
G1 X106.847 Y134.349 E10.77856
G1 X106.279 Y134.457 E10.81720
G1 X102.488 Y134.936 E11.07246
G1 X101.910 Y134.973 E11.11111
G1 X98.090 Y134.973 E11.36637
G1 X97.512 Y134.936 E11.40502
G1 X93.721 Y134.457 E11.66028
G1 X93.153 Y134.349 E11.69892
G1 X89.452 Y133.399 E11.95419
G1 X88.902 Y133.220 E11.99283
G1 X85.349 Y131.814 E12.24809
G1 X84.826 Y131.567 E12.28674
G1 X81.478 Y129.726 E12.54200
G1 X80.989 Y129.416 E12.58064
G1 X77.898 Y127.171 E12.83591
G1 X77.452 Y126.802 E12.87455
G1 X74.667 Y124.186 E13.12981
G1 X74.271 Y123.764 E13.16846
G1 X72.881 Y122.084 E13.31412
G1 X71.835 Y120.820 E13.42372
G1 X71.495 Y120.352 E13.46236
G1 X69.448 Y117.126 E13.71762
G1 X69.169 Y116.619 E13.75627
G1 X67.542 Y113.162 E14.01153
G1 X67.329 Y112.624 E14.05018
G1 X66.149 Y108.990 E14.30544
G1 X66.005 Y108.430 E14.34408
G1 X65.289 Y104.677 E14.59935
G1 X65.216 Y104.103 E14.63799
G1 X64.976 Y100.289 E14.89325
G1 X64.976 Y99.711 E14.93190
G1 X65.113 Y97.535 E15.07757
G1 X65.216 Y95.897 E15.18716
G1 X65.289 Y95.323 E15.22581
G1 X66.005 Y91.570 E15.48106
G1 X66.149 Y91.010 E15.51971
G1 X67.329 Y87.376 E15.77497
G1 X67.542 Y86.838 E15.81362
G1 X69.169 Y83.381 E16.06887
G1 X69.448 Y82.874 E16.10753
G1 X71.495 Y79.648 E16.36279
G1 X71.835 Y79.180 E16.40143
G1 X74.271 Y76.236 E16.65669
G1 X74.626 Y75.858 E16.69133
G1 X75.034 Y76.204 F30000.000
G1 F2100
G1 X77.819 Y73.589 E16.94659
G1 X78.213 Y73.263 E16.98075
G1 X81.304 Y71.017 E17.23600
G1 X81.736 Y70.743 E17.27015
G1 X83.646 Y69.693 E17.41582
G1 X85.084 Y68.902 E17.52541
G1 X85.547 Y68.685 E17.55957
G1 X89.099 Y67.278 E17.81483
G1 X89.585 Y67.120 E17.84898
G1 X93.286 Y66.170 E18.10424
G1 X93.789 Y66.074 E18.13840
G1 X97.579 Y65.595 E18.39366
G1 X98.090 Y65.563 E18.42781
G1 X101.910 Y65.563 E18.68307
G1 X102.421 Y65.595 E18.71722
G1 X106.212 Y66.074 E18.97248
G1 X106.714 Y66.170 E19.00663
G1 X110.415 Y67.120 E19.26190
G1 X110.901 Y67.278 E19.29605
G1 X114.453 Y68.685 E19.55131
G1 X114.916 Y68.902 E19.58546
G1 X118.264 Y70.743 E19.84072
G1 X118.696 Y71.017 E19.87487
G1 X121.787 Y73.263 E20.13013
G1 X122.181 Y73.589 E20.16429
G1 X124.966 Y76.204 E20.41955
G1 X125.316 Y76.577 E20.45370
G1 X126.706 Y78.257 E20.59937
G1 X127.752 Y79.521 E20.70897
G1 X128.052 Y79.935 E20.74311
G1 X130.100 Y83.161 E20.99837
G1 X130.346 Y83.609 E21.03253
G1 X131.973 Y87.066 E21.28778
G1 X132.161 Y87.541 E21.32194
G1 X132.835 Y89.615 E21.46761
G1 X133.342 Y91.175 E21.57720
G1 X133.469 Y91.671 E21.61136
G1 X134.185 Y95.424 E21.86661
G1 X134.249 Y95.931 E21.90077
G1 X134.489 Y99.744 E22.15603
G1 X134.489 Y100.256 E22.19018
G1 X134.249 Y104.069 E22.44544
G1 X134.185 Y104.576 E22.47959
G1 X133.469 Y108.329 E22.73485
G1 X133.342 Y108.825 E22.76901
G1 X132.161 Y112.459 E23.02426
G1 X131.973 Y112.934 E23.05842
G1 X131.045 Y114.907 E23.20409
G1 X130.346 Y116.391 E23.31368
G1 X130.100 Y116.839 E23.34783
G1 X128.052 Y120.065 E23.60309
G1 X127.752 Y120.479 E23.63724
G1 X125.316 Y123.423 E23.89250
G1 X124.967 Y123.796 E23.92666
G1 X122.181 Y126.411 E24.18192
G1 X121.787 Y126.737 E24.21608
G1 X118.696 Y128.983 E24.47133
G1 X118.264 Y129.257 E24.50548
G1 X116.354 Y130.307 E24.65115
G1 X114.916 Y131.098 E24.76074
G1 X114.453 Y131.315 E24.79490
G1 X110.901 Y132.722 E25.05016
G1 X110.415 Y132.880 E25.08431
G1 X106.714 Y133.830 E25.33957
G1 X106.212 Y133.926 E25.37372
G1 X102.421 Y134.405 E25.62898
G1 X101.910 Y134.437 E25.66314
G1 X98.090 Y134.437 E25.91840
G1 X97.579 Y134.405 E25.95255
G1 X93.789 Y133.926 E26.20781
G1 X93.286 Y133.830 E26.24196
G1 X89.585 Y132.880 E26.49723
G1 X89.099 Y132.722 E26.53137
G1 X85.547 Y131.316 E26.78663
G1 X85.084 Y131.098 E26.82079
G1 X81.736 Y129.257 E27.07605
G1 X81.304 Y128.983 E27.11020
G1 X78.213 Y126.737 E27.36546
G1 X77.819 Y126.411 E27.39962
G1 X75.034 Y123.796 E27.65487
G1 X74.684 Y123.423 E27.68903
G1 X73.294 Y121.743 E27.83470
G1 X72.248 Y120.479 E27.94429
G1 X71.948 Y120.065 E27.97844
G1 X69.900 Y116.839 E28.23370
G1 X69.654 Y116.391 E28.26786
G1 X68.027 Y112.934 E28.52312
G1 X67.839 Y112.459 E28.55727
G1 X66.658 Y108.825 E28.81253
G1 X66.531 Y108.330 E28.84668
G1 X65.815 Y104.576 E29.10195
G1 X65.751 Y104.069 E29.13609
G1 X65.511 Y100.256 E29.39135
G1 X65.511 Y99.744 E29.42551
G1 X65.648 Y97.568 E29.57118
G1 X65.751 Y95.931 E29.68077
G1 X65.815 Y95.424 E29.71492
G1 X66.531 Y91.671 E29.97018
G1 X66.658 Y91.175 E30.00433
G1 X67.839 Y87.541 E30.25960
G1 X68.027 Y87.066 E30.29375
G1 X69.654 Y83.609 E30.54900
G1 X69.900 Y83.161 E30.58316
G1 X71.948 Y79.935 E30.83842
G1 X72.248 Y79.521 E30.87257
G1 X74.684 Y76.577 E31.12783
G1 X74.992 Y76.248 E31.15798
G1 X75.400 Y76.595 F30000.000
G1 F2100
G1 X78.186 Y73.979 E31.41324
G1 X78.528 Y73.696 E31.44290
G1 X81.619 Y71.450 E31.69816
G1 X81.994 Y71.212 E31.72782
G1 X83.904 Y70.162 E31.87348
G1 X85.342 Y69.372 E31.98308
G1 X85.744 Y69.183 E32.01274
G1 X89.296 Y67.776 E32.26800
G1 X89.719 Y67.639 E32.29766
G1 X93.420 Y66.689 E32.55292
G1 X93.856 Y66.605 E32.58258
G1 X96.063 Y66.327 E32.73118
G1 X97.646 Y66.126 E32.83784
G1 X98.090 Y66.099 E32.86750
G1 X101.910 Y66.099 E33.12276
G1 X102.354 Y66.126 E33.15242
G1 X106.144 Y66.605 E33.40767
G1 X106.580 Y66.689 E33.43733
G1 X110.281 Y67.639 E33.69260
G1 X110.704 Y67.776 E33.72226
G1 X114.256 Y69.183 E33.97751
G1 X114.658 Y69.372 E34.00718
G1 X118.006 Y71.212 E34.26243
G1 X118.381 Y71.450 E34.29209
G1 X121.472 Y73.696 E34.54735
G1 X121.814 Y73.979 E34.57701
G1 X124.600 Y76.595 E34.83227
G1 X124.904 Y76.918 E34.86193
G1 X126.294 Y78.598 E35.00760
G1 X127.339 Y79.863 E35.11720
G1 X127.600 Y80.222 E35.14685
G1 X129.648 Y83.448 E35.40211
G1 X129.862 Y83.837 E35.43177
G1 X131.488 Y87.294 E35.68703
G1 X131.652 Y87.707 E35.71669
G1 X132.326 Y89.781 E35.86236
G1 X132.833 Y91.341 E35.97195
G1 X132.943 Y91.771 E36.00161
G1 X133.659 Y95.524 E36.25687
G1 X133.715 Y95.965 E36.28653
G1 X133.955 Y99.778 E36.54179
G1 X133.955 Y100.222 E36.57145
G1 X133.715 Y104.035 E36.82671
G1 X133.659 Y104.476 E36.85637
G1 X132.943 Y108.229 E37.11163
G1 X132.833 Y108.659 E37.14129
G1 X131.652 Y112.293 E37.39655
G1 X131.488 Y112.706 E37.42621
G1 X130.560 Y114.679 E37.57188
G1 X129.862 Y116.163 E37.68147
G1 X129.648 Y116.552 E37.71113
G1 X127.600 Y119.778 E37.96639
G1 X127.339 Y120.138 E37.99605
G1 X124.904 Y123.082 E38.25130
G1 X124.600 Y123.405 E38.28097
G1 X121.814 Y126.021 E38.53623
G1 X121.472 Y126.304 E38.56589
G1 X118.381 Y128.550 E38.82115
G1 X118.006 Y128.788 E38.85081
G1 X116.096 Y129.838 E38.99647
G1 X114.658 Y130.628 E39.10607
G1 X114.256 Y130.817 E39.13573
G1 X110.704 Y132.224 E39.39099
G1 X110.281 Y132.361 E39.42065
G1 X106.581 Y133.311 E39.67590
G1 X106.144 Y133.395 E39.70557
G1 X102.354 Y133.874 E39.96082
G1 X101.910 Y133.901 E39.99049
G1 X98.090 Y133.901 E40.24574
G1 X97.646 Y133.874 E40.27540
G1 X93.856 Y133.395 E40.53066
G1 X93.420 Y133.311 E40.56032
G1 X89.719 Y132.361 E40.81559
G1 X89.296 Y132.224 E40.84524
G1 X85.744 Y130.817 E41.10050
G1 X85.342 Y130.628 E41.13017
G1 X81.994 Y128.788 E41.38542
G1 X81.619 Y128.550 E41.41508
G1 X78.528 Y126.304 E41.67034
G1 X78.186 Y126.021 E41.70000
G1 X75.400 Y123.405 E41.95526
G1 X75.096 Y123.082 E41.98492
G1 X73.706 Y121.402 E42.13059
G1 X72.661 Y120.138 E42.24018
G1 X72.400 Y119.778 E42.26984
G1 X70.352 Y116.552 E42.52510
G1 X70.138 Y116.163 E42.55476
G1 X68.512 Y112.706 E42.81002
G1 X68.348 Y112.293 E42.83968
G1 X67.167 Y108.659 E43.09494
G1 X67.057 Y108.229 E43.12460
G1 X66.341 Y104.476 E43.37986
G1 X66.285 Y104.035 E43.40952
G1 X66.045 Y100.222 E43.66478
G1 X66.045 Y99.778 E43.69444
G1 X66.182 Y97.602 E43.84011
G1 X66.285 Y95.965 E43.94970
G1 X66.341 Y95.524 E43.97936
G1 X67.057 Y91.771 E44.23462
G1 X67.167 Y91.341 E44.26427
G1 X68.348 Y87.707 E44.51954
G1 X68.512 Y87.294 E44.54920
G1 X70.138 Y83.837 E44.80446
G1 X70.352 Y83.448 E44.83412
G1 X72.400 Y80.222 E45.08938
G1 X72.661 Y79.862 E45.11904
G1 X75.096 Y76.918 E45.37430
G1 X75.359 Y76.638 E45.39995
G1 X75.938 Y77.168 F30000.000
G1 F2100
G1 X78.920 Y74.383 E45.70527
G1 X82.297 Y71.943 E46.01704
G1 X85.796 Y70.019 E46.31591
G1 X89.666 Y68.475 E46.62769
G1 X93.868 Y67.396 E46.95237
G1 X97.831 Y66.896 E47.25125
G1 X101.997 Y66.885 E47.56302
G1 X106.301 Y67.429 E47.88771
G1 X110.170 Y68.422 E48.18658
G1 X114.047 Y69.945 E48.49835
G1 X117.849 Y72.036 E48.82304
G1 X121.080 Y74.383 E49.12191
G1 X124.125 Y77.227 E49.43369
G1 X126.890 Y80.570 E49.75837
G1 X129.030 Y83.942 E50.05724
G1 X130.814 Y87.707 E50.36902
G1 X132.154 Y91.833 E50.69371
G1 X132.924 Y95.928 E51.00549
G1 X133.175 Y99.914 E51.30436
G1 X132.924 Y104.072 E51.61613
G1 X132.478 Y106.470 E51.79868
G1 X132.112 Y108.334 E51.94082
G1 X130.814 Y112.293 E52.25260
G1 X129.113 Y115.907 E52.55147
G1 X126.890 Y119.430 E52.86325
G1 X124.125 Y122.773 E53.18793
G1 X121.213 Y125.507 E53.48681
G1 X117.849 Y127.964 E53.79858
G1 X114.047 Y130.055 E54.12327
G1 X110.334 Y131.525 E54.42214
G1 X106.301 Y132.571 E54.73391
G1 X101.997 Y133.115 E55.05860
G1 X97.831 Y133.104 E55.37038
G1 X93.699 Y132.571 E55.68216
G1 X89.830 Y131.578 E55.98103
G1 X85.953 Y130.055 E56.29281
G1 X82.151 Y127.964 E56.61749
G1 X78.920 Y125.617 E56.91636
G1 X75.875 Y122.773 E57.22814
G1 X73.110 Y119.430 E57.55283
G1 X70.887 Y115.907 E57.86460
G1 X69.186 Y112.293 E58.16348
G1 X67.889 Y108.334 E58.47525
G1 X67.421 Y105.940 E58.65780
G1 X67.076 Y104.072 E58.79994
G1 X66.825 Y99.914 E59.11172
G1 X67.076 Y95.928 E59.41059
G1 X67.846 Y91.833 E59.72236
G1 X69.186 Y87.707 E60.04705
G1 X70.970 Y83.942 E60.35883
G1 X73.110 Y80.570 E60.65770
G1 X75.757 Y77.353 E60.96948
G1 X75.895 Y77.209 E60.98438
G1 X76.349 Y77.605 F30000.000
G1 F2100
G1 X79.288 Y74.857 E61.28547
G1 X82.602 Y72.460 E61.59161
G1 X86.191 Y70.496 E61.89775
G1 X89.870 Y69.040 E62.19380
G1 X93.962 Y67.989 E62.51003
G1 X97.887 Y67.493 E62.80608
G1 X101.978 Y67.485 E63.11221
G1 X106.170 Y68.014 E63.42844
G1 X110.002 Y68.998 E63.72449
G1 X113.809 Y70.496 E64.03063
G1 X117.512 Y72.532 E64.34686
G1 X120.712 Y74.857 E64.64291
G1 X123.700 Y77.651 E64.94905
G1 X126.394 Y80.907 E65.26528
G1 X128.578 Y84.366 E65.57141
G1 X130.263 Y87.945 E65.86746
G1 X131.569 Y91.964 E66.18369
G1 X132.327 Y95.984 E66.48983
G1 X132.575 Y99.932 E66.78588
G1 X132.327 Y104.016 E67.09202
G1 X131.889 Y106.358 E67.27034
G1 X131.535 Y108.167 E67.40825
G1 X130.263 Y112.055 E67.71439
G1 X128.578 Y115.634 E68.01044
G1 X126.394 Y119.093 E68.31658
G1 X123.700 Y122.349 E68.63280
G1 X120.816 Y125.057 E68.92886
G1 X117.512 Y127.468 E69.23500
G1 X113.809 Y129.504 E69.55122
G1 X110.131 Y130.960 E69.84727
G1 X106.170 Y131.986 E70.15341
G1 X101.978 Y132.515 E70.46964
G1 X98.022 Y132.515 E70.76569
G1 X93.962 Y132.011 E71.07183
G1 X89.998 Y131.002 E71.37797
G1 X86.191 Y129.504 E71.68411
G1 X82.488 Y127.468 E72.00034
G1 X79.288 Y125.143 E72.29639
G1 X76.300 Y122.349 E72.60252
G1 X73.606 Y119.093 E72.91875
G1 X71.422 Y115.634 E73.22489
G1 X69.737 Y112.055 E73.52094
G1 X68.465 Y108.167 E73.82708
G1 X68.010 Y105.828 E74.00540
G1 X67.673 Y104.016 E74.14331
G1 X67.425 Y99.932 E74.44945
G1 X67.673 Y95.984 E74.74550
G1 X68.431 Y91.964 E75.05164
G1 X69.737 Y87.945 E75.36787
G1 X71.487 Y84.248 E75.67401
G1 X73.606 Y80.907 E75.97006
G1 X76.305 Y77.646 E76.28684
G1 X76.760 Y78.043 F30000.000
G1 F2100
G1 X79.656 Y75.332 E76.58370
G1 X82.908 Y72.976 E76.88420
G1 X86.430 Y71.047 E77.18470
G1 X90.073 Y69.605 E77.47793
G1 X94.056 Y68.582 E77.78570
G1 X97.944 Y68.091 E78.07893
G1 X101.959 Y68.085 E78.37943
G1 X106.039 Y68.600 E78.68720
G1 X109.835 Y69.575 E78.98043
G1 X113.570 Y71.047 E79.28093
G1 X117.174 Y73.028 E79.58870
G1 X120.344 Y75.332 E79.88193
G1 X123.276 Y78.076 E80.18243
G1 X125.897 Y81.245 E80.49020
G1 X127.997 Y84.553 E80.78343
G1 X129.712 Y88.184 E81.08393
G1 X130.983 Y92.095 E81.39170
G1 X131.717 Y95.944 E81.68493
G1 X131.975 Y99.951 E81.98543
G1 X131.717 Y104.056 E82.29320
G1 X130.983 Y107.905 E82.58643
G1 X129.748 Y111.726 E82.88693
G1 X127.997 Y115.447 E83.19470
G1 X125.840 Y118.834 E83.49520
G1 X123.276 Y121.924 E83.79570
G1 X120.419 Y124.606 E84.08893
G1 X117.174 Y126.971 E84.38943
G1 X113.570 Y128.953 E84.69720
G1 X109.927 Y130.395 E84.99043
G1 X106.039 Y131.400 E85.29093
G1 X101.959 Y131.915 E85.59870
G1 X98.041 Y131.915 E85.89193
G1 X94.056 Y131.418 E86.19243
G1 X90.165 Y130.425 E86.49293
G1 X86.430 Y128.953 E86.79343
G1 X82.826 Y126.971 E87.10120
G1 X79.656 Y124.668 E87.39443
G1 X76.724 Y121.924 E87.69493
G1 X74.103 Y118.755 E88.00271
G1 X71.956 Y115.362 E88.30321
G1 X70.288 Y111.816 E88.59643
G1 X69.017 Y107.905 E88.90420
G1 X68.283 Y104.056 E89.19743
G1 X68.025 Y100.049 E89.49793
G1 X68.283 Y95.944 E89.80571
G1 X69.041 Y92.001 E90.10620
G1 X70.252 Y88.274 E90.39943
G1 X72.003 Y84.553 E90.70720
G1 X74.160 Y81.166 E91.00770
G1 X76.717 Y78.084 E91.30736
G1 X77.171 Y78.480 F30000.000
G1 F2100
G1 X80.024 Y75.806 E91.59999
G1 X83.213 Y73.493 E91.89485
G1 X86.614 Y71.624 E92.18525
G1 X90.276 Y70.170 E92.48012
G1 X94.150 Y69.175 E92.77944
G1 X98.000 Y68.689 E93.06984
G1 X101.940 Y68.685 E93.36470
G1 X105.908 Y69.186 E93.66402
G1 X109.667 Y70.151 E93.95443
G1 X113.332 Y71.598 E94.24928
G1 X116.837 Y73.525 E94.54860
G1 X119.976 Y75.806 E94.83901
G1 X122.851 Y78.500 E95.13387
G1 X125.401 Y81.582 E95.43319
G1 X127.480 Y84.859 E95.72359
G1 X129.161 Y88.422 E96.01845
G1 X130.397 Y92.226 E96.31777
G1 X131.124 Y96.038 E96.60817
G1 X131.375 Y99.970 E96.90304
G1 X131.124 Y103.962 E97.20235
G1 X130.397 Y107.774 E97.49276
G1 X129.183 Y111.522 E97.78762
G1 X127.480 Y115.141 E98.08694
G1 X125.366 Y118.466 E98.38180
G1 X122.851 Y121.500 E98.67666
