; generated by Slic3r 1.3.0 on 2020-04-24 at 20:21:43

; external perimeters extrusion width = 0.44mm (2.78mm^3/s)
; perimeters extrusion width = 0.40mm (7.14mm^3/s)
; infill extrusion width = 0.50mm (10.97mm^3/s)
; solid infill extrusion width = 0.60mm (6.68mm^3/s)
; top infill extrusion width = 0.40mm (2.14mm^3/s)

M107
M190 S80 ; set bed temperature and wait for it to be reached
M104 S200 ; set temperature
G28 ; home all axes
G1 Z5 F5000 ; lift nozzle

; Filament gcode

M109 S200 ; set temperature and wait for it to be reached
G21 ; set units to millimeters
G90 ; use absolute coordinates
M82 ; use absolute distances for extrusion
G92 E0
G1 Z0.300 F30000.000
G1 E-2.00000 F2400.00000
G92 E0
G1 X74.825 Y75.962 F30000.000
G1 E2.00000 F2400.00000
G1 F2100
G1 X77.590 Y73.365 E2.25345
G1 X78.036 Y72.996 E2.29210
G1 X81.105 Y70.766 E2.54554
G1 X81.594 Y70.456 E2.58419
G1 X84.918 Y68.629 E2.83763
G1 X85.441 Y68.383 E2.87626
G1 X88.969 Y66.986 E3.12971
G1 X89.519 Y66.807 E3.16837
G1 X93.194 Y65.864 E3.42181
G1 X93.762 Y65.755 E3.46045
G1 X97.526 Y65.280 E3.71389
G1 X98.103 Y65.243 E3.75254
G1 X101.897 Y65.243 E4.00598
G1 X102.474 Y65.280 E4.04464
G1 X106.238 Y65.755 E4.29808
G1 X106.806 Y65.864 E4.33671
G1 X110.481 Y66.807 E4.59015
G1 X111.031 Y66.986 E4.62882
G1 X114.559 Y68.383 E4.88227
G1 X115.082 Y68.629 E4.92090
G1 X117.836 Y70.143 E5.13088
G1 X118.406 Y70.456 E5.17434
G1 X118.895 Y70.766 E5.21299
G1 X121.964 Y72.996 E5.46643
G1 X122.410 Y73.365 E5.50508
G1 X125.175 Y75.962 E5.75852
G1 X125.571 Y76.384 E5.79717
G1 X127.575 Y78.806 E6.00716
G1 X127.990 Y79.307 E6.05062
G1 X128.330 Y79.775 E6.08926
G1 X130.362 Y82.978 E6.34271
G1 X130.641 Y83.485 E6.38136
G1 X132.256 Y86.918 E6.63480
G1 X132.469 Y87.456 E6.67344
G1 X133.441 Y90.445 E6.88343
G1 X133.642 Y91.064 E6.92688
G1 X133.785 Y91.624 E6.96553
G1 X134.496 Y95.351 E7.21898
G1 X134.569 Y95.925 E7.25763
G1 X134.807 Y99.711 E7.51107
G1 X134.807 Y100.289 E7.54971
G1 X134.569 Y104.075 E7.80315
G1 X134.496 Y104.650 E7.84181
G1 X133.785 Y108.376 E8.09525
G1 X133.642 Y108.936 E8.13389
G1 X132.469 Y112.544 E8.38733
G1 X132.256 Y113.082 E8.42597
G1 X130.641 Y116.515 E8.67943
G1 X130.362 Y117.022 E8.71807
G1 X128.330 Y120.225 E8.97151
G1 X127.989 Y120.693 E9.01017
G1 X125.571 Y123.616 E9.26361
G1 X125.175 Y124.038 E9.30225
G1 X122.410 Y126.635 E9.55570
G1 X121.964 Y127.004 E9.59435
G1 X118.895 Y129.234 E9.84779
G1 X118.406 Y129.544 E9.88644
G1 X115.082 Y131.371 E10.13988
G1 X114.559 Y131.617 E10.17851
G1 X111.031 Y133.014 E10.43196
G1 X110.481 Y133.193 E10.47063
G1 X106.806 Y134.136 E10.72406
G1 X106.238 Y134.245 E10.76270
G1 X103.120 Y134.639 E10.97268
G1 X102.474 Y134.720 E11.01615
G1 X101.897 Y134.757 E11.05479
G1 X98.103 Y134.757 E11.30824
G1 X97.526 Y134.720 E11.34689
G1 X93.762 Y134.245 E11.60033
G1 X93.194 Y134.136 E11.63897
G1 X89.519 Y133.193 E11.89240
G1 X88.969 Y133.014 E11.93107
G1 X85.441 Y131.617 E12.18452
G1 X84.918 Y131.371 E12.22315
G1 X81.594 Y129.544 E12.47659
G1 X81.105 Y129.234 E12.51524
G1 X78.036 Y127.004 E12.76869
G1 X77.590 Y126.635 E12.80734
G1 X74.825 Y124.038 E13.06078
G1 X74.429 Y123.616 E13.09943
G1 X72.010 Y120.693 E13.35287
G1 X71.670 Y120.225 E13.39151
G1 X69.638 Y117.022 E13.64496
G1 X69.359 Y116.515 E13.68360
G1 X67.744 Y113.082 E13.93705
G1 X67.531 Y112.544 E13.97570
G1 X66.358 Y108.936 E14.22914
G1 X66.214 Y108.376 E14.26778
G1 X65.504 Y104.649 E14.52123
G1 X65.431 Y104.075 E14.55988
G1 X65.193 Y100.289 E14.81332
G1 X65.193 Y99.711 E14.85196
G1 X65.390 Y96.574 E15.06195
G1 X65.431 Y95.924 E15.10542
G1 X65.504 Y95.350 E15.14406
G1 X66.214 Y91.624 E15.39750
G1 X66.358 Y91.064 E15.43615
G1 X67.531 Y87.456 E15.68959
G1 X67.744 Y86.918 E15.72824
G1 X69.359 Y83.485 E15.98168
G1 X69.638 Y82.978 E16.02033
G1 X71.670 Y79.775 E16.27377
G1 X72.010 Y79.307 E16.31241
G1 X74.429 Y76.384 E16.56586
G1 X74.784 Y76.006 E16.60050
G1 X75.191 Y76.352 F30000.000
G1 F2100
G1 X77.957 Y73.755 E16.85394
G1 X78.351 Y73.430 E16.88810
G1 X81.420 Y71.200 E17.14154
G1 X81.852 Y70.926 E17.17570
G1 X85.176 Y69.098 E17.42914
G1 X85.639 Y68.881 E17.46328
G1 X89.166 Y67.484 E17.71673
G1 X89.652 Y67.326 E17.75090
G1 X93.327 Y66.382 E18.00433
G1 X93.829 Y66.287 E18.03848
G1 X97.593 Y65.811 E18.29192
G1 X98.103 Y65.779 E18.32608
G1 X101.897 Y65.779 E18.57952
G1 X102.407 Y65.811 E18.61368
G1 X106.171 Y66.287 E18.86712
G1 X106.673 Y66.382 E18.90126
G1 X110.348 Y67.326 E19.15470
G1 X110.834 Y67.484 E19.18888
G1 X114.361 Y68.881 E19.44232
G1 X114.824 Y69.098 E19.47646
G1 X118.148 Y70.926 E19.72990
G1 X118.580 Y71.200 E19.76406
G1 X121.649 Y73.430 E20.01750
G1 X122.043 Y73.755 E20.05166
G1 X124.809 Y76.352 E20.30510
G1 X125.158 Y76.725 E20.33925
G1 X127.162 Y79.147 E20.54924
G1 X127.577 Y79.648 E20.59270
G1 X127.877 Y80.062 E20.62685
G1 X129.910 Y83.265 E20.88030
G1 X130.156 Y83.713 E20.91446
G1 X131.772 Y87.146 E21.16789
G1 X131.960 Y87.621 E21.20204
G1 X132.931 Y90.611 E21.41203
G1 X133.132 Y91.229 E21.45548
G1 X133.259 Y91.724 E21.48963
G1 X133.970 Y95.451 E21.74309
G1 X134.034 Y95.958 E21.77724
G1 X134.272 Y99.744 E22.03068
G1 X134.272 Y100.256 E22.06483
G1 X134.034 Y104.042 E22.31827
G1 X133.970 Y104.549 E22.35243
G1 X133.259 Y108.276 E22.60587
G1 X133.132 Y108.771 E22.64003
G1 X131.960 Y112.379 E22.89347
G1 X131.772 Y112.854 E22.92761
G1 X130.156 Y116.287 E23.18107
G1 X129.910 Y116.735 E23.21522
G1 X127.877 Y119.938 E23.46866
G1 X127.577 Y120.352 E23.50282
G1 X125.158 Y123.275 E23.75626
G1 X124.809 Y123.647 E23.79041
G1 X122.043 Y126.245 E24.04386
G1 X121.649 Y126.570 E24.07801
G1 X118.580 Y128.800 E24.33145
G1 X118.148 Y129.074 E24.36561
G1 X114.824 Y130.902 E24.61905
G1 X114.361 Y131.119 E24.65319
G1 X110.834 Y132.516 E24.90664
G1 X110.347 Y132.674 E24.94081
G1 X106.673 Y133.618 E25.19425
G1 X106.171 Y133.713 E25.22839
G1 X103.052 Y134.107 E25.43837
G1 X102.407 Y134.189 E25.48184
G1 X101.897 Y134.221 E25.51599
G1 X98.103 Y134.221 E25.76943
G1 X97.593 Y134.189 E25.80359
G1 X93.829 Y133.713 E26.05703
G1 X93.327 Y133.618 E26.09118
G1 X89.652 Y132.674 E26.34462
G1 X89.166 Y132.516 E26.37879
G1 X85.639 Y131.119 E26.63223
G1 X85.176 Y130.902 E26.66637
G1 X81.852 Y129.074 E26.91981
G1 X81.420 Y128.800 E26.95397
G1 X78.351 Y126.570 E27.20742
G1 X77.957 Y126.245 E27.24157
G1 X75.191 Y123.647 E27.49501
G1 X74.841 Y123.275 E27.52917
G1 X72.423 Y120.352 E27.78261
G1 X72.123 Y119.938 E27.81676
G1 X70.090 Y116.735 E28.07020
G1 X69.844 Y116.287 E28.10436
G1 X68.228 Y112.854 E28.35780
G1 X68.040 Y112.379 E28.39196
G1 X66.868 Y108.771 E28.64540
G1 X66.741 Y108.276 E28.67955
G1 X66.030 Y104.549 E28.93300
G1 X65.966 Y104.042 E28.96715
G1 X65.727 Y100.256 E29.22059
G1 X65.727 Y99.744 E29.25474
G1 X65.925 Y96.607 E29.46474
G1 X65.966 Y95.958 E29.50820
G1 X66.030 Y95.451 E29.54235
G1 X66.741 Y91.724 E29.79579
G1 X66.868 Y91.229 E29.82994
G1 X68.040 Y87.621 E30.08338
G1 X68.228 Y87.146 E30.11754
G1 X69.844 Y83.713 E30.37098
G1 X70.090 Y83.265 E30.40513
G1 X72.123 Y80.062 E30.65858
G1 X72.423 Y79.648 E30.69272
G1 X74.841 Y76.725 E30.94618
G1 X75.150 Y76.396 E30.97632
G1 X75.558 Y76.743 F30000.000
G1 F2100
G1 X78.324 Y74.146 E31.22976
G1 X78.666 Y73.863 E31.25942
G1 X81.735 Y71.633 E31.51287
G1 X82.110 Y71.395 E31.54253
G1 X85.434 Y69.568 E31.79597
G1 X85.836 Y69.379 E31.82562
G1 X89.363 Y67.982 E32.07906
G1 X89.786 Y67.845 E32.10874
G1 X93.460 Y66.901 E32.36218
G1 X93.896 Y66.818 E32.39183
G1 X97.660 Y66.343 E32.64527
G1 X98.103 Y66.315 E32.67494
G1 X101.897 Y66.315 E32.92838
G1 X102.340 Y66.343 E32.95804
G1 X106.104 Y66.818 E33.21148
G1 X106.540 Y66.901 E33.24113
G1 X110.214 Y67.845 E33.49458
G1 X110.637 Y67.982 E33.52425
G1 X114.164 Y69.379 E33.77770
G1 X114.566 Y69.568 E33.80735
G1 X117.320 Y71.082 E34.01733
G1 X117.890 Y71.395 E34.06079
G1 X118.265 Y71.633 E34.09045
G1 X121.334 Y73.863 E34.34389
G1 X121.676 Y74.146 E34.37355
G1 X124.442 Y76.743 E34.62699
G1 X124.746 Y77.067 E34.65665
G1 X126.749 Y79.488 E34.86664
G1 X127.164 Y79.990 E34.91010
G1 X127.425 Y80.349 E34.93976
G1 X129.458 Y83.552 E35.19320
G1 X129.672 Y83.941 E35.22287
G1 X131.287 Y87.374 E35.47631
G1 X131.450 Y87.787 E35.50597
G1 X132.422 Y90.776 E35.71595
G1 X132.623 Y91.395 E35.75941
G1 X132.733 Y91.825 E35.78906
G1 X133.444 Y95.551 E36.04251
G1 X133.500 Y95.992 E36.07217
G1 X133.738 Y99.778 E36.32562
G1 X133.738 Y100.222 E36.35527
G1 X133.500 Y104.008 E36.60871
G1 X133.444 Y104.449 E36.63838
G1 X132.733 Y108.175 E36.89182
G1 X132.623 Y108.605 E36.92148
G1 X131.450 Y112.213 E37.17492
G1 X131.287 Y112.626 E37.20458
G1 X129.672 Y116.059 E37.45803
G1 X129.458 Y116.448 E37.48768
G1 X127.425 Y119.651 E37.74113
G1 X127.164 Y120.010 E37.77079
G1 X124.746 Y122.933 E38.02423
G1 X124.442 Y123.257 E38.05389
G1 X121.676 Y125.854 E38.30734
G1 X121.334 Y126.137 E38.33700
G1 X118.265 Y128.367 E38.59044
G1 X117.890 Y128.605 E38.62010
G1 X114.566 Y130.432 E38.87354
G1 X114.164 Y130.621 E38.90319
G1 X110.637 Y132.018 E39.15664
G1 X110.214 Y132.155 E39.18631
G1 X106.540 Y133.099 E39.43975
G1 X106.104 Y133.182 E39.46940
G1 X102.985 Y133.576 E39.67939
G1 X102.340 Y133.657 E39.72285
G1 X101.897 Y133.685 E39.75251
G1 X98.103 Y133.685 E40.00595
G1 X97.660 Y133.657 E40.03562
G1 X93.896 Y133.182 E40.28906
G1 X93.460 Y133.099 E40.31871
G1 X89.786 Y132.155 E40.57215
G1 X89.363 Y132.018 E40.60182
G1 X85.836 Y130.621 E40.85527
G1 X85.434 Y130.432 E40.88492
G1 X82.110 Y128.605 E41.13836
G1 X81.735 Y128.367 E41.16802
G1 X78.666 Y126.137 E41.42147
G1 X78.323 Y125.854 E41.45113
G1 X75.558 Y123.257 E41.70457
G1 X75.254 Y122.933 E41.73423
G1 X72.836 Y120.010 E41.98767
G1 X72.575 Y119.651 E42.01733
G1 X70.542 Y116.448 E42.27077
G1 X70.328 Y116.059 E42.30043
G1 X68.713 Y112.626 E42.55388
G1 X68.549 Y112.213 E42.58354
G1 X67.578 Y109.224 E42.79352
G1 X67.377 Y108.605 E42.83698
G1 X67.267 Y108.175 E42.86664
G1 X66.556 Y104.449 E43.12009
G1 X66.500 Y104.008 E43.14975
G1 X66.262 Y100.222 E43.40319
G1 X66.262 Y99.778 E43.43285
G1 X66.459 Y96.641 E43.64283
G1 X66.500 Y95.992 E43.68630
G1 X66.556 Y95.551 E43.71595
G1 X67.267 Y91.825 E43.96940
G1 X67.377 Y91.395 E43.99905
G1 X68.549 Y87.787 E44.25250
G1 X68.713 Y87.374 E44.28216
G1 X70.328 Y83.941 E44.53560
G1 X70.542 Y83.552 E44.56526
G1 X72.575 Y80.349 E44.81870
G1 X72.836 Y79.990 E44.84836
G1 X75.254 Y77.067 E45.10181
G1 X75.517 Y76.787 E45.12746
G1 X76.096 Y77.316 F30000.000
G1 F2100
G1 X79.058 Y74.550 E45.43074
G1 X82.413 Y72.126 E45.74048
G1 X86.045 Y70.141 E46.05022
G1 X89.733 Y68.681 E46.34706
G1 X93.909 Y67.609 E46.66971
G1 X97.844 Y67.112 E46.96654
G1 X101.983 Y67.101 E47.27629
G1 X106.261 Y67.641 E47.59893
G1 X110.103 Y68.628 E47.89577
G1 X113.955 Y70.141 E48.20552
G1 X117.733 Y72.218 E48.52816
G1 X120.942 Y74.550 E48.82500
G1 X123.967 Y77.375 E49.13474
G1 X126.715 Y80.697 E49.45740
G1 X128.840 Y84.046 E49.75423
G1 X130.612 Y87.787 E50.06397
G1 X131.945 Y91.887 E50.38662
G1 X132.688 Y95.783 E50.68346
G1 X132.959 Y99.914 E50.99320
G1 X132.688 Y104.217 E51.31585
G1 X131.902 Y108.280 E51.62559
G1 X130.612 Y112.213 E51.93533
G1 X128.924 Y115.802 E52.23217
G1 X126.715 Y119.303 E52.54191
G1 X123.967 Y122.625 E52.86456
G1 X121.075 Y125.340 E53.16140
G1 X117.733 Y127.782 E53.47114
G1 X113.955 Y129.859 E53.79379
G1 X110.267 Y131.319 E54.09063
G1 X106.261 Y132.359 E54.40038
G1 X101.983 Y132.899 E54.72302
G1 X98.017 Y132.899 E55.01986
G1 X93.909 Y132.391 E55.32960
G1 X89.733 Y131.319 E55.65225
G1 X85.889 Y129.785 E55.96199
G1 X82.267 Y127.782 E56.27173
G1 X79.058 Y125.450 E56.56858
G1 X76.033 Y122.625 E56.87832
G1 X73.285 Y119.303 E57.20096
G1 X71.160 Y115.954 E57.49780
G1 X69.387 Y112.213 E57.80755
G1 X68.098 Y108.280 E58.11729
G1 X67.450 Y104.940 E58.37189
G1 X67.290 Y104.045 E58.43995
G1 X67.041 Y99.914 E58.74969
G1 X67.290 Y95.955 E59.04653
G1 X68.055 Y91.887 E59.35627
G1 X69.388 Y87.787 E59.67892
G1 X71.160 Y84.046 E59.98866
G1 X73.285 Y80.697 E60.28550
G1 X75.915 Y77.501 E60.59524
G1 X76.052 Y77.357 E60.61014
G1 X76.507 Y77.753 F30000.000
G1 F2100
G1 X79.426 Y75.024 E60.90920
G1 X82.718 Y72.642 E61.21330
G1 X86.283 Y70.692 E61.51740
G1 X89.936 Y69.246 E61.81142
G1 X94.003 Y68.202 E62.12561
G1 X97.901 Y67.709 E62.41962
G1 X101.964 Y67.701 E62.72373
G1 X106.130 Y68.227 E63.03792
G1 X109.935 Y69.204 E63.33193
G1 X113.717 Y70.692 E63.63604
G1 X117.396 Y72.715 E63.95023
G1 X120.574 Y75.024 E64.24425
G1 X123.542 Y77.800 E64.54835
G1 X126.218 Y81.035 E64.86255
G1 X128.324 Y84.352 E65.15656
G1 X130.061 Y88.025 E65.46066
G1 X131.359 Y92.018 E65.77485
G1 X132.095 Y95.877 E66.06887
G1 X132.359 Y99.932 E66.37298
G1 X132.095 Y104.123 E66.68717
G1 X131.325 Y108.113 E66.99127
G1 X130.061 Y111.975 E67.29537
G1 X128.389 Y115.530 E67.58939
G1 X126.218 Y118.965 E67.89349
G1 X123.542 Y122.200 E68.20769
G1 X120.678 Y124.890 E68.50171
G1 X117.396 Y127.285 E68.80581
G1 X113.717 Y129.308 E69.11999
G1 X110.064 Y130.754 E69.41401
G1 X106.130 Y131.773 E69.71812
G1 X101.964 Y132.299 E70.03231
G1 X98.036 Y132.299 E70.32633
G1 X94.003 Y131.798 E70.63043
G1 X89.936 Y130.754 E70.94463
G1 X86.161 Y129.250 E71.24873
G1 X82.604 Y127.285 E71.55283
G1 X79.426 Y124.976 E71.84685
G1 X76.458 Y122.200 E72.15095
G1 X73.782 Y118.965 E72.46514
G1 X71.676 Y115.648 E72.75916
G1 X69.938 Y111.975 E73.06327
G1 X68.675 Y108.113 E73.36737
G1 X68.039 Y104.828 E73.61774
G1 X67.888 Y103.989 E73.68157
G1 X67.641 Y99.932 E73.98567
G1 X67.888 Y96.011 E74.27969
G1 X68.641 Y92.018 E74.58379
G1 X69.938 Y88.025 E74.89798
G1 X71.676 Y84.352 E75.20209
G1 X73.782 Y81.035 E75.49610
G1 X76.463 Y77.795 E75.81085
G1 X76.918 Y78.191 F30000.000
G1 F2100
G1 X79.794 Y75.498 E76.10568
G1 X83.024 Y73.159 E76.40414
G1 X86.522 Y71.243 E76.70260
G1 X90.140 Y69.811 E76.99380
G1 X94.097 Y68.795 E77.29954
G1 X97.957 Y68.307 E77.59073
G1 X101.946 Y68.301 E77.88920
G1 X105.999 Y68.813 E78.19493
G1 X109.768 Y69.781 E78.48612
G1 X113.478 Y71.243 E78.78459
G1 X117.058 Y73.211 E79.09033
G1 X120.206 Y75.498 E79.38152
G1 X123.118 Y78.224 E79.67998
G1 X125.722 Y81.372 E79.98573
G1 X127.807 Y84.657 E80.27692
G1 X129.510 Y88.264 E80.57538
G1 X130.773 Y92.149 E80.88112
G1 X131.502 Y95.971 E81.17231
G1 X131.759 Y99.951 E81.47078
G1 X131.502 Y104.029 E81.77651
G1 X130.749 Y107.945 E82.07498
G1 X129.510 Y111.736 E82.37344
G1 X127.854 Y115.257 E82.66464
G1 X125.722 Y118.628 E82.96310
G1 X123.118 Y121.776 E83.26884
G1 X120.281 Y124.440 E83.56003
G1 X117.058 Y126.789 E83.85850
G1 X113.478 Y128.757 E84.16423
G1 X109.860 Y130.189 E84.45543
G1 X105.999 Y131.187 E84.75389
G1 X101.945 Y131.699 E85.05963
G1 X98.054 Y131.699 E85.35082
G1 X94.097 Y131.205 E85.64929
G1 X90.140 Y130.189 E85.95503
G1 X86.434 Y128.715 E86.25349
G1 X82.942 Y126.789 E86.55195
G1 X79.794 Y124.502 E86.84315
G1 X76.882 Y121.776 E87.14161
G1 X74.278 Y118.628 E87.44735
G1 X72.193 Y115.343 E87.73854
G1 X70.489 Y111.736 E88.03701
G1 X69.227 Y107.851 E88.34275
G1 X68.498 Y104.029 E88.63394
G1 X68.241 Y100.049 E88.93240
G1 X68.498 Y95.971 E89.23814
G1 X69.251 Y92.055 E89.53661
G1 X70.454 Y88.354 E89.82780
G1 X72.193 Y84.657 E90.13354
G1 X74.335 Y81.293 E90.43200
G1 X76.874 Y78.232 E90.72962
G1 X77.328 Y78.628 F30000.000
G1 F2100
G1 X80.162 Y75.973 E91.02022
G1 X83.329 Y73.676 E91.31305
G1 X86.706 Y71.820 E91.60141
G1 X90.343 Y70.375 E91.89424
G1 X94.191 Y69.388 E92.19152
G1 X98.014 Y68.905 E92.47989
G1 X101.927 Y68.901 E92.77272
G1 X105.868 Y69.399 E93.07000
G1 X109.600 Y70.357 E93.35837
G1 X113.240 Y71.794 E93.65120
G1 X116.721 Y73.708 E93.94848
G1 X119.838 Y75.973 E94.23685
G1 X122.693 Y78.649 E94.52967
G1 X125.225 Y81.710 E94.82696
G1 X127.290 Y84.963 E95.11533
G1 X128.960 Y88.502 E95.40815
G1 X130.187 Y92.280 E95.70544
G1 X130.909 Y96.065 E95.99381
G1 X131.159 Y99.970 E96.28664
G1 X130.909 Y103.935 E96.58392
G1 X130.172 Y107.778 E96.87674
G1 X128.960 Y111.498 E97.16957
G1 X127.319 Y114.985 E97.45794
G1 X125.225 Y118.290 E97.75076
G1 X122.693 Y121.351 E98.04805
G1 X119.884 Y123.989 E98.33642
G1 X116.721 Y126.292 E98.62924
G1 X113.240 Y128.206 E98.92652
G1 X109.657 Y129.625 E99.21490
G1 X105.868 Y130.601 E99.50772
G1 X101.927 Y131.099 E99.80501
G1 X98.073 Y131.099 E100.09338
G1 X94.191 Y130.612 E100.38620
